; generated by PrusaSlicer 2.7.0+win64 on 2023-12-11 at 12:09:54 UTC

; 

; external perimeters extrusion width = 0.42mm
; perimeters extrusion width = 0.44mm
; infill extrusion width = 0.44mm
; solid infill extrusion width = 0.44mm
; top infill extrusion width = 0.40mm
; first layer extrusion width = 0.42mm


; printing object Square_16mm.stl id:0 copy 0
; stop printing object Square_16mm.stl id:0 copy 0

;TYPE:Custom
; Ender 3 Custom Start G-code
G92 E0 ; Reset Extruder

M140 S55 ; set bed temp
M104 S160 ; set extruder temp
M109 S160 ; wait for extruder temp
M190 S55 ; wait for bed temp

G28 ; Home all axes
M104 S210 ; set extruder temp 
BED_MESH_CALIBRATE AREA_START=99.6201,99.6201 AREA_END=131.38,131.38

G1 Z2.0 F3000 ; Move Z Axis up little to prevent scratching of Heat Bed
M109 S210 ; wait for extruder temp
G1 X0.1 Y20 Z0.3 F5000.0 ; Move to start position

G1 X0.1 Y200.0 Z0.3 F1500.0 E15 ; Draw the first line
G1 X0.4 Y200.0 Z0.3 F5000.0 ; Move to side a little
G1 X0.4 Y20 Z0.3 F1500.0 E30 ; Draw the second line
G92 E0 ; Reset Extruder
G1 Z2.0 F3000 ; Move Z Axis up little to prevent scratching of Heat Bed
G1 X5 Y20 Z0.3 F5000.0 ; Move over to prevent blob squish
G21 ; set units to millimeters
G90 ; use absolute coordinates
M83 ; use relative distances for extrusion
; Filament gcode
M107
;LAYER_CHANGE
;Z:0.12
;HEIGHT:0.12
;BEFORE_LAYER_CHANGE
G92 E0
;0.12


G1 E-1.6 F2400
G1 Z.12 F6000
;AFTER_LAYER_CHANGE
;0.12
G1 X102.249 Y102.249
G1 Z.12
G1 E1.6 F2400
M204 S500
;TYPE:Skirt/Brim
;WIDTH:0.42
G1 F1200
G1 X103.749 Y100.749 E.03922
G1 X105.112 Y99.944 E.02927
G1 X106 Y99.817 E.01659
G1 X125 Y99.817 E.35129
G1 X126.533 Y100.211 E.02926
G1 X127.251 Y100.749 E.01659
G1 X130.251 Y103.749 E.07844
G1 X131.056 Y105.112 E.02927
G1 X131.183 Y106 E.01659
G1 X131.183 Y125 E.35129
G1 X130.789 Y126.533 E.02926
G1 X130.251 Y127.251 E.01659
G1 X127.251 Y130.251 E.07844
G1 X125.888 Y131.056 E.02927
G1 X125 Y131.183 E.01659
G1 X106 Y131.183 E.35129
G1 X104.467 Y130.789 E.02926
G1 X103.749 Y130.251 E.01659
G1 X100.749 Y127.251 E.07844
G1 X99.944 Y125.888 E.02927
G1 X99.817 Y125 E.01659
G1 X99.817 Y106 E.35129
G1 X100.211 Y104.467 E.02926
G1 X100.749 Y103.749 E.01659
G1 X102.207 Y102.292 E.03811
G1 X102.486 Y102.571 F6000
G1 F1200
G1 X104.028 Y101.028 E.04033
G1 X106 Y100.212 E.03946
G1 X125 Y100.212 E.35129
G1 X126.972 Y101.028 E.03946
G1 X129.972 Y104.028 E.07844
G1 X130.788 Y106 E.03946
G1 X130.788 Y125 E.35129
G1 X129.972 Y126.972 E.03946
G1 X126.972 Y129.972 E.07844
G1 X125 Y130.788 E.03946
G1 X106 Y130.788 E.35129
G1 X104.028 Y129.972 E.03946
G1 X101.028 Y126.972 E.07844
G1 X100.212 Y125 E.03946
G1 X100.212 Y106 E.35129
G1 X101.028 Y104.028 E.03946
G1 X102.443 Y102.613 E.037
G1 X102.722 Y102.892 F6000
G1 F1200
G1 X104.307 Y101.307 E.04144
G1 X106 Y100.606 E.03388
G1 X125 Y100.606 E.35129
G1 X126.693 Y101.307 E.03388
G1 X129.693 Y104.307 E.07844
G1 X130.394 Y106 E.03388
G1 X130.394 Y125 E.35129
G1 X129.693 Y126.693 E.03388
G1 X126.693 Y129.693 E.07844
G1 X125 Y130.394 E.03388
G1 X106 Y130.394 E.35129
G1 X104.307 Y129.693 E.03388
G1 X101.307 Y126.693 E.07844
G1 X100.606 Y125 E.03388
G1 X100.606 Y106 E.35129
G1 X101.307 Y104.307 E.03388
G1 X102.68 Y102.934 E.0359
; printing object Square_16mm.stl id:0 copy 0
G1 E-1.12 F2400
;WIPE_START
G1 F4800
G1 X102.722 Y102.892 E-.02821
G1 X103.395 Y102.219 E-.45179
;WIPE_END
G1 X118.37 Y108.167 F6000
G1 E1.6 F2400
;TYPE:Perimeter
G1 F1200
G1 X118.371 Y108.15 E.00031
G1 X118.409 Y107.833 E.0059
G1 X118.513 Y107.367 E.00883
G1 X118.612 Y107.064 E.00589
G1 X118.803 Y106.626 E.00883
G1 X118.958 Y106.347 E.0059
G1 X119.229 Y105.954 E.00883
G1 X119.435 Y105.711 E.00589
G1 X119.775 Y105.376 E.00882
G1 X120.024 Y105.177 E.00589
G1 X120.427 Y104.91 E.00894
G1 X120.86 Y104.694 E.00895
G1 X121.158 Y104.578 E.00591
G1 X121.654 Y104.443 E.0095
G1 X121.933 Y104.394 E.00524
G1 X122.407 Y104.356 E.00879
G1 X122.726 Y104.362 E.0059
G1 X123.2 Y104.415 E.00882
G1 X123.512 Y104.481 E.0059
G1 X123.968 Y104.624 E.00884
G1 X124.261 Y104.749 E.00589
G1 X124.686 Y104.978 E.00893
G1 X125.081 Y105.258 E.00895
G1 X125.323 Y105.465 E.00589
G1 X125.653 Y105.81 E.00883
G1 X125.851 Y106.061 E.00591
G1 X126.109 Y106.462 E.00882
G1 X126.255 Y106.746 E.0059
G1 X126.431 Y107.187 E.00878
G1 X126.512 Y107.459 E.00525
G1 X126.61 Y107.963 E.00949
G1 X126.638 Y108.282 E.00592
G1 X126.637 Y108.765 E.00893
G1 X126.577 Y109.245 E.00894
G1 X126.508 Y109.557 E.00591
G1 X126.36 Y110.01 E.00881
G1 X126.232 Y110.303 E.00591
G1 X126 Y110.72 E.00882
G1 X125.819 Y110.982 E.00589
G1 X125.512 Y111.348 E.00883
G1 X125.283 Y111.571 E.00591
G1 X124.912 Y111.871 E.00882
G1 X124.645 Y112.045 E.00589
G1 X124.219 Y112.272 E.00892
G1 X123.768 Y112.446 E.00894
G1 X123.46 Y112.532 E.00591
G1 X122.99 Y112.615 E.00882
G1 X122.672 Y112.641 E.0059
G1 X122.197 Y112.634 E.00878
G1 X121.923 Y112.604 E.0051
G1 X121.617 Y112.549 E.00575
G1 X121.157 Y112.421 E.00883
G1 X120.788 Y112.27 E.00737
G1 X120.988 Y112.605 E.00721
G1 X121.256 Y113.182 E.01176
G1 X121.46 Y113.782 E.01172
G1 X121.529 Y114.081 E.00567
G1 X121.784 Y113.759 E.00759
G1 X122.133 Y113.471 E.00837
G1 X122.522 Y113.258 E.0082
G1 X122.937 Y113.12 E.00809
G1 X123.299 Y113.064 E.00677
G1 X123.542 Y113.055 E.0045
G1 X123.968 Y113.099 E.00792
G1 X124.392 Y113.222 E.00816
G1 X124.786 Y113.419 E.00814
G1 X125.128 Y113.676 E.00791
G1 X125.303 Y113.848 E.00454
G1 X125.548 Y114.162 E.00736
G1 X125.755 Y114.549 E.00811
G1 X125.888 Y114.969 E.00815
G1 X125.945 Y115.407 E.00817
G1 X125.922 Y115.834 E.00791
G1 X125.876 Y116.074 E.00452
G1 X125.764 Y116.424 E.00679
G1 X125.55 Y116.836 E.00858
G1 X125.295 Y117.162 E.00765
G1 X124.969 Y117.457 E.00813
G1 X124.594 Y117.689 E.00815
G1 X124.185 Y117.849 E.00812
G1 X123.795 Y117.927 E.00735
G1 X123.55 Y117.945 E.00454
G1 X123.123 Y117.918 E.00791
G1 X122.709 Y117.814 E.00789
G1 X122.48 Y117.722 E.00456
G1 X122.131 Y117.527 E.00739
G1 X121.784 Y117.241 E.00831
G1 X121.529 Y116.919 E.00759
G1 X121.368 Y117.517 E.01145
G1 X121.129 Y118.11 E.01182
G1 X120.796 Y118.728 E.01298
G1 X121.106 Y118.597 E.00622
G1 X121.412 Y118.5 E.00594
G1 X121.923 Y118.395 E.00965
G1 X122.407 Y118.356 E.00898
G1 X122.726 Y118.362 E.0059
G1 X123.2 Y118.415 E.00882
G1 X123.512 Y118.481 E.0059
G1 X123.968 Y118.624 E.00884
G1 X124.261 Y118.749 E.00589
G1 X124.686 Y118.978 E.00893
G1 X125.081 Y119.258 E.00895
G1 X125.323 Y119.465 E.00589
G1 X125.653 Y119.81 E.00883
G1 X125.851 Y120.061 E.00591
G1 X126.109 Y120.462 E.00882
G1 X126.255 Y120.746 E.0059
G1 X126.431 Y121.187 E.00878
G1 X126.512 Y121.459 E.00525
G1 X126.61 Y121.963 E.00949
G1 X126.638 Y122.282 E.00592
G1 X126.637 Y122.765 E.00893
G1 X126.577 Y123.245 E.00894
G1 X126.508 Y123.557 E.00591
G1 X126.36 Y124.01 E.00881
G1 X126.232 Y124.303 E.00591
G1 X126 Y124.72 E.00882
G1 X125.819 Y124.982 E.00589
G1 X125.512 Y125.348 E.00883
G1 X125.283 Y125.571 E.00591
G1 X124.912 Y125.871 E.00882
G1 X124.645 Y126.045 E.00589
G1 X124.219 Y126.272 E.00892
G1 X123.768 Y126.446 E.00894
G1 X123.46 Y126.532 E.00591
G1 X122.99 Y126.615 E.00882
G1 X122.672 Y126.641 E.0059
G1 X122.197 Y126.634 E.00878
G1 X121.915 Y126.603 E.00525
G1 X121.412 Y126.5 E.00949
G1 X121.107 Y126.403 E.00592
G1 X120.661 Y126.215 E.00895
G1 X120.242 Y125.975 E.00893
G1 X119.981 Y125.792 E.00589
G1 X119.62 Y125.48 E.00882
G1 X119.399 Y125.25 E.0059
G1 X119.103 Y124.875 E.00883
G1 X118.931 Y124.607 E.00589
G1 X118.712 Y124.182 E.00884
G1 X118.594 Y123.886 E.00589
G1 X118.46 Y123.428 E.00882
G1 X118.402 Y123.114 E.0059
G1 X118.357 Y122.633 E.00893
G1 X118.371 Y122.15 E.00893
G1 X118.409 Y121.833 E.0059
G1 X118.513 Y121.367 E.00883
G1 X118.612 Y121.063 E.00591
G1 X118.733 Y120.788 E.00555
G1 X118.324 Y121.025 E.00874
G1 X117.746 Y121.284 E.01171
G1 X117.152 Y121.481 E.01157
G1 X116.829 Y121.561 E.00615
G1 X116.212 Y121.664 E.01157
G1 X115.579 Y121.705 E.01173
G1 X114.946 Y121.68 E.01171
G1 X114.326 Y121.593 E.01158
G1 X114.002 Y121.521 E.00614
G1 X113.403 Y121.34 E.01157
G1 X112.818 Y121.095 E.01173
G1 X112.277 Y120.801 E.01138
G1 X112.359 Y120.989 E.00379
G1 X112.51 Y121.451 E.00899
G1 X112.61 Y121.963 E.00965
G1 X112.638 Y122.282 E.00592
G1 X112.637 Y122.765 E.00893
G1 X112.577 Y123.245 E.00894
G1 X112.508 Y123.557 E.00591
G1 X112.36 Y124.01 E.00881
G1 X112.232 Y124.303 E.00591
G1 X112 Y124.72 E.00882
G1 X111.819 Y124.982 E.00589
G1 X111.512 Y125.348 E.00883
G1 X111.283 Y125.571 E.00591
G1 X110.907 Y125.875 E.00894
G1 X110.465 Y126.15 E.00962
G1 X110.211 Y126.275 E.00523
G1 X109.768 Y126.446 E.00878
G1 X109.46 Y126.532 E.00591
G1 X108.99 Y126.615 E.00882
G1 X108.672 Y126.641 E.0059
G1 X108.197 Y126.634 E.00878
G1 X107.915 Y126.603 E.00525
G1 X107.412 Y126.5 E.00949
G1 X107.107 Y126.403 E.00592
G1 X106.661 Y126.215 E.00895
G1 X106.242 Y125.975 E.00893
G1 X105.981 Y125.792 E.00589
G1 X105.62 Y125.48 E.00882
G1 X105.399 Y125.25 E.0059
G1 X105.103 Y124.875 E.00883
G1 X104.931 Y124.607 E.00589
G1 X104.712 Y124.182 E.00884
G1 X104.594 Y123.886 E.00589
G1 X104.46 Y123.428 E.00882
G1 X104.402 Y123.114 E.0059
G1 X104.357 Y122.633 E.00893
G1 X104.371 Y122.15 E.00893
G1 X104.409 Y121.833 E.0059
G1 X104.513 Y121.367 E.00883
G1 X104.612 Y121.064 E.00589
G1 X104.803 Y120.626 E.00883
G1 X104.958 Y120.347 E.0059
G1 X105.229 Y119.954 E.00883
G1 X105.435 Y119.711 E.00589
G1 X105.775 Y119.376 E.00882
G1 X106.024 Y119.177 E.00589
G1 X106.427 Y118.91 E.00894
G1 X106.86 Y118.694 E.00895
G1 X107.158 Y118.578 E.00591
G1 X107.654 Y118.443 E.0095
G1 X107.933 Y118.394 E.00524
G1 X108.407 Y118.356 E.00879
G1 X108.726 Y118.362 E.0059
G1 X109.2 Y118.415 E.00882
G1 X109.512 Y118.481 E.0059
G1 X109.976 Y118.626 E.00899
G1 X110.209 Y118.733 E.00474
G1 X109.939 Y118.253 E.01018
G1 X109.686 Y117.669 E.01177
G1 X109.5 Y117.058 E.01181
G1 X109.472 Y116.909 E.0028
G1 X109.305 Y117.147 E.00538
G1 X108.972 Y117.454 E.00837
G1 X108.595 Y117.688 E.0082
G1 X108.185 Y117.849 E.00814
G1 X107.795 Y117.927 E.00735
G1 X107.55 Y117.945 E.00454
G1 X107.123 Y117.918 E.00791
G1 X106.709 Y117.814 E.00789
G1 X106.481 Y117.723 E.00454
G1 X106.133 Y117.529 E.00737
G1 X105.793 Y117.252 E.00811
G1 X105.506 Y116.918 E.00814
G1 X105.285 Y116.538 E.00813
G1 X105.147 Y116.165 E.00735
G1 X105.092 Y115.926 E.00453
G1 X105.053 Y115.5 E.00791
G1 X105.092 Y115.074 E.00791
G1 X105.147 Y114.835 E.00453
G1 X105.285 Y114.462 E.00735
G1 X105.506 Y114.082 E.00813
G1 X105.793 Y113.748 E.00814
G1 X106.135 Y113.469 E.00816
G1 X106.523 Y113.257 E.00817
G1 X106.937 Y113.12 E.00806
G1 X107.299 Y113.064 E.00677
G1 X107.542 Y113.055 E.0045
G1 X107.971 Y113.099 E.00797
G1 X108.42 Y113.233 E.00866
G1 X108.776 Y113.414 E.00738
G1 X108.957 Y113.538 E.00406
G1 X109.272 Y113.819 E.0078
G1 X109.473 Y114.085 E.00616
G1 X109.5 Y113.942 E.00269
G1 X109.686 Y113.331 E.01181
G1 X109.939 Y112.747 E.01177
G1 X110.209 Y112.267 E.01018
G1 X109.976 Y112.374 E.00474
G1 X109.512 Y112.519 E.00899
G1 X109.199 Y112.586 E.00592
G1 X108.68 Y112.641 E.00965
G1 X108.197 Y112.634 E.00893
G1 X107.915 Y112.603 E.00525
G1 X107.412 Y112.5 E.00949
G1 X107.107 Y112.403 E.00592
G1 X106.661 Y112.215 E.00895
G1 X106.242 Y111.975 E.00893
G1 X105.981 Y111.792 E.00589
G1 X105.62 Y111.48 E.00882
G1 X105.399 Y111.25 E.0059
G1 X105.103 Y110.875 E.00883
G1 X104.931 Y110.607 E.00589
G1 X104.712 Y110.182 E.00884
G1 X104.594 Y109.886 E.00589
G1 X104.46 Y109.428 E.00882
G1 X104.402 Y109.114 E.0059
G1 X104.357 Y108.633 E.00893
G1 X104.371 Y108.15 E.00893
G1 X104.409 Y107.833 E.0059
G1 X104.513 Y107.367 E.00883
G1 X104.612 Y107.064 E.00589
G1 X104.803 Y106.626 E.00883
G1 X104.958 Y106.347 E.0059
G1 X105.229 Y105.954 E.00883
G1 X105.435 Y105.711 E.00589
G1 X105.775 Y105.376 E.00882
G1 X106.024 Y105.177 E.00589
G1 X106.427 Y104.91 E.00894
G1 X106.86 Y104.694 E.00895
G1 X107.158 Y104.578 E.00591
G1 X107.654 Y104.443 E.0095
G1 X107.933 Y104.394 E.00524
G1 X108.407 Y104.356 E.00879
G1 X108.726 Y104.362 E.0059
G1 X109.2 Y104.415 E.00882
G1 X109.512 Y104.481 E.0059
G1 X109.968 Y104.624 E.00884
G1 X110.261 Y104.749 E.00589
G1 X110.686 Y104.978 E.00893
G1 X111.081 Y105.258 E.00895
G1 X111.323 Y105.465 E.00589
G1 X111.653 Y105.81 E.00883
G1 X111.851 Y106.061 E.00591
G1 X112.109 Y106.462 E.00882
G1 X112.255 Y106.746 E.0059
G1 X112.431 Y107.187 E.00878
G1 X112.512 Y107.459 E.00525
G1 X112.61 Y107.963 E.00949
G1 X112.638 Y108.282 E.00592
G1 X112.637 Y108.756 E.00876
G1 X112.61 Y109.038 E.00524
G1 X112.521 Y109.504 E.00877
G1 X112.432 Y109.811 E.00591
G1 X112.276 Y110.2 E.00775
G1 X112.818 Y109.905 E.01141
G1 X113.403 Y109.66 E.01173
G1 X114.009 Y109.477 E.0117
G1 X114.624 Y109.358 E.01158
G1 X114.954 Y109.319 E.00614
G1 X115.574 Y109.296 E.01147
G1 X116.211 Y109.336 E.0118
G1 X116.837 Y109.441 E.01174
G1 X117.448 Y109.609 E.01172
G1 X118.038 Y109.838 E.0117
G1 X118.604 Y110.127 E.01175
G1 X118.733 Y110.212 E.00286
G1 X118.609 Y109.93 E.0057
G1 X118.46 Y109.429 E.00966
G1 X118.402 Y109.114 E.00592
G1 X118.357 Y108.633 E.00893
G1 X118.369 Y108.227 E.00751
G1 E-1.12 F2400
;WIPE_START
G1 F4800
G1 X118.37 Y108.167 E-.0285
G1 X118.371 Y108.15 E-.00809
G1 X118.409 Y107.833 E-.15165
G1 X118.513 Y107.367 E-.2268
G1 X118.555 Y107.237 E-.06496
;WIPE_END
G1 X116.166 Y109.728 F6000
G1 E1.6 F2400
;TYPE:External perimeter
G1 F1200
G1 X116.752 Y109.826 E.01098
G1 X117.324 Y109.983 E.01097
G1 X117.877 Y110.198 E.01097
G1 X118.406 Y110.469 E.01099
G1 X118.904 Y110.795 E.011
G1 X119.357 Y111.177 E.01096
G1 X119.768 Y111.589 E.01076
G1 X119.974 Y111.806 E.00553
G1 X120.335 Y112.279 E.011
G1 X120.639 Y112.79 E.01099
G1 X120.889 Y113.329 E.01099
G1 X121.08 Y113.89 E.01096
G1 X121.195 Y114.491 E.01131
G1 X121.208 Y115.359 E.01605
G1 X121.195 Y116.508 E.02125
G1 X121.148 Y116.817 E.00578
G1 X120.993 Y117.392 E.01101
G1 X120.771 Y117.944 E.011
G1 X120.495 Y118.467 E.01093
G1 X120.333 Y118.723 E.0056
G1 X119.973 Y119.196 E.01099
G1 X119.36 Y119.82 E.01617
G1 X119.136 Y120.023 E.00559
G1 X118.659 Y120.376 E.01097
G1 X118.145 Y120.674 E.01098
G1 X117.603 Y120.916 E.01097
G1 X117.042 Y121.102 E.01093
G1 X116.749 Y121.174 E.00558
G1 X116.166 Y121.272 E.01093
G1 X115.574 Y121.31 E.01097
G1 X114.981 Y121.287 E.01097
G1 X114.396 Y121.204 E.01092
G1 X114.101 Y121.139 E.00559
G1 X113.536 Y120.968 E.01091
G1 X112.989 Y120.739 E.01096
G1 X112.467 Y120.455 E.01099
G1 X111.981 Y120.117 E.01095
G1 X111.747 Y119.922 E.00563
G1 X111.128 Y119.307 E.01613
G1 X110.93 Y119.078 E.0056
G1 X110.584 Y118.596 E.01097
G1 X110.293 Y118.078 E.01099
G1 X110.057 Y117.532 E.011
G1 X109.884 Y116.964 E.01098
G1 X109.826 Y116.663 E.00567
G1 X109.796 Y116.36 E.00563
G1 X109.796 Y114.64 E.0318
G1 X109.826 Y114.337 E.00563
G1 X109.884 Y114.036 E.00567
G1 X110.057 Y113.468 E.01098
G1 X110.293 Y112.922 E.011
G1 X110.584 Y112.404 E.01099
G1 X110.93 Y111.922 E.01097
G1 X111.128 Y111.693 E.0056
G1 X111.747 Y111.078 E.01613
G1 X111.981 Y110.883 E.00563
G1 X112.467 Y110.545 E.01095
G1 X112.988 Y110.261 E.01097
G1 X113.536 Y110.032 E.01098
G1 X114.104 Y109.86 E.01097
G1 X114.684 Y109.747 E.01093
G1 X114.984 Y109.713 E.00558
G1 X115.569 Y109.69 E.01082
G1 X116.106 Y109.724 E.00995
G1 E-1.12 F2400
;WIPE_START
G1 F4800
G1 X116.166 Y109.728 E-.02856
G1 X116.752 Y109.826 E-.28222
G1 X117.095 Y109.92 E-.16922
;WIPE_END
G1 X109.303 Y114.594 F6000
G1 E1.6 F2400
G1 F1200
G1 X109.389 Y114.924 E.00631
G1 X109.449 Y115.424 E.00931
G1 X109.435 Y115.745 E.00594
G1 X109.354 Y116.254 E.00953
G1 X109.207 Y116.599 E.00693
G1 X109.006 Y116.885 E.00646
G1 X108.732 Y117.139 E.00691
G1 X108.417 Y117.334 E.00685
G1 X108.073 Y117.469 E.00683
G1 X107.742 Y117.536 E.00624
G1 X107.549 Y117.55 E.00358
G1 X107.184 Y117.527 E.00676
G1 X106.83 Y117.438 E.00675
G1 X106.65 Y117.366 E.00358
G1 X106.355 Y117.201 E.00625
G1 X106.069 Y116.969 E.00681
G1 X105.829 Y116.689 E.00682
G1 X105.643 Y116.369 E.00684
G1 X105.525 Y116.052 E.00625
G1 X105.482 Y115.863 E.00358
G1 X105.449 Y115.5 E.00674
G1 X105.482 Y115.137 E.00674
G1 X105.525 Y114.948 E.00358
G1 X105.643 Y114.631 E.00625
G1 X105.829 Y114.311 E.00684
G1 X106.069 Y114.031 E.00682
G1 X106.356 Y113.798 E.00683
G1 X106.681 Y113.62 E.00685
