; generated by PrusaSlicer 2.7.0+win64 on 2023-12-11 at 13:09:10 UTC

; 

; external perimeters extrusion width = 0.42mm
; perimeters extrusion width = 0.44mm
; infill extrusion width = 0.44mm
; solid infill extrusion width = 0.44mm
; top infill extrusion width = 0.40mm
; first layer extrusion width = 0.42mm


; printing object Square_18mm.stl id:0 copy 0
; stop printing object Square_18mm.stl id:0 copy 0

;TYPE:Custom
; Ender 3 Custom Start G-code
G92 E0 ; Reset Extruder

M140 S55 ; set bed temp
M104 S160 ; set extruder temp
M109 S160 ; wait for extruder temp
M190 S55 ; wait for bed temp

G28 ; Home all axes
M104 S210 ; set extruder temp 
BED_MESH_CALIBRATE AREA_START=99.6802,99.6802 AREA_END=131.32,131.32

G1 Z2.0 F3000 ; Move Z Axis up little to prevent scratching of Heat Bed
M109 S210 ; wait for extruder temp
G1 X0.1 Y20 Z0.3 F5000.0 ; Move to start position

G1 X0.1 Y200.0 Z0.3 F1500.0 E15 ; Draw the first line
G1 X0.4 Y200.0 Z0.3 F5000.0 ; Move to side a little
G1 X0.4 Y20 Z0.3 F1500.0 E30 ; Draw the second line
G92 E0 ; Reset Extruder
G1 Z2.0 F3000 ; Move Z Axis up little to prevent scratching of Heat Bed
G1 X5 Y20 Z0.3 F5000.0 ; Move over to prevent blob squish
G21 ; set units to millimeters
G90 ; use absolute coordinates
M83 ; use relative distances for extrusion
; Filament gcode
M107
;LAYER_CHANGE
;Z:0.2
;HEIGHT:0.2
;BEFORE_LAYER_CHANGE
G92 E0
;0.2


G1 E-1.6 F2400
G1 Z.2 F6000
;AFTER_LAYER_CHANGE
;0.2
G1 X102.286 Y102.286
G1 Z.2
G1 E1.6 F2400
M204 S500
;TYPE:Skirt/Brim
;WIDTH:0.42
G1 F1200
G1 X103.786 Y100.786 E.06252
G1 X105.139 Y99.989 E.04628
G1 X106 Y99.869 E.02562
G1 X125 Y99.869 E.55999
G1 X126.52 Y100.262 E.04627
G1 X127.214 Y100.786 E.02563
G1 X130.214 Y103.786 E.12504
G1 X131.011 Y105.139 E.04628
G1 X131.131 Y106 E.02562
G1 X131.131 Y125 E.55999
G1 X130.738 Y126.52 E.04627
G1 X130.214 Y127.214 E.02563
G1 X127.214 Y130.214 E.12504
G1 X125.861 Y131.011 E.04628
G1 X125 Y131.131 E.02562
G1 X106 Y131.131 E.55999
G1 X104.48 Y130.738 E.04627
G1 X103.786 Y130.214 E.02563
G1 X100.786 Y127.214 E.12504
G1 X99.989 Y125.861 E.04628
G1 X99.869 Y125 E.02562
G1 X99.869 Y106 E.55999
G1 X100.262 Y104.48 E.04627
G1 X100.786 Y103.786 E.02563
G1 X102.243 Y102.328 E.06075
G1 X102.51 Y102.595 F6000
G1 F1200
G1 X104.053 Y101.053 E.06429
G1 X106 Y100.246 E.06212
G1 X125 Y100.246 E.55999
G1 X126.947 Y101.052 E.06211
G1 X129.947 Y104.053 E.12506
G1 X130.754 Y106 E.06212
G1 X130.754 Y125 E.55999
G1 X129.948 Y126.947 E.06211
G1 X126.947 Y129.947 E.12506
G1 X125 Y130.754 E.06212
G1 X106 Y130.754 E.55999
G1 X104.053 Y129.948 E.06211
G1 X101.053 Y126.947 E.12506
G1 X100.246 Y125 E.06212
G1 X100.246 Y106 E.55999
G1 X101.052 Y104.053 E.06211
G1 X102.468 Y102.637 E.05902
G1 X102.734 Y102.904 F6000
G1 F1200
G1 X104.319 Y101.319 E.06606
G1 X106 Y100.623 E.05362
G1 X125 Y100.623 E.55999
G1 X126.681 Y101.319 E.05362
G1 X129.681 Y104.319 E.12504
G1 X130.377 Y106 E.05362
G1 X130.377 Y125 E.55999
G1 X129.681 Y126.681 E.05362
G1 X126.681 Y129.681 E.12504
G1 X125 Y130.377 E.05362
G1 X106 Y130.377 E.55999
G1 X104.319 Y129.681 E.05362
G1 X101.319 Y126.681 E.12504
G1 X100.623 Y125 E.05362
G1 X100.623 Y106 E.55999
G1 X101.319 Y104.319 E.05362
G1 X102.692 Y102.946 E.05723
; printing object Square_18mm.stl id:0 copy 0
G1 E-1.12 F2400
;WIPE_START
G1 F4800
G1 X102.734 Y102.904 E-.02821
G1 X103.407 Y102.232 E-.45179
;WIPE_END
G1 X126.886 Y115.448 F6000
G1 E1.6 F2400
;TYPE:Perimeter
G1 F1200
G1 X126.862 Y115.86 E.01216
G1 X126.722 Y116.377 E.01579
G1 X126.5 Y116.808 E.01429
G1 X126.257 Y117.118 E.01161
G1 X125.937 Y117.409 E.01275
G1 X125.567 Y117.638 E.01282
G1 X125.164 Y117.795 E.01275
G1 X124.795 Y117.87 E.0111
G1 X124.555 Y117.888 E.00709
G1 X124.133 Y117.861 E.01246
G1 X123.723 Y117.758 E.01246
G1 X123.499 Y117.668 E.00711
G1 X123.171 Y117.485 E.01107
G1 X122.834 Y117.213 E.01276
G1 X122.551 Y116.883 E.01281
G1 X122.334 Y116.508 E.01277
G1 X122.204 Y116.156 E.01106
G1 X122.149 Y115.921 E.00711
G1 X122.11 Y115.5 E.01246
G1 X122.149 Y115.079 E.01246
G1 X122.204 Y114.844 E.00711
G1 X122.334 Y114.492 E.01106
G1 X122.551 Y114.117 E.01277
G1 X122.834 Y113.787 E.01281
G1 X123.174 Y113.512 E.01289
G1 X123.557 Y113.305 E.01283
G1 X123.978 Y113.169 E.01304
G1 X124.507 Y113.111 E.01568
G1 X124.948 Y113.153 E.01306
G1 X125.367 Y113.273 E.01285
G1 X125.757 Y113.468 E.01285
G1 X126.095 Y113.722 E.01246
G1 X126.266 Y113.892 E.00711
G1 X126.497 Y114.189 E.01109
G1 X126.701 Y114.57 E.01274
G1 X126.833 Y114.985 E.01284
G1 X126.884 Y115.388 E.01197
G1 X126.509 Y115.431 F6000
;TYPE:External perimeter
G1 F1200
G1 X126.488 Y115.799 E.01086
G1 X126.369 Y116.239 E.01343
G1 X126.181 Y116.604 E.0121
G1 X125.98 Y116.861 E.00962
G1 X125.709 Y117.107 E.01079
G1 X125.398 Y117.299 E.01077
G1 X125.057 Y117.432 E.01079
G1 X124.744 Y117.495 E.00941
G1 X124.552 Y117.51 E.00568
G1 X124.191 Y117.487 E.01066
G1 X123.84 Y117.399 E.01067
G1 X123.662 Y117.327 E.00566
G1 X123.383 Y117.172 E.00941
G1 X123.098 Y116.942 E.01079
G1 X122.86 Y116.664 E.01079
G1 X122.677 Y116.347 E.01079
G1 X122.566 Y116.047 E.00943
G1 X122.522 Y115.86 E.00566
G1 X122.489 Y115.5 E.01065
G1 X122.522 Y115.14 E.01065
G1 X122.566 Y114.953 E.00566
G1 X122.677 Y114.653 E.00943
G1 X122.86 Y114.336 E.01079
G1 X123.098 Y114.058 E.01079
G1 X123.384 Y113.828 E.01082
G1 X123.706 Y113.653 E.0108
G1 X124.057 Y113.539 E.01088
G1 X124.51 Y113.49 E.01343
G1 X124.877 Y113.525 E.01087
G1 X125.23 Y113.626 E.01082
G1 X125.558 Y113.79 E.01081
G1 X125.847 Y114.008 E.01067
G1 X125.983 Y114.143 E.00565
G1 X126.18 Y114.395 E.00943
G1 X126.353 Y114.718 E.0108
G1 X126.464 Y115.067 E.01079
G1 X126.502 Y115.371 E.00903
G1 E-1.12 F2400
;WIPE_START
G1 F4800
G1 X126.509 Y115.431 E-.02869
G1 X126.488 Y115.799 E-.17508
G1 X126.369 Y116.239 E-.21651
G1 X126.311 Y116.351 E-.05972
;WIPE_END
G1 X124.171 Y112.23 F6000
G1 E1.6 F2400
;TYPE:Perimeter
G1 F1200
G1 X123.767 Y112.386 E.01276
G1 X123.442 Y112.478 E.00996
G1 X122.997 Y112.557 E.01332
G1 X122.661 Y112.584 E.00993
G1 X122.208 Y112.577 E.01335
G1 X121.873 Y112.539 E.00994
G1 X121.43 Y112.445 E.01335
G1 X121.108 Y112.343 E.00996
G1 X120.713 Y112.175 E.01265
G1 X120.973 Y112.614 E.01504
G1 X121.239 Y113.187 E.01862
G1 X121.445 Y113.784 E.01861
G1 X121.589 Y114.4 E.01864
G1 X121.669 Y115.019 E.0184
G1 X121.686 Y115.349 E.00974
G1 X121.67 Y115.974 E.01843
G1 X121.589 Y116.6 E.0186
G1 X121.445 Y117.216 E.01864
G1 X121.239 Y117.813 E.01861
G1 X120.973 Y118.386 E.01862
G1 X120.708 Y118.833 E.01532
G1 X121.18 Y118.631 E.01513
G1 X121.673 Y118.497 E.01506
G1 X121.949 Y118.45 E.00825
G1 X122.397 Y118.414 E.01325
G1 X122.734 Y118.419 E.00993
G1 X123.184 Y118.47 E.01335
G1 X123.514 Y118.541 E.00995
G1 X123.946 Y118.676 E.01334
G1 X124.256 Y118.81 E.00995
G1 X124.657 Y119.027 E.01344
G1 X125.03 Y119.291 E.01347
G1 X125.287 Y119.509 E.00993
G1 X125.6 Y119.836 E.01334
G1 X125.809 Y120.101 E.00995
G1 X126.054 Y120.481 E.01333
G1 X126.208 Y120.781 E.00994
G1 X126.375 Y121.199 E.01327
G1 X126.455 Y121.467 E.00824
G1 X126.553 Y121.969 E.01507
G1 X126.582 Y122.307 E.01
G1 X126.58 Y122.763 E.01344
G1 X126.524 Y123.216 E.01345
G1 X126.452 Y123.546 E.00995
G1 X126.311 Y123.976 E.01334
G1 X126.177 Y124.286 E.00995
G1 X125.957 Y124.681 E.01333
G1 X125.765 Y124.959 E.00996
G1 X125.474 Y125.305 E.01332
G1 X125.231 Y125.54 E.00996
G1 X124.882 Y125.822 E.01322
G1 X124.649 Y125.977 E.00825
G1 X124.195 Y126.221 E.01519
G1 X123.767 Y126.386 E.01352
G1 X123.442 Y126.478 E.00996
G1 X122.997 Y126.557 E.01332
G1 X122.661 Y126.584 E.00993
G1 X122.208 Y126.577 E.01335
G1 X121.873 Y126.539 E.00994
G1 X121.43 Y126.445 E.01335
G1 X121.108 Y126.343 E.00996
G1 X120.688 Y126.165 E.01344
G1 X120.292 Y125.938 E.01345
G1 X120.015 Y125.746 E.00993
G1 X119.672 Y125.45 E.01335
G1 X119.438 Y125.208 E.00992
G1 X119.157 Y124.852 E.01337
G1 X118.975 Y124.569 E.00992
G1 X118.767 Y124.166 E.01337
G1 X118.643 Y123.853 E.00992
G1 X118.517 Y123.418 E.01335
G1 X118.456 Y123.086 E.00995
G1 X118.414 Y122.631 E.01347
G1 X118.426 Y122.176 E.01341
G1 X118.466 Y121.84 E.00997
G1 X118.564 Y121.399 E.01331
G1 X118.668 Y121.078 E.00995
G1 X118.83 Y120.706 E.01196
G1 X118.594 Y120.859 E.00829
G1 X118.031 Y121.146 E.01862
G1 X117.442 Y121.375 E.01863
G1 X116.833 Y121.543 E.01862
G1 X116.21 Y121.647 E.01862
G1 X115.579 Y121.687 E.01863
G1 X114.948 Y121.663 E.01861
G1 X114.322 Y121.575 E.01863
G1 X113.708 Y121.423 E.01864
G1 X113.114 Y121.209 E.01861
G1 X112.544 Y120.936 E.01863
G1 X112.171 Y120.708 E.01288
G1 X112.375 Y121.199 E.01567
G1 X112.455 Y121.467 E.00824
G1 X112.553 Y121.969 E.01507
G1 X112.582 Y122.307 E.01
G1 X112.58 Y122.763 E.01344
G1 X112.524 Y123.216 E.01345
G1 X112.452 Y123.546 E.00995
G1 X112.311 Y123.976 E.01334
G1 X112.177 Y124.286 E.00995
G1 X111.957 Y124.681 E.01333
G1 X111.765 Y124.959 E.00996
G1 X111.474 Y125.305 E.01332
G1 X111.231 Y125.54 E.00996
G1 X110.875 Y125.828 E.0135
G1 X110.437 Y126.1 E.0152
G1 X110.186 Y126.224 E.00825
G1 X109.767 Y126.386 E.01324
G1 X109.442 Y126.478 E.00996
G1 X108.997 Y126.557 E.01332
G1 X108.661 Y126.584 E.00993
G1 X108.208 Y126.577 E.01335
G1 X107.873 Y126.539 E.00994
G1 X107.43 Y126.445 E.01335
G1 X107.109 Y126.343 E.00993
G1 X106.688 Y126.165 E.01347
G1 X106.292 Y125.938 E.01345
G1 X106.015 Y125.746 E.00993
G1 X105.672 Y125.45 E.01335
G1 X105.438 Y125.208 E.00992
G1 X105.157 Y124.852 E.01337
G1 X104.975 Y124.569 E.00992
G1 X104.767 Y124.166 E.01337
G1 X104.643 Y123.853 E.00992
G1 X104.517 Y123.418 E.01335
G1 X104.456 Y123.086 E.00995
G1 X104.414 Y122.631 E.01347
G1 X104.426 Y122.176 E.01341
G1 X104.466 Y121.84 E.00997
G1 X104.564 Y121.399 E.01331
G1 X104.668 Y121.078 E.00995
G1 X104.849 Y120.663 E.01334
G1 X105.013 Y120.368 E.00995
G1 X105.27 Y119.995 E.01335
G1 X105.488 Y119.738 E.00993
G1 X105.811 Y119.421 E.01334
G1 X106.075 Y119.211 E.00994
G1 X106.456 Y118.96 E.01345
G1 X106.864 Y118.755 E.01346
G1 X107.18 Y118.631 E.01
G1 X107.673 Y118.497 E.01506
G1 X107.949 Y118.45 E.00825
G1 X108.397 Y118.414 E.01325
G1 X108.734 Y118.419 E.00993
G1 X109.184 Y118.47 E.01335
G1 X109.514 Y118.541 E.00995
G1 X109.946 Y118.676 E.01334
G1 X110.294 Y118.831 E.01123
G1 X110.102 Y118.525 E.01065
G1 X109.822 Y117.959 E.01861
G1 X109.601 Y117.367 E.01862
G1 X109.441 Y116.756 E.01862
G1 X109.344 Y116.131 E.01864
G1 X109.312 Y115.5 E.01862
G1 X109.344 Y114.869 E.01862
G1 X109.441 Y114.244 E.01864
G1 X109.601 Y113.633 E.01862
G1 X109.822 Y113.041 E.01862
G1 X110.099 Y112.481 E.01841
G1 X110.283 Y112.176 E.0105
G1 X109.767 Y112.386 E.01642
G1 X109.442 Y112.478 E.00996
G1 X108.997 Y112.557 E.01332
G1 X108.661 Y112.584 E.00993
G1 X108.208 Y112.577 E.01335
G1 X107.873 Y112.539 E.00994
G1 X107.43 Y112.445 E.01335
G1 X107.109 Y112.343 E.00993
G1 X106.688 Y112.165 E.01347
G1 X106.292 Y111.938 E.01345
G1 X106.015 Y111.746 E.00993
G1 X105.672 Y111.45 E.01335
G1 X105.438 Y111.208 E.00992
G1 X105.157 Y110.852 E.01337
G1 X104.975 Y110.569 E.00992
G1 X104.767 Y110.166 E.01337
G1 X104.643 Y109.853 E.00992
G1 X104.517 Y109.418 E.01335
G1 X104.456 Y109.086 E.00995
G1 X104.414 Y108.631 E.01347
G1 X104.426 Y108.176 E.01341
G1 X104.466 Y107.84 E.00997
G1 X104.564 Y107.399 E.01331
G1 X104.668 Y107.078 E.00995
G1 X104.849 Y106.663 E.01334
G1 X105.013 Y106.368 E.00995
G1 X105.27 Y105.995 E.01335
G1 X105.488 Y105.738 E.00993
G1 X105.811 Y105.421 E.01334
G1 X106.075 Y105.211 E.00994
G1 X106.456 Y104.96 E.01345
G1 X106.864 Y104.755 E.01346
G1 X107.18 Y104.631 E.01
G1 X107.673 Y104.497 E.01506
G1 X107.949 Y104.45 E.00825
G1 X108.397 Y104.414 E.01325
G1 X108.734 Y104.419 E.00993
G1 X109.184 Y104.47 E.01335
G1 X109.514 Y104.541 E.00995
G1 X109.946 Y104.676 E.01334
G1 X110.256 Y104.81 E.00995
G1 X110.657 Y105.027 E.01344
G1 X111.03 Y105.291 E.01347
G1 X111.287 Y105.509 E.00993
G1 X111.6 Y105.836 E.01334
G1 X111.809 Y106.101 E.00995
G1 X112.054 Y106.481 E.01333
G1 X112.208 Y106.781 E.00994
G1 X112.375 Y107.199 E.01327
G1 X112.455 Y107.467 E.00824
G1 X112.553 Y107.969 E.01507
G1 X112.582 Y108.307 E.01
G1 X112.58 Y108.763 E.01344
G1 X112.524 Y109.216 E.01345
G1 X112.452 Y109.546 E.00995
G1 X112.311 Y109.976 E.01334
G1 X112.174 Y110.29 E.0101
G1 X112.544 Y110.064 E.01278
G1 X113.114 Y109.791 E.01863
G1 X113.708 Y109.577 E.01861
G1 X114.322 Y109.425 E.01864
G1 X114.947 Y109.337 E.0186
G1 X115.564 Y109.313 E.0182
G1 X115.902 Y109.326 E.00997
G1 X116.523 Y109.397 E.01842
G1 X117.14 Y109.533 E.01862
G1 X117.74 Y109.732 E.01863
G1 X118.316 Y109.99 E.0186
G1 X118.829 Y110.286 E.01746
G1 X118.643 Y109.853 E.01389
G1 X118.517 Y109.418 E.01335
G1 X118.456 Y109.086 E.00995
G1 X118.414 Y108.631 E.01347
G1 X118.426 Y108.176 E.01341
G1 X118.466 Y107.84 E.00997
G1 X118.564 Y107.399 E.01331
G1 X118.668 Y107.078 E.00995
G1 X118.849 Y106.663 E.01334
G1 X119.013 Y106.368 E.00995
G1 X119.27 Y105.995 E.01335
G1 X119.488 Y105.738 E.00993
G1 X119.811 Y105.421 E.01334
G1 X120.075 Y105.211 E.00994
G1 X120.456 Y104.96 E.01345
G1 X120.864 Y104.755 E.01346
G1 X121.18 Y104.631 E.01
G1 X121.673 Y104.497 E.01506
G1 X121.949 Y104.45 E.00825
G1 X122.397 Y104.414 E.01325
G1 X122.734 Y104.419 E.00993
G1 X123.184 Y104.47 E.01335
G1 X123.514 Y104.541 E.00995
G1 X123.946 Y104.676 E.01334
G1 X124.256 Y104.81 E.00995
G1 X124.657 Y105.027 E.01344
G1 X125.03 Y105.291 E.01347
G1 X125.287 Y105.509 E.00993
G1 X125.6 Y105.836 E.01334
G1 X125.809 Y106.101 E.00995
G1 X126.054 Y106.481 E.01333
G1 X126.208 Y106.781 E.00994
G1 X126.375 Y107.199 E.01327
G1 X126.455 Y107.467 E.00824
G1 X126.553 Y107.969 E.01507
G1 X126.582 Y108.307 E.01
G1 X126.58 Y108.763 E.01344
G1 X126.524 Y109.216 E.01345
G1 X126.452 Y109.546 E.00995
G1 X126.311 Y109.976 E.01334
G1 X126.177 Y110.286 E.00995
G1 X125.957 Y110.681 E.01333
G1 X125.765 Y110.959 E.00996
G1 X125.474 Y111.305 E.01332
G1 X125.231 Y111.54 E.00996
G1 X124.875 Y111.828 E.0135
G1 X124.437 Y112.1 E.0152
G1 X124.225 Y112.204 E.00696
G1 E-1.12 F2400
;WIPE_START
G1 F4800
G1 X124.171 Y112.23 E-.02847
G1 X123.767 Y112.386 E-.20571
G1 X123.442 Y112.478 E-.16044
G1 X123.265 Y112.509 E-.08538
;WIPE_END
G1 X121.293 Y115.053 F6000
G1 E1.6 F2400
;TYPE:External perimeter
G1 F1200
G1 X121.308 Y115.354 E.00888
G1 X121.293 Y115.945 E.01742
G1 X121.218 Y116.533 E.01747
G1 X121.082 Y117.111 E.0175
G1 X120.889 Y117.672 E.01749
G1 X120.639 Y118.21 E.01748
G1 X120.336 Y118.72 E.01748
G1 X119.984 Y119.195 E.01742
G1 X119.786 Y119.423 E.0089
G1 X119.366 Y119.838 E.0174
G1 X118.903 Y120.209 E.01749
G1 X118.405 Y120.532 E.01749
G1 X117.877 Y120.802 E.01748
G1 X117.324 Y121.017 E.01749
G1 X116.752 Y121.174 E.01748
G1 X116.166 Y121.272 E.01751
G1 X115.574 Y121.31 E.01748
G1 X114.981 Y121.287 E.01749
G1 X114.394 Y121.204 E.01747
G1 X113.818 Y121.061 E.01749
G1 X113.259 Y120.861 E.0175
G1 X112.724 Y120.604 E.01749
G1 X112.227 Y120.3 E.01717
G1 X111.976 Y120.119 E.00912
G1 X111.525 Y119.738 E.0174
G1 X111.113 Y119.31 E.01751
G1 X110.748 Y118.843 E.01747
G1 X110.431 Y118.341 E.0175
G1 X110.168 Y117.809 E.01749
G1 X109.96 Y117.253 E.0175
G1 X109.811 Y116.679 E.01748
G1 X109.72 Y116.093 E.01748
G1 X109.69 Y115.5 E.0175
G1 X109.72 Y114.907 E.0175
G1 X109.811 Y114.321 E.01748
G1 X109.96 Y113.747 E.01748
G1 X110.168 Y113.191 E.0175
G1 X110.43 Y112.662 E.0174
G1 X110.585 Y112.402 E.00892
G1 X110.924 Y111.919 E.01739
G1 X111.314 Y111.471 E.01751
G1 X111.746 Y111.065 E.01747
G1 X112.218 Y110.705 E.0175
G1 X112.724 Y110.396 E.01747
G1 X113.259 Y110.139 E.01749
G1 X113.818 Y109.939 E.0175
G1 X114.394 Y109.796 E.01749
G1 X114.981 Y109.713 E.01747
G1 X115.564 Y109.69 E.0172
G1 X115.873 Y109.702 E.00911
G1 X116.46 Y109.77 E.01742
G1 X117.04 Y109.897 E.0175
G1 X117.603 Y110.084 E.01748
G1 X118.144 Y110.326 E.01747
G1 X118.658 Y110.623 E.0175
G1 X119.139 Y110.971 E.0175
G1 X119.582 Y111.365 E.01747
G1 X119.983 Y111.803 E.0175
G1 X120.336 Y112.28 E.01749
G1 X120.639 Y112.79 E.01748
G1 X120.889 Y113.328 E.01748
G1 X121.082 Y113.889 E.01749
G1 X121.218 Y114.467 E.0175
G1 X121.285 Y114.993 E.01563
G1 E-1.12 F2400
;WIPE_START
G1 F4800
G1 X121.293 Y115.053 E-.02875
G1 X121.308 Y115.354 E-.14315
G1 X121.293 Y115.945 E-.28082
G1 X121.286 Y116.002 E-.02728
;WIPE_END
G1 X111.197 Y111.048 F6000
