; generated by PrusaSlicer 2.7.0+win64 on 2023-12-11 at 13:52:27 UTC

; 

; external perimeters extrusion width = 0.42mm
; perimeters extrusion width = 0.44mm
; infill extrusion width = 0.44mm
; solid infill extrusion width = 0.44mm
; top infill extrusion width = 0.40mm
; first layer extrusion width = 0.42mm


; printing object Square_18mm_StockNut.stl id:0 copy 0
; stop printing object Square_18mm_StockNut.stl id:0 copy 0

;TYPE:Custom
; Ender 3 Custom Start G-code
G92 E0 ; Reset Extruder

M140 S55 ; set bed temp
M104 S160 ; set extruder temp
M109 S160 ; wait for extruder temp
M190 S55 ; wait for bed temp

G28 ; Home all axes
M104 S210 ; set extruder temp 
BED_MESH_CALIBRATE AREA_START=99.6802,99.6802 AREA_END=131.32,131.32

G1 Z2.0 F3000 ; Move Z Axis up little to prevent scratching of Heat Bed
M109 S210 ; wait for extruder temp
G1 X0.1 Y20 Z0.3 F5000.0 ; Move to start position

G1 X0.1 Y200.0 Z0.3 F1500.0 E15 ; Draw the first line
G1 X0.4 Y200.0 Z0.3 F5000.0 ; Move to side a little
G1 X0.4 Y20 Z0.3 F1500.0 E30 ; Draw the second line
G92 E0 ; Reset Extruder
G1 Z2.0 F3000 ; Move Z Axis up little to prevent scratching of Heat Bed
G1 X5 Y20 Z0.3 F5000.0 ; Move over to prevent blob squish
G21 ; set units to millimeters
G90 ; use absolute coordinates
M83 ; use relative distances for extrusion
; Filament gcode
M107
;LAYER_CHANGE
;Z:0.2
;HEIGHT:0.2
;BEFORE_LAYER_CHANGE
G92 E0
;0.2


G1 E-1.6 F2400
G1 Z.2 F6000
;AFTER_LAYER_CHANGE
;0.2
G1 X102.286 Y102.286
G1 Z.2
G1 E1.6 F2400
M204 S500
;TYPE:Skirt/Brim
;WIDTH:0.42
G1 F1200
G1 X103.786 Y100.786 E.06252
G1 X105.139 Y99.989 E.04628
G1 X106 Y99.869 E.02562
G1 X125 Y99.869 E.55999
G1 X126.52 Y100.262 E.04627
G1 X127.214 Y100.786 E.02563
G1 X130.214 Y103.786 E.12504
G1 X131.011 Y105.139 E.04628
G1 X131.131 Y106 E.02562
G1 X131.131 Y125 E.55999
G1 X130.738 Y126.52 E.04627
G1 X130.214 Y127.214 E.02563
G1 X127.214 Y130.214 E.12504
G1 X125.861 Y131.011 E.04628
G1 X125 Y131.131 E.02562
G1 X106 Y131.131 E.55999
G1 X104.48 Y130.738 E.04627
G1 X103.786 Y130.214 E.02563
G1 X100.786 Y127.214 E.12504
G1 X99.989 Y125.861 E.04628
G1 X99.869 Y125 E.02562
G1 X99.869 Y106 E.55999
G1 X100.262 Y104.48 E.04627
G1 X100.786 Y103.786 E.02563
G1 X102.243 Y102.328 E.06075
G1 X102.51 Y102.595 F6000
G1 F1200
G1 X104.053 Y101.053 E.06429
G1 X106 Y100.246 E.06212
G1 X125 Y100.246 E.55999
G1 X126.947 Y101.052 E.06211
G1 X129.947 Y104.053 E.12506
G1 X130.754 Y106 E.06212
G1 X130.754 Y125 E.55999
G1 X129.948 Y126.947 E.06211
G1 X126.947 Y129.947 E.12506
G1 X125 Y130.754 E.06212
G1 X106 Y130.754 E.55999
G1 X104.053 Y129.948 E.06211
G1 X101.053 Y126.947 E.12506
G1 X100.246 Y125 E.06212
G1 X100.246 Y106 E.55999
G1 X101.052 Y104.053 E.06211
G1 X102.468 Y102.637 E.05902
G1 X102.734 Y102.904 F6000
G1 F1200
G1 X104.319 Y101.319 E.06606
G1 X106 Y100.623 E.05362
G1 X125 Y100.623 E.55999
G1 X126.681 Y101.319 E.05362
G1 X129.681 Y104.319 E.12504
G1 X130.377 Y106 E.05362
G1 X130.377 Y125 E.55999
G1 X129.681 Y126.681 E.05362
G1 X126.681 Y129.681 E.12504
G1 X125 Y130.377 E.05362
G1 X106 Y130.377 E.55999
G1 X104.319 Y129.681 E.05362
G1 X101.319 Y126.681 E.12504
G1 X100.623 Y125 E.05362
G1 X100.623 Y106 E.55999
G1 X101.319 Y104.319 E.05362
G1 X102.692 Y102.946 E.05723
; printing object Square_18mm_StockNut.stl id:0 copy 0
G1 E-1.12 F2400
;WIPE_START
G1 F4800
G1 X102.734 Y102.904 E-.02821
G1 X103.407 Y102.232 E-.45179
;WIPE_END
G1 X122.13 Y116.518 F6000
G1 E1.6 F2400
;TYPE:Perimeter
G1 F1200
G1 X121.982 Y116.111 E.01276
G1 X121.908 Y115.5 E.01814
G1 X121.982 Y114.889 E.01814
G1 X122.133 Y114.474 E.01302
G1 X122.205 Y114.299 E.00558
G1 X122.549 Y113.796 E.01796
G1 X123.002 Y113.389 E.01795
G1 X123.421 Y113.147 E.01426
G1 X123.984 Y112.963 E.01746
G1 X124.175 Y112.938 E.00568
G1 X124.622 Y112.912 E.0132
G1 X125.227 Y113.012 E.01807
G1 X125.796 Y113.255 E.01824
G1 X126.291 Y113.626 E.01823
G1 X126.68 Y114.1 E.01807
G1 X126.881 Y114.501 E.01322
G1 X126.955 Y114.678 E.00565
G1 X127.077 Y115.258 E.01747
G1 X127.077 Y115.742 E.01426
G1 X126.951 Y116.338 E.01795
G1 X126.683 Y116.896 E.01824
G1 X126.291 Y117.374 E.01822
G1 X125.797 Y117.744 E.01819
G1 X125.398 Y117.916 E.01281
G1 X125.224 Y117.988 E.00555
G1 X124.617 Y118.089 E.01814
G1 X124 Y118.042 E.01824
G1 X123.421 Y117.853 E.01795
G1 X123.002 Y117.611 E.01426
G1 X122.549 Y117.204 E.01795
G1 X122.205 Y116.701 E.01796
G1 X122.153 Y116.574 E.00404
G1 X122.484 Y116.389 F6000
;TYPE:External perimeter
G1 F1200
G1 X122.351 Y116.022 E.0115
G1 X122.288 Y115.5 E.0155
G1 X122.351 Y114.978 E.0155
G1 X122.484 Y114.611 E.0115
G1 X122.539 Y114.479 E.00421
G1 X122.835 Y114.046 E.01546
G1 X123.225 Y113.696 E.01544
G1 X123.576 Y113.494 E.01194
G1 X124.068 Y113.333 E.01526
G1 X124.21 Y113.314 E.00422
G1 X124.602 Y113.291 E.01157
G1 X125.121 Y113.377 E.01551
G1 X125.606 Y113.584 E.01554
G1 X126.028 Y113.901 E.01556
G1 X126.362 Y114.307 E.01549
G1 X126.538 Y114.658 E.01157
G1 X126.593 Y114.79 E.00421
G1 X126.7 Y115.297 E.01527
G1 X126.7 Y115.703 E.01197
G1 X126.592 Y116.216 E.01545
G1 X126.363 Y116.691 E.01554
G1 X126.028 Y117.099 E.01556
G1 X125.606 Y117.416 E.01556
G1 X125.251 Y117.569 E.01139
G1 X125.12 Y117.623 E.00418
G1 X124.6 Y117.709 E.01553
G1 X124.074 Y117.669 E.01555
G1 X123.576 Y117.506 E.01544
G1 X123.225 Y117.304 E.01194
G1 X122.835 Y116.954 E.01544
G1 X122.539 Y116.521 E.01546
G1 X122.507 Y116.445 E.00243
G1 E-1.12 F2400
;WIPE_START
G1 F4800
G1 X122.484 Y116.389 E-.02876
G1 X122.351 Y116.022 E-.18542
G1 X122.288 Y115.5 E-.24975
G1 X122.292 Y115.466 E-.01607
;WIPE_END
G1 X121.639 Y112.493 F6000
G1 E1.6 F2400
;TYPE:Perimeter
G1 F1200
G1 X120.956 Y112.285 E.02104
G1 X120.708 Y112.157 E.00823
G1 X121.13 Y112.929 E.02593
G1 X121.438 Y113.756 E.02601
G1 X121.626 Y114.619 E.02603
G1 X121.689 Y115.5 E.02603
G1 X121.626 Y116.381 E.02603
G1 X121.438 Y117.244 E.02603
G1 X121.13 Y118.071 E.02601
G1 X120.708 Y118.843 E.02593
G1 X120.956 Y118.715 E.00823
G1 X121.661 Y118.5 E.02172
G1 X122.23 Y118.423 E.01692
G1 X122.965 Y118.439 E.02167
G1 X123.693 Y118.59 E.02191
G1 X124.382 Y118.87 E.02192
G1 X125.008 Y119.271 E.02191
G1 X125.552 Y119.778 E.02192
G1 X125.994 Y120.376 E.02192
G1 X126.322 Y121.043 E.02191
G1 X126.522 Y121.758 E.02188
G1 X126.542 Y121.968 E.00622
G1 X126.59 Y122.5 E.01574
G1 X126.522 Y123.24 E.0219
G1 X126.32 Y123.96 E.02204
G1 X125.996 Y124.622 E.02172
G1 X125.546 Y125.228 E.02225
G1 X125.008 Y125.729 E.02167
G1 X124.382 Y126.13 E.02191
G1 X123.693 Y126.41 E.02192
G1 X122.972 Y126.559 E.0217
G1 X122.399 Y126.585 E.01691
G1 X121.667 Y126.502 E.02171
G1 X120.956 Y126.285 E.02191
G1 X120.296 Y125.944 E.0219
G1 X119.709 Y125.488 E.02191
G1 X119.213 Y124.933 E.02194
G1 X118.827 Y124.298 E.0219
G1 X118.562 Y123.603 E.02192
G1 X118.427 Y122.872 E.02191
G1 X118.427 Y122.128 E.02193
G1 X118.562 Y121.397 E.02191
G1 X118.82 Y120.721 E.02133
G1 X118.071 Y121.13 E.02515
G1 X117.264 Y121.431 E.02539
G1 X116.382 Y121.626 E.02662
G1 X115.5 Y121.689 E.02606
G1 X114.619 Y121.626 E.02603
G1 X113.756 Y121.438 E.02603
G1 X112.929 Y121.13 E.02601
G1 X112.157 Y120.708 E.02593
G1 X112.322 Y121.043 E.01101
G1 X112.522 Y121.758 E.02188
G1 X112.59 Y122.5 E.02196
G1 X112.522 Y123.24 E.0219
G1 X112.32 Y123.96 E.02204
G1 X111.996 Y124.622 E.02172
G1 X111.546 Y125.228 E.02225
G1 X111.008 Y125.729 E.02167
G1 X110.382 Y126.13 E.02191
G1 X109.693 Y126.41 E.02192
G1 X108.972 Y126.559 E.0217
G1 X108.399 Y126.585 E.01691
G1 X107.667 Y126.502 E.02171
G1 X106.956 Y126.285 E.02191
G1 X106.296 Y125.944 E.0219
G1 X105.709 Y125.488 E.02191
G1 X105.213 Y124.933 E.02194
G1 X104.827 Y124.298 E.0219
G1 X104.562 Y123.603 E.02192
G1 X104.427 Y122.872 E.02191
G1 X104.427 Y122.128 E.02193
G1 X104.562 Y121.397 E.02191
G1 X104.827 Y120.702 E.02192
G1 X105.213 Y120.067 E.0219
G1 X105.709 Y119.512 E.02194
G1 X106.296 Y119.056 E.02191
G1 X106.956 Y118.715 E.0219
G1 X107.661 Y118.5 E.02172
G1 X108.23 Y118.423 E.01692
G1 X108.965 Y118.439 E.02167
G1 X109.693 Y118.59 E.02191
G1 X110.286 Y118.831 E.01887
G1 X109.87 Y118.071 E.02554
G1 X109.562 Y117.244 E.02601
G1 X109.374 Y116.381 E.02603
G1 X109.311 Y115.5 E.02603
G1 X109.374 Y114.619 E.02603
G1 X109.562 Y113.756 E.02603
G1 X109.863 Y112.949 E.02539
G1 X110.285 Y112.169 E.02614
G1 X109.693 Y112.41 E.01884
G1 X108.972 Y112.559 E.0217
G1 X108.399 Y112.585 E.01691
G1 X107.667 Y112.502 E.02171
G1 X106.956 Y112.285 E.02191
G1 X106.296 Y111.944 E.0219
G1 X105.709 Y111.488 E.02191
G1 X105.213 Y110.933 E.02194
G1 X104.827 Y110.298 E.0219
G1 X104.562 Y109.603 E.02192
G1 X104.427 Y108.872 E.02191
G1 X104.427 Y108.128 E.02193
G1 X104.562 Y107.397 E.02191
G1 X104.827 Y106.702 E.02192
G1 X105.213 Y106.067 E.0219
G1 X105.709 Y105.512 E.02194
G1 X106.296 Y105.056 E.02191
G1 X106.956 Y104.715 E.0219
G1 X107.661 Y104.5 E.02172
G1 X108.23 Y104.423 E.01692
G1 X108.965 Y104.439 E.02167
G1 X109.693 Y104.59 E.02191
G1 X110.382 Y104.87 E.02192
G1 X111.008 Y105.271 E.02191
G1 X111.552 Y105.778 E.02192
G1 X111.994 Y106.376 E.02192
G1 X112.322 Y107.043 E.02191
G1 X112.522 Y107.758 E.02188
G1 X112.59 Y108.5 E.02196
G1 X112.522 Y109.24 E.0219
G1 X112.32 Y109.96 E.02204
G1 X112.157 Y110.292 E.0109
G1 X112.929 Y109.87 E.02593
G1 X113.756 Y109.562 E.02601
G1 X114.619 Y109.374 E.02603
G1 X115.479 Y109.313 E.02541
G1 X116.38 Y109.374 E.02662
G1 X117.244 Y109.562 E.02606
G1 X118.071 Y109.87 E.02601
G1 X118.82 Y110.279 E.02515
G1 X118.562 Y109.603 E.02133
G1 X118.427 Y108.872 E.02191
G1 X118.427 Y108.128 E.02193
G1 X118.562 Y107.397 E.02191
G1 X118.827 Y106.702 E.02192
G1 X119.213 Y106.067 E.0219
G1 X119.709 Y105.512 E.02194
G1 X120.296 Y105.056 E.02191
G1 X120.956 Y104.715 E.0219
G1 X121.661 Y104.5 E.02172
G1 X122.23 Y104.423 E.01692
G1 X122.965 Y104.439 E.02167
G1 X123.693 Y104.59 E.02191
G1 X124.382 Y104.87 E.02192
G1 X125.008 Y105.271 E.02191
G1 X125.552 Y105.778 E.02192
G1 X125.994 Y106.376 E.02192
G1 X126.322 Y107.043 E.02191
G1 X126.522 Y107.758 E.02188
G1 X126.59 Y108.5 E.02196
G1 X126.542 Y109.032 E.01574
G1 X126.522 Y109.24 E.00616
G1 X126.32 Y109.96 E.02204
G1 X125.996 Y110.622 E.02172
G1 X125.677 Y111.061 E.01599
G1 X125.546 Y111.228 E.00626
G1 X125.008 Y111.729 E.02167
G1 X124.382 Y112.13 E.02191
G1 X123.693 Y112.41 E.02192
G1 X122.972 Y112.559 E.0217
G1 X122.399 Y112.585 E.01691
G1 X121.697 Y112.505 E.02082
G1 X120.786 Y113.086 F6000
;TYPE:External perimeter
G1 F1200
G1 X121.075 Y113.863 E.02443
G1 X121.252 Y114.673 E.02444
G1 X121.311 Y115.5 E.02444
G1 X121.252 Y116.327 E.02444
G1 X121.164 Y116.732 E.01222
G1 X121.075 Y117.137 E.01222
G1 X120.786 Y117.914 E.02443
G1 X120.388 Y118.642 E.02445
G1 X119.892 Y119.305 E.0244
G1 X119.305 Y119.891 E.02445
G1 X118.642 Y120.388 E.02442
G1 X117.914 Y120.786 E.02445
G1 X117.156 Y121.068 E.02384
G1 X116.327 Y121.252 E.02503
G1 X115.5 Y121.311 E.02444
G1 X114.673 Y121.252 E.02444
G1 X113.863 Y121.075 E.02444
G1 X113.086 Y120.786 E.02443
G1 X112.358 Y120.388 E.02445
G1 X111.695 Y119.892 E.0244
G1 X111.402 Y119.598 E.01223
G1 X111.109 Y119.305 E.01221
G1 X110.612 Y118.642 E.02442
G1 X110.214 Y117.914 E.02445
G1 X109.925 Y117.137 E.02443
G1 X109.748 Y116.327 E.02444
G1 X109.689 Y115.5 E.02444
G1 X109.748 Y114.673 E.02444
G1 X109.925 Y113.863 E.02444
G1 X110.207 Y113.105 E.02384
G1 X110.611 Y112.359 E.025
G1 X111.109 Y111.695 E.02446
G1 X111.695 Y111.109 E.02443
G1 X112.358 Y110.612 E.02442
G1 X113.086 Y110.214 E.02445
G1 X113.863 Y109.925 E.02443
G1 X114.673 Y109.748 E.02444
G1 X115.479 Y109.691 E.02381
G1 X116.327 Y109.748 E.02505
G1 X117.137 Y109.925 E.02444
G1 X117.914 Y110.214 E.02443
G1 X118.642 Y110.612 E.02445
G1 X119.305 Y111.108 E.0244
G1 X119.891 Y111.695 E.02445
G1 X120.388 Y112.358 E.02442
G1 X120.757 Y113.033 E.02267
G1 E-1.12 F2400
;WIPE_START
G1 F4800
G1 X120.786 Y113.086 E-.0287
G1 X121.075 Y113.863 E-.39378
G1 X121.101 Y113.981 E-.05752
;WIPE_END
G1 X111.267 Y110.972 F6000
G1 E1.6 F2400
G1 F1200
G1 X110.776 Y111.43 E.01979
G1 X110.208 Y111.793 E.01987
G1 X109.583 Y112.048 E.01989
G1 X108.925 Y112.184 E.0198
G1 X108.412 Y112.207 E.01513
G1 X107.744 Y112.131 E.01982
G1 X107.099 Y111.935 E.01987
G1 X106.5 Y111.625 E.01988
G1 X105.967 Y111.211 E.01989
G1 X105.518 Y110.708 E.01987
G1 X105.167 Y110.131 E.01991
G1 X104.926 Y109.501 E.01988
G1 X104.804 Y108.837 E.0199
G1 X104.804 Y108.163 E.01986
G1 X104.926 Y107.499 E.0199
G1 X105.167 Y106.869 E.01988
G1 X105.518 Y106.292 E.01991
G1 X105.967 Y105.789 E.01987
G1 X106.5 Y105.375 E.01989
G1 X107.099 Y105.065 E.01988
G1 X107.742 Y104.869 E.01981
G1 X108.251 Y104.801 E.01514
G1 X108.922 Y104.815 E.01978
G1 X109.583 Y104.952 E.0199
G1 X110.208 Y105.207 E.01989
G1 X110.776 Y105.57 E.01987
G1 X111.269 Y106.03 E.01987
G1 X111.671 Y106.572 E.01989
G1 X111.968 Y107.178 E.01989
G1 X112.15 Y107.828 E.01989
G1 X112.211 Y108.5 E.01989
G1 X112.15 Y109.172 E.01989
G1 X111.967 Y109.823 E.01993
G1 X111.671 Y110.427 E.01982
G1 X111.303 Y110.924 E.01823
G1 E-1.12 F2400
;WIPE_START
G1 F4800
G1 X111.267 Y110.972 E-.0285
G1 X110.776 Y111.43 E-.31894
G1 X110.541 Y111.58 E-.13256
;WIPE_END
G1 X119.518 Y110.708 F6000
G1 E1.6 F2400
G1 F1200
G1 X119.167 Y110.131 E.01991
G1 X118.926 Y109.501 E.01988
G1 X118.804 Y108.837 E.0199
G1 X118.804 Y108.163 E.01986
G1 X118.926 Y107.499 E.0199
G1 X119.167 Y106.869 E.01988
G1 X119.518 Y106.292 E.01991
G1 X119.967 Y105.789 E.01987
G1 X120.5 Y105.375 E.01989
G1 X121.099 Y105.065 E.01988
G1 X121.742 Y104.869 E.01981
G1 X122.251 Y104.801 E.01514
G1 X122.922 Y104.815 E.01978
G1 X123.583 Y104.952 E.0199
G1 X124.208 Y105.207 E.01989
G1 X124.776 Y105.57 E.01987
G1 X125.269 Y106.03 E.01987
G1 X125.671 Y106.572 E.01989
G1 X125.968 Y107.178 E.01989
G1 X126.15 Y107.828 E.01989
G1 X126.211 Y108.5 E.01989
G1 X126.15 Y109.172 E.01989
G1 X125.967 Y109.823 E.01993
G1 X125.671 Y110.427 E.01982
G1 X125.267 Y110.972 E.01999
G1 X124.776 Y111.43 E.01979
G1 X124.208 Y111.793 E.01987
G1 X123.583 Y112.048 E.01989
G1 X122.925 Y112.184 E.0198
G1 X122.412 Y112.207 E.01513
G1 X121.744 Y112.131 E.01982
G1 X121.099 Y111.935 E.01987
G1 X120.5 Y111.625 E.01988
G1 X119.967 Y111.211 E.01989
G1 X119.558 Y110.753 E.0181
G1 E-1.12 F2400
;WIPE_START
G1 F4800
G1 X119.518 Y110.708 E-.0286
G1 X119.167 Y110.131 E-.3208
G1 X119.069 Y109.874 E-.1306
;WIPE_END
G1 X119.967 Y119.789 F6000
G1 E1.6 F2400
G1 F1200
G1 X120.5 Y119.375 E.01989
G1 X121.099 Y119.065 E.01988
G1 X121.742 Y118.869 E.01981
G1 X122.251 Y118.801 E.01514
G1 X122.922 Y118.815 E.01978
G1 X123.583 Y118.952 E.0199
G1 X124.208 Y119.207 E.01989
G1 X124.776 Y119.57 E.01987
G1 X125.269 Y120.03 E.01987
G1 X125.671 Y120.572 E.01989
G1 X125.968 Y121.178 E.01989
G1 X126.15 Y121.828 E.01989
G1 X126.211 Y122.5 E.01989
G1 X126.15 Y123.172 E.01989
G1 X125.967 Y123.823 E.01993
G1 X125.671 Y124.427 E.01982
G1 X125.267 Y124.972 E.01999
G1 X124.776 Y125.43 E.01979
G1 X124.208 Y125.793 E.01987
G1 X123.583 Y126.048 E.01989
G1 X122.925 Y126.184 E.0198
G1 X122.412 Y126.207 E.01513
G1 X121.744 Y126.131 E.01982
G1 X121.099 Y125.935 E.01987
G1 X120.5 Y125.625 E.01988
G1 X119.967 Y125.211 E.01989
G1 X119.518 Y124.708 E.01987
G1 X119.167 Y124.131 E.01991
G1 X118.926 Y123.501 E.01988
G1 X118.804 Y122.837 E.0199
G1 X118.804 Y122.163 E.01986
G1 X118.926 Y121.499 E.0199
G1 X119.167 Y120.869 E.01988
G1 X119.518 Y120.292 E.01991
G1 X119.927 Y119.834 E.0181
G1 E-1.12 F2400
;WIPE_START
G1 F4800
G1 X119.967 Y119.789 E-.0286
G1 X120.5 Y119.375 E-.32058
G1 X120.745 Y119.249 E-.13082
;WIPE_END
G1 X111.269 Y120.03 F6000
G1 E1.6 F2400
G1 F1200
G1 X111.671 Y120.572 E.01989
G1 X111.968 Y121.178 E.01989
G1 X112.15 Y121.828 E.01989
G1 X112.211 Y122.5 E.01989
G1 X112.15 Y123.172 E.01989
G1 X111.967 Y123.823 E.01993
G1 X111.671 Y124.427 E.01982
G1 X111.267 Y124.972 E.01999
G1 X110.776 Y125.43 E.01979
G1 X110.208 Y125.793 E.01987
G1 X109.583 Y126.048 E.01989
G1 X108.925 Y126.184 E.0198
G1 X108.412 Y126.207 E.01513
G1 X107.744 Y126.131 E.01982
G1 X107.099 Y125.935 E.01987
G1 X106.5 Y125.625 E.01988
G1 X105.967 Y125.211 E.01989
G1 X105.518 Y124.708 E.01987
G1 X105.167 Y124.131 E.01991
G1 X104.926 Y123.501 E.01988
G1 X104.804 Y122.837 E.0199
G1 X104.804 Y122.163 E.01986
G1 X104.926 Y121.499 E.0199
