; generated by PrusaSlicer 2.7.0+win64 on 2023-12-11 at 14:19:55 UTC

; 

; external perimeters extrusion width = 0.42mm
; perimeters extrusion width = 0.44mm
; infill extrusion width = 0.44mm
; solid infill extrusion width = 0.44mm
; top infill extrusion width = 0.40mm
; first layer extrusion width = 0.42mm


; printing object Square_Middle.stl id:0 copy 0
; stop printing object Square_Middle.stl id:0 copy 0

;TYPE:Custom
; Ender 3 Custom Start G-code
G92 E0 ; Reset Extruder

M140 S55 ; set bed temp
M104 S160 ; set extruder temp
M109 S160 ; wait for extruder temp
M190 S55 ; wait for bed temp

G28 ; Home all axes
M104 S210 ; set extruder temp 
BED_MESH_CALIBRATE AREA_START=99.6802,99.6802 AREA_END=131.32,131.32

G1 Z2.0 F3000 ; Move Z Axis up little to prevent scratching of Heat Bed
M109 S210 ; wait for extruder temp
G1 X0.1 Y20 Z0.3 F5000.0 ; Move to start position

G1 X0.1 Y200.0 Z0.3 F1500.0 E15 ; Draw the first line
G1 X0.4 Y200.0 Z0.3 F5000.0 ; Move to side a little
G1 X0.4 Y20 Z0.3 F1500.0 E30 ; Draw the second line
G92 E0 ; Reset Extruder
G1 Z2.0 F3000 ; Move Z Axis up little to prevent scratching of Heat Bed
G1 X5 Y20 Z0.3 F5000.0 ; Move over to prevent blob squish
G21 ; set units to millimeters
G90 ; use absolute coordinates
M83 ; use relative distances for extrusion
; Filament gcode
M107
;LAYER_CHANGE
;Z:0.2
;HEIGHT:0.2
;BEFORE_LAYER_CHANGE
G92 E0
;0.2


G1 E-1.6 F2400
G1 Z.2 F6000
;AFTER_LAYER_CHANGE
;0.2
G1 X102.286 Y102.286
G1 Z.2
G1 E1.6 F2400
M204 S500
;TYPE:Skirt/Brim
;WIDTH:0.42
G1 F1200
G1 X103.786 Y100.786 E.06252
G1 X105.139 Y99.989 E.04628
G1 X106 Y99.869 E.02562
G1 X125 Y99.869 E.55999
G1 X126.52 Y100.262 E.04627
G1 X127.214 Y100.786 E.02563
G1 X130.214 Y103.786 E.12504
G1 X131.011 Y105.139 E.04628
G1 X131.131 Y106 E.02562
G1 X131.131 Y125 E.55999
G1 X130.738 Y126.52 E.04627
G1 X130.214 Y127.214 E.02563
G1 X127.214 Y130.214 E.12504
G1 X125.861 Y131.011 E.04628
G1 X125 Y131.131 E.02562
G1 X106 Y131.131 E.55999
G1 X104.48 Y130.738 E.04627
G1 X103.786 Y130.214 E.02563
G1 X100.786 Y127.214 E.12504
G1 X99.989 Y125.861 E.04628
G1 X99.869 Y125 E.02562
G1 X99.869 Y106 E.55999
G1 X100.262 Y104.48 E.04627
G1 X100.786 Y103.786 E.02563
G1 X102.243 Y102.328 E.06075
G1 X102.51 Y102.595 F6000
G1 F1200
G1 X104.053 Y101.053 E.06429
G1 X106 Y100.246 E.06212
G1 X125 Y100.246 E.55999
G1 X126.947 Y101.052 E.06211
G1 X129.947 Y104.053 E.12506
G1 X130.754 Y106 E.06212
G1 X130.754 Y125 E.55999
G1 X129.948 Y126.947 E.06211
G1 X126.947 Y129.947 E.12506
G1 X125 Y130.754 E.06212
G1 X106 Y130.754 E.55999
G1 X104.053 Y129.948 E.06211
G1 X101.053 Y126.947 E.12506
G1 X100.246 Y125 E.06212
G1 X100.246 Y106 E.55999
G1 X101.052 Y104.053 E.06211
G1 X102.468 Y102.637 E.05902
G1 X102.734 Y102.904 F6000
G1 F1200
G1 X104.319 Y101.319 E.06606
G1 X106 Y100.623 E.05362
G1 X125 Y100.623 E.55999
G1 X126.681 Y101.319 E.05362
G1 X129.681 Y104.319 E.12504
G1 X130.377 Y106 E.05362
G1 X130.377 Y125 E.55999
G1 X129.681 Y126.681 E.05362
G1 X126.681 Y129.681 E.12504
G1 X125 Y130.377 E.05362
G1 X106 Y130.377 E.55999
G1 X104.319 Y129.681 E.05362
G1 X101.319 Y126.681 E.12504
G1 X100.623 Y125 E.05362
G1 X100.623 Y106 E.55999
G1 X101.319 Y104.319 E.05362
G1 X102.692 Y102.946 E.05723
; printing object Square_Middle.stl id:0 copy 0
G1 E-1.12 F2400
;WIPE_START
G1 F4800
G1 X102.734 Y102.904 E-.02821
G1 X103.407 Y102.232 E-.45179
;WIPE_END
G1 X112.218 Y110.705 F6000
G1 E1.6 F2400
;TYPE:External perimeter
G1 F1200
G1 X112.724 Y110.396 E.01747
G1 X113.259 Y110.139 E.01749
G1 X113.818 Y109.939 E.0175
G1 X114.394 Y109.796 E.01749
G1 X114.981 Y109.713 E.01747
G1 X115.564 Y109.69 E.0172
G1 X115.873 Y109.702 E.00911
G1 X116.46 Y109.77 E.01742
G1 X117.04 Y109.897 E.0175
G1 X117.603 Y110.084 E.01748
G1 X118.144 Y110.326 E.01747
G1 X118.658 Y110.623 E.0175
G1 X119.139 Y110.971 E.0175
G1 X119.582 Y111.365 E.01747
G1 X119.983 Y111.803 E.0175
G1 X120.336 Y112.28 E.01749
G1 X120.639 Y112.79 E.01748
G1 X120.889 Y113.328 E.01748
G1 X121.082 Y113.889 E.01749
G1 X121.218 Y114.467 E.0175
G1 X121.293 Y115.053 E.01741
G1 X121.308 Y115.354 E.00888
G1 X121.293 Y115.945 E.01742
G1 X121.218 Y116.533 E.01747
G1 X121.082 Y117.111 E.0175
G1 X120.889 Y117.672 E.01749
G1 X120.639 Y118.21 E.01748
G1 X120.336 Y118.72 E.01748
G1 X119.984 Y119.195 E.01742
G1 X119.786 Y119.423 E.0089
G1 X119.366 Y119.838 E.0174
G1 X118.903 Y120.209 E.01749
G1 X118.405 Y120.532 E.01749
G1 X117.877 Y120.802 E.01748
G1 X117.324 Y121.017 E.01749
G1 X116.752 Y121.174 E.01748
G1 X116.166 Y121.272 E.01751
G1 X115.574 Y121.31 E.01748
G1 X114.981 Y121.287 E.01749
G1 X114.394 Y121.204 E.01747
G1 X113.818 Y121.061 E.01749
G1 X113.259 Y120.861 E.0175
G1 X112.724 Y120.604 E.01749
G1 X112.227 Y120.3 E.01717
G1 X111.976 Y120.119 E.00912
G1 X111.525 Y119.738 E.0174
G1 X111.113 Y119.31 E.01751
G1 X110.748 Y118.843 E.01747
G1 X110.431 Y118.341 E.0175
G1 X110.168 Y117.809 E.01749
G1 X109.96 Y117.253 E.0175
G1 X109.811 Y116.679 E.01748
G1 X109.72 Y116.093 E.01748
G1 X109.69 Y115.5 E.0175
G1 X109.72 Y114.907 E.0175
G1 X109.811 Y114.321 E.01748
G1 X109.96 Y113.747 E.01748
G1 X110.168 Y113.191 E.0175
G1 X110.43 Y112.662 E.0174
G1 X110.585 Y112.402 E.00892
G1 X110.924 Y111.919 E.01739
G1 X111.314 Y111.471 E.01751
G1 X111.746 Y111.065 E.01747
G1 X112.17 Y110.742 E.01571
G1 E-1.12 F2400
;WIPE_START
G1 F4800
G1 X112.218 Y110.705 E-.02879
G1 X112.724 Y110.396 E-.28162
G1 X113.046 Y110.241 E-.16959
;WIPE_END
G1 X109.903 Y112.876 F6000
G1 E1.6 F2400
;TYPE:Perimeter
G1 F1200
G1 X109.822 Y113.041 E.00542
G1 X109.601 Y113.633 E.01862
G1 X109.441 Y114.244 E.01862
G1 X109.344 Y114.869 E.01864
G1 X109.312 Y115.5 E.01862
G1 X109.344 Y116.131 E.01862
G1 X109.441 Y116.756 E.01864
G1 X109.601 Y117.367 E.01862
G1 X109.822 Y117.959 E.01862
G1 X110.102 Y118.525 E.01861
G1 X110.294 Y118.831 E.01065
G1 X109.946 Y118.676 E.01123
G1 X109.514 Y118.541 E.01334
G1 X109.184 Y118.47 E.00995
G1 X108.734 Y118.419 E.01335
G1 X108.397 Y118.414 E.00993
G1 X107.949 Y118.45 E.01325
G1 X107.673 Y118.497 E.00825
G1 X107.18 Y118.631 E.01506
G1 X106.864 Y118.755 E.01
G1 X106.456 Y118.96 E.01346
G1 X106.075 Y119.211 E.01345
G1 X105.811 Y119.421 E.00994
G1 X105.488 Y119.738 E.01334
G1 X105.27 Y119.995 E.00993
G1 X105.013 Y120.368 E.01335
G1 X104.849 Y120.663 E.00995
G1 X104.668 Y121.078 E.01334
G1 X104.564 Y121.399 E.00995
G1 X104.466 Y121.84 E.01331
G1 X104.426 Y122.176 E.00997
G1 X104.414 Y122.631 E.01341
G1 X104.456 Y123.086 E.01347
G1 X104.517 Y123.418 E.00995
G1 X104.643 Y123.853 E.01335
G1 X104.767 Y124.166 E.00992
G1 X104.975 Y124.569 E.01337
G1 X105.157 Y124.852 E.00992
G1 X105.438 Y125.208 E.01337
G1 X105.672 Y125.45 E.00992
G1 X106.015 Y125.746 E.01335
G1 X106.292 Y125.938 E.00993
G1 X106.688 Y126.165 E.01345
G1 X107.109 Y126.343 E.01347
G1 X107.43 Y126.445 E.00993
G1 X107.873 Y126.539 E.01335
G1 X108.208 Y126.577 E.00994
G1 X108.661 Y126.584 E.01335
G1 X108.997 Y126.557 E.00993
G1 X109.442 Y126.478 E.01332
G1 X109.767 Y126.386 E.00996
G1 X110.186 Y126.224 E.01324
G1 X110.437 Y126.1 E.00825
G1 X110.875 Y125.828 E.0152
G1 X111.231 Y125.54 E.0135
G1 X111.474 Y125.305 E.00996
G1 X111.765 Y124.959 E.01332
G1 X111.957 Y124.681 E.00996
G1 X112.177 Y124.286 E.01333
G1 X112.311 Y123.976 E.00995
G1 X112.452 Y123.546 E.01334
G1 X112.524 Y123.216 E.00995
G1 X112.58 Y122.763 E.01345
G1 X112.582 Y122.307 E.01344
G1 X112.553 Y121.969 E.01
G1 X112.455 Y121.467 E.01507
G1 X112.375 Y121.199 E.00824
G1 X112.171 Y120.708 E.01567
G1 X112.544 Y120.936 E.01288
G1 X113.114 Y121.209 E.01863
G1 X113.708 Y121.423 E.01861
G1 X114.322 Y121.575 E.01864
G1 X114.948 Y121.663 E.01863
G1 X115.579 Y121.687 E.01861
G1 X116.21 Y121.647 E.01863
G1 X116.833 Y121.543 E.01862
G1 X117.442 Y121.375 E.01862
G1 X118.119 Y121.102 E.02151
G1 X117.425 Y121.796 E.02893
G1 X122.942 Y127.313 E.22996
G1 X106.285 Y127.313 E.49093
G1 X103.687 Y124.715 E.10829
G1 X103.687 Y108.058 E.49093
G1 X109.204 Y113.575 E.22996
G1 X109.861 Y112.918 E.02738
G1 E-1.12 F2400
;WIPE_START
G1 F4800
G1 X109.903 Y112.876 E-.02821
G1 X109.822 Y113.041 E-.08731
G1 X109.601 Y113.633 E-.30016
G1 X109.567 Y113.764 E-.06432
;WIPE_END
G1 X111.028 Y119.784 F6000
G1 E1.6 F2400
;TYPE:External perimeter
G1 F1200
G1 X111.315 Y120.084 E.01224
G1 X111.502 Y120.32 E.00887
G1 X111.727 Y120.67 E.01226
G1 X111.865 Y120.938 E.00888
G1 X112.018 Y121.323 E.01221
G1 X112.089 Y121.558 E.00724
G1 X112.179 Y122.021 E.0139
G1 X112.205 Y122.322 E.0089
G1 X112.203 Y122.739 E.01229
G1 X112.151 Y123.153 E.0123
G1 X112.087 Y123.447 E.00887
G1 X111.958 Y123.842 E.01225
G1 X111.838 Y124.118 E.00887
G1 X111.636 Y124.482 E.01227
G1 X111.465 Y124.73 E.00888
G1 X111.197 Y125.048 E.01226
G1 X110.981 Y125.257 E.00886
G1 X110.656 Y125.52 E.01232
G1 X110.254 Y125.77 E.01395
G1 X110.034 Y125.878 E.00722
G1 X109.647 Y126.027 E.01222
G1 X109.358 Y126.11 E.00886
G1 X108.948 Y126.183 E.01227
G1 X108.648 Y126.207 E.00887
G1 X108.232 Y126.2 E.01226
G1 X107.933 Y126.166 E.00887
G1 X107.527 Y126.08 E.01223
G1 X107.24 Y125.989 E.00887
G1 X106.855 Y125.826 E.01232
G1 X106.493 Y125.619 E.01229
G1 X106.246 Y125.447 E.00887
G1 X105.931 Y125.176 E.01225
G1 X105.722 Y124.959 E.00888
G1 X105.465 Y124.633 E.01223
G1 X105.302 Y124.38 E.00887
G1 X105.111 Y124.01 E.01227
G1 X105 Y123.73 E.00888
G1 X104.884 Y123.331 E.01225
G1 X104.83 Y123.035 E.00887
G1 X104.792 Y122.619 E.01231
G1 X104.803 Y122.203 E.01227
G1 X104.838 Y121.904 E.00887
G1 X104.928 Y121.498 E.01226
G1 X105.021 Y121.211 E.00889
G1 X105.187 Y120.83 E.01225
G1 X105.334 Y120.567 E.00888
G1 X105.57 Y120.225 E.01225
G1 X105.764 Y119.995 E.00887
G1 X106.061 Y119.704 E.01225
G1 X106.297 Y119.516 E.00889
G1 X106.645 Y119.287 E.01228
G1 X107.018 Y119.1 E.0123
G1 X107.299 Y118.99 E.00889
G1 X107.754 Y118.866 E.0139
G1 X107.996 Y118.824 E.00724
G1 X108.409 Y118.791 E.01221
G1 X108.71 Y118.796 E.00887
G1 X109.123 Y118.843 E.01225
G1 X109.418 Y118.906 E.00889
G1 X109.814 Y119.03 E.01223
G1 X110.091 Y119.15 E.0089
G1 X110.458 Y119.348 E.01229
G1 X110.798 Y119.589 E.01228
G1 X110.982 Y119.745 E.00711
G1 E-1.12 F2400
;WIPE_START
G1 F4800
G1 X111.028 Y119.784 E-.02865
G1 X111.315 Y120.084 E-.19721
G1 X111.502 Y120.32 E-.14303
G1 X111.629 Y120.517 E-.11111
;WIPE_END
G1 X109.204 Y113.042 F6000
G1 E1.6 F2400
G1 F1200
G1 X103.816 Y107.654 E.22458
G1 X107.654 Y103.816 E.15997
G1 X113.042 Y109.204 E.22458
G1 X109.246 Y113 E.15822
G1 E-1.12 F2400
;WIPE_START
G1 F4800
G1 X109.204 Y113.042 E-.02821
G1 X108.531 Y112.369 E-.45179
;WIPE_END
G1 X103.687 Y106.285 F6000
G1 E1.6 F2400
;TYPE:Perimeter
G1 F1200
G1 X106.285 Y103.687 E.10829
G1 X107.249 Y103.687 E.02841
G1 X103.687 Y107.249 E.14847
G1 X103.687 Y106.345 E.02664
G1 E-1.12 F2400
;WIPE_START
G1 F4800
G1 X103.687 Y106.285 E-.0285
G1 X104.359 Y105.613 E-.4515
;WIPE_END
G1 X119.722 Y110.959 F6000
G1 E1.6 F2400
;TYPE:External perimeter
G1 F1200
G1 X119.465 Y110.633 E.01223
G1 X119.302 Y110.38 E.00887
G1 X119.111 Y110.01 E.01227
G1 X119 Y109.73 E.00888
G1 X118.884 Y109.331 E.01225
G1 X118.83 Y109.035 E.00887
G1 X118.792 Y108.619 E.01231
G1 X118.803 Y108.203 E.01227
G1 X118.838 Y107.904 E.00887
G1 X118.928 Y107.498 E.01226
G1 X119.021 Y107.211 E.00889
G1 X119.187 Y106.83 E.01225
G1 X119.334 Y106.567 E.00888
G1 X119.57 Y106.225 E.01225
G1 X119.764 Y105.995 E.00887
G1 X120.061 Y105.704 E.01225
G1 X120.297 Y105.516 E.00889
G1 X120.645 Y105.287 E.01228
G1 X121.018 Y105.1 E.0123
G1 X121.299 Y104.99 E.00889
G1 X121.754 Y104.866 E.0139
G1 X121.996 Y104.824 E.00724
G1 X122.409 Y104.791 E.01221
G1 X122.71 Y104.796 E.00887
G1 X123.123 Y104.843 E.01225
G1 X123.418 Y104.906 E.00889
G1 X123.814 Y105.03 E.01223
G1 X124.091 Y105.149 E.00889
G1 X124.458 Y105.348 E.0123
G1 X124.798 Y105.589 E.01228
G1 X125.028 Y105.784 E.00889
G1 X125.315 Y106.084 E.01224
G1 X125.502 Y106.32 E.00887
G1 X125.727 Y106.67 E.01226
G1 X125.865 Y106.938 E.00888
G1 X126.018 Y107.323 E.01221
G1 X126.089 Y107.558 E.00724
G1 X126.179 Y108.021 E.0139
G1 X126.205 Y108.322 E.0089
G1 X126.203 Y108.739 E.01229
G1 X126.151 Y109.153 E.0123
G1 X126.087 Y109.447 E.00887
G1 X125.958 Y109.842 E.01225
G1 X125.838 Y110.118 E.00887
G1 X125.636 Y110.482 E.01227
G1 X125.465 Y110.729 E.00885
G1 X125.197 Y111.048 E.01228
G1 X124.981 Y111.257 E.00886
G1 X124.656 Y111.52 E.01232
G1 X124.254 Y111.77 E.01395
G1 X124.034 Y111.878 E.00722
G1 X123.647 Y112.027 E.01222
G1 X123.358 Y112.11 E.00886
G1 X122.948 Y112.183 E.01227
G1 X122.648 Y112.207 E.00887
G1 X122.232 Y112.2 E.01226
G1 X121.933 Y112.166 E.00887
G1 X121.527 Y112.08 E.01223
G1 X121.24 Y111.989 E.00887
G1 X120.855 Y111.826 E.01232
G1 X120.493 Y111.619 E.01229
G1 X120.246 Y111.447 E.00887
G1 X119.931 Y111.176 E.01225
G1 X119.764 Y111.003 E.00709
G1 E-1.12 F2400
;WIPE_START
G1 F4800
G1 X119.722 Y110.959 E-.02889
G1 X119.465 Y110.633 E-.19718
G1 X119.302 Y110.38 E-.14296
G1 X119.195 Y110.172 E-.11097
;WIPE_END
G1 X121.796 Y117.425 F6000
G1 E1.6 F2400
;TYPE:Perimeter
G1 F1200
G1 X121.094 Y118.127 E.02926
G1 X121.239 Y117.813 E.01019
G1 X121.445 Y117.216 E.01861
G1 X121.589 Y116.6 E.01864
G1 X121.67 Y115.974 E.0186
G1 X121.686 Y115.349 E.01843
G1 X121.669 Y115.019 E.00974
G1 X121.589 Y114.4 E.0184
G1 X121.445 Y113.784 E.01864
G1 X121.239 Y113.187 E.01861
G1 X120.973 Y112.614 E.01862
G1 X120.713 Y112.175 E.01504
G1 X121.108 Y112.343 E.01265
G1 X121.43 Y112.445 E.00996
G1 X121.873 Y112.539 E.01335
G1 X122.208 Y112.577 E.00994
G1 X122.661 Y112.584 E.01335
G1 X122.997 Y112.557 E.00993
G1 X123.442 Y112.478 E.01332
G1 X123.767 Y112.386 E.00996
G1 X124.186 Y112.224 E.01324
G1 X124.437 Y112.1 E.00825
G1 X124.875 Y111.828 E.0152
G1 X125.231 Y111.54 E.0135
G1 X125.474 Y111.305 E.00996
G1 X125.765 Y110.959 E.01332
G1 X125.957 Y110.681 E.00996
G1 X126.177 Y110.286 E.01333
G1 X126.311 Y109.976 E.00995
G1 X126.452 Y109.546 E.01334
G1 X126.524 Y109.216 E.00995
G1 X126.58 Y108.763 E.01345
G1 X126.582 Y108.307 E.01344
G1 X126.553 Y107.969 E.01
G1 X126.455 Y107.467 E.01507
G1 X126.375 Y107.199 E.00824
G1 X126.208 Y106.781 E.01327
G1 X126.054 Y106.481 E.00994
G1 X125.809 Y106.101 E.01333
G1 X125.6 Y105.836 E.00995
G1 X125.287 Y105.509 E.01334
G1 X125.03 Y105.291 E.00993
G1 X124.657 Y105.027 E.01347
G1 X124.256 Y104.81 E.01344
G1 X123.946 Y104.676 E.00995
G1 X123.514 Y104.541 E.01334
G1 X123.184 Y104.47 E.00995
G1 X122.734 Y104.419 E.01335
G1 X122.397 Y104.414 E.00993
G1 X121.949 Y104.45 E.01325
G1 X121.673 Y104.497 E.00825
G1 X121.18 Y104.631 E.01506
G1 X120.864 Y104.755 E.01
G1 X120.456 Y104.96 E.01346
G1 X120.075 Y105.211 E.01345
G1 X119.811 Y105.421 E.00994
G1 X119.488 Y105.738 E.01334
G1 X119.27 Y105.995 E.00993
G1 X119.013 Y106.368 E.01335
G1 X118.849 Y106.663 E.00995
G1 X118.668 Y107.078 E.01334
G1 X118.564 Y107.399 E.00995
G1 X118.466 Y107.84 E.01331
G1 X118.426 Y108.176 E.00997
G1 X118.414 Y108.631 E.01341
G1 X118.456 Y109.086 E.01347
G1 X118.517 Y109.418 E.00995
G1 X118.643 Y109.853 E.01335
G1 X118.829 Y110.286 E.01389
G1 X118.316 Y109.99 E.01746
G1 X117.74 Y109.732 E.0186
G1 X117.14 Y109.533 E.01863
G1 X116.523 Y109.397 E.01862
G1 X115.902 Y109.326 E.01842
G1 X115.564 Y109.313 E.00997
G1 X114.947 Y109.337 E.0182
G1 X114.322 Y109.425 E.0186
G1 X113.708 Y109.577 E.01864
G1 X113.114 Y109.791 E.01861
G1 X112.873 Y109.906 E.00787
G1 X113.575 Y109.204 E.02926
G1 X108.058 Y103.687 E.22996
G1 X124.715 Y103.687 E.49093
G1 X127.313 Y106.285 E.10829
G1 X127.313 Y122.942 E.49093
G1 X121.838 Y117.467 E.2282
G1 X121.796 Y117.958 F6000
;TYPE:External perimeter
G1 F1200
G1 X127.184 Y123.346 E.22458
G1 X123.346 Y127.184 E.15997
G1 X117.958 Y121.796 E.22458
G1 X121.237 Y118.517 E.13667
G1 X121.754 Y118 E.02155
G1 E-1.12 F2400
;WIPE_START
G1 F4800
G1 X121.796 Y117.958 E-.02821
G1 X122.469 Y118.631 E-.45179
;WIPE_END
G1 X127.313 Y124.715 F6000
G1 E1.6 F2400
;TYPE:Perimeter
G1 F1200
G1 X124.715 Y127.313 E.10829
G1 X123.751 Y127.313 E.02841
G1 X127.313 Y123.751 E.14847
G1 X127.313 Y124.655 E.02664
G1 X127.69 Y124.872 F6000
;TYPE:External perimeter
G1 F1200
G1 X124.872 Y127.69 E.11746
G1 X106.128 Y127.69 E.55244
G1 X103.31 Y124.872 E.11746
G1 X103.31 Y106.128 E.55244
G1 X106.128 Y103.31 E.11746
G1 X124.872 Y103.31 E.55244
