; G-Code originally generated by Simplify3D(R) Version 4.1.2
; This calibration test gcode modified by the Teaching Tech Calibration website: https://teachingtechyt.github.io/calibration.html
;M80 ; power supply on
G90
M82
M106 S0
M140 S50 ; custom bed temp
M190 S50 ; custom bed temp
M104 S160 T0 ; custom hot end temp minus 50 degrees
G28 ; home all axes
G29 ; probe ABL
;M420 S1 ; restore ABL mesh
M109 S210 T0 ; custom hot end temp 
; custom start gcode
; Ender 3 Custom Start G-code
G92 E0 ; Reset Extruder

G28 ; Home all axes
BED_MESH_CALIBRATE

G1 Z2.0 F3000 ; Move Z Axis up little to prevent scratching of Heat Bed
G1 X0.1 Y20 Z0.3 F5000.0 ; Move to start position

G1 X0.1 Y200.0 Z0.3 F1500.0 E15 ; Draw the first line
G1 X0.4 Y200.0 Z0.3 F5000.0 ; Move to side a little
G1 X0.4 Y20 Z0.3 F1500.0 E30 ; Draw the second line
G92 E0 ; Reset Extruder
G1 Z2.0 F3000 ; Move Z Axis up little to prevent scratching of Heat Bed
G1 X5 Y20 Z0.3 F5000.0 ; Move over to prevent blob squish
G0 Z3; fix for delta printers that home at max
SET_VELOCITY_LIMIT ACCEL=600 ACCEL_TO_DECEL=600; custom acceleration - A
SET_VELOCITY_LIMIT SQUARE_CORNER_VELOCITY=1 ; custom SCV - A
;layer 1, Z = 0.200
T0
G92 E0.0000
G1 E-5.5 F2400 ; custom retraction
;fan1;
G1 Z0.200 F1200
G1 X72.9080 Y150.7420 F6000
G1 E0 F2400 ; custom un-retraction/prime
G92 E0.0000
G1 X72.9080 Y69.4240 E3.5052 F1800
G1 X74.4260 Y67.9060 E3.5978
G1 X161.5740 Y67.9060 E7.3542
G1 X163.0920 Y69.4240 E7.4468
G1 X163.0920 Y102.7060 E8.8814
G1 X162.6610 Y103.6950 E8.9279
G1 X129.1090 Y134.9460 E10.9044
G1 X128.1940 Y135.3060 E10.9468
G1 X127.8900 Y135.3060 E10.9599
G1 X127.8900 Y135.4930 E10.9679
G1 X127.4590 Y136.4830 E11.0144
G1 X93.0230 Y168.5570 E13.0429
G1 X89.9080 Y167.2010 E13.1894
G1 X89.9080 Y152.2600 E13.8334
G1 X74.4260 Y152.2600 E14.5007
G1 X72.9080 Y150.7420 E14.5933
G92 E0.0000
G1 E-5.5 F2400 ; custom retraction
;zhop1
G1 X73.4840 Y150.5030 F6000
G1 Z0.200 F1200
G1 E0 F2400 ; custom un-retraction/prime
G92 E0.0000
G1 X73.4840 Y69.6630 E3.4846 F1800
G1 X74.6650 Y68.4820 E3.5566
G1 X161.3350 Y68.4820 E7.2925
G1 X162.5160 Y69.6630 E7.3645
G1 X162.5160 Y102.5860 E8.7837
G1 X162.1810 Y103.3550 E8.8198
G1 X128.7960 Y134.4500 E10.7864
G1 X128.0840 Y134.7300 E10.8194
G1 X127.3140 Y134.7300 E10.8526
G1 X127.3140 Y135.3730 E10.8803
G1 X126.9790 Y136.1430 E10.9165
G1 X92.9070 Y167.8780 E12.9236
G1 X90.4840 Y166.8230 E13.0375
G1 X90.4840 Y151.6840 E13.6900
G1 X74.6650 Y151.6840 E14.3719
G1 X73.4840 Y150.5030 E14.4439
G92 E0.0000
G1 E-5.5 F2400 ; custom retraction
;zhop1
G1 X74.0600 Y150.2640 F6000
G1 Z0.200 F1200
G1 E0 F2400 ; custom un-retraction/prime
G92 E0.0000
G1 X74.0600 Y69.9020 E3.4641 F1800
G1 X74.9040 Y69.0580 E3.5155
G1 X161.0960 Y69.0580 E7.2308
G1 X161.9400 Y69.9020 E7.2823
G1 X161.9400 Y102.4660 E8.6859
G1 X161.7010 Y103.0150 E8.7118
G1 X128.4840 Y133.9540 E10.6685
G1 X127.9750 Y134.1540 E10.6920
G1 X126.7380 Y134.1540 E10.7454
G1 X126.7380 Y135.2530 E10.7927
G1 X126.4990 Y135.8030 E10.8186
G1 X92.7910 Y167.1990 E12.8042
G1 X91.0600 Y166.4460 E12.8856
G1 X91.0600 Y151.1080 E13.5467
G1 X74.9040 Y151.1080 E14.2431
G1 X74.0600 Y150.2640 E14.2945
G92 E0.0000
G1 E-5.5 F2400 ; custom retraction
;zhop1
G1 X74.6360 Y150.0260 F6000
G1 Z0.200 F1200
G1 E0 F2400 ; custom un-retraction/prime
G92 E0.0000
G1 X74.6360 Y70.1400 E3.4435 F1800
G1 X75.1420 Y69.6340 E3.4743
G1 X160.8580 Y69.6340 E7.1691
G1 X161.3640 Y70.1400 E7.2000
G1 X161.3640 Y102.3460 E8.5882
G1 X161.2200 Y102.6760 E8.6037
G1 X128.1710 Y133.4580 E10.5505
G1 X127.8660 Y133.5780 E10.5647
G1 X126.1620 Y133.5780 E10.6381
G1 X126.1620 Y135.1330 E10.7052
G1 X126.0180 Y135.4630 E10.7207
G1 X92.6740 Y166.5200 E12.6848
G1 X91.6360 Y166.0680 E12.7337
G1 X91.6360 Y150.5320 E13.4033
G1 X75.1420 Y150.5320 E14.1143
G1 X74.6360 Y150.0260 E14.1452
G92 E0.0000
G1 E-5.5 F2400 ; custom retraction
;zhop1
G1 X75.2120 Y149.7870 F6000
G1 Z0.200 F1200
G1 E0 F2400 ; custom un-retraction/prime
G92 E0.0000
G1 X75.2120 Y70.3790 E3.4229 F1800
G1 X75.3810 Y70.2100 E3.4332
G1 X160.6190 Y70.2100 E7.1074
G1 X160.7880 Y70.3790 E7.1177
G1 X160.7880 Y102.2260 E8.4905
G1 X160.7400 Y102.3360 E8.4957
G1 X127.8580 Y132.9620 E10.4326
G1 X127.7570 Y133.0020 E10.4373
G1 X125.5860 Y133.0020 E10.5309
G1 X125.5860 Y135.0140 E10.6176
G1 X125.5380 Y135.1240 E10.6227
G1 X92.5580 Y165.8410 E12.5655
G1 X92.2120 Y165.6910 E12.5817
G1 X92.2120 Y149.9560 E13.2600
G1 X75.3810 Y149.9560 E13.9855
G1 X75.2120 Y149.7870 E13.9958
G92 E0.0000
G1 E-5.5 F2400 ; custom retraction
;zhop1
G1 X75.7880 Y149.3800 F6000
G1 X75.7880 Y149.2960
G1 X76.3640 Y148.8040
G1 Z0.200 F1200
G1 E0 F2400 ; custom un-retraction/prime
G92 E0.0000
G1 X76.3640 Y71.3620 E3.3381 F1440
G1 X159.6360 Y71.3620 E6.9276
G1 X159.6360 Y101.7900 E8.2392
G1 X127.3620 Y131.8500 E10.1403
G1 X124.4340 Y131.8500 E10.2666
G1 X124.4340 Y134.5780 E10.3841
G1 X93.3640 Y163.5170 E12.2143
G1 X93.3640 Y148.8040 E12.8485
G1 X76.3640 Y148.8040 E13.5813
G1 X75.7880 Y149.3800 F6000
G92 E0.0000
G1 X75.7880 Y70.7860 E3.3878 F1080
G1 X160.2120 Y70.7860 E7.0269
G1 X160.2120 Y102.0410 E8.3741
G1 X127.5890 Y132.4260 E10.2959
G1 X125.0100 Y132.4260 E10.4070
G1 X125.0100 Y134.8280 E10.5106
G1 X92.7880 Y164.8400 E12.4086
G1 X92.7880 Y149.3800 E13.0751
G1 X75.7880 Y149.3800 E13.8078
G92 E0.0000
G1 E-5.5 F2400 ; custom retraction
;layer 2, Z = 0.400
M106 S255; custom fan 100% from layer 2
G1 Z0.400 F1200
G1 X76.2200 Y148.9480 F6000
G1 E0 F2400 ; custom un-retraction/prime
G92 E0.0000
G1 X76.2200 Y71.2180 E2.7921 F2880 ; custom outer perimeter feedrate
G1 X159.7800 Y71.2180 E5.7937
G1 X159.7800 Y101.8530 E6.8941
G1 X127.4190 Y131.9940 E8.4827
G1 X124.5780 Y131.9940 E8.5847
G1 X124.5780 Y134.6400 E8.6798
G1 X93.2200 Y163.8470 E10.2191
G1 X93.2200 Y148.9480 E10.7543
G1 X76.2200 Y148.9480 E11.3650
G1 X75.7400 Y149.4280 F6000
G92 E0.0000
G1 X75.7400 Y70.7380 E2.8266 F2880 ; custom inner perimeter feedrate
G1 X160.2600 Y70.7380 E5.8627
G1 X160.2600 Y102.0620 E6.9878
G1 X127.6080 Y132.4740 E8.5907
G1 X125.0580 Y132.4740 E8.6823
G1 X125.0580 Y134.8490 E8.7676
G1 X92.7400 Y164.9500 E10.3540
G1 X92.7400 Y149.4280 E10.9116
G1 X75.7400 Y149.4280 E11.5223
G92 E0.0000
G1 E-5.5 F2400 ; custom retraction
;layer 3, Z = 0.600
;fan3;
G1 Z0.600 F1200
G1 X76.2200 Y148.9480 F6000
G1 E0 F2400 ; custom un-retraction/prime
G92 E0.0000
G1 X76.2200 Y92.3970 E2.0314 F2880 ; custom outer perimeter feedrate
G1 X76.6450 Y92.3970 E2.0466
G1 X76.6450 Y88.4520 E2.1883
G1 X76.2200 Y88.4520 E2.2036
G1 X76.2200 Y71.2180 E2.8227
G1 X138.1810 Y71.2180 E5.0484
G1 X138.1810 Y71.6140 E5.0626
G1 X140.0140 Y71.6140 E5.1284
G1 X140.0140 Y71.2180 E5.1426
G1 X159.7800 Y71.2180 E5.8527
G1 X159.7800 Y101.8530 E6.9531
G1 X127.4190 Y131.9940 E8.5417
G1 X124.5780 Y131.9940 E8.6437
G1 X124.5780 Y134.6400 E8.7387
G1 X93.2200 Y163.8470 E10.2781
G1 X93.2200 Y148.9480 E10.8133
G1 X76.2200 Y148.9480 E11.4239
G1 X75.7400 Y149.4280 F6000
G92 E0.0000
G1 X75.7400 Y91.9170 E2.0659 F2880 ; custom inner perimeter feedrate
G1 X76.1650 Y91.9170 E2.0811
G1 X76.1650 Y91.0500 E2.1123
G1 X75.7400 Y91.0500 E2.1275
G1 X75.7400 Y89.8270 E2.1715
G1 X76.1650 Y89.8270 E2.1867
G1 X76.1650 Y88.9320 E2.2189
G1 X75.7400 Y88.9320 E2.2341
G1 X75.7400 Y70.7380 E2.8877
G1 X138.6610 Y70.7380 E5.1479
G1 X138.6610 Y71.1340 E5.1621
G1 X139.5340 Y71.1340 E5.1934
G1 X139.5340 Y70.7380 E5.2076
G1 X160.2600 Y70.7380 E5.9522
G1 X160.2600 Y102.0620 E7.0773
G1 X127.6080 Y132.4740 E8.6802
G1 X125.0580 Y132.4740 E8.7718
G1 X125.0580 Y134.8490 E8.8571
G1 X92.7400 Y164.9500 E10.4435
G1 X92.7400 Y149.4280 E11.0011
G1 X75.7400 Y149.4280 E11.6118
G1 X76.3520 Y90.6070 F6000
G92 E0.0000
G1 X76.0280 Y90.2830 E0.0165 F2880 ; custom outer perimeter feedrate ; custom outer perimeter feedrate
G92 E0.0000
G1 E-5.5 F2400 ; custom retraction
;layer 4, Z = 0.800
;fan4;
G1 Z0.800 F1200
G1 X76.0310 Y91.0500 F6000
G1 X76.1650 Y91.0500
G1 X76.1650 Y91.9170
G1 X76.0330 Y91.9170
G1 X76.2200 Y148.9480
G1 E0 F2400 ; custom un-retraction/prime
G92 E0.0000
G1 X76.2200 Y92.2960 E2.0350 F2880 ; custom outer perimeter feedrate
G1 X76.6450 Y92.2960 E2.0503
G1 X76.6450 Y88.5530 E2.1847
G1 X76.2200 Y88.5530 E2.2000
G1 X76.2200 Y71.2180 E2.8227
G1 X138.1810 Y71.2180 E5.0484
G1 X138.1810 Y71.6140 E5.0626
G1 X140.0140 Y71.6140 E5.1284
G1 X140.0140 Y71.2180 E5.1426
G1 X159.7800 Y71.2180 E5.8527
G1 X159.7800 Y101.8530 E6.9531
G1 X127.4190 Y131.9940 E8.5417
G1 X124.5780 Y131.9940 E8.6437
G1 X124.5780 Y134.6400 E8.7387
G1 X93.2200 Y163.8470 E10.2781
G1 X93.2200 Y148.9480 E10.8133
G1 X76.2200 Y148.9480 E11.4239
G1 X75.7400 Y149.4280 F6000
G92 E0.0000
G1 X75.7400 Y91.8160 E2.0695 F2880 ; custom inner perimeter feedrate
G1 X76.1650 Y91.8160 E2.0847
G1 X76.1650 Y90.9510 E2.1158
G1 X75.7400 Y90.9510 E2.1311
G1 X75.7400 Y89.9240 E2.1680
G1 X76.1650 Y89.9240 E2.1833
G1 X76.1650 Y89.0330 E2.2153
G1 X75.7400 Y89.0330 E2.2305
G1 X75.7400 Y70.7380 E2.8877
G1 X138.6610 Y70.7380 E5.1479
G1 X138.6610 Y71.1340 E5.1621
G1 X139.5340 Y71.1340 E5.1934
G1 X139.5340 Y70.7380 E5.2076
G1 X160.2600 Y70.7380 E5.9522
G1 X160.2600 Y102.0620 E7.0773
G1 X127.6080 Y132.4740 E8.6802
G1 X125.0580 Y132.4740 E8.7718
G1 X125.0580 Y134.8490 E8.8571
G1 X92.7400 Y164.9500 E10.4435
G1 X92.7400 Y149.4280 E11.0011
G1 X75.7400 Y149.4280 E11.6118
G1 X76.0900 Y91.8160 F6000
G1 X76.1650 Y91.8160
G1 X76.1650 Y90.9510
G1 X76.0950 Y90.9510
G1 X76.0970 Y90.6630
G92 E0.0000
G1 X76.3520 Y90.4080 E0.0130 F2880 ; custom outer perimeter feedrate ; custom outer perimeter feedrate
G92 E0.0000
G1 E-5.5 F2400 ; custom retraction
;layer 5, Z = 1.000
;fan5;
;
G1 Z1.000 F1200
G1 X76.2200 Y148.9480 F6000
G1 E0 F2400 ; custom un-retraction/prime
G92 E0.0000
G1 X76.2200 Y92.1950 E2.0386 F2880 ; custom outer perimeter feedrate
G1 X76.6450 Y92.1950 E2.0539
G1 X76.6450 Y88.6530 E2.1811
G1 X76.2200 Y88.6530 E2.1964
G1 X76.2200 Y71.2180 E2.8227
G1 X138.1810 Y71.2180 E5.0484
G1 X138.1810 Y71.6140 E5.0626
G1 X140.0140 Y71.6140 E5.1284
G1 X140.0140 Y71.2180 E5.1426
G1 X159.7800 Y71.2180 E5.8527
G1 X159.7800 Y101.8530 E6.9531
G1 X127.4190 Y131.9940 E8.5417
G1 X124.5780 Y131.9940 E8.6437
G1 X124.5780 Y134.6400 E8.7387
G1 X93.2200 Y163.8470 E10.2781
G1 X93.2200 Y148.9480 E10.8133
G1 X76.2200 Y148.9480 E11.4239
G1 X75.7400 Y149.4280 F6000
G92 E0.0000
G1 X75.7400 Y91.7150 E2.0731 F2880 ; custom inner perimeter feedrate
G1 X76.1650 Y91.7150 E2.0884
G1 X76.1650 Y90.8530 E2.1193
G1 X75.7400 Y90.8530 E2.1346
G1 X75.7400 Y90.0200 E2.1645
G1 X76.1650 Y90.0200 E2.1798
G1 X76.1650 Y89.1330 E2.2116
G1 X75.7400 Y89.1330 E2.2269
G1 X75.7400 Y70.7380 E2.8877
G1 X138.6610 Y70.7380 E5.1479
G1 X138.6610 Y71.1340 E5.1621
G1 X139.5340 Y71.1340 E5.1934
G1 X139.5340 Y70.7380 E5.2076
G1 X160.2600 Y70.7380 E5.9522
G1 X160.2600 Y102.0620 E7.0773
G1 X127.6080 Y132.4740 E8.6802
G1 X125.0580 Y132.4740 E8.7718
G1 X125.0580 Y134.8490 E8.8571
G1 X92.7400 Y164.9500 E10.4435
G1 X92.7400 Y149.4280 E11.0011
G1 X75.7400 Y149.4280 E11.6118
G1 X76.3090 Y90.5650 F6000
G92 E0.0000
G1 X76.0530 Y90.3080 E0.0130 F2880 ; custom outer perimeter feedrate ; custom outer perimeter feedrate
G92 E0.0000
G1 E-5.5 F2400 ; custom retraction
;layer 6, Z = 1.200
;fan6;
G1 Z1.200 F1200
G1 X76.0550 Y90.8530 F6000
G1 X76.1650 Y90.8530
G1 X76.1650 Y91.7150
G1 X76.0570 Y91.7150
G1 X76.2200 Y148.9480
G1 E0 F2400 ; custom un-retraction/prime
G92 E0.0000
G1 X76.2200 Y92.0950 E2.0422 F2880 ; custom outer perimeter feedrate
G1 X76.6450 Y92.0950 E2.0575
G1 X76.6450 Y88.7530 E2.1775
G1 X76.2200 Y88.7530 E2.1928
G1 X76.2200 Y71.2180 E2.8227
G1 X138.1810 Y71.2180 E5.0484
G1 X138.1810 Y71.6140 E5.0626
G1 X140.0140 Y71.6140 E5.1284
G1 X140.0140 Y71.2180 E5.1426
G1 X159.7800 Y71.2180 E5.8527
G1 X159.7800 Y101.8530 E6.9531
G1 X127.4190 Y131.9940 E8.5417
G1 X124.5780 Y131.9940 E8.6437
G1 X124.5780 Y134.6400 E8.7387
G1 X93.2200 Y163.8470 E10.2781
G1 X93.2200 Y148.9480 E10.8133
G1 X76.2200 Y148.9480 E11.4239
G1 X75.7400 Y149.4280 F6000
G92 E0.0000
G1 X75.7400 Y91.6150 E2.0767 F2880 ; custom inner perimeter feedrate
G1 X76.1650 Y91.6150 E2.0920
G1 X76.1650 Y90.7540 E2.1229
G1 X75.7400 Y90.7540 E2.1381
G1 X75.7400 Y90.1170 E2.1610
G1 X76.1650 Y90.1170 E2.1763
G1 X76.1650 Y89.2330 E2.2080
G1 X75.7400 Y89.2330 E2.2233
G1 X75.7400 Y70.7380 E2.8877
G1 X138.6610 Y70.7380 E5.1479
G1 X138.6610 Y71.1340 E5.1621
G1 X139.5340 Y71.1340 E5.1934
G1 X139.5340 Y70.7380 E5.2076
G1 X160.2600 Y70.7380 E5.9522
G1 X160.2600 Y102.0620 E7.0773
G1 X127.6080 Y132.4740 E8.6802
G1 X125.0580 Y132.4740 E8.7718
G1 X125.0580 Y134.8490 E8.8571
G1 X92.7400 Y164.9500 E10.4435
G1 X92.7400 Y149.4280 E11.0011
G1 X75.7400 Y149.4280 E11.6118
G1 X76.2940 Y90.4660 F6000
G92 E0.0000
G1 X76.3520 Y90.4080 E0.0030 F2880 ; custom outer perimeter feedrate ; custom outer perimeter feedrate
G92 E0.0000
G1 E-5.5 F2400 ; custom retraction
;layer 7, Z = 1.400
;fan7;
G1 Z1.400 F1200
G1 X76.2200 Y148.9480 F6000
G1 E0 F2400 ; custom un-retraction/prime
G92 E0.0000
G1 X76.2200 Y91.9940 E2.0458 F2880 ; custom outer perimeter feedrate
G1 X76.6450 Y91.9940 E2.0611
G1 X76.6450 Y88.8540 E2.1739
G1 X76.2200 Y88.8540 E2.1892
G1 X76.2200 Y71.2180 E2.8227
G1 X138.1810 Y71.2180 E5.0484
G1 X138.1810 Y71.6140 E5.0626
G1 X140.0140 Y71.6140 E5.1284
G1 X140.0140 Y71.2180 E5.1426
G1 X159.7800 Y71.2180 E5.8527
G1 X159.7800 Y101.8530 E6.9531
G1 X127.4190 Y131.9940 E8.5417
G1 X124.5780 Y131.9940 E8.6437
G1 X124.5780 Y134.6400 E8.7387
G1 X93.2200 Y163.8470 E10.2781
G1 X93.2200 Y148.9480 E10.8133
G1 X76.2200 Y148.9480 E11.4239
G1 X75.7400 Y149.4280 F6000
G92 E0.0000
G1 X75.7400 Y91.5140 E2.0803 F2880 ; custom inner perimeter feedrate
G1 X76.1650 Y91.5140 E2.0956
G1 X76.1650 Y90.6560 E2.1264
G1 X75.7400 Y90.6560 E2.1417
G1 X75.7400 Y90.2140 E2.1576
G1 X76.1650 Y90.2140 E2.1728
G1 X76.1650 Y89.3340 E2.2044
G1 X75.7400 Y89.3340 E2.2197
G1 X75.7400 Y70.7380 E2.8877
G1 X138.6610 Y70.7380 E5.1479
G1 X138.6610 Y71.1340 E5.1621
G1 X139.5340 Y71.1340 E5.1934
G1 X139.5340 Y70.7380 E5.2076
G1 X160.2600 Y70.7380 E5.9522
G1 X160.2600 Y102.0620 E7.0773
G1 X127.6080 Y132.4740 E8.6802
G1 X125.0580 Y132.4740 E8.7718
G1 X125.0580 Y134.8490 E8.8571
G1 X92.7400 Y164.9500 E10.4435
G1 X92.7400 Y149.4280 E11.0011
G1 X75.7400 Y149.4280 E11.6118
G92 E0.0000
G1 E-5.5 F2400 ; custom retraction
;layer 8, Z = 1.600
;fan8;
G1 Z1.600 F1200
G1 X76.2200 Y148.9480 F6000
G1 E0 F2400 ; custom un-retraction/prime
G92 E0.0000
G1 X76.2200 Y91.8930 E2.0495 F2880 ; custom outer perimeter feedrate
G1 X76.6450 Y91.8930 E2.0647
G1 X76.6450 Y88.9540 E2.1703
G1 X76.2200 Y88.9540 E2.1856
G1 X76.2200 Y71.2180 E2.8227
G1 X138.1810 Y71.2180 E5.0484
G1 X138.1810 Y71.6140 E5.0626
G1 X140.0140 Y71.6140 E5.1284
G1 X140.0140 Y71.2180 E5.1426
G1 X159.7800 Y71.2180 E5.8527
G1 X159.7800 Y101.8530 E6.9531
G1 X127.4190 Y131.9940 E8.5417
G1 X124.5780 Y131.9940 E8.6437
G1 X124.5780 Y134.6400 E8.7387
G1 X93.2200 Y163.8470 E10.2781
G1 X93.2200 Y148.9480 E10.8133
G1 X76.2200 Y148.9480 E11.4239
G1 X75.7400 Y149.4280 F6000
G92 E0.0000
G1 X75.7400 Y91.4130 E2.0840 F2880 ; custom inner perimeter feedrate
G1 X76.1650 Y91.4130 E2.0992
G1 X76.1650 Y90.5570 E2.1300
G1 X75.7400 Y90.5570 E2.1452
G1 X75.7400 Y90.3110 E2.1541
G1 X76.1650 Y90.3110 E2.1693
G1 X76.1650 Y89.4340 E2.2008
G1 X75.7400 Y89.4340 E2.2161
G1 X75.7400 Y70.7380 E2.8877
G1 X138.6610 Y70.7380 E5.1479
G1 X138.6610 Y71.1340 E5.1621
G1 X139.5340 Y71.1340 E5.1934
G1 X139.5340 Y70.7380 E5.2076
G1 X160.2600 Y70.7380 E5.9522
G1 X160.2600 Y102.0620 E7.0773
G1 X127.6080 Y132.4740 E8.6802
G1 X125.0580 Y132.4740 E8.7718
G1 X125.0580 Y134.8490 E8.8571
G1 X92.7400 Y164.9500 E10.4435
G1 X92.7400 Y149.4280 E11.0011
G1 X75.7400 Y149.4280 E11.6118
G92 E0.0000
G1 E-5.5 F2400 ; custom retraction
;layer 9, Z = 1.800
;fan9;
G1 Z1.800 F1200
G1 X76.2200 Y148.9480 F6000
G1 E0 F2400 ; custom un-retraction/prime
G92 E0.0000
G1 X76.2200 Y91.7920 E2.0531 F2880 ; custom outer perimeter feedrate
G1 X76.6450 Y91.7920 E2.0684
G1 X76.6450 Y89.0550 E2.1667
G1 X76.2200 Y89.0550 E2.1820
G1 X76.2200 Y71.2180 E2.8227
G1 X138.1810 Y71.2180 E5.0484
G1 X138.1810 Y71.6140 E5.0626
G1 X140.0140 Y71.6140 E5.1284
G1 X140.0140 Y71.2180 E5.1426
G1 X159.7800 Y71.2180 E5.8527
G1 X159.7800 Y101.8530 E6.9531
G1 X127.4190 Y131.9940 E8.5417
G1 X124.5780 Y131.9940 E8.6437
G1 X124.5780 Y134.6400 E8.7387
G1 X93.2200 Y163.8470 E10.2781
G1 X93.2200 Y148.9480 E10.8133
G1 X76.2200 Y148.9480 E11.4239
G1 X75.7400 Y149.4280 F6000
G92 E0.0000
G1 X75.7400 Y91.3120 E2.0876 F2880 ; custom inner perimeter feedrate
G1 X76.1650 Y91.3120 E2.1028
G1 X76.1650 Y90.4590 E2.1335
G1 X75.7400 Y90.4590 E2.1488
G1 X75.7400 Y90.4070 E2.1506
G1 X76.1650 Y90.4070 E2.1659
G1 X76.1650 Y89.5350 E2.1972
G1 X75.7400 Y89.5350 E2.2125
G1 X75.7400 Y70.7380 E2.8877
G1 X138.6610 Y70.7380 E5.1479
G1 X138.6610 Y71.1340 E5.1621
G1 X139.5340 Y71.1340 E5.1934
G1 X139.5340 Y70.7380 E5.2076
G1 X160.2600 Y70.7380 E5.9522
G1 X160.2600 Y102.0620 E7.0773
G1 X127.6080 Y132.4740 E8.6802
G1 X125.0580 Y132.4740 E8.7718
G1 X125.0580 Y134.8490 E8.8571
G1 X92.7400 Y164.9500 E10.4435
G1 X92.7400 Y149.4280 E11.0011
G1 X75.7400 Y149.4280 E11.6118
G92 E0.0000
G1 E-5.5 F2400 ; custom retraction
;layer 10, Z = 2.000
;fan10;
G1 Z2.000 F1200
G1 X76.2200 Y148.9480 F6000
G1 E0 F2400 ; custom un-retraction/prime
G92 E0.0000
G1 X76.2200 Y91.6920 E2.0567 F2880 ; custom outer perimeter feedrate
G1 X76.6450 Y91.6920 E2.0720
G1 X76.6450 Y89.1550 E2.1631
G1 X76.2200 Y89.1550 E2.1784
G1 X76.2200 Y71.2180 E2.8227
G1 X138.1810 Y71.2180 E5.0484
G1 X138.1810 Y71.6140 E5.0626
G1 X140.0140 Y71.6140 E5.1284
G1 X140.0140 Y71.2180 E5.1426
G1 X159.7800 Y71.2180 E5.8527
G1 X159.7800 Y101.8530 E6.9531
G1 X127.4190 Y131.9940 E8.5417
G1 X124.5780 Y131.9940 E8.6437
G1 X124.5780 Y134.6400 E8.7387
G1 X93.2200 Y163.8470 E10.2781
G1 X93.2200 Y148.9480 E10.8133
G1 X76.2200 Y148.9480 E11.4239
G1 X75.7400 Y149.4280 F6000
G92 E0.0000
G1 X75.7400 Y91.2120 E2.0912 F2880 ; custom inner perimeter feedrate
G1 X76.1650 Y91.2120 E2.1065
G1 X76.1650 Y89.6350 E2.1631
G1 X75.7400 Y89.6350 E2.1784
G1 X75.7400 Y70.7380 E2.8572
G1 X138.6610 Y70.7380 E5.1173
G1 X138.6610 Y71.1340 E5.1315
G1 X139.5340 Y71.1340 E5.1629
G1 X139.5340 Y70.7380 E5.1771
G1 X160.2600 Y70.7380 E5.9216
G1 X160.2600 Y102.0620 E7.0468
G1 X127.6080 Y132.4740 E8.6497
G1 X125.0580 Y132.4740 E8.7412
G1 X125.0580 Y134.8490 E8.8266
G1 X92.7400 Y164.9500 E10.4130
G1 X92.7400 Y149.4280 E10.9706
G1 X75.7400 Y149.4280 E11.5812
G92 E0.0000
G1 E-5.5 F2400 ; custom retraction
;layer 11, Z = 2.200
;fan11;
G1 Z2.200 F1200
G1 X76.2200 Y148.9480 F6000
G1 E0 F2400 ; custom un-retraction/prime
G92 E0.0000
G1 X76.2200 Y91.5910 E2.0603 F2880 ; custom outer perimeter feedrate
G1 X76.6450 Y91.5910 E2.0756
G1 X76.6450 Y89.2550 E2.1595
G1 X76.2200 Y89.2550 E2.1748
G1 X76.2200 Y71.2180 E2.8227
G1 X138.1360 Y71.2180 E5.0468
G1 X138.1360 Y71.6140 E5.0610
G1 X140.0480 Y71.6140 E5.1297
G1 X140.0480 Y71.2180 E5.1439
G1 X159.7800 Y71.2180 E5.8527
G1 X159.7800 Y101.8530 E6.9531
G1 X127.4190 Y131.9940 E8.5417
G1 X124.5780 Y131.9940 E8.6437
G1 X124.5780 Y134.6400 E8.7387
G1 X93.2200 Y163.8470 E10.2781
G1 X93.2200 Y148.9480 E10.8133
G1 X76.2200 Y148.9480 E11.4239
G1 X75.7400 Y149.4280 F6000
G92 E0.0000
G1 X75.7400 Y91.1110 E2.0948 F2880 ; custom inner perimeter feedrate
G1 X76.1650 Y91.1110 E2.1101
G1 X76.1650 Y89.7350 E2.1595
G1 X75.7400 Y89.7350 E2.1748
G1 X75.7400 Y70.7380 E2.8572
G1 X138.6160 Y70.7380 E5.1157
G1 X138.6160 Y71.1340 E5.1300
G1 X139.5680 Y71.1340 E5.1641
G1 X139.5680 Y70.7380 E5.1784
G1 X160.2600 Y70.7380 E5.9216
G1 X160.2600 Y102.0620 E7.0468
G1 X127.6080 Y132.4740 E8.6497
G1 X125.0580 Y132.4740 E8.7412
G1 X125.0580 Y134.8490 E8.8266
G1 X92.7400 Y164.9500 E10.4130
G1 X92.7400 Y149.4280 E10.9706
G1 X75.7400 Y149.4280 E11.5812
G92 E0.0000
G1 E-5.5 F2400 ; custom retraction
;layer 12, Z = 2.400
;fan12;
G1 Z2.400 F1200
G1 X76.2200 Y148.9480 F6000
G1 E0 F2400 ; custom un-retraction/prime
G92 E0.0000
G1 X76.2200 Y91.4900 E2.0639 F2880 ; custom outer perimeter feedrate
G1 X76.6450 Y91.4900 E2.0792
G1 X76.6450 Y89.3560 E2.1559
G1 X76.2200 Y89.3560 E2.1711
G1 X76.2200 Y71.2180 E2.8227
G1 X138.0450 Y71.2180 E5.0435
G1 X138.0450 Y71.6140 E5.0577
G1 X140.1410 Y71.6140 E5.1330
G1 X140.1410 Y71.2180 E5.1472
G1 X159.7800 Y71.2180 E5.8527
G1 X159.7800 Y101.8530 E6.9531
G1 X127.4190 Y131.9940 E8.5417
G1 X124.5780 Y131.9940 E8.6437
G1 X124.5780 Y134.6400 E8.7387
G1 X93.2200 Y163.8470 E10.2781
G1 X93.2200 Y148.9480 E10.8133
G1 X76.2200 Y148.9480 E11.4239
G1 X75.7400 Y149.4280 F6000
G92 E0.0000
G1 X75.7400 Y91.0100 E2.0984 F2880 ; custom inner perimeter feedrate
G1 X76.1650 Y91.0100 E2.1137
G1 X76.1650 Y89.8360 E2.1559
G1 X75.7400 Y89.8360 E2.1711
G1 X75.7400 Y70.7380 E2.8572
G1 X138.5250 Y70.7380 E5.1124
G1 X138.5250 Y71.1340 E5.1267
G1 X139.6610 Y71.1340 E5.1675
G1 X139.6610 Y70.7380 E5.1817
G1 X160.2600 Y70.7380 E5.9216
G1 X160.2600 Y102.0620 E7.0468
G1 X127.6080 Y132.4740 E8.6497
G1 X125.0580 Y132.4740 E8.7412
G1 X125.0580 Y134.8490 E8.8266
G1 X92.7400 Y164.9500 E10.4130
G1 X92.7400 Y149.4280 E10.9706
G1 X75.7400 Y149.4280 E11.5812
G92 E0.0000
G1 E-5.5 F2400 ; custom retraction
;layer 13, Z = 2.600
;fan13;
G1 Z2.600 F1200
G1 X76.2200 Y148.9480 F6000
G1 E0 F2400 ; custom un-retraction/prime
G92 E0.0000
G1 X76.2200 Y91.3890 E2.0676 F2880 ; custom outer perimeter feedrate
G1 X76.6450 Y91.3890 E2.0828
G1 X76.6450 Y89.4560 E2.1523
G1 X76.2200 Y89.4560 E2.1675
G1 X76.2200 Y71.2180 E2.8227
G1 X137.9530 Y71.2180 E5.0402
G1 X137.9530 Y71.6140 E5.0544
G1 X140.2340 Y71.6140 E5.1363
G1 X140.2340 Y71.2180 E5.1505
G1 X159.7800 Y71.2180 E5.8527
G1 X159.7800 Y101.8530 E6.9531
G1 X127.4190 Y131.9940 E8.5417
G1 X124.5780 Y131.9940 E8.6437
G1 X124.5780 Y134.6400 E8.7387
G1 X93.2200 Y163.8470 E10.2781
G1 X93.2200 Y148.9480 E10.8133
G1 X76.2200 Y148.9480 E11.4239
G1 X75.7400 Y149.4280 F6000
G92 E0.0000
G1 X75.7400 Y90.9090 E2.1020 F2880 ; custom inner perimeter feedrate
G1 X76.1650 Y90.9090 E2.1173
G1 X76.1650 Y89.9360 E2.1523
G1 X75.7400 Y89.9360 E2.1675
G1 X75.7400 Y70.7380 E2.8572
G1 X138.4330 Y70.7380 E5.1091
G1 X138.4330 Y71.1340 E5.1234
G1 X139.7540 Y71.1340 E5.1708
G1 X139.7540 Y70.7380 E5.1850
G1 X160.2600 Y70.7380 E5.9216
G1 X160.2600 Y102.0620 E7.0468
G1 X127.6080 Y132.4740 E8.6497
G1 X125.0580 Y132.4740 E8.7412
G1 X125.0580 Y134.8490 E8.8266
G1 X92.7400 Y164.9500 E10.4130
G1 X92.7400 Y149.4280 E10.9706
G1 X75.7400 Y149.4280 E11.5812
G92 E0.0000
G1 E-5.5 F2400 ; custom retraction
;layer 14, Z = 2.800
;fan14;
G1 Z2.800 F1200
G1 X76.2200 Y148.9480 F6000
G1 E0 F2400 ; custom un-retraction/prime
G92 E0.0000
G1 X76.2200 Y91.4180 E2.0665 F2880 ; custom outer perimeter feedrate
G1 X76.6450 Y91.4180 E2.0818
G1 X76.6450 Y89.4430 E2.1528
G1 X76.2200 Y89.4430 E2.1680
G1 X76.2200 Y71.2180 E2.8227
G1 X137.8610 Y71.2180 E5.0369
G1 X137.8610 Y71.6140 E5.0511
G1 X140.3260 Y71.6140 E5.1396
G1 X140.3260 Y71.2180 E5.1539
G1 X159.7800 Y71.2180 E5.8527
G1 X159.7800 Y101.8530 E6.9531
G1 X127.4190 Y131.9940 E8.5417
G1 X124.5780 Y131.9940 E8.6437
G1 X124.5780 Y134.6400 E8.7387
G1 X93.2200 Y163.8470 E10.2781
G1 X93.2200 Y148.9480 E10.8133
G1 X76.2200 Y148.9480 E11.4239
G1 X75.7400 Y149.4280 F6000
G92 E0.0000
G1 X75.7400 Y90.9380 E2.1010 F2880 ; custom inner perimeter feedrate
G1 X76.1650 Y90.9380 E2.1163
G1 X76.1650 Y89.9230 E2.1528
G1 X75.7400 Y89.9230 E2.1680
G1 X75.7400 Y70.7380 E2.8572
G1 X138.3410 Y70.7380 E5.1059
G1 X138.3410 Y71.1340 E5.1201
G1 X139.8460 Y71.1340 E5.1741
G1 X139.8460 Y70.7380 E5.1883
G1 X160.2600 Y70.7380 E5.9216
G1 X160.2600 Y102.0620 E7.0468
G1 X127.6080 Y132.4740 E8.6497
G1 X125.0580 Y132.4740 E8.7412
G1 X125.0580 Y134.8490 E8.8266
G1 X92.7400 Y164.9500 E10.4130
G1 X92.7400 Y149.4280 E10.9706
G1 X75.7400 Y149.4280 E11.5812
G92 E0.0000
G1 E-5.5 F2400 ; custom retraction
;layer 15, Z = 3.000
;fan15;
G1 Z3.000 F1200
G1 X76.2200 Y148.9480 F6000
G1 E0 F2400 ; custom un-retraction/prime
G92 E0.0000
G1 X76.2200 Y91.5210 E2.0628 F2880 ; custom outer perimeter feedrate
G1 X76.6450 Y91.5210 E2.0781
G1 X76.6450 Y89.3390 E2.1565
G1 X76.2200 Y89.3390 E2.1717
G1 X76.2200 Y71.2180 E2.8227
G1 X137.7700 Y71.2180 E5.0336
G1 X137.7700 Y71.6140 E5.0478
G1 X140.4190 Y71.6140 E5.1430
G1 X140.4190 Y71.2180 E5.1572
G1 X159.7800 Y71.2180 E5.8527
G1 X159.7800 Y101.8530 E6.9531
G1 X127.4190 Y131.9940 E8.5417
G1 X124.5780 Y131.9940 E8.6437
G1 X124.5780 Y134.6400 E8.7387
G1 X93.2200 Y163.8470 E10.2781
G1 X93.2200 Y148.9480 E10.8133
G1 X76.2200 Y148.9480 E11.4239
G1 X75.7400 Y149.4280 F6000
G92 E0.0000
G1 X75.7400 Y91.0410 E2.0973 F2880 ; custom inner perimeter feedrate
G1 X76.1650 Y91.0410 E2.1126
G1 X76.1650 Y89.8190 E2.1565
G1 X75.7400 Y89.8190 E2.1717
G1 X75.7400 Y70.7380 E2.8572
G1 X138.2500 Y70.7380 E5.1026
G1 X138.2500 Y71.1340 E5.1168
G1 X139.9390 Y71.1340 E5.1775
G1 X139.9390 Y70.7380 E5.1917
G1 X160.2600 Y70.7380 E5.9216
G1 X160.2600 Y102.0620 E7.0468
G1 X127.6080 Y132.4740 E8.6497
G1 X125.0580 Y132.4740 E8.7412
G1 X125.0580 Y134.8490 E8.8266
G1 X92.7400 Y164.9500 E10.4130
G1 X92.7400 Y149.4280 E10.9706
G1 X75.7400 Y149.4280 E11.5812
G92 E0.0000
G1 E-5.5 F2400 ; custom retraction
;layer 16, Z = 3.200
;fan16;
G1 Z3.200 F1200
G1 X76.2200 Y148.9480 F6000
G1 E0 F2400 ; custom un-retraction/prime
G92 E0.0000
G1 X76.2200 Y91.6240 E2.0591 F2880 ; custom outer perimeter feedrate
G1 X76.6450 Y91.6240 E2.0744
G1 X76.6450 Y89.2360 E2.1602
G1 X76.2200 Y89.2360 E2.1755
G1 X76.2200 Y71.2180 E2.8227
G1 X137.6780 Y71.2180 E5.0303
G1 X137.6780 Y71.6140 E5.0445
G1 X140.5120 Y71.6140 E5.1463
G1 X140.5120 Y71.2180 E5.1605
G1 X159.7800 Y71.2180 E5.8527
G1 X159.7800 Y101.8530 E6.9531
G1 X127.4190 Y131.9940 E8.5417
G1 X124.5780 Y131.9940 E8.6437
G1 X124.5780 Y134.6400 E8.7387
G1 X93.2200 Y163.8470 E10.2781
G1 X93.2200 Y148.9480 E10.8133
G1 X76.2200 Y148.9480 E11.4239
G1 X75.7400 Y149.4280 F6000
G92 E0.0000
G1 X75.7400 Y91.1440 E2.0936 F2880 ; custom inner perimeter feedrate
G1 X76.1650 Y91.1440 E2.1089
G1 X76.1650 Y89.7160 E2.1602
G1 X75.7400 Y89.7160 E2.1755
G1 X75.7400 Y70.7380 E2.8572
G1 X138.1580 Y70.7380 E5.0993
G1 X138.1580 Y71.1340 E5.1135
G1 X139.0520 Y71.1340 E5.1456
G1 X139.0520 Y70.7380 E5.1598
G1 X139.1450 Y70.7380 E5.1631
G1 X139.1450 Y71.1340 E5.1774
G1 X140.0320 Y71.1340 E5.2092
G1 X140.0320 Y70.7380 E5.2234
G1 X160.2600 Y70.7380 E5.9501
G1 X160.2600 Y102.0620 E7.0752
G1 X127.6080 Y132.4740 E8.6781
G1 X125.0580 Y132.4740 E8.7697
G1 X125.0580 Y134.8490 E8.8550
G1 X92.7400 Y164.9500 E10.4414
G1 X92.7400 Y149.4280 E10.9990
G1 X75.7400 Y149.4280 E11.6097
G92 E0.0000
G1 E-5.5 F2400 ; custom retraction
;layer 17, Z = 3.400
;fan17;
G1 Z3.400 F1200
G1 X76.2200 Y148.9480 F6000
G1 E0 F2400 ; custom un-retraction/prime
G92 E0.0000
G1 X76.2200 Y91.7260 E2.0555 F2880 ; custom outer perimeter feedrate
G1 X76.6450 Y91.7260 E2.0707
G1 X76.6450 Y89.1320 E2.1639
G1 X76.2200 Y89.1320 E2.1792
G1 X76.2200 Y71.2180 E2.8227
G1 X137.5860 Y71.2180 E5.0270
G1 X137.5860 Y71.6140 E5.0412
G1 X140.6040 Y71.6140 E5.1496
G1 X140.6040 Y71.2180 E5.1639
G1 X159.7800 Y71.2180 E5.8527
G1 X159.7800 Y101.8530 E6.9531
G1 X127.4190 Y131.9940 E8.5417
G1 X124.5780 Y131.9940 E8.6437
G1 X124.5780 Y134.6400 E8.7387
G1 X93.2200 Y163.8470 E10.2781
G1 X93.2200 Y148.9480 E10.8133
G1 X76.2200 Y148.9480 E11.4239
G1 X75.7400 Y149.4280 F6000
G92 E0.0000
G1 X75.7400 Y91.2460 E2.0899 F2880 ; custom inner perimeter feedrate
G1 X76.1650 Y91.2460 E2.1052
G1 X76.1650 Y89.6120 E2.1639
G1 X75.7400 Y89.6120 E2.1792
G1 X75.7400 Y70.7380 E2.8572
G1 X138.0660 Y70.7380 E5.0960
G1 X138.0660 Y71.1340 E5.1102
G1 X138.9620 Y71.1340 E5.1424
G1 X138.9620 Y70.7380 E5.1566
G1 X139.2350 Y70.7380 E5.1664
G1 X139.2350 Y71.1340 E5.1806
G1 X140.1240 Y71.1340 E5.2126
G1 X140.1240 Y70.7380 E5.2268
G1 X160.2600 Y70.7380 E5.9501
G1 X160.2600 Y102.0620 E7.0752
G1 X127.6080 Y132.4740 E8.6781
G1 X125.0580 Y132.4740 E8.7697
G1 X125.0580 Y134.8490 E8.8550
G1 X92.7400 Y164.9500 E10.4414
G1 X92.7400 Y149.4280 E10.9990
G1 X75.7400 Y149.4280 E11.6097
G92 E0.0000
G1 E-5.5 F2400 ; custom retraction
;layer 18, Z = 3.600
;fan18;
G1 Z3.600 F1200
G1 X76.2200 Y148.9480 F6000
G1 E0 F2400 ; custom un-retraction/prime
G92 E0.0000
G1 X76.2200 Y91.8290 E2.0518 F2880 ; custom outer perimeter feedrate
G1 X76.6450 Y91.8290 E2.0670
G1 X76.6450 Y89.0280 E2.1676
G1 X76.2200 Y89.0280 E2.1829
G1 X76.2200 Y71.2180 E2.8227
G1 X137.4950 Y71.2180 E5.0237
G1 X137.4950 Y71.6140 E5.0379
G1 X140.6970 Y71.6140 E5.1530
G1 X140.6970 Y71.2180 E5.1672
G1 X159.7800 Y71.2180 E5.8527
G1 X159.7800 Y101.8530 E6.9531
G1 X127.4190 Y131.9940 E8.5417
G1 X124.5780 Y131.9940 E8.6437
G1 X124.5780 Y134.6400 E8.7387
G1 X93.2200 Y163.8470 E10.2781
G1 X93.2200 Y148.9480 E10.8133
G1 X76.2200 Y148.9480 E11.4239
G1 X75.7400 Y149.4280 F6000
G92 E0.0000
G1 X75.7400 Y91.3490 E2.0862 F2880 ; custom inner perimeter feedrate
G1 X76.1650 Y91.3490 E2.1015
G1 X76.1650 Y90.4830 E2.1326
G1 X75.7400 Y90.4830 E2.1479
G1 X75.7400 Y90.3600 E2.1523
G1 X76.1650 Y90.3600 E2.1676
G1 X76.1650 Y89.5080 E2.1982
G1 X75.7400 Y89.5080 E2.2134
G1 X75.7400 Y70.7380 E2.8877
G1 X137.9750 Y70.7380 E5.1232
G1 X137.9750 Y71.1340 E5.1374
G1 X138.8720 Y71.1340 E5.1697
G1 X138.8720 Y70.7380 E5.1839
G1 X139.3260 Y70.7380 E5.2002
G1 X139.3260 Y71.1340 E5.2144
G1 X140.2170 Y71.1340 E5.2464
G1 X140.2170 Y70.7380 E5.2606
G1 X160.2600 Y70.7380 E5.9806
G1 X160.2600 Y102.0620 E7.1058
G1 X127.6080 Y132.4740 E8.7086
G1 X125.0580 Y132.4740 E8.8002
G1 X125.0580 Y134.8490 E8.8855
G1 X92.7400 Y164.9500 E10.4720
G1 X92.7400 Y149.4280 E11.0296
G1 X75.7400 Y149.4280 E11.6402
G92 E0.0000
G1 E-5.5 F2400 ; custom retraction
;layer 19, Z = 3.800
;fan19;
G1 Z3.800 F1200
G1 X76.2200 Y148.9480 F6000
G1 E0 F2400 ; custom un-retraction/prime
G92 E0.0000
G1 X76.2200 Y91.9320 E2.0481 F2880 ; custom outer perimeter feedrate
G1 X76.6450 Y91.9320 E2.0633
G1 X76.6450 Y88.9250 E2.1714
G1 X76.2200 Y88.9250 E2.1866
G1 X76.2200 Y71.2180 E2.8227
G1 X137.4030 Y71.2180 E5.0204
G1 X137.4030 Y71.6140 E5.0346
G1 X140.7900 Y71.6140 E5.1563
G1 X140.7900 Y71.2180 E5.1705
G1 X159.7800 Y71.2180 E5.8527
G1 X159.7800 Y101.8530 E6.9531
G1 X127.4190 Y131.9940 E8.5417
G1 X124.5780 Y131.9940 E8.6437
G1 X124.5780 Y134.6400 E8.7387
G1 X93.2200 Y163.8470 E10.2781
G1 X93.2200 Y148.9480 E10.8133
G1 X76.2200 Y148.9480 E11.4239
G1 X75.7400 Y149.4280 F6000
G92 E0.0000
G1 X75.7400 Y91.4520 E2.0825 F2880 ; custom inner perimeter feedrate
G1 X76.1650 Y91.4520 E2.0978
G1 X76.1650 Y90.5820 E2.1291
G1 X75.7400 Y90.5820 E2.1443
G1 X75.7400 Y90.2600 E2.1559
G1 X76.1650 Y90.2600 E2.1712
G1 X76.1650 Y89.4050 E2.2019
G1 X75.7400 Y89.4050 E2.2172
G1 X75.7400 Y70.7380 E2.8877
G1 X137.8830 Y70.7380 E5.1199
G1 X137.8830 Y71.1340 E5.1341
G1 X138.7820 Y71.1340 E5.1664
G1 X138.7820 Y70.7380 E5.1806
G1 X139.4170 Y70.7380 E5.2034
G1 X139.4170 Y71.1340 E5.2177
G1 X140.3100 Y71.1340 E5.2497
G1 X140.3100 Y70.7380 E5.2640
G1 X160.2600 Y70.7380 E5.9806
G1 X160.2600 Y102.0620 E7.1058
G1 X127.6080 Y132.4740 E8.7086
G1 X125.0580 Y132.4740 E8.8002
G1 X125.0580 Y134.8490 E8.8855
G1 X92.7400 Y164.9500 E10.4720
G1 X92.7400 Y149.4280 E11.0296
G1 X75.7400 Y149.4280 E11.6402
G1 X139.1290 Y71.2460 F6000
G92 E0.0000
G1 X139.0700 Y71.1880 E0.0030 F2880 ; custom outer perimeter feedrate ; custom outer perimeter feedrate
G92 E0.0000
G1 E-5.5 F2400 ; custom retraction
;layer 20, Z = 4.000
;fan20;
G1 Z4.000 F1200
G1 X76.2200 Y148.9480 F6000
G1 E0 F2400 ; custom un-retraction/prime
G92 E0.0000
G1 X76.2200 Y92.0350 E2.0444 F2880 ; custom outer perimeter feedrate
G1 X76.6450 Y92.0350 E2.0596
G1 X76.6450 Y88.8210 E2.1751
G1 X76.2200 Y88.8210 E2.1903
G1 X76.2200 Y71.2180 E2.8227
G1 X137.3110 Y71.2180 E5.0171
G1 X137.3110 Y71.6140 E5.0313
G1 X140.8820 Y71.6140 E5.1596
G1 X140.8820 Y71.2180 E5.1738
G1 X159.7800 Y71.2180 E5.8527
G1 X159.7800 Y101.8530 E6.9531
G1 X127.4190 Y131.9940 E8.5417
G1 X124.5780 Y131.9940 E8.6437
G1 X124.5780 Y134.6400 E8.7387
G1 X93.2200 Y163.8470 E10.2781
G1 X93.2200 Y148.9480 E10.8133
G1 X76.2200 Y148.9480 E11.4239
G1 X75.7400 Y149.4280 F6000
G92 E0.0000
G1 X75.7400 Y91.5550 E2.0789 F2880 ; custom inner perimeter feedrate
G1 X76.1650 Y91.5550 E2.0941
G1 X76.1650 Y90.6810 E2.1255
G1 X75.7400 Y90.6810 E2.1408
G1 X75.7400 Y90.1600 E2.1595
G1 X76.1650 Y90.1600 E2.1748
G1 X76.1650 Y89.3010 E2.2056
G1 X75.7400 Y89.3010 E2.2209
G1 X75.7400 Y70.7380 E2.8877
G1 X137.7910 Y70.7380 E5.1166
G1 X137.7910 Y71.1340 E5.1308
G1 X138.6920 Y71.1340 E5.1632
G1 X138.6920 Y70.7380 E5.1774
G1 X139.5070 Y70.7380 E5.2067
G1 X139.5070 Y71.1340 E5.2209
G1 X140.4020 Y71.1340 E5.2531
G1 X140.4020 Y70.7380 E5.2673
G1 X160.2600 Y70.7380 E5.9806
G1 X160.2600 Y102.0620 E7.1058
G1 X127.6080 Y132.4740 E8.7086
G1 X125.0580 Y132.4740 E8.8002
G1 X125.0580 Y134.8490 E8.8855
G1 X92.7400 Y164.9500 E10.4720
G1 X92.7400 Y149.4280 E11.0296
G1 X75.7400 Y149.4280 E11.6402
G1 X138.9800 Y71.2250 F6000
G92 E0.0000
G1 X139.1790 Y71.0260 E0.0101 F2880 ; custom outer perimeter feedrate ; custom outer perimeter feedrate
G92 E0.0000
G1 E-5.5 F2400 ; custom retraction
;layer 21, Z = 4.200
;fan21;
G1 Z4.200 F1200
G1 X76.2200 Y148.9480 F6000
G1 E0 F2400 ; custom un-retraction/prime
G92 E0.0000
G1 X76.2200 Y92.1380 E2.0407 F2880 ; custom outer perimeter feedrate
G1 X76.6450 Y92.1380 E2.0559
G1 X76.6450 Y88.7180 E2.1788
G1 X76.2200 Y88.7180 E2.1941
G1 X76.2200 Y71.2180 E2.8227
G1 X137.2200 Y71.2180 E5.0138
G1 X137.2200 Y71.6140 E5.0280
G1 X140.9750 Y71.6140 E5.1630
G1 X140.9750 Y71.2180 E5.1772
G1 X159.7800 Y71.2180 E5.8527
G1 X159.7800 Y101.8530 E6.9531
G1 X127.4190 Y131.9940 E8.5417
G1 X124.5780 Y131.9940 E8.6437
G1 X124.5780 Y134.6400 E8.7387
G1 X93.2200 Y163.8470 E10.2781
G1 X93.2200 Y148.9480 E10.8133
G1 X76.2200 Y148.9480 E11.4239
G1 X75.7400 Y149.4280 F6000
G92 E0.0000
G1 X75.7400 Y91.6580 E2.0752 F2880 ; custom inner perimeter feedrate
G1 X76.1650 Y91.6580 E2.0904
G1 X76.1650 Y90.7800 E2.1220
G1 X75.7400 Y90.7800 E2.1372
G1 X75.7400 Y90.0590 E2.1631
G1 X76.1650 Y90.0590 E2.1784
G1 X76.1650 Y89.1980 E2.2093
G1 X75.7400 Y89.1980 E2.2246
G1 X75.7400 Y70.7380 E2.8877
G1 X137.7000 Y70.7380 E5.1133
G1 X137.7000 Y71.1340 E5.1275
G1 X138.6020 Y71.1340 E5.1600
G1 X138.6020 Y70.7380 E5.1742
G1 X139.5980 Y70.7380 E5.2100
G1 X139.5980 Y71.1340 E5.2242
G1 X140.4950 Y71.1340 E5.2564
G1 X140.4950 Y70.7380 E5.2706
G1 X160.2600 Y70.7380 E5.9806
G1 X160.2600 Y102.0620 E7.1058
G1 X127.6080 Y132.4740 E8.7086
G1 X125.0580 Y132.4740 E8.8002
G1 X125.0580 Y134.8490 E8.8855
G1 X92.7400 Y164.9500 E10.4720
G1 X92.7400 Y149.4280 E11.0296
G1 X75.7400 Y149.4280 E11.6402
G1 X76.2370 Y90.4920 F6000
G92 E0.0000
G1 X76.0920 Y90.3470 E0.0073 F2880 ; custom outer perimeter feedrate ; custom outer perimeter feedrate
G1 X138.5580 Y71.1340 F6000
G1 X138.6020 Y71.1340
G1 X138.6020 Y71.1200
G1 X138.9080 Y71.0260
G92 E0.0000
G1 X139.2030 Y71.3210 E0.0150 F2880 ; custom outer perimeter feedrate ; custom outer perimeter feedrate
G92 E0.0000
G1 E-5.5 F2400 ; custom retraction
;layer 22, Z = 4.400
;fan22;
G1 Z4.400 F1200
G1 X76.2200 Y148.9480 F6000
G1 E0 F2400 ; custom un-retraction/prime
G92 E0.0000
G1 X76.2200 Y92.2400 E2.0370 F2880 ; custom outer perimeter feedrate
G1 X76.6450 Y92.2400 E2.0523
G1 X76.6450 Y88.6140 E2.1825
G1 X76.2200 Y88.6140 E2.1978
G1 X76.2200 Y71.2180 E2.8227
G1 X137.1280 Y71.2180 E5.0105
G1 X137.1280 Y71.6140 E5.0248
G1 X141.0680 Y71.6140 E5.1663
G1 X141.0680 Y71.2180 E5.1805
G1 X159.7800 Y71.2180 E5.8527
G1 X159.7800 Y101.8530 E6.9531
G1 X127.4190 Y131.9940 E8.5417
G1 X124.5780 Y131.9940 E8.6437
G1 X124.5780 Y134.6400 E8.7387
G1 X93.2200 Y163.8470 E10.2781
G1 X93.2200 Y148.9480 E10.8133
G1 X76.2200 Y148.9480 E11.4239
G1 X75.7400 Y149.4280 F6000
G92 E0.0000
G1 X75.7400 Y91.7610 E2.0715 F2880 ; custom inner perimeter feedrate
G1 X76.1650 Y91.7610 E2.0867
G1 X76.1650 Y90.8790 E2.1184
G1 X75.7400 Y90.8790 E2.1337
G1 X75.7400 Y89.9590 E2.1667
G1 X76.1650 Y89.9590 E2.1820
G1 X76.1650 Y89.0940 E2.2131
G1 X75.7400 Y89.0940 E2.2283
G1 X75.7400 Y70.7380 E2.8877
G1 X137.6080 Y70.7380 E5.1100
G1 X137.6080 Y71.1340 E5.1243
G1 X138.5120 Y71.1340 E5.1567
G1 X138.5120 Y70.7380 E5.1709
G1 X139.6880 Y70.7380 E5.2132
G1 X139.6880 Y71.1340 E5.2274
G1 X140.5880 Y71.1340 E5.2597
G1 X140.5880 Y70.7380 E5.2740
G1 X160.2600 Y70.7380 E5.9806
G1 X160.2600 Y102.0620 E7.1058
G1 X127.6080 Y132.4740 E8.7086
G1 X125.0580 Y132.4740 E8.8002
G1 X125.0580 Y134.8490 E8.8855
G1 X92.7400 Y164.9500 E10.4720
G1 X92.7400 Y149.4280 E11.0296
G1 X75.7400 Y149.4280 E11.6402
G1 X76.1650 Y91.7610 F6000
G1 X76.1650 Y91.1140
G1 X76.1690 Y90.5910
G92 E0.0000
G1 X76.3520 Y90.4080 E0.0093 F2880 ; custom outer perimeter feedrate ; custom outer perimeter feedrate
G1 X138.8840 Y71.3210 F6000
G92 E0.0000
G1 X139.1790 Y71.0260 E0.0150 F2880 ; custom outer perimeter feedrate ; custom outer perimeter feedrate
G92 E0.0000
G1 E-5.5 F2400 ; custom retraction
;layer 23, Z = 4.600
;fan23;
G1 Z4.600 F1200
G1 X76.2200 Y148.9480 F6000
G1 E0 F2400 ; custom un-retraction/prime
G92 E0.0000
G1 X76.2200 Y71.2180 E2.7921 F2880 ; custom outer perimeter feedrate
G1 X159.7800 Y71.2180 E5.7937
G1 X159.7800 Y101.8530 E6.8941
G1 X127.4190 Y131.9940 E8.4827
G1 X124.5780 Y131.9940 E8.5847
G1 X124.5780 Y134.6400 E8.6798
G1 X93.2200 Y163.8470 E10.2191
G1 X93.2200 Y148.9480 E10.7543
G1 X76.2200 Y148.9480 E11.3650
G1 X75.7400 Y149.4280 F6000
G92 E0.0000
G1 X75.7400 Y70.7380 E2.8266 F2880 ; custom inner perimeter feedrate
G1 X160.2600 Y70.7380 E5.8627
G1 X160.2600 Y102.0620 E6.9878
G1 X127.6080 Y132.4740 E8.5907
G1 X125.0580 Y132.4740 E8.6823
G1 X125.0580 Y134.8490 E8.7676
G1 X92.7400 Y164.9500 E10.3540
G1 X92.7400 Y149.4280 E10.9116
G1 X75.7400 Y149.4280 E11.5223
G92 E0.0000
G1 E-5.5 F2400 ; custom retraction
;layer 24, Z = 4.800
;fan24;
G1 Z4.800 F1200
G1 X76.2200 Y148.9480 F6000
G1 E0 F2400 ; custom un-retraction/prime
G92 E0.0000
G1 X76.2200 Y71.2180 E2.7921 F2880 ; custom outer perimeter feedrate
G1 X159.6100 Y71.2180 E5.7876
G1 X159.6100 Y102.0110 E6.8937
G1 X127.4190 Y131.9940 E8.4739
G1 X124.5780 Y131.9940 E8.5760
G1 X124.5780 Y134.6400 E8.6710
G1 X93.2200 Y163.8470 E10.2103
G1 X93.2200 Y148.9480 E10.7455
G1 X76.2200 Y148.9480 E11.3562
G1 X75.7400 Y149.4280 F6000
G92 E0.0000
G1 X75.7400 Y70.7380 E2.8266 F2880 ; custom inner perimeter feedrate
G1 X160.0900 Y70.7380 E5.8566
G1 X160.0900 Y102.2200 E6.9874
G1 X127.6080 Y132.4740 E8.5819
G1 X125.0580 Y132.4740 E8.6735
G1 X125.0580 Y134.8490 E8.7588
G1 X92.7400 Y164.9500 E10.3453
G1 X92.7400 Y149.4280 E10.9028
G1 X75.7400 Y149.4280 E11.5135
G92 E0.0000
G1 E-5.5 F2400 ; custom retraction
;layer 25, Z = 5.000
;fan25;
G1 Z5.000 F1200
G1 X76.2200 Y148.9480 F6000
G1 E0 F2400 ; custom un-retraction/prime
G92 E0.0000
G1 X76.2200 Y71.2180 E2.7921 F2880 ; custom outer perimeter feedrate
G1 X159.4400 Y71.2180 E5.7815
G1 X159.4400 Y102.1690 E6.8933
G1 X127.4190 Y131.9940 E8.4652
G1 X124.5780 Y131.9940 E8.5672
G1 X124.5780 Y134.6400 E8.6622
G1 X93.2200 Y163.8470 E10.2016
G1 X93.2200 Y148.9480 E10.7368
G1 X76.2200 Y148.9480 E11.3474
G1 X75.7400 Y149.4280 F6000
G92 E0.0000
G1 X75.7400 Y70.7380 E2.8266 F2880 ; custom inner perimeter feedrate
G1 X159.9200 Y70.7380 E5.8504
G1 X159.9200 Y102.3780 E6.9870
G1 X127.6080 Y132.4740 E8.5732
G1 X125.0580 Y132.4740 E8.6648
G1 X125.0580 Y134.8490 E8.7501
G1 X92.7400 Y164.9500 E10.3365
G1 X92.7400 Y149.4280 E10.8941
G1 X75.7400 Y149.4280 E11.5047
G92 E0.0000
G1 E-5.5 F2400 ; custom retraction
SET_VELOCITY_LIMIT ACCEL=600 ACCEL_TO_DECEL=600; custom acceleration - B
SET_VELOCITY_LIMIT SQUARE_CORNER_VELOCITY=3 ; custom SCV - B
;layer 26, Z = 5.200
;fan26;
G1 Z5.200 F1200
G1 X76.2200 Y148.9480 F6000
G1 E0 F2400 ; custom un-retraction/prime
G92 E0.0000
G1 X76.2200 Y71.2180 E2.7921 F2880 ; custom outer perimeter feedrate
G1 X159.7800 Y71.2180 E5.7937
G1 X159.7800 Y101.8530 E6.8941
G1 X127.4190 Y131.9940 E8.4827
G1 X124.5780 Y131.9940 E8.5847
G1 X124.5780 Y134.6400 E8.6798
G1 X93.2200 Y163.8470 E10.2191
G1 X93.2200 Y148.9480 E10.7543
G1 X76.2200 Y148.9480 E11.3650
G1 X75.7400 Y149.4280 F6000
G92 E0.0000
G1 X75.7400 Y70.7380 E2.8266 F2880 ; custom inner perimeter feedrate
G1 X160.2600 Y70.7380 E5.8627
G1 X160.2600 Y102.0620 E6.9878
G1 X127.6080 Y132.4740 E8.5907
G1 X125.0580 Y132.4740 E8.6823
G1 X125.0580 Y134.8490 E8.7676
G1 X92.7400 Y164.9500 E10.3540
G1 X92.7400 Y149.4280 E10.9116
G1 X75.7400 Y149.4280 E11.5223
G92 E0.0000
G1 E-5.5 F2400 ; custom retraction
;layer 27, Z = 5.400
;fan27;
G1 Z5.400 F1200
G1 X76.2200 Y148.9480 F6000
G1 E0 F2400 ; custom un-retraction/prime
G92 E0.0000
G1 X76.2200 Y71.2180 E2.7921 F2880 ; custom outer perimeter feedrate
G1 X159.7800 Y71.2180 E5.7937
G1 X159.7800 Y101.8530 E6.8941
G1 X127.4190 Y131.9940 E8.4827
G1 X124.5780 Y131.9940 E8.5847
G1 X124.5780 Y134.6400 E8.6798
G1 X93.2200 Y163.8470 E10.2191
G1 X93.2200 Y148.9480 E10.7543
G1 X76.2200 Y148.9480 E11.3650
G1 X75.7400 Y149.4280 F6000
G92 E0.0000
G1 X75.7400 Y70.7380 E2.8266 F2880 ; custom inner perimeter feedrate
G1 X160.2600 Y70.7380 E5.8627
G1 X160.2600 Y102.0620 E6.9878
G1 X127.6080 Y132.4740 E8.5907
G1 X125.0580 Y132.4740 E8.6823
G1 X125.0580 Y134.8490 E8.7676
G1 X92.7400 Y164.9500 E10.3540
G1 X92.7400 Y149.4280 E10.9116
G1 X75.7400 Y149.4280 E11.5223
G92 E0.0000
G1 E-5.5 F2400 ; custom retraction
;layer 28, Z = 5.600
;fan28;
G1 Z5.600 F1200
G1 X76.2200 Y148.9480 F6000
G1 E0 F2400 ; custom un-retraction/prime
G92 E0.0000
G1 X76.2200 Y92.3970 E2.0314 F2880 ; custom outer perimeter feedrate
G1 X76.6450 Y92.3970 E2.0466
G1 X76.6450 Y88.4520 E2.1883
G1 X76.2200 Y88.4520 E2.2036
G1 X76.2200 Y71.2180 E2.8227
G1 X138.1810 Y71.2180 E5.0484
G1 X138.1810 Y71.6140 E5.0626
G1 X140.0140 Y71.6140 E5.1284
G1 X140.0140 Y71.2180 E5.1426
G1 X159.7800 Y71.2180 E5.8527
G1 X159.7800 Y101.8530 E6.9531
G1 X127.4190 Y131.9940 E8.5417
G1 X124.5780 Y131.9940 E8.6437
G1 X124.5780 Y134.6400 E8.7387
G1 X93.2200 Y163.8470 E10.2781
G1 X93.2200 Y148.9480 E10.8133
G1 X76.2200 Y148.9480 E11.4239
G1 X75.7400 Y149.4280 F6000
G92 E0.0000
G1 X75.7400 Y91.9170 E2.0659 F2880 ; custom inner perimeter feedrate
G1 X76.1650 Y91.9170 E2.0811
G1 X76.1650 Y91.0500 E2.1123
G1 X75.7400 Y91.0500 E2.1275
G1 X75.7400 Y89.8270 E2.1715
G1 X76.1650 Y89.8270 E2.1867
G1 X76.1650 Y88.9320 E2.2189
G1 X75.7400 Y88.9320 E2.2341
G1 X75.7400 Y70.7380 E2.8877
G1 X138.6610 Y70.7380 E5.1479
G1 X138.6610 Y71.1340 E5.1621
G1 X139.5340 Y71.1340 E5.1934
G1 X139.5340 Y70.7380 E5.2076
G1 X160.2600 Y70.7380 E5.9522
G1 X160.2600 Y102.0620 E7.0773
G1 X127.6080 Y132.4740 E8.6802
G1 X125.0580 Y132.4740 E8.7718
G1 X125.0580 Y134.8490 E8.8571
G1 X92.7400 Y164.9500 E10.4435
G1 X92.7400 Y149.4280 E11.0011
G1 X75.7400 Y149.4280 E11.6118
G1 X76.0220 Y91.9170 F6000
G1 X76.1650 Y91.9170
G1 X76.1650 Y91.0500
G1 X76.0260 Y91.0500
G1 X76.0280 Y90.7320
G92 E0.0000
G1 X76.3520 Y90.4080 E0.0165 F2880 ; custom outer perimeter feedrate ; custom outer perimeter feedrate
G92 E0.0000
G1 E-5.5 F2400 ; custom retraction
;layer 29, Z = 5.800
;fan29;
G1 Z5.800 F1200
G1 X76.2200 Y148.9480 F6000
G1 E0 F2400 ; custom un-retraction/prime
G92 E0.0000
G1 X76.2200 Y92.2960 E2.0350 F2880 ; custom outer perimeter feedrate
G1 X76.6450 Y92.2960 E2.0503
G1 X76.6450 Y88.5530 E2.1847
G1 X76.2200 Y88.5530 E2.2000
G1 X76.2200 Y71.2180 E2.8227
G1 X138.1810 Y71.2180 E5.0484
G1 X138.1810 Y71.6140 E5.0626
G1 X140.0140 Y71.6140 E5.1284
G1 X140.0140 Y71.2180 E5.1426
G1 X159.7800 Y71.2180 E5.8527
G1 X159.7800 Y101.8530 E6.9531
G1 X127.4190 Y131.9940 E8.5417
G1 X124.5780 Y131.9940 E8.6437
G1 X124.5780 Y134.6400 E8.7387
G1 X93.2200 Y163.8470 E10.2781
G1 X93.2200 Y148.9480 E10.8133
G1 X76.2200 Y148.9480 E11.4239
G1 X75.7400 Y149.4280 F6000
G92 E0.0000
G1 X75.7400 Y91.8160 E2.0695 F2880 ; custom inner perimeter feedrate
G1 X76.1650 Y91.8160 E2.0847
G1 X76.1650 Y90.9510 E2.1158
G1 X75.7400 Y90.9510 E2.1311
G1 X75.7400 Y89.9240 E2.1680
G1 X76.1650 Y89.9240 E2.1833
G1 X76.1650 Y89.0330 E2.2153
G1 X75.7400 Y89.0330 E2.2305
G1 X75.7400 Y70.7380 E2.8877
G1 X138.6610 Y70.7380 E5.1479
G1 X138.6610 Y71.1340 E5.1621
G1 X139.5340 Y71.1340 E5.1934
G1 X139.5340 Y70.7380 E5.2076
G1 X160.2600 Y70.7380 E5.9522
G1 X160.2600 Y102.0620 E7.0773
G1 X127.6080 Y132.4740 E8.6802
G1 X125.0580 Y132.4740 E8.7718
G1 X125.0580 Y134.8490 E8.8571
G1 X92.7400 Y164.9500 E10.4435
G1 X92.7400 Y149.4280 E11.0011
G1 X75.7400 Y149.4280 E11.6118
G1 X76.3520 Y90.6070 F6000
G92 E0.0000
G1 X76.0280 Y90.2830 E0.0165 F2880 ; custom outer perimeter feedrate ; custom outer perimeter feedrate
G92 E0.0000
G1 E-5.5 F2400 ; custom retraction
;layer 30, Z = 6.000
;fan30;
G1 Z6.000 F1200
G1 X76.0300 Y90.9510 F6000
G1 X76.1650 Y90.9510
G1 X76.1650 Y91.8160
G1 X76.0330 Y91.8160
G1 X76.2200 Y148.9480
G1 E0 F2400 ; custom un-retraction/prime
G92 E0.0000
G1 X76.2200 Y92.1950 E2.0386 F2880 ; custom outer perimeter feedrate
G1 X76.6450 Y92.1950 E2.0539
G1 X76.6450 Y88.6530 E2.1811
G1 X76.2200 Y88.6530 E2.1964
G1 X76.2200 Y71.2180 E2.8227
G1 X138.1810 Y71.2180 E5.0484
G1 X138.1810 Y71.6140 E5.0626
G1 X140.0140 Y71.6140 E5.1284
G1 X140.0140 Y71.2180 E5.1426
G1 X159.7800 Y71.2180 E5.8527
G1 X159.7800 Y101.8530 E6.9531
G1 X127.4190 Y131.9940 E8.5417
G1 X124.5780 Y131.9940 E8.6437
G1 X124.5780 Y134.6400 E8.7387
G1 X93.2200 Y163.8470 E10.2781
G1 X93.2200 Y148.9480 E10.8133
G1 X76.2200 Y148.9480 E11.4239
G1 X75.7400 Y149.4280 F6000
G92 E0.0000
G1 X75.7400 Y91.7150 E2.0731 F2880 ; custom inner perimeter feedrate
G1 X76.1650 Y91.7150 E2.0884
G1 X76.1650 Y90.8530 E2.1193
G1 X75.7400 Y90.8530 E2.1346
G1 X75.7400 Y90.0200 E2.1645
G1 X76.1650 Y90.0200 E2.1798
G1 X76.1650 Y89.1330 E2.2116
G1 X75.7400 Y89.1330 E2.2269
G1 X75.7400 Y70.7380 E2.8877
G1 X138.6610 Y70.7380 E5.1479
G1 X138.6610 Y71.1340 E5.1621
G1 X139.5340 Y71.1340 E5.1934
G1 X139.5340 Y70.7380 E5.2076
G1 X160.2600 Y70.7380 E5.9522
G1 X160.2600 Y102.0620 E7.0773
G1 X127.6080 Y132.4740 E8.6802
G1 X125.0580 Y132.4740 E8.7718
G1 X125.0580 Y134.8490 E8.8571
G1 X92.7400 Y164.9500 E10.4435
G1 X92.7400 Y149.4280 E11.0011
G1 X75.7400 Y149.4280 E11.6118
G1 X76.1950 Y90.5650 F6000
G92 E0.0000
G1 X76.3520 Y90.4080 E0.0080 F2880 ; custom outer perimeter feedrate ; custom outer perimeter feedrate
G92 E0.0000
G1 E-5.5 F2400 ; custom retraction
;layer 31, Z = 6.200
;fan31;
G1 Z6.200 F1200
G1 X76.2200 Y148.9480 F6000
G1 E0 F2400 ; custom un-retraction/prime
G92 E0.0000
G1 X76.2200 Y92.0950 E2.0422 F2880 ; custom outer perimeter feedrate
G1 X76.6450 Y92.0950 E2.0575
G1 X76.6450 Y88.7530 E2.1775
G1 X76.2200 Y88.7530 E2.1928
G1 X76.2200 Y71.2180 E2.8227
G1 X138.1810 Y71.2180 E5.0484
G1 X138.1810 Y71.6140 E5.0626
G1 X140.0140 Y71.6140 E5.1284
G1 X140.0140 Y71.2180 E5.1426
G1 X159.7800 Y71.2180 E5.8527
G1 X159.7800 Y101.8530 E6.9531
G1 X127.4190 Y131.9940 E8.5417
G1 X124.5780 Y131.9940 E8.6437
G1 X124.5780 Y134.6400 E8.7387
G1 X93.2200 Y163.8470 E10.2781
G1 X93.2200 Y148.9480 E10.8133
G1 X76.2200 Y148.9480 E11.4239
G1 X75.7400 Y149.4280 F6000
G92 E0.0000
G1 X75.7400 Y91.6150 E2.0767 F2880 ; custom inner perimeter feedrate
G1 X76.1650 Y91.6150 E2.0920
G1 X76.1650 Y90.7540 E2.1229
G1 X75.7400 Y90.7540 E2.1381
G1 X75.7400 Y90.1170 E2.1610
G1 X76.1650 Y90.1170 E2.1763
G1 X76.1650 Y89.2330 E2.2080
G1 X75.7400 Y89.2330 E2.2233
G1 X75.7400 Y70.7380 E2.8877
G1 X138.6610 Y70.7380 E5.1479
G1 X138.6610 Y71.1340 E5.1621
G1 X139.5340 Y71.1340 E5.1934
G1 X139.5340 Y70.7380 E5.2076
G1 X160.2600 Y70.7380 E5.9522
G1 X160.2600 Y102.0620 E7.0773
G1 X127.6080 Y132.4740 E8.6802
G1 X125.0580 Y132.4740 E8.7718
G1 X125.0580 Y134.8490 E8.8571
G1 X92.7400 Y164.9500 E10.4435
G1 X92.7400 Y149.4280 E11.0011
G1 X75.7400 Y149.4280 E11.6118
G1 X76.2110 Y90.4660 F6000
G92 E0.0000
G1 X76.1500 Y90.4050 E0.0031 F2880 ; custom outer perimeter feedrate ; custom outer perimeter feedrate
G92 E0.0000
G1 E-5.5 F2400 ; custom retraction
;layer 32, Z = 6.400
;fan32;
G1 Z6.400 F1200
G1 X76.1500 Y90.7540 F6000
G1 X76.1650 Y90.7540
G1 X76.1650 Y91.6150
G1 X76.1510 Y91.6150
G1 X76.2200 Y148.9480
G1 E0 F2400 ; custom un-retraction/prime
G92 E0.0000
G1 X76.2200 Y91.9940 E2.0458 F2880 ; custom outer perimeter feedrate
G1 X76.6450 Y91.9940 E2.0611
G1 X76.6450 Y88.8540 E2.1739
G1 X76.2200 Y88.8540 E2.1892
G1 X76.2200 Y71.2180 E2.8227
G1 X138.1810 Y71.2180 E5.0484
G1 X138.1810 Y71.6140 E5.0626
G1 X140.0140 Y71.6140 E5.1284
G1 X140.0140 Y71.2180 E5.1426
G1 X159.7800 Y71.2180 E5.8527
G1 X159.7800 Y101.8530 E6.9531
G1 X127.4190 Y131.9940 E8.5417
G1 X124.5780 Y131.9940 E8.6437
G1 X124.5780 Y134.6400 E8.7387
G1 X93.2200 Y163.8470 E10.2781
G1 X93.2200 Y148.9480 E10.8133
G1 X76.2200 Y148.9480 E11.4239
G1 X75.7400 Y149.4280 F6000
G92 E0.0000
G1 X75.7400 Y91.5140 E2.0803 F2880 ; custom inner perimeter feedrate
G1 X76.1650 Y91.5140 E2.0956
G1 X76.1650 Y90.6560 E2.1264
G1 X75.7400 Y90.6560 E2.1417
G1 X75.7400 Y90.2140 E2.1576
G1 X76.1650 Y90.2140 E2.1728
G1 X76.1650 Y89.3340 E2.2044
G1 X75.7400 Y89.3340 E2.2197
G1 X75.7400 Y70.7380 E2.8877
G1 X138.6610 Y70.7380 E5.1479
G1 X138.6610 Y71.1340 E5.1621
G1 X139.5340 Y71.1340 E5.1934
G1 X139.5340 Y70.7380 E5.2076
G1 X160.2600 Y70.7380 E5.9522
G1 X160.2600 Y102.0620 E7.0773
G1 X127.6080 Y132.4740 E8.6802
G1 X125.0580 Y132.4740 E8.7718
G1 X125.0580 Y134.8490 E8.8571
G1 X92.7400 Y164.9500 E10.4435
G1 X92.7400 Y149.4280 E11.0011
G1 X75.7400 Y149.4280 E11.6118
G92 E0.0000
G1 E-5.5 F2400 ; custom retraction
;layer 33, Z = 6.600
;fan33;
G1 Z6.600 F1200
G1 X76.2200 Y148.9480 F6000
G1 E0 F2400 ; custom un-retraction/prime
G92 E0.0000
G1 X76.2200 Y91.8930 E2.0495 F2880 ; custom outer perimeter feedrate
G1 X76.6450 Y91.8930 E2.0647
G1 X76.6450 Y88.9540 E2.1703
G1 X76.2200 Y88.9540 E2.1856
G1 X76.2200 Y71.2180 E2.8227
G1 X138.1810 Y71.2180 E5.0484
G1 X138.1810 Y71.6140 E5.0626
G1 X140.0140 Y71.6140 E5.1284
G1 X140.0140 Y71.2180 E5.1426
G1 X159.7800 Y71.2180 E5.8527
G1 X159.7800 Y101.8530 E6.9531
G1 X127.4190 Y131.9940 E8.5417
G1 X124.5780 Y131.9940 E8.6437
G1 X124.5780 Y134.6400 E8.7387
G1 X93.2200 Y163.8470 E10.2781
G1 X93.2200 Y148.9480 E10.8133
G1 X76.2200 Y148.9480 E11.4239
G1 X75.7400 Y149.4280 F6000
G92 E0.0000
G1 X75.7400 Y91.4130 E2.0840 F2880 ; custom inner perimeter feedrate
G1 X76.1650 Y91.4130 E2.0992
G1 X76.1650 Y90.5570 E2.1300
G1 X75.7400 Y90.5570 E2.1452
G1 X75.7400 Y90.3110 E2.1541
G1 X76.1650 Y90.3110 E2.1693
G1 X76.1650 Y89.4340 E2.2008
G1 X75.7400 Y89.4340 E2.2161
G1 X75.7400 Y70.7380 E2.8877
G1 X138.6610 Y70.7380 E5.1479
G1 X138.6610 Y71.1340 E5.1621
G1 X139.5340 Y71.1340 E5.1934
G1 X139.5340 Y70.7380 E5.2076
G1 X160.2600 Y70.7380 E5.9522
G1 X160.2600 Y102.0620 E7.0773
G1 X127.6080 Y132.4740 E8.6802
G1 X125.0580 Y132.4740 E8.7718
G1 X125.0580 Y134.8490 E8.8571
G1 X92.7400 Y164.9500 E10.4435
G1 X92.7400 Y149.4280 E11.0011
G1 X75.7400 Y149.4280 E11.6118
G92 E0.0000
G1 E-5.5 F2400 ; custom retraction
;layer 34, Z = 6.800
;fan34;
G1 Z6.800 F1200
G1 X76.2200 Y148.9480 F6000
G1 E0 F2400 ; custom un-retraction/prime
G92 E0.0000
G1 X76.2200 Y91.7920 E2.0531 F2880 ; custom outer perimeter feedrate
G1 X76.6450 Y91.7920 E2.0684
G1 X76.6450 Y89.0550 E2.1667
G1 X76.2200 Y89.0550 E2.1820
G1 X76.2200 Y71.2180 E2.8227
G1 X138.1810 Y71.2180 E5.0484
G1 X138.1810 Y71.6140 E5.0626
G1 X140.0140 Y71.6140 E5.1284
G1 X140.0140 Y71.2180 E5.1426
G1 X159.7800 Y71.2180 E5.8527
G1 X159.7800 Y101.8530 E6.9531
G1 X127.4190 Y131.9940 E8.5417
G1 X124.5780 Y131.9940 E8.6437
G1 X124.5780 Y134.6400 E8.7387
G1 X93.2200 Y163.8470 E10.2781
G1 X93.2200 Y148.9480 E10.8133
G1 X76.2200 Y148.9480 E11.4239
G1 X75.7400 Y149.4280 F6000
G92 E0.0000
G1 X75.7400 Y91.3120 E2.0876 F2880 ; custom inner perimeter feedrate
G1 X76.1650 Y91.3120 E2.1028
G1 X76.1650 Y90.4590 E2.1335
G1 X75.7400 Y90.4590 E2.1488
G1 X75.7400 Y90.4070 E2.1506
G1 X76.1650 Y90.4070 E2.1659
G1 X76.1650 Y89.5350 E2.1972
G1 X75.7400 Y89.5350 E2.2125
G1 X75.7400 Y70.7380 E2.8877
G1 X138.6610 Y70.7380 E5.1479
G1 X138.6610 Y71.1340 E5.1621
G1 X139.5340 Y71.1340 E5.1934
G1 X139.5340 Y70.7380 E5.2076
G1 X160.2600 Y70.7380 E5.9522
G1 X160.2600 Y102.0620 E7.0773
G1 X127.6080 Y132.4740 E8.6802
G1 X125.0580 Y132.4740 E8.7718
G1 X125.0580 Y134.8490 E8.8571
G1 X92.7400 Y164.9500 E10.4435
G1 X92.7400 Y149.4280 E11.0011
G1 X75.7400 Y149.4280 E11.6118
G92 E0.0000
G1 E-5.5 F2400 ; custom retraction
;layer 35, Z = 7.000
;fan35;
G1 Z7.000 F1200
G1 X76.2200 Y148.9480 F6000
G1 E0 F2400 ; custom un-retraction/prime
G92 E0.0000
G1 X76.2200 Y91.6920 E2.0567 F2880 ; custom outer perimeter feedrate
G1 X76.6450 Y91.6920 E2.0720
G1 X76.6450 Y89.1550 E2.1631
G1 X76.2200 Y89.1550 E2.1784
G1 X76.2200 Y71.2180 E2.8227
G1 X138.1810 Y71.2180 E5.0484
G1 X138.1810 Y71.6140 E5.0626
G1 X140.0140 Y71.6140 E5.1284
G1 X140.0140 Y71.2180 E5.1426
G1 X159.7800 Y71.2180 E5.8527
G1 X159.7800 Y101.8530 E6.9531
G1 X127.4190 Y131.9940 E8.5417
G1 X124.5780 Y131.9940 E8.6437
G1 X124.5780 Y134.6400 E8.7387
G1 X93.2200 Y163.8470 E10.2781
G1 X93.2200 Y148.9480 E10.8133
G1 X76.2200 Y148.9480 E11.4239
G1 X75.7400 Y149.4280 F6000
G92 E0.0000
G1 X75.7400 Y91.2120 E2.0912 F2880 ; custom inner perimeter feedrate
G1 X76.1650 Y91.2120 E2.1065
G1 X76.1650 Y89.6350 E2.1631
G1 X75.7400 Y89.6350 E2.1784
G1 X75.7400 Y70.7380 E2.8572
G1 X138.6610 Y70.7380 E5.1173
G1 X138.6610 Y71.1340 E5.1315
G1 X139.5340 Y71.1340 E5.1629
G1 X139.5340 Y70.7380 E5.1771
G1 X160.2600 Y70.7380 E5.9216
G1 X160.2600 Y102.0620 E7.0468
G1 X127.6080 Y132.4740 E8.6497
G1 X125.0580 Y132.4740 E8.7412
G1 X125.0580 Y134.8490 E8.8266
G1 X92.7400 Y164.9500 E10.4130
G1 X92.7400 Y149.4280 E10.9706
G1 X75.7400 Y149.4280 E11.5812
G92 E0.0000
G1 E-5.5 F2400 ; custom retraction
;layer 36, Z = 7.200
;fan36;
G1 Z7.200 F1200
G1 X76.2200 Y148.9480 F6000
G1 E0 F2400 ; custom un-retraction/prime
G92 E0.0000
G1 X76.2200 Y91.5910 E2.0603 F2880 ; custom outer perimeter feedrate
G1 X76.6450 Y91.5910 E2.0756
G1 X76.6450 Y89.2550 E2.1595
G1 X76.2200 Y89.2550 E2.1748
G1 X76.2200 Y71.2180 E2.8227
G1 X138.1360 Y71.2180 E5.0468
G1 X138.1360 Y71.6140 E5.0610
G1 X140.0480 Y71.6140 E5.1297
G1 X140.0480 Y71.2180 E5.1439
G1 X159.7800 Y71.2180 E5.8527
G1 X159.7800 Y101.8530 E6.9531
G1 X127.4190 Y131.9940 E8.5417
G1 X124.5780 Y131.9940 E8.6437
G1 X124.5780 Y134.6400 E8.7387
G1 X93.2200 Y163.8470 E10.2781
G1 X93.2200 Y148.9480 E10.8133
G1 X76.2200 Y148.9480 E11.4239
G1 X75.7400 Y149.4280 F6000
G92 E0.0000
G1 X75.7400 Y91.1110 E2.0948 F2880 ; custom inner perimeter feedrate
G1 X76.1650 Y91.1110 E2.1101
G1 X76.1650 Y89.7350 E2.1595
G1 X75.7400 Y89.7350 E2.1748
G1 X75.7400 Y70.7380 E2.8572
G1 X138.6160 Y70.7380 E5.1157
G1 X138.6160 Y71.1340 E5.1300
G1 X139.5680 Y71.1340 E5.1641
G1 X139.5680 Y70.7380 E5.1784
G1 X160.2600 Y70.7380 E5.9216
G1 X160.2600 Y102.0620 E7.0468
G1 X127.6080 Y132.4740 E8.6497
G1 X125.0580 Y132.4740 E8.7412
G1 X125.0580 Y134.8490 E8.8266
G1 X92.7400 Y164.9500 E10.4130
G1 X92.7400 Y149.4280 E10.9706
G1 X75.7400 Y149.4280 E11.5812
G92 E0.0000
G1 E-5.5 F2400 ; custom retraction
;layer 37, Z = 7.400
;fan37;
G1 Z7.400 F1200
G1 X76.2200 Y148.9480 F6000
G1 E0 F2400 ; custom un-retraction/prime
G92 E0.0000
G1 X76.2200 Y91.4900 E2.0639 F2880 ; custom outer perimeter feedrate
G1 X76.6450 Y91.4900 E2.0792
G1 X76.6450 Y89.3560 E2.1559
G1 X76.2200 Y89.3560 E2.1711
G1 X76.2200 Y71.2180 E2.8227
G1 X138.0450 Y71.2180 E5.0435
G1 X138.0450 Y71.6140 E5.0577
G1 X140.1410 Y71.6140 E5.1330
G1 X140.1410 Y71.2180 E5.1472
G1 X159.7800 Y71.2180 E5.8527
G1 X159.7800 Y101.8530 E6.9531
G1 X127.4190 Y131.9940 E8.5417
G1 X124.5780 Y131.9940 E8.6437
G1 X124.5780 Y134.6400 E8.7387
G1 X93.2200 Y163.8470 E10.2781
G1 X93.2200 Y148.9480 E10.8133
G1 X76.2200 Y148.9480 E11.4239
G1 X75.7400 Y149.4280 F6000
G92 E0.0000
G1 X75.7400 Y91.0100 E2.0984 F2880 ; custom inner perimeter feedrate
G1 X76.1650 Y91.0100 E2.1137
G1 X76.1650 Y89.8360 E2.1559
G1 X75.7400 Y89.8360 E2.1711
G1 X75.7400 Y70.7380 E2.8572
G1 X138.5250 Y70.7380 E5.1124
G1 X138.5250 Y71.1340 E5.1267
G1 X139.6610 Y71.1340 E5.1675
G1 X139.6610 Y70.7380 E5.1817
G1 X160.2600 Y70.7380 E5.9216
G1 X160.2600 Y102.0620 E7.0468
G1 X127.6080 Y132.4740 E8.6497
G1 X125.0580 Y132.4740 E8.7412
G1 X125.0580 Y134.8490 E8.8266
G1 X92.7400 Y164.9500 E10.4130
G1 X92.7400 Y149.4280 E10.9706
G1 X75.7400 Y149.4280 E11.5812
G92 E0.0000
G1 E-5.5 F2400 ; custom retraction
;layer 38, Z = 7.600
;fan38;
G1 Z7.600 F1200
G1 X76.2200 Y148.9480 F6000
G1 E0 F2400 ; custom un-retraction/prime
G92 E0.0000
G1 X76.2200 Y91.3890 E2.0676 F2880 ; custom outer perimeter feedrate
G1 X76.6450 Y91.3890 E2.0828
G1 X76.6450 Y89.4560 E2.1523
G1 X76.2200 Y89.4560 E2.1675
G1 X76.2200 Y71.2180 E2.8227
G1 X137.9530 Y71.2180 E5.0402
G1 X137.9530 Y71.6140 E5.0544
G1 X140.2340 Y71.6140 E5.1363
G1 X140.2340 Y71.2180 E5.1505
G1 X159.7800 Y71.2180 E5.8527
G1 X159.7800 Y101.8530 E6.9531
G1 X127.4190 Y131.9940 E8.5417
G1 X124.5780 Y131.9940 E8.6437
G1 X124.5780 Y134.6400 E8.7387
G1 X93.2200 Y163.8470 E10.2781
G1 X93.2200 Y148.9480 E10.8133
G1 X76.2200 Y148.9480 E11.4239
G1 X75.7400 Y149.4280 F6000
G92 E0.0000
G1 X75.7400 Y90.9090 E2.1020 F2880 ; custom inner perimeter feedrate
G1 X76.1650 Y90.9090 E2.1173
G1 X76.1650 Y89.9360 E2.1523
G1 X75.7400 Y89.9360 E2.1675
G1 X75.7400 Y70.7380 E2.8572
G1 X138.4330 Y70.7380 E5.1091
G1 X138.4330 Y71.1340 E5.1234
G1 X139.7540 Y71.1340 E5.1708
G1 X139.7540 Y70.7380 E5.1850
G1 X160.2600 Y70.7380 E5.9216
G1 X160.2600 Y102.0620 E7.0468
G1 X127.6080 Y132.4740 E8.6497
G1 X125.0580 Y132.4740 E8.7412
G1 X125.0580 Y134.8490 E8.8266
G1 X92.7400 Y164.9500 E10.4130
G1 X92.7400 Y149.4280 E10.9706
G1 X75.7400 Y149.4280 E11.5812
G92 E0.0000
G1 E-5.5 F2400 ; custom retraction
;layer 39, Z = 7.800
;fan39;
G1 Z7.800 F1200
G1 X76.2200 Y148.9480 F6000
G1 E0 F2400 ; custom un-retraction/prime
G92 E0.0000
G1 X76.2200 Y91.4180 E2.0665 F2880 ; custom outer perimeter feedrate
G1 X76.6450 Y91.4180 E2.0818
G1 X76.6450 Y89.4430 E2.1528
G1 X76.2200 Y89.4430 E2.1680
G1 X76.2200 Y71.2180 E2.8227
G1 X137.8610 Y71.2180 E5.0369
G1 X137.8610 Y71.6140 E5.0511
G1 X140.3260 Y71.6140 E5.1396
G1 X140.3260 Y71.2180 E5.1539
G1 X159.7800 Y71.2180 E5.8527
G1 X159.7800 Y101.8530 E6.9531
G1 X127.4190 Y131.9940 E8.5417
G1 X124.5780 Y131.9940 E8.6437
G1 X124.5780 Y134.6400 E8.7387
G1 X93.2200 Y163.8470 E10.2781
G1 X93.2200 Y148.9480 E10.8133
G1 X76.2200 Y148.9480 E11.4239
G1 X75.7400 Y149.4280 F6000
G92 E0.0000
G1 X75.7400 Y90.9380 E2.1010 F2880 ; custom inner perimeter feedrate
G1 X76.1650 Y90.9380 E2.1163
G1 X76.1650 Y89.9230 E2.1528
G1 X75.7400 Y89.9230 E2.1680
G1 X75.7400 Y70.7380 E2.8572
G1 X138.3410 Y70.7380 E5.1059
G1 X138.3410 Y71.1340 E5.1201
G1 X139.8460 Y71.1340 E5.1741
G1 X139.8460 Y70.7380 E5.1883
G1 X160.2600 Y70.7380 E5.9216
G1 X160.2600 Y102.0620 E7.0468
G1 X127.6080 Y132.4740 E8.6497
G1 X125.0580 Y132.4740 E8.7412
G1 X125.0580 Y134.8490 E8.8266
G1 X92.7400 Y164.9500 E10.4130
G1 X92.7400 Y149.4280 E10.9706
G1 X75.7400 Y149.4280 E11.5812
G92 E0.0000
G1 E-5.5 F2400 ; custom retraction
;layer 40, Z = 8.000
;fan40;
G1 Z8.000 F1200
G1 X76.2200 Y148.9480 F6000
G1 E0 F2400 ; custom un-retraction/prime
G92 E0.0000
G1 X76.2200 Y91.5210 E2.0628 F2880 ; custom outer perimeter feedrate
G1 X76.6450 Y91.5210 E2.0781
G1 X76.6450 Y89.3390 E2.1565
G1 X76.2200 Y89.3390 E2.1717
G1 X76.2200 Y71.2180 E2.8227
G1 X137.7700 Y71.2180 E5.0336
G1 X137.7700 Y71.6140 E5.0478
G1 X140.4190 Y71.6140 E5.1430
G1 X140.4190 Y71.2180 E5.1572
G1 X159.7800 Y71.2180 E5.8527
G1 X159.7800 Y101.8530 E6.9531
G1 X127.4190 Y131.9940 E8.5417
G1 X124.5780 Y131.9940 E8.6437
G1 X124.5780 Y134.6400 E8.7387
G1 X93.2200 Y163.8470 E10.2781
G1 X93.2200 Y148.9480 E10.8133
G1 X76.2200 Y148.9480 E11.4239
G1 X75.7400 Y149.4280 F6000
G92 E0.0000
G1 X75.7400 Y91.0410 E2.0973 F2880 ; custom inner perimeter feedrate
G1 X76.1650 Y91.0410 E2.1126
G1 X76.1650 Y89.8190 E2.1565
G1 X75.7400 Y89.8190 E2.1717
G1 X75.7400 Y70.7380 E2.8572
G1 X138.2500 Y70.7380 E5.1026
G1 X138.2500 Y71.1340 E5.1168
G1 X139.9390 Y71.1340 E5.1775
G1 X139.9390 Y70.7380 E5.1917
G1 X160.2600 Y70.7380 E5.9216
G1 X160.2600 Y102.0620 E7.0468
G1 X127.6080 Y132.4740 E8.6497
G1 X125.0580 Y132.4740 E8.7412
G1 X125.0580 Y134.8490 E8.8266
G1 X92.7400 Y164.9500 E10.4130
G1 X92.7400 Y149.4280 E10.9706
G1 X75.7400 Y149.4280 E11.5812
G92 E0.0000
G1 E-5.5 F2400 ; custom retraction
;layer 41, Z = 8.200
;fan41;
G1 Z8.200 F1200
G1 X76.2200 Y148.9480 F6000
G1 E0 F2400 ; custom un-retraction/prime
G92 E0.0000
G1 X76.2200 Y91.6240 E2.0591 F2880 ; custom outer perimeter feedrate
G1 X76.6450 Y91.6240 E2.0744
G1 X76.6450 Y89.2360 E2.1602
G1 X76.2200 Y89.2360 E2.1755
G1 X76.2200 Y71.2180 E2.8227
G1 X137.6780 Y71.2180 E5.0303
G1 X137.6780 Y71.6140 E5.0445
G1 X140.5120 Y71.6140 E5.1463
G1 X140.5120 Y71.2180 E5.1605
G1 X159.7800 Y71.2180 E5.8527
G1 X159.7800 Y101.8530 E6.9531
G1 X127.4190 Y131.9940 E8.5417
G1 X124.5780 Y131.9940 E8.6437
G1 X124.5780 Y134.6400 E8.7387
G1 X93.2200 Y163.8470 E10.2781
G1 X93.2200 Y148.9480 E10.8133
G1 X76.2200 Y148.9480 E11.4239
G1 X75.7400 Y149.4280 F6000
G92 E0.0000
G1 X75.7400 Y91.1440 E2.0936 F2880 ; custom inner perimeter feedrate
G1 X76.1650 Y91.1440 E2.1089
G1 X76.1650 Y89.7160 E2.1602
G1 X75.7400 Y89.7160 E2.1755
G1 X75.7400 Y70.7380 E2.8572
G1 X138.1580 Y70.7380 E5.0993
G1 X138.1580 Y71.1340 E5.1135
G1 X139.0520 Y71.1340 E5.1456
G1 X139.0520 Y70.7380 E5.1598
G1 X139.1450 Y70.7380 E5.1631
G1 X139.1450 Y71.1340 E5.1774
G1 X140.0320 Y71.1340 E5.2092
G1 X140.0320 Y70.7380 E5.2234
G1 X160.2600 Y70.7380 E5.9501
G1 X160.2600 Y102.0620 E7.0752
G1 X127.6080 Y132.4740 E8.6781
G1 X125.0580 Y132.4740 E8.7697
G1 X125.0580 Y134.8490 E8.8550
G1 X92.7400 Y164.9500 E10.4414
G1 X92.7400 Y149.4280 E10.9990
G1 X75.7400 Y149.4280 E11.6097
G92 E0.0000
G1 E-5.5 F2400 ; custom retraction
;layer 42, Z = 8.400
;fan42;
G1 Z8.400 F1200
G1 X76.2200 Y148.9480 F6000
G1 E0 F2400 ; custom un-retraction/prime
G92 E0.0000
G1 X76.2200 Y91.7260 E2.0555 F2880 ; custom outer perimeter feedrate
G1 X76.6450 Y91.7260 E2.0707
G1 X76.6450 Y89.1320 E2.1639
G1 X76.2200 Y89.1320 E2.1792
G1 X76.2200 Y71.2180 E2.8227
G1 X137.5860 Y71.2180 E5.0270
G1 X137.5860 Y71.6140 E5.0412
G1 X140.6040 Y71.6140 E5.1496
G1 X140.6040 Y71.2180 E5.1639
G1 X159.7800 Y71.2180 E5.8527
G1 X159.7800 Y101.8530 E6.9531
G1 X127.4190 Y131.9940 E8.5417
G1 X124.5780 Y131.9940 E8.6437
G1 X124.5780 Y134.6400 E8.7387
G1 X93.2200 Y163.8470 E10.2781
G1 X93.2200 Y148.9480 E10.8133
G1 X76.2200 Y148.9480 E11.4239
G1 X75.7400 Y149.4280 F6000
G92 E0.0000
G1 X75.7400 Y91.2460 E2.0899 F2880 ; custom inner perimeter feedrate
G1 X76.1650 Y91.2460 E2.1052
G1 X76.1650 Y89.6120 E2.1639
G1 X75.7400 Y89.6120 E2.1792
G1 X75.7400 Y70.7380 E2.8572
G1 X138.0660 Y70.7380 E5.0960
G1 X138.0660 Y71.1340 E5.1102
G1 X138.9620 Y71.1340 E5.1424
G1 X138.9620 Y70.7380 E5.1566
G1 X139.2350 Y70.7380 E5.1664
G1 X139.2350 Y71.1340 E5.1806
G1 X140.1240 Y71.1340 E5.2126
G1 X140.1240 Y70.7380 E5.2268
G1 X160.2600 Y70.7380 E5.9501
G1 X160.2600 Y102.0620 E7.0752
G1 X127.6080 Y132.4740 E8.6781
G1 X125.0580 Y132.4740 E8.7697
G1 X125.0580 Y134.8490 E8.8550
G1 X92.7400 Y164.9500 E10.4414
G1 X92.7400 Y149.4280 E10.9990
G1 X75.7400 Y149.4280 E11.6097
G92 E0.0000
G1 E-5.5 F2400 ; custom retraction
;layer 43, Z = 8.600
;fan43;
G1 Z8.600 F1200
G1 X76.2200 Y148.9480 F6000
G1 E0 F2400 ; custom un-retraction/prime
G92 E0.0000
G1 X76.2200 Y91.8290 E2.0518 F2880 ; custom outer perimeter feedrate
G1 X76.6450 Y91.8290 E2.0670
G1 X76.6450 Y89.0280 E2.1676
G1 X76.2200 Y89.0280 E2.1829
G1 X76.2200 Y71.2180 E2.8227
G1 X137.4950 Y71.2180 E5.0237
G1 X137.4950 Y71.6140 E5.0379
G1 X140.6970 Y71.6140 E5.1530
G1 X140.6970 Y71.2180 E5.1672
G1 X159.7800 Y71.2180 E5.8527
G1 X159.7800 Y101.8530 E6.9531
G1 X127.4190 Y131.9940 E8.5417
G1 X124.5780 Y131.9940 E8.6437
G1 X124.5780 Y134.6400 E8.7387
G1 X93.2200 Y163.8470 E10.2781
G1 X93.2200 Y148.9480 E10.8133
G1 X76.2200 Y148.9480 E11.4239
G1 X75.7400 Y149.4280 F6000
G92 E0.0000
G1 X75.7400 Y91.3490 E2.0862 F2880 ; custom inner perimeter feedrate
G1 X76.1650 Y91.3490 E2.1015
G1 X76.1650 Y90.4830 E2.1326
G1 X75.7400 Y90.4830 E2.1479
G1 X75.7400 Y90.3600 E2.1523
G1 X76.1650 Y90.3600 E2.1676
G1 X76.1650 Y89.5080 E2.1982
G1 X75.7400 Y89.5080 E2.2134
G1 X75.7400 Y70.7380 E2.8877
G1 X137.9750 Y70.7380 E5.1232
G1 X137.9750 Y71.1340 E5.1374
G1 X138.8720 Y71.1340 E5.1697
G1 X138.8720 Y70.7380 E5.1839
G1 X139.3260 Y70.7380 E5.2002
G1 X139.3260 Y71.1340 E5.2144
G1 X140.2170 Y71.1340 E5.2464
G1 X140.2170 Y70.7380 E5.2606
G1 X160.2600 Y70.7380 E5.9806
G1 X160.2600 Y102.0620 E7.1058
G1 X127.6080 Y132.4740 E8.7086
G1 X125.0580 Y132.4740 E8.8002
G1 X125.0580 Y134.8490 E8.8855
G1 X92.7400 Y164.9500 E10.4720
G1 X92.7400 Y149.4280 E11.0296
G1 X75.7400 Y149.4280 E11.6402
G92 E0.0000
G1 E-5.5 F2400 ; custom retraction
;layer 44, Z = 8.800
;fan44;
G1 Z8.800 F1200
G1 X76.2200 Y148.9480 F6000
G1 E0 F2400 ; custom un-retraction/prime
G92 E0.0000
G1 X76.2200 Y91.9320 E2.0481 F2880 ; custom outer perimeter feedrate
G1 X76.6450 Y91.9320 E2.0633
G1 X76.6450 Y88.9250 E2.1714
G1 X76.2200 Y88.9250 E2.1866
G1 X76.2200 Y71.2180 E2.8227
G1 X137.4030 Y71.2180 E5.0204
G1 X137.4030 Y71.6140 E5.0346
G1 X140.7900 Y71.6140 E5.1563
G1 X140.7900 Y71.2180 E5.1705
G1 X159.7800 Y71.2180 E5.8527
G1 X159.7800 Y101.8530 E6.9531
G1 X127.4190 Y131.9940 E8.5417
G1 X124.5780 Y131.9940 E8.6437
G1 X124.5780 Y134.6400 E8.7387
G1 X93.2200 Y163.8470 E10.2781
G1 X93.2200 Y148.9480 E10.8133
G1 X76.2200 Y148.9480 E11.4239
G1 X75.7400 Y149.4280 F6000
G92 E0.0000
G1 X75.7400 Y91.4520 E2.0825 F2880 ; custom inner perimeter feedrate
G1 X76.1650 Y91.4520 E2.0978
G1 X76.1650 Y90.5820 E2.1291
G1 X75.7400 Y90.5820 E2.1443
G1 X75.7400 Y90.2600 E2.1559
G1 X76.1650 Y90.2600 E2.1712
G1 X76.1650 Y89.4050 E2.2019
G1 X75.7400 Y89.4050 E2.2172
G1 X75.7400 Y70.7380 E2.8877
G1 X137.8830 Y70.7380 E5.1199
G1 X137.8830 Y71.1340 E5.1341
G1 X138.7820 Y71.1340 E5.1664
G1 X138.7820 Y70.7380 E5.1806
G1 X139.4170 Y70.7380 E5.2034
G1 X139.4170 Y71.1340 E5.2177
G1 X140.3100 Y71.1340 E5.2497
G1 X140.3100 Y70.7380 E5.2640
G1 X160.2600 Y70.7380 E5.9806
G1 X160.2600 Y102.0620 E7.1058
G1 X127.6080 Y132.4740 E8.7086
G1 X125.0580 Y132.4740 E8.8002
G1 X125.0580 Y134.8490 E8.8855
G1 X92.7400 Y164.9500 E10.4720
G1 X92.7400 Y149.4280 E11.0296
G1 X75.7400 Y149.4280 E11.6402
G1 X139.0700 Y71.1350 F6000
G92 E0.0000
G1 X139.1290 Y71.0760 E0.0030 F2880 ; custom outer perimeter feedrate ; custom outer perimeter feedrate
G92 E0.0000
G1 E-5.5 F2400 ; custom retraction
;layer 45, Z = 9.000
;fan45;
G1 Z9.000 F1200
G1 X76.2200 Y148.9480 F6000
G1 E0 F2400 ; custom un-retraction/prime
G92 E0.0000
G1 X76.2200 Y92.0350 E2.0444 F2880 ; custom outer perimeter feedrate
G1 X76.6450 Y92.0350 E2.0596
G1 X76.6450 Y88.8210 E2.1751
G1 X76.2200 Y88.8210 E2.1903
G1 X76.2200 Y71.2180 E2.8227
G1 X137.3110 Y71.2180 E5.0171
G1 X137.3110 Y71.6140 E5.0313
G1 X140.8820 Y71.6140 E5.1596
G1 X140.8820 Y71.2180 E5.1738
G1 X159.7800 Y71.2180 E5.8527
G1 X159.7800 Y101.8530 E6.9531
G1 X127.4190 Y131.9940 E8.5417
G1 X124.5780 Y131.9940 E8.6437
G1 X124.5780 Y134.6400 E8.7387
G1 X93.2200 Y163.8470 E10.2781
G1 X93.2200 Y148.9480 E10.8133
G1 X76.2200 Y148.9480 E11.4239
G1 X75.7400 Y149.4280 F6000
G92 E0.0000
G1 X75.7400 Y91.5550 E2.0789 F2880 ; custom inner perimeter feedrate
G1 X76.1650 Y91.5550 E2.0941
G1 X76.1650 Y90.6810 E2.1255
G1 X75.7400 Y90.6810 E2.1408
G1 X75.7400 Y90.1600 E2.1595
G1 X76.1650 Y90.1600 E2.1748
G1 X76.1650 Y89.3010 E2.2056
G1 X75.7400 Y89.3010 E2.2209
G1 X75.7400 Y70.7380 E2.8877
G1 X137.7910 Y70.7380 E5.1166
G1 X137.7910 Y71.1340 E5.1308
G1 X138.6920 Y71.1340 E5.1632
G1 X138.6920 Y70.7380 E5.1774
G1 X139.5070 Y70.7380 E5.2067
G1 X139.5070 Y71.1340 E5.2209
G1 X140.4020 Y71.1340 E5.2531
G1 X140.4020 Y70.7380 E5.2673
G1 X160.2600 Y70.7380 E5.9806
G1 X160.2600 Y102.0620 E7.1058
G1 X127.6080 Y132.4740 E8.7086
G1 X125.0580 Y132.4740 E8.8002
G1 X125.0580 Y134.8490 E8.8855
G1 X92.7400 Y164.9500 E10.4720
G1 X92.7400 Y149.4280 E11.0296
G1 X75.7400 Y149.4280 E11.6402
G1 X139.2030 Y71.3210 F6000
G92 E0.0000
G1 X138.9800 Y71.0980 E0.0113 F2880 ; custom outer perimeter feedrate ; custom outer perimeter feedrate
G92 E0.0000
G1 E-5.5 F2400 ; custom retraction
;layer 46, Z = 9.200
;fan46;
G1 Z9.200 F1200
G1 X76.2200 Y148.9480 F6000
G1 E0 F2400 ; custom un-retraction/prime
G92 E0.0000
G1 X76.2200 Y92.1380 E2.0407 F2880 ; custom outer perimeter feedrate
G1 X76.6450 Y92.1380 E2.0559
G1 X76.6450 Y88.7180 E2.1788
G1 X76.2200 Y88.7180 E2.1941
G1 X76.2200 Y71.2180 E2.8227
G1 X137.2200 Y71.2180 E5.0138
G1 X137.2200 Y71.6140 E5.0280
G1 X140.9750 Y71.6140 E5.1630
G1 X140.9750 Y71.2180 E5.1772
G1 X159.7800 Y71.2180 E5.8527
G1 X159.7800 Y101.8530 E6.9531
G1 X127.4190 Y131.9940 E8.5417
G1 X124.5780 Y131.9940 E8.6437
G1 X124.5780 Y134.6400 E8.7387
G1 X93.2200 Y163.8470 E10.2781
G1 X93.2200 Y148.9480 E10.8133
G1 X76.2200 Y148.9480 E11.4239
G1 X75.7400 Y149.4280 F6000
G92 E0.0000
G1 X75.7400 Y91.6580 E2.0752 F2880 ; custom inner perimeter feedrate
G1 X76.1650 Y91.6580 E2.0904
G1 X76.1650 Y90.7800 E2.1220
G1 X75.7400 Y90.7800 E2.1372
G1 X75.7400 Y90.0590 E2.1631
G1 X76.1650 Y90.0590 E2.1784
G1 X76.1650 Y89.1980 E2.2093
G1 X75.7400 Y89.1980 E2.2246
G1 X75.7400 Y70.7380 E2.8877
G1 X137.7000 Y70.7380 E5.1133
G1 X137.7000 Y71.1340 E5.1275
G1 X138.6020 Y71.1340 E5.1600
G1 X138.6020 Y70.7380 E5.1742
G1 X139.5980 Y70.7380 E5.2100
G1 X139.5980 Y71.1340 E5.2242
G1 X140.4950 Y71.1340 E5.2564
G1 X140.4950 Y70.7380 E5.2706
G1 X160.2600 Y70.7380 E5.9806
G1 X160.2600 Y102.0620 E7.1058
G1 X127.6080 Y132.4740 E8.7086
G1 X125.0580 Y132.4740 E8.8002
G1 X125.0580 Y134.8490 E8.8855
G1 X92.7400 Y164.9500 E10.4720
G1 X92.7400 Y149.4280 E11.0296
G1 X75.7400 Y149.4280 E11.6402
G1 X76.2680 Y90.4920 F6000
G92 E0.0000
G1 X76.3520 Y90.4080 E0.0043 F2880 ; custom outer perimeter feedrate ; custom outer perimeter feedrate
G1 X138.8900 Y71.3150 F6000
G92 E0.0000
G1 X139.1790 Y71.0260 E0.0147 F2880 ; custom outer perimeter feedrate ; custom outer perimeter feedrate
G92 E0.0000
G1 E-5.5 F2400 ; custom retraction
;layer 47, Z = 9.400
;fan47;
G1 Z9.400 F1200
G1 X76.2200 Y148.9480 F6000
G1 E0 F2400 ; custom un-retraction/prime
G92 E0.0000
G1 X76.2200 Y92.2400 E2.0370 F2880 ; custom outer perimeter feedrate
G1 X76.6450 Y92.2400 E2.0523
G1 X76.6450 Y88.6140 E2.1825
G1 X76.2200 Y88.6140 E2.1978
G1 X76.2200 Y71.2180 E2.8227
G1 X137.1280 Y71.2180 E5.0105
G1 X137.1280 Y71.6140 E5.0248
G1 X141.0680 Y71.6140 E5.1663
G1 X141.0680 Y71.2180 E5.1805
G1 X159.7800 Y71.2180 E5.8527
G1 X159.7800 Y101.8530 E6.9531
G1 X127.4190 Y131.9940 E8.5417
G1 X124.5780 Y131.9940 E8.6437
G1 X124.5780 Y134.6400 E8.7387
G1 X93.2200 Y163.8470 E10.2781
G1 X93.2200 Y148.9480 E10.8133
G1 X76.2200 Y148.9480 E11.4239
G1 X75.7400 Y149.4280 F6000
G92 E0.0000
G1 X75.7400 Y91.7610 E2.0715 F2880 ; custom inner perimeter feedrate
G1 X76.1650 Y91.7610 E2.0867
G1 X76.1650 Y90.8790 E2.1184
G1 X75.7400 Y90.8790 E2.1337
G1 X75.7400 Y89.9590 E2.1667
G1 X76.1650 Y89.9590 E2.1820
G1 X76.1650 Y89.0940 E2.2131
G1 X75.7400 Y89.0940 E2.2283
G1 X75.7400 Y70.7380 E2.8877
G1 X137.6080 Y70.7380 E5.1100
G1 X137.6080 Y71.1340 E5.1243
G1 X138.5120 Y71.1340 E5.1567
G1 X138.5120 Y70.7380 E5.1709
G1 X139.6880 Y70.7380 E5.2132
G1 X139.6880 Y71.1340 E5.2274
G1 X140.5880 Y71.1340 E5.2597
G1 X140.5880 Y70.7380 E5.2740
G1 X160.2600 Y70.7380 E5.9806
G1 X160.2600 Y102.0620 E7.1058
G1 X127.6080 Y132.4740 E8.7086
G1 X125.0580 Y132.4740 E8.8002
G1 X125.0580 Y134.8490 E8.8855
G1 X92.7400 Y164.9500 E10.4720
G1 X92.7400 Y149.4280 E11.0296
G1 X75.7400 Y149.4280 E11.6402
G1 X76.3360 Y90.5910 F6000
G92 E0.0000
G1 X76.0280 Y90.2830 E0.0157 F2880 ; custom outer perimeter feedrate ; custom outer perimeter feedrate
G1 X138.9080 Y71.0260 F6000
G92 E0.0000
G1 X139.2030 Y71.3210 E0.0150 F2880 ; custom outer perimeter feedrate ; custom outer perimeter feedrate
G92 E0.0000
G1 E-5.5 F2400 ; custom retraction
;layer 48, Z = 9.600
;fan48;
G1 Z9.600 F1200
G1 X76.2200 Y148.9480 F6000
G1 E0 F2400 ; custom un-retraction/prime
G92 E0.0000
G1 X76.2200 Y71.2180 E2.7921 F2880 ; custom outer perimeter feedrate
G1 X159.7800 Y71.2180 E5.7937
G1 X159.7800 Y101.8530 E6.8941
G1 X127.4190 Y131.9940 E8.4827
G1 X124.5780 Y131.9940 E8.5847
G1 X124.5780 Y134.6400 E8.6798
G1 X93.2200 Y163.8470 E10.2191
G1 X93.2200 Y148.9480 E10.7543
G1 X76.2200 Y148.9480 E11.3650
G1 X75.7400 Y149.4280 F6000
G92 E0.0000
G1 X75.7400 Y70.7380 E2.8266 F2880 ; custom inner perimeter feedrate
G1 X160.2600 Y70.7380 E5.8627
G1 X160.2600 Y102.0620 E6.9878
G1 X127.6080 Y132.4740 E8.5907
G1 X125.0580 Y132.4740 E8.6823
G1 X125.0580 Y134.8490 E8.7676
G1 X92.7400 Y164.9500 E10.3540
G1 X92.7400 Y149.4280 E10.9116
G1 X75.7400 Y149.4280 E11.5223
G92 E0.0000
G1 E-5.5 F2400 ; custom retraction
;layer 49, Z = 9.800
;fan49;
G1 Z9.800 F1200
G1 X76.2200 Y148.9480 F6000
G1 E0 F2400 ; custom un-retraction/prime
G92 E0.0000
G1 X76.2200 Y71.2180 E2.7921 F2880 ; custom outer perimeter feedrate
G1 X159.6100 Y71.2180 E5.7876
G1 X159.6100 Y102.0110 E6.8937
G1 X127.4190 Y131.9940 E8.4739
G1 X124.5780 Y131.9940 E8.5760
G1 X124.5780 Y134.6400 E8.6710
G1 X93.2200 Y163.8470 E10.2103
G1 X93.2200 Y148.9480 E10.7455
G1 X76.2200 Y148.9480 E11.3562
G1 X75.7400 Y149.4280 F6000
G92 E0.0000
G1 X75.7400 Y70.7380 E2.8266 F2880 ; custom inner perimeter feedrate
G1 X160.0900 Y70.7380 E5.8566
G1 X160.0900 Y102.2200 E6.9874
G1 X127.6080 Y132.4740 E8.5819
G1 X125.0580 Y132.4740 E8.6735
G1 X125.0580 Y134.8490 E8.7588
G1 X92.7400 Y164.9500 E10.3453
G1 X92.7400 Y149.4280 E10.9028
G1 X75.7400 Y149.4280 E11.5135
G92 E0.0000
G1 E-5.5 F2400 ; custom retraction
;layer 50, Z = 10.000
;fan50;
G1 Z10.000 F1200
G1 X76.2200 Y148.9480 F6000
G1 E0 F2400 ; custom un-retraction/prime
G92 E0.0000
G1 X76.2200 Y71.2180 E2.7921 F2880 ; custom outer perimeter feedrate
G1 X159.4400 Y71.2180 E5.7815
G1 X159.4400 Y102.1690 E6.8933
G1 X127.4190 Y131.9940 E8.4652
G1 X124.5780 Y131.9940 E8.5672
G1 X124.5780 Y134.6400 E8.6622
G1 X93.2200 Y163.8470 E10.2016
G1 X93.2200 Y148.9480 E10.7368
G1 X76.2200 Y148.9480 E11.3474
G1 X75.7400 Y149.4280 F6000
G92 E0.0000
G1 X75.7400 Y70.7380 E2.8266 F2880 ; custom inner perimeter feedrate
G1 X159.9200 Y70.7380 E5.8504
G1 X159.9200 Y102.3780 E6.9870
G1 X127.6080 Y132.4740 E8.5732
G1 X125.0580 Y132.4740 E8.6648
G1 X125.0580 Y134.8490 E8.7501
G1 X92.7400 Y164.9500 E10.3365
G1 X92.7400 Y149.4280 E10.8941
G1 X75.7400 Y149.4280 E11.5047
G92 E0.0000
G1 E-5.5 F2400 ; custom retraction
SET_VELOCITY_LIMIT ACCEL=600 ACCEL_TO_DECEL=600; custom acceleration - C
SET_VELOCITY_LIMIT SQUARE_CORNER_VELOCITY=5 ; custom SCV - C
;layer 51, Z = 10.200
;fan51;
G1 Z10.200 F1200
G1 X76.2200 Y148.9480 F6000
G1 E0 F2400 ; custom un-retraction/prime
G92 E0.0000
G1 X76.2200 Y71.2180 E2.7921 F2880 ; custom outer perimeter feedrate
G1 X159.7800 Y71.2180 E5.7937
G1 X159.7800 Y101.8530 E6.8941
G1 X127.4190 Y131.9940 E8.4827
G1 X124.5780 Y131.9940 E8.5847
G1 X124.5780 Y134.6400 E8.6798
G1 X93.2200 Y163.8470 E10.2191
G1 X93.2200 Y148.9480 E10.7543
G1 X76.2200 Y148.9480 E11.3650
G1 X75.7400 Y149.4280 F6000
G92 E0.0000
G1 X75.7400 Y70.7380 E2.8266 F2880 ; custom inner perimeter feedrate
G1 X160.2600 Y70.7380 E5.8627
G1 X160.2600 Y102.0620 E6.9878
G1 X127.6080 Y132.4740 E8.5907
G1 X125.0580 Y132.4740 E8.6823
G1 X125.0580 Y134.8490 E8.7676
G1 X92.7400 Y164.9500 E10.3540
G1 X92.7400 Y149.4280 E10.9116
G1 X75.7400 Y149.4280 E11.5223
G92 E0.0000
G1 E-5.5 F2400 ; custom retraction
;layer 52, Z = 10.400
;fan52;
G1 Z10.400 F1200
G1 X76.2200 Y148.9480 F6000
G1 E0 F2400 ; custom un-retraction/prime
G92 E0.0000
G1 X76.2200 Y71.2180 E2.7921 F2880 ; custom outer perimeter feedrate
G1 X159.7800 Y71.2180 E5.7937
G1 X159.7800 Y101.8530 E6.8941
G1 X127.4190 Y131.9940 E8.4827
G1 X124.5780 Y131.9940 E8.5847
G1 X124.5780 Y134.6400 E8.6798
G1 X93.2200 Y163.8470 E10.2191
G1 X93.2200 Y148.9480 E10.7543
G1 X76.2200 Y148.9480 E11.3650
G1 X75.7400 Y149.4280 F6000
G92 E0.0000
G1 X75.7400 Y70.7380 E2.8266 F2880 ; custom inner perimeter feedrate
G1 X160.2600 Y70.7380 E5.8627
G1 X160.2600 Y102.0620 E6.9878
G1 X127.6080 Y132.4740 E8.5907
G1 X125.0580 Y132.4740 E8.6823
G1 X125.0580 Y134.8490 E8.7676
G1 X92.7400 Y164.9500 E10.3540
G1 X92.7400 Y149.4280 E10.9116
G1 X75.7400 Y149.4280 E11.5223
G92 E0.0000
G1 E-5.5 F2400 ; custom retraction
;layer 53, Z = 10.600
;fan53;
G1 Z10.600 F1200
G1 X76.2200 Y148.9480 F6000
G1 E0 F2400 ; custom un-retraction/prime
G92 E0.0000
G1 X76.2200 Y92.3970 E2.0314 F2880 ; custom outer perimeter feedrate
G1 X76.6450 Y92.3970 E2.0466
G1 X76.6450 Y88.4520 E2.1883
G1 X76.2200 Y88.4520 E2.2036
G1 X76.2200 Y71.2180 E2.8227
G1 X138.1810 Y71.2180 E5.0484
G1 X138.1810 Y71.6140 E5.0626
G1 X140.0140 Y71.6140 E5.1284
G1 X140.0140 Y71.2180 E5.1426
G1 X159.7800 Y71.2180 E5.8527
G1 X159.7800 Y101.8530 E6.9531
G1 X127.4190 Y131.9940 E8.5417
G1 X124.5780 Y131.9940 E8.6437
G1 X124.5780 Y134.6400 E8.7387
G1 X93.2200 Y163.8470 E10.2781
G1 X93.2200 Y148.9480 E10.8133
G1 X76.2200 Y148.9480 E11.4239
G1 X75.7400 Y149.4280 F6000
G92 E0.0000
G1 X75.7400 Y91.9170 E2.0659 F2880 ; custom inner perimeter feedrate
G1 X76.1650 Y91.9170 E2.0811
G1 X76.1650 Y91.0500 E2.1123
G1 X75.7400 Y91.0500 E2.1275
G1 X75.7400 Y89.8270 E2.1715
G1 X76.1650 Y89.8270 E2.1867
G1 X76.1650 Y88.9320 E2.2189
G1 X75.7400 Y88.9320 E2.2341
G1 X75.7400 Y70.7380 E2.8877
G1 X138.6610 Y70.7380 E5.1479
G1 X138.6610 Y71.1340 E5.1621
G1 X139.5340 Y71.1340 E5.1934
G1 X139.5340 Y70.7380 E5.2076
G1 X160.2600 Y70.7380 E5.9522
G1 X160.2600 Y102.0620 E7.0773
G1 X127.6080 Y132.4740 E8.6802
G1 X125.0580 Y132.4740 E8.7718
G1 X125.0580 Y134.8490 E8.8571
G1 X92.7400 Y164.9500 E10.4435
G1 X92.7400 Y149.4280 E11.0011
G1 X75.7400 Y149.4280 E11.6118
G1 X76.3520 Y90.6070 F6000
G92 E0.0000
G1 X76.0280 Y90.2830 E0.0165 F2880 ; custom outer perimeter feedrate ; custom outer perimeter feedrate
G92 E0.0000
G1 E-5.5 F2400 ; custom retraction
;layer 54, Z = 10.800
;fan54;
G1 Z10.800 F1200
G1 X76.0310 Y91.0500 F6000
G1 X76.1650 Y91.0500
G1 X76.1650 Y91.9170
G1 X76.0330 Y91.9170
G1 X76.2200 Y148.9480
G1 E0 F2400 ; custom un-retraction/prime
G92 E0.0000
G1 X76.2200 Y92.2960 E2.0350 F2880 ; custom outer perimeter feedrate
G1 X76.6450 Y92.2960 E2.0503
G1 X76.6450 Y88.5530 E2.1847
G1 X76.2200 Y88.5530 E2.2000
G1 X76.2200 Y71.2180 E2.8227
G1 X138.1810 Y71.2180 E5.0484
G1 X138.1810 Y71.6140 E5.0626
G1 X140.0140 Y71.6140 E5.1284
G1 X140.0140 Y71.2180 E5.1426
G1 X159.7800 Y71.2180 E5.8527
G1 X159.7800 Y101.8530 E6.9531
G1 X127.4190 Y131.9940 E8.5417
G1 X124.5780 Y131.9940 E8.6437
G1 X124.5780 Y134.6400 E8.7387
G1 X93.2200 Y163.8470 E10.2781
G1 X93.2200 Y148.9480 E10.8133
G1 X76.2200 Y148.9480 E11.4239
G1 X75.7400 Y149.4280 F6000
G92 E0.0000
G1 X75.7400 Y91.8160 E2.0695 F2880 ; custom inner perimeter feedrate
G1 X76.1650 Y91.8160 E2.0847
G1 X76.1650 Y90.9510 E2.1158
G1 X75.7400 Y90.9510 E2.1311
G1 X75.7400 Y89.9240 E2.1680
G1 X76.1650 Y89.9240 E2.1833
G1 X76.1650 Y89.0330 E2.2153
G1 X75.7400 Y89.0330 E2.2305
G1 X75.7400 Y70.7380 E2.8877
G1 X138.6610 Y70.7380 E5.1479
G1 X138.6610 Y71.1340 E5.1621
G1 X139.5340 Y71.1340 E5.1934
G1 X139.5340 Y70.7380 E5.2076
G1 X160.2600 Y70.7380 E5.9522
G1 X160.2600 Y102.0620 E7.0773
G1 X127.6080 Y132.4740 E8.6802
G1 X125.0580 Y132.4740 E8.7718
G1 X125.0580 Y134.8490 E8.8571
G1 X92.7400 Y164.9500 E10.4435
G1 X92.7400 Y149.4280 E11.0011
G1 X75.7400 Y149.4280 E11.6118
G1 X76.0900 Y91.8160 F6000
G1 X76.1650 Y91.8160
G1 X76.1650 Y90.9510
G1 X76.0950 Y90.9510
G1 X76.0970 Y90.6630
G92 E0.0000
G1 X76.3520 Y90.4080 E0.0130 F2880 ; custom outer perimeter feedrate ; custom outer perimeter feedrate
G92 E0.0000
G1 E-5.5 F2400 ; custom retraction
;layer 55, Z = 11.000
;fan55;
G1 Z11.000 F1200
G1 X76.2200 Y148.9480 F6000
G1 E0 F2400 ; custom un-retraction/prime
G92 E0.0000
G1 X76.2200 Y92.1950 E2.0386 F2880 ; custom outer perimeter feedrate
G1 X76.6450 Y92.1950 E2.0539
G1 X76.6450 Y88.6530 E2.1811
G1 X76.2200 Y88.6530 E2.1964
G1 X76.2200 Y71.2180 E2.8227
G1 X138.1810 Y71.2180 E5.0484
G1 X138.1810 Y71.6140 E5.0626
G1 X140.0140 Y71.6140 E5.1284
G1 X140.0140 Y71.2180 E5.1426
G1 X159.7800 Y71.2180 E5.8527
G1 X159.7800 Y101.8530 E6.9531
G1 X127.4190 Y131.9940 E8.5417
G1 X124.5780 Y131.9940 E8.6437
G1 X124.5780 Y134.6400 E8.7387
G1 X93.2200 Y163.8470 E10.2781
G1 X93.2200 Y148.9480 E10.8133
G1 X76.2200 Y148.9480 E11.4239
G1 X75.7400 Y149.4280 F6000
G92 E0.0000
G1 X75.7400 Y91.7150 E2.0731 F2880 ; custom inner perimeter feedrate
G1 X76.1650 Y91.7150 E2.0884
G1 X76.1650 Y90.8530 E2.1193
G1 X75.7400 Y90.8530 E2.1346
G1 X75.7400 Y90.0200 E2.1645
G1 X76.1650 Y90.0200 E2.1798
G1 X76.1650 Y89.1330 E2.2116
G1 X75.7400 Y89.1330 E2.2269
G1 X75.7400 Y70.7380 E2.8877
G1 X138.6610 Y70.7380 E5.1479
G1 X138.6610 Y71.1340 E5.1621
G1 X139.5340 Y71.1340 E5.1934
G1 X139.5340 Y70.7380 E5.2076
G1 X160.2600 Y70.7380 E5.9522
G1 X160.2600 Y102.0620 E7.0773
G1 X127.6080 Y132.4740 E8.6802
G1 X125.0580 Y132.4740 E8.7718
G1 X125.0580 Y134.8490 E8.8571
G1 X92.7400 Y164.9500 E10.4435
G1 X92.7400 Y149.4280 E11.0011
G1 X75.7400 Y149.4280 E11.6118
G1 X76.3090 Y90.5650 F6000
G92 E0.0000
G1 X76.0530 Y90.3080 E0.0130 F2880 ; custom outer perimeter feedrate ; custom outer perimeter feedrate
G92 E0.0000
G1 E-5.5 F2400 ; custom retraction
;layer 56, Z = 11.200
;fan56;
G1 Z11.200 F1200
G1 X76.0550 Y90.8530 F6000
G1 X76.1650 Y90.8530
G1 X76.1650 Y91.7150
G1 X76.0570 Y91.7150
G1 X76.2200 Y148.9480
G1 E0 F2400 ; custom un-retraction/prime
G92 E0.0000
G1 X76.2200 Y92.0950 E2.0422 F2880 ; custom outer perimeter feedrate
G1 X76.6450 Y92.0950 E2.0575
G1 X76.6450 Y88.7530 E2.1775
G1 X76.2200 Y88.7530 E2.1928
G1 X76.2200 Y71.2180 E2.8227
G1 X138.1810 Y71.2180 E5.0484
G1 X138.1810 Y71.6140 E5.0626
G1 X140.0140 Y71.6140 E5.1284
G1 X140.0140 Y71.2180 E5.1426
G1 X159.7800 Y71.2180 E5.8527
G1 X159.7800 Y101.8530 E6.9531
G1 X127.4190 Y131.9940 E8.5417
G1 X124.5780 Y131.9940 E8.6437
G1 X124.5780 Y134.6400 E8.7387
G1 X93.2200 Y163.8470 E10.2781
G1 X93.2200 Y148.9480 E10.8133
G1 X76.2200 Y148.9480 E11.4239
G1 X75.7400 Y149.4280 F6000
G92 E0.0000
G1 X75.7400 Y91.6150 E2.0767 F2880 ; custom inner perimeter feedrate
G1 X76.1650 Y91.6150 E2.0920
G1 X76.1650 Y90.7540 E2.1229
G1 X75.7400 Y90.7540 E2.1381
G1 X75.7400 Y90.1170 E2.1610
G1 X76.1650 Y90.1170 E2.1763
G1 X76.1650 Y89.2330 E2.2080
G1 X75.7400 Y89.2330 E2.2233
G1 X75.7400 Y70.7380 E2.8877
G1 X138.6610 Y70.7380 E5.1479
G1 X138.6610 Y71.1340 E5.1621
G1 X139.5340 Y71.1340 E5.1934
G1 X139.5340 Y70.7380 E5.2076
G1 X160.2600 Y70.7380 E5.9522
G1 X160.2600 Y102.0620 E7.0773
G1 X127.6080 Y132.4740 E8.6802
G1 X125.0580 Y132.4740 E8.7718
G1 X125.0580 Y134.8490 E8.8571
G1 X92.7400 Y164.9500 E10.4435
G1 X92.7400 Y149.4280 E11.0011
G1 X75.7400 Y149.4280 E11.6118
G1 X76.2940 Y90.4660 F6000
G92 E0.0000
G1 X76.3520 Y90.4080 E0.0030 F2880 ; custom outer perimeter feedrate ; custom outer perimeter feedrate
G92 E0.0000
G1 E-5.5 F2400 ; custom retraction
;layer 57, Z = 11.400
;fan57;
G1 Z11.400 F1200
G1 X76.2200 Y148.9480 F6000
G1 E0 F2400 ; custom un-retraction/prime
G92 E0.0000
G1 X76.2200 Y91.9940 E2.0458 F2880 ; custom outer perimeter feedrate
G1 X76.6450 Y91.9940 E2.0611
G1 X76.6450 Y88.8540 E2.1739
G1 X76.2200 Y88.8540 E2.1892
G1 X76.2200 Y71.2180 E2.8227
G1 X138.1810 Y71.2180 E5.0484
G1 X138.1810 Y71.6140 E5.0626
G1 X140.0140 Y71.6140 E5.1284
G1 X140.0140 Y71.2180 E5.1426
G1 X159.7800 Y71.2180 E5.8527
G1 X159.7800 Y101.8530 E6.9531
G1 X127.4190 Y131.9940 E8.5417
G1 X124.5780 Y131.9940 E8.6437
G1 X124.5780 Y134.6400 E8.7387
G1 X93.2200 Y163.8470 E10.2781
G1 X93.2200 Y148.9480 E10.8133
G1 X76.2200 Y148.9480 E11.4239
G1 X75.7400 Y149.4280 F6000
G92 E0.0000
G1 X75.7400 Y91.5140 E2.0803 F2880 ; custom inner perimeter feedrate
G1 X76.1650 Y91.5140 E2.0956
G1 X76.1650 Y90.6560 E2.1264
G1 X75.7400 Y90.6560 E2.1417
G1 X75.7400 Y90.2140 E2.1576
G1 X76.1650 Y90.2140 E2.1728
G1 X76.1650 Y89.3340 E2.2044
G1 X75.7400 Y89.3340 E2.2197
G1 X75.7400 Y70.7380 E2.8877
G1 X138.6610 Y70.7380 E5.1479
G1 X138.6610 Y71.1340 E5.1621
G1 X139.5340 Y71.1340 E5.1934
G1 X139.5340 Y70.7380 E5.2076
G1 X160.2600 Y70.7380 E5.9522
G1 X160.2600 Y102.0620 E7.0773
G1 X127.6080 Y132.4740 E8.6802
G1 X125.0580 Y132.4740 E8.7718
G1 X125.0580 Y134.8490 E8.8571
G1 X92.7400 Y164.9500 E10.4435
G1 X92.7400 Y149.4280 E11.0011
G1 X75.7400 Y149.4280 E11.6118
G92 E0.0000
G1 E-5.5 F2400 ; custom retraction
;layer 58, Z = 11.600
;fan58;
G1 Z11.600 F1200
G1 X76.2200 Y148.9480 F6000
G1 E0 F2400 ; custom un-retraction/prime
G92 E0.0000
G1 X76.2200 Y91.8930 E2.0495 F2880 ; custom outer perimeter feedrate
G1 X76.6450 Y91.8930 E2.0647
G1 X76.6450 Y88.9540 E2.1703
G1 X76.2200 Y88.9540 E2.1856
G1 X76.2200 Y71.2180 E2.8227
G1 X138.1810 Y71.2180 E5.0484
G1 X138.1810 Y71.6140 E5.0626
G1 X140.0140 Y71.6140 E5.1284
G1 X140.0140 Y71.2180 E5.1426
G1 X159.7800 Y71.2180 E5.8527
G1 X159.7800 Y101.8530 E6.9531
G1 X127.4190 Y131.9940 E8.5417
G1 X124.5780 Y131.9940 E8.6437
G1 X124.5780 Y134.6400 E8.7387
G1 X93.2200 Y163.8470 E10.2781
G1 X93.2200 Y148.9480 E10.8133
G1 X76.2200 Y148.9480 E11.4239
G1 X75.7400 Y149.4280 F6000
G92 E0.0000
G1 X75.7400 Y91.4130 E2.0840 F2880 ; custom inner perimeter feedrate
G1 X76.1650 Y91.4130 E2.0992
G1 X76.1650 Y90.5570 E2.1300
G1 X75.7400 Y90.5570 E2.1452
G1 X75.7400 Y90.3110 E2.1541
G1 X76.1650 Y90.3110 E2.1693
G1 X76.1650 Y89.4340 E2.2008
G1 X75.7400 Y89.4340 E2.2161
G1 X75.7400 Y70.7380 E2.8877
G1 X138.6610 Y70.7380 E5.1479
G1 X138.6610 Y71.1340 E5.1621
G1 X139.5340 Y71.1340 E5.1934
G1 X139.5340 Y70.7380 E5.2076
G1 X160.2600 Y70.7380 E5.9522
G1 X160.2600 Y102.0620 E7.0773
G1 X127.6080 Y132.4740 E8.6802
G1 X125.0580 Y132.4740 E8.7718
G1 X125.0580 Y134.8490 E8.8571
G1 X92.7400 Y164.9500 E10.4435
G1 X92.7400 Y149.4280 E11.0011
G1 X75.7400 Y149.4280 E11.6118
G92 E0.0000
G1 E-5.5 F2400 ; custom retraction
;layer 59, Z = 11.800
;fan59;
G1 Z11.800 F1200
G1 X76.2200 Y148.9480 F6000
G1 E0 F2400 ; custom un-retraction/prime
G92 E0.0000
G1 X76.2200 Y91.7920 E2.0531 F2880 ; custom outer perimeter feedrate
G1 X76.6450 Y91.7920 E2.0684
G1 X76.6450 Y89.0550 E2.1667
G1 X76.2200 Y89.0550 E2.1820
G1 X76.2200 Y71.2180 E2.8227
G1 X138.1810 Y71.2180 E5.0484
G1 X138.1810 Y71.6140 E5.0626
G1 X140.0140 Y71.6140 E5.1284
G1 X140.0140 Y71.2180 E5.1426
G1 X159.7800 Y71.2180 E5.8527
G1 X159.7800 Y101.8530 E6.9531
G1 X127.4190 Y131.9940 E8.5417
G1 X124.5780 Y131.9940 E8.6437
G1 X124.5780 Y134.6400 E8.7387
G1 X93.2200 Y163.8470 E10.2781
G1 X93.2200 Y148.9480 E10.8133
G1 X76.2200 Y148.9480 E11.4239
G1 X75.7400 Y149.4280 F6000
G92 E0.0000
G1 X75.7400 Y91.3120 E2.0876 F2880 ; custom inner perimeter feedrate
G1 X76.1650 Y91.3120 E2.1028
G1 X76.1650 Y90.4590 E2.1335
G1 X75.7400 Y90.4590 E2.1488
G1 X75.7400 Y90.4070 E2.1506
G1 X76.1650 Y90.4070 E2.1659
G1 X76.1650 Y89.5350 E2.1972
G1 X75.7400 Y89.5350 E2.2125
G1 X75.7400 Y70.7380 E2.8877
G1 X138.6610 Y70.7380 E5.1479
G1 X138.6610 Y71.1340 E5.1621
G1 X139.5340 Y71.1340 E5.1934
G1 X139.5340 Y70.7380 E5.2076
G1 X160.2600 Y70.7380 E5.9522
G1 X160.2600 Y102.0620 E7.0773
G1 X127.6080 Y132.4740 E8.6802
G1 X125.0580 Y132.4740 E8.7718
G1 X125.0580 Y134.8490 E8.8571
G1 X92.7400 Y164.9500 E10.4435
G1 X92.7400 Y149.4280 E11.0011
G1 X75.7400 Y149.4280 E11.6118
G92 E0.0000
G1 E-5.5 F2400 ; custom retraction
;layer 60, Z = 12.000
;fan60;
G1 Z12.000 F1200
G1 X76.2200 Y148.9480 F6000
G1 E0 F2400 ; custom un-retraction/prime
G92 E0.0000
G1 X76.2200 Y91.6920 E2.0567 F2880 ; custom outer perimeter feedrate
G1 X76.6450 Y91.6920 E2.0720
G1 X76.6450 Y89.1550 E2.1631
G1 X76.2200 Y89.1550 E2.1784
G1 X76.2200 Y71.2180 E2.8227
G1 X138.1810 Y71.2180 E5.0484
G1 X138.1810 Y71.6140 E5.0626
G1 X140.0140 Y71.6140 E5.1284
G1 X140.0140 Y71.2180 E5.1426
G1 X159.7800 Y71.2180 E5.8527
G1 X159.7800 Y101.8530 E6.9531
G1 X127.4190 Y131.9940 E8.5417
G1 X124.5780 Y131.9940 E8.6437
G1 X124.5780 Y134.6400 E8.7387
G1 X93.2200 Y163.8470 E10.2781
G1 X93.2200 Y148.9480 E10.8133
G1 X76.2200 Y148.9480 E11.4239
G1 X75.7400 Y149.4280 F6000
G92 E0.0000
G1 X75.7400 Y91.2120 E2.0912 F2880 ; custom inner perimeter feedrate
G1 X76.1650 Y91.2120 E2.1065
G1 X76.1650 Y89.6350 E2.1631
G1 X75.7400 Y89.6350 E2.1784
G1 X75.7400 Y70.7380 E2.8572
G1 X138.6610 Y70.7380 E5.1173
G1 X138.6610 Y71.1340 E5.1315
G1 X139.5340 Y71.1340 E5.1629
G1 X139.5340 Y70.7380 E5.1771
G1 X160.2600 Y70.7380 E5.9216
G1 X160.2600 Y102.0620 E7.0468
G1 X127.6080 Y132.4740 E8.6497
G1 X125.0580 Y132.4740 E8.7412
G1 X125.0580 Y134.8490 E8.8266
G1 X92.7400 Y164.9500 E10.4130
G1 X92.7400 Y149.4280 E10.9706
G1 X75.7400 Y149.4280 E11.5812
G92 E0.0000
G1 E-5.5 F2400 ; custom retraction
;layer 61, Z = 12.200
;fan61;
G1 Z12.200 F1200
G1 X76.2200 Y148.9480 F6000
G1 E0 F2400 ; custom un-retraction/prime
G92 E0.0000
G1 X76.2200 Y91.5910 E2.0603 F2880 ; custom outer perimeter feedrate
G1 X76.6450 Y91.5910 E2.0756
G1 X76.6450 Y89.2550 E2.1595
G1 X76.2200 Y89.2550 E2.1748
G1 X76.2200 Y71.2180 E2.8227
G1 X138.1360 Y71.2180 E5.0468
G1 X138.1360 Y71.6140 E5.0610
G1 X140.0480 Y71.6140 E5.1297
G1 X140.0480 Y71.2180 E5.1439
G1 X159.7800 Y71.2180 E5.8527
G1 X159.7800 Y101.8530 E6.9531
G1 X127.4190 Y131.9940 E8.5417
G1 X124.5780 Y131.9940 E8.6437
G1 X124.5780 Y134.6400 E8.7387
G1 X93.2200 Y163.8470 E10.2781
G1 X93.2200 Y148.9480 E10.8133
G1 X76.2200 Y148.9480 E11.4239
G1 X75.7400 Y149.4280 F6000
G92 E0.0000
G1 X75.7400 Y91.1110 E2.0948 F2880 ; custom inner perimeter feedrate
G1 X76.1650 Y91.1110 E2.1101
G1 X76.1650 Y89.7350 E2.1595
G1 X75.7400 Y89.7350 E2.1748
G1 X75.7400 Y70.7380 E2.8572
G1 X138.6160 Y70.7380 E5.1157
G1 X138.6160 Y71.1340 E5.1300
G1 X139.5680 Y71.1340 E5.1641
G1 X139.5680 Y70.7380 E5.1784
G1 X160.2600 Y70.7380 E5.9216
G1 X160.2600 Y102.0620 E7.0468
G1 X127.6080 Y132.4740 E8.6497
G1 X125.0580 Y132.4740 E8.7412
G1 X125.0580 Y134.8490 E8.8266
G1 X92.7400 Y164.9500 E10.4130
G1 X92.7400 Y149.4280 E10.9706
G1 X75.7400 Y149.4280 E11.5812
G92 E0.0000
G1 E-5.5 F2400 ; custom retraction
;layer 62, Z = 12.400
;fan62;
G1 Z12.400 F1200
G1 X76.2200 Y148.9480 F6000
G1 E0 F2400 ; custom un-retraction/prime
G92 E0.0000
G1 X76.2200 Y91.4900 E2.0639 F2880 ; custom outer perimeter feedrate
G1 X76.6450 Y91.4900 E2.0792
G1 X76.6450 Y89.3560 E2.1559
G1 X76.2200 Y89.3560 E2.1711
G1 X76.2200 Y71.2180 E2.8227
G1 X138.0450 Y71.2180 E5.0435
G1 X138.0450 Y71.6140 E5.0577
G1 X140.1410 Y71.6140 E5.1330
G1 X140.1410 Y71.2180 E5.1472
G1 X159.7800 Y71.2180 E5.8527
G1 X159.7800 Y101.8530 E6.9531
G1 X127.4190 Y131.9940 E8.5417
G1 X124.5780 Y131.9940 E8.6437
G1 X124.5780 Y134.6400 E8.7387
G1 X93.2200 Y163.8470 E10.2781
G1 X93.2200 Y148.9480 E10.8133
G1 X76.2200 Y148.9480 E11.4239
G1 X75.7400 Y149.4280 F6000
G92 E0.0000
G1 X75.7400 Y91.0100 E2.0984 F2880 ; custom inner perimeter feedrate
G1 X76.1650 Y91.0100 E2.1137
G1 X76.1650 Y89.8360 E2.1559
G1 X75.7400 Y89.8360 E2.1711
G1 X75.7400 Y70.7380 E2.8572
G1 X138.5250 Y70.7380 E5.1124
G1 X138.5250 Y71.1340 E5.1267
G1 X139.6610 Y71.1340 E5.1675
G1 X139.6610 Y70.7380 E5.1817
G1 X160.2600 Y70.7380 E5.9216
G1 X160.2600 Y102.0620 E7.0468
G1 X127.6080 Y132.4740 E8.6497
G1 X125.0580 Y132.4740 E8.7412
G1 X125.0580 Y134.8490 E8.8266
G1 X92.7400 Y164.9500 E10.4130
G1 X92.7400 Y149.4280 E10.9706
G1 X75.7400 Y149.4280 E11.5812
G92 E0.0000
G1 E-5.5 F2400 ; custom retraction
;layer 63, Z = 12.600
;fan63;
G1 Z12.600 F1200
G1 X76.2200 Y148.9480 F6000
G1 E0 F2400 ; custom un-retraction/prime
G92 E0.0000
G1 X76.2200 Y91.3890 E2.0676 F2880 ; custom outer perimeter feedrate
G1 X76.6450 Y91.3890 E2.0828
G1 X76.6450 Y89.4560 E2.1523
G1 X76.2200 Y89.4560 E2.1675
G1 X76.2200 Y71.2180 E2.8227
G1 X137.9530 Y71.2180 E5.0402
G1 X137.9530 Y71.6140 E5.0544
G1 X140.2340 Y71.6140 E5.1363
G1 X140.2340 Y71.2180 E5.1505
G1 X159.7800 Y71.2180 E5.8527
G1 X159.7800 Y101.8530 E6.9531
G1 X127.4190 Y131.9940 E8.5417
G1 X124.5780 Y131.9940 E8.6437
G1 X124.5780 Y134.6400 E8.7387
G1 X93.2200 Y163.8470 E10.2781
G1 X93.2200 Y148.9480 E10.8133
G1 X76.2200 Y148.9480 E11.4239
G1 X75.7400 Y149.4280 F6000
G92 E0.0000
G1 X75.7400 Y90.9090 E2.1020 F2880 ; custom inner perimeter feedrate
G1 X76.1650 Y90.9090 E2.1173
G1 X76.1650 Y89.9360 E2.1523
G1 X75.7400 Y89.9360 E2.1675
G1 X75.7400 Y70.7380 E2.8572
G1 X138.4330 Y70.7380 E5.1091
G1 X138.4330 Y71.1340 E5.1234
G1 X139.7540 Y71.1340 E5.1708
G1 X139.7540 Y70.7380 E5.1850
G1 X160.2600 Y70.7380 E5.9216
G1 X160.2600 Y102.0620 E7.0468
G1 X127.6080 Y132.4740 E8.6497
G1 X125.0580 Y132.4740 E8.7412
G1 X125.0580 Y134.8490 E8.8266
G1 X92.7400 Y164.9500 E10.4130
G1 X92.7400 Y149.4280 E10.9706
G1 X75.7400 Y149.4280 E11.5812
G92 E0.0000
G1 E-5.5 F2400 ; custom retraction
;layer 64, Z = 12.800
;fan64;
G1 Z12.800 F1200
G1 X76.2200 Y148.9480 F6000
G1 E0 F2400 ; custom un-retraction/prime
G92 E0.0000
G1 X76.2200 Y91.4180 E2.0665 F2880 ; custom outer perimeter feedrate
G1 X76.6450 Y91.4180 E2.0818
G1 X76.6450 Y89.4430 E2.1528
G1 X76.2200 Y89.4430 E2.1680
G1 X76.2200 Y71.2180 E2.8227
G1 X137.8610 Y71.2180 E5.0369
G1 X137.8610 Y71.6140 E5.0511
G1 X140.3260 Y71.6140 E5.1396
G1 X140.3260 Y71.2180 E5.1539
G1 X159.7800 Y71.2180 E5.8527
G1 X159.7800 Y101.8530 E6.9531
G1 X127.4190 Y131.9940 E8.5417
G1 X124.5780 Y131.9940 E8.6437
G1 X124.5780 Y134.6400 E8.7387
G1 X93.2200 Y163.8470 E10.2781
G1 X93.2200 Y148.9480 E10.8133
G1 X76.2200 Y148.9480 E11.4239
G1 X75.7400 Y149.4280 F6000
G92 E0.0000
G1 X75.7400 Y90.9380 E2.1010 F2880 ; custom inner perimeter feedrate
G1 X76.1650 Y90.9380 E2.1163
G1 X76.1650 Y89.9230 E2.1528
G1 X75.7400 Y89.9230 E2.1680
G1 X75.7400 Y70.7380 E2.8572
G1 X138.3410 Y70.7380 E5.1059
G1 X138.3410 Y71.1340 E5.1201
G1 X139.8460 Y71.1340 E5.1741
G1 X139.8460 Y70.7380 E5.1883
G1 X160.2600 Y70.7380 E5.9216
G1 X160.2600 Y102.0620 E7.0468
G1 X127.6080 Y132.4740 E8.6497
G1 X125.0580 Y132.4740 E8.7412
G1 X125.0580 Y134.8490 E8.8266
G1 X92.7400 Y164.9500 E10.4130
G1 X92.7400 Y149.4280 E10.9706
G1 X75.7400 Y149.4280 E11.5812
G92 E0.0000
G1 E-5.5 F2400 ; custom retraction
;layer 65, Z = 13.000
;fan65;
G1 Z13.000 F1200
G1 X76.2200 Y148.9480 F6000
G1 E0 F2400 ; custom un-retraction/prime
G92 E0.0000
G1 X76.2200 Y91.5210 E2.0628 F2880 ; custom outer perimeter feedrate
G1 X76.6450 Y91.5210 E2.0781
G1 X76.6450 Y89.3390 E2.1565
G1 X76.2200 Y89.3390 E2.1717
G1 X76.2200 Y71.2180 E2.8227
G1 X137.7700 Y71.2180 E5.0336
G1 X137.7700 Y71.6140 E5.0478
G1 X140.4190 Y71.6140 E5.1430
G1 X140.4190 Y71.2180 E5.1572
G1 X159.7800 Y71.2180 E5.8527
G1 X159.7800 Y101.8530 E6.9531
G1 X127.4190 Y131.9940 E8.5417
G1 X124.5780 Y131.9940 E8.6437
G1 X124.5780 Y134.6400 E8.7387
G1 X93.2200 Y163.8470 E10.2781
G1 X93.2200 Y148.9480 E10.8133
G1 X76.2200 Y148.9480 E11.4239
G1 X75.7400 Y149.4280 F6000
G92 E0.0000
G1 X75.7400 Y91.0410 E2.0973 F2880 ; custom inner perimeter feedrate
G1 X76.1650 Y91.0410 E2.1126
G1 X76.1650 Y89.8190 E2.1565
G1 X75.7400 Y89.8190 E2.1717
G1 X75.7400 Y70.7380 E2.8572
G1 X138.2500 Y70.7380 E5.1026
G1 X138.2500 Y71.1340 E5.1168
G1 X139.9390 Y71.1340 E5.1775
G1 X139.9390 Y70.7380 E5.1917
G1 X160.2600 Y70.7380 E5.9216
G1 X160.2600 Y102.0620 E7.0468
G1 X127.6080 Y132.4740 E8.6497
G1 X125.0580 Y132.4740 E8.7412
G1 X125.0580 Y134.8490 E8.8266
G1 X92.7400 Y164.9500 E10.4130
G1 X92.7400 Y149.4280 E10.9706
G1 X75.7400 Y149.4280 E11.5812
G92 E0.0000
G1 E-5.5 F2400 ; custom retraction
;layer 66, Z = 13.200
;fan66;
G1 Z13.200 F1200
G1 X76.2200 Y148.9480 F6000
G1 E0 F2400 ; custom un-retraction/prime
G92 E0.0000
G1 X76.2200 Y91.6240 E2.0591 F2880 ; custom outer perimeter feedrate
G1 X76.6450 Y91.6240 E2.0744
G1 X76.6450 Y89.2360 E2.1602
G1 X76.2200 Y89.2360 E2.1755
G1 X76.2200 Y71.2180 E2.8227
G1 X137.6780 Y71.2180 E5.0303
G1 X137.6780 Y71.6140 E5.0445
G1 X140.5120 Y71.6140 E5.1463
G1 X140.5120 Y71.2180 E5.1605
G1 X159.7800 Y71.2180 E5.8527
G1 X159.7800 Y101.8530 E6.9531
G1 X127.4190 Y131.9940 E8.5417
G1 X124.5780 Y131.9940 E8.6437
G1 X124.5780 Y134.6400 E8.7387
G1 X93.2200 Y163.8470 E10.2781
G1 X93.2200 Y148.9480 E10.8133
G1 X76.2200 Y148.9480 E11.4239
G1 X75.7400 Y149.4280 F6000
G92 E0.0000
G1 X75.7400 Y91.1440 E2.0936 F2880 ; custom inner perimeter feedrate
G1 X76.1650 Y91.1440 E2.1089
G1 X76.1650 Y89.7160 E2.1602
G1 X75.7400 Y89.7160 E2.1755
G1 X75.7400 Y70.7380 E2.8572
G1 X138.1580 Y70.7380 E5.0993
G1 X138.1580 Y71.1340 E5.1135
G1 X139.0520 Y71.1340 E5.1456
G1 X139.0520 Y70.7380 E5.1598
G1 X139.1450 Y70.7380 E5.1631
G1 X139.1450 Y71.1340 E5.1774
G1 X140.0320 Y71.1340 E5.2092
G1 X140.0320 Y70.7380 E5.2234
G1 X160.2600 Y70.7380 E5.9501
G1 X160.2600 Y102.0620 E7.0752
G1 X127.6080 Y132.4740 E8.6781
G1 X125.0580 Y132.4740 E8.7697
G1 X125.0580 Y134.8490 E8.8550
G1 X92.7400 Y164.9500 E10.4414
G1 X92.7400 Y149.4280 E10.9990
G1 X75.7400 Y149.4280 E11.6097
G92 E0.0000
G1 E-5.5 F2400 ; custom retraction
;layer 67, Z = 13.400
;fan67;
G1 Z13.400 F1200
G1 X76.2200 Y148.9480 F6000
G1 E0 F2400 ; custom un-retraction/prime
G92 E0.0000
G1 X76.2200 Y91.7270 E2.0555 F2880 ; custom outer perimeter feedrate
G1 X76.6450 Y91.7270 E2.0707
G1 X76.6450 Y89.1320 E2.1639
G1 X76.2200 Y89.1320 E2.1792
G1 X76.2200 Y71.2180 E2.8227
G1 X137.5860 Y71.2180 E5.0270
G1 X137.5860 Y71.6140 E5.0412
G1 X140.6040 Y71.6140 E5.1496
G1 X140.6040 Y71.2180 E5.1639
G1 X159.7800 Y71.2180 E5.8527
G1 X159.7800 Y101.8530 E6.9531
G1 X127.4190 Y131.9940 E8.5417
G1 X124.5780 Y131.9940 E8.6437
G1 X124.5780 Y134.6400 E8.7387
G1 X93.2200 Y163.8470 E10.2781
G1 X93.2200 Y148.9480 E10.8133
G1 X76.2200 Y148.9480 E11.4239
G1 X75.7400 Y149.4280 F6000
G92 E0.0000
G1 X75.7400 Y91.2460 E2.0899 F2880 ; custom inner perimeter feedrate
G1 X76.1650 Y91.2460 E2.1052
G1 X76.1650 Y89.6120 E2.1639
G1 X75.7400 Y89.6120 E2.1792
G1 X75.7400 Y70.7380 E2.8572
G1 X138.0660 Y70.7380 E5.0960
G1 X138.0660 Y71.1340 E5.1102
G1 X138.9620 Y71.1340 E5.1424
G1 X138.9620 Y70.7380 E5.1566
G1 X139.2350 Y70.7380 E5.1664
G1 X139.2350 Y71.1340 E5.1806
G1 X140.1240 Y71.1340 E5.2126
G1 X140.1240 Y70.7380 E5.2268
G1 X160.2600 Y70.7380 E5.9501
G1 X160.2600 Y102.0620 E7.0752
G1 X127.6080 Y132.4740 E8.6781
G1 X125.0580 Y132.4740 E8.7697
G1 X125.0580 Y134.8490 E8.8550
G1 X92.7400 Y164.9500 E10.4414
G1 X92.7400 Y149.4280 E10.9990
G1 X75.7400 Y149.4280 E11.6097
G92 E0.0000
G1 E-5.5 F2400 ; custom retraction
;layer 68, Z = 13.600
;fan68;
G1 Z13.600 F1200
G1 X76.2200 Y148.9480 F6000
G1 E0 F2400 ; custom un-retraction/prime
G92 E0.0000
G1 X76.2200 Y91.8290 E2.0518 F2880 ; custom outer perimeter feedrate
G1 X76.6450 Y91.8290 E2.0670
G1 X76.6450 Y89.0280 E2.1676
G1 X76.2200 Y89.0280 E2.1829
G1 X76.2200 Y71.2180 E2.8227
G1 X137.4950 Y71.2180 E5.0237
G1 X137.4950 Y71.6140 E5.0379
G1 X140.6970 Y71.6140 E5.1530
G1 X140.6970 Y71.2180 E5.1672
G1 X159.7800 Y71.2180 E5.8527
G1 X159.7800 Y101.8530 E6.9531
G1 X127.4190 Y131.9940 E8.5417
G1 X124.5780 Y131.9940 E8.6437
G1 X124.5780 Y134.6400 E8.7387
G1 X93.2200 Y163.8470 E10.2781
G1 X93.2200 Y148.9480 E10.8133
G1 X76.2200 Y148.9480 E11.4239
G1 X75.7400 Y149.4280 F6000
G92 E0.0000
G1 X75.7400 Y91.3490 E2.0862 F2880 ; custom inner perimeter feedrate
G1 X76.1650 Y91.3490 E2.1015
G1 X76.1650 Y90.4830 E2.1326
G1 X75.7400 Y90.4830 E2.1479
G1 X75.7400 Y90.3600 E2.1523
G1 X76.1650 Y90.3600 E2.1676
G1 X76.1650 Y89.5080 E2.1982
G1 X75.7400 Y89.5080 E2.2134
G1 X75.7400 Y70.7380 E2.8877
G1 X137.9750 Y70.7380 E5.1232
G1 X137.9750 Y71.1340 E5.1374
G1 X138.8720 Y71.1340 E5.1697
G1 X138.8720 Y70.7380 E5.1839
G1 X139.3260 Y70.7380 E5.2002
G1 X139.3260 Y71.1340 E5.2144
G1 X140.2170 Y71.1340 E5.2464
G1 X140.2170 Y70.7380 E5.2606
G1 X160.2600 Y70.7380 E5.9806
G1 X160.2600 Y102.0620 E7.1058
G1 X127.6080 Y132.4740 E8.7086
G1 X125.0580 Y132.4740 E8.8002
G1 X125.0580 Y134.8490 E8.8855
G1 X92.7400 Y164.9500 E10.4720
G1 X92.7400 Y149.4280 E11.0296
G1 X75.7400 Y149.4280 E11.6402
G92 E0.0000
G1 E-5.5 F2400 ; custom retraction
;layer 69, Z = 13.800
;fan69;
G1 Z13.800 F1200
G1 X76.2200 Y148.9480 F6000
G1 E0 F2400 ; custom un-retraction/prime
G92 E0.0000
G1 X76.2200 Y91.9320 E2.0481 F2880 ; custom outer perimeter feedrate
G1 X76.6450 Y91.9320 E2.0633
G1 X76.6450 Y88.9250 E2.1714
G1 X76.2200 Y88.9250 E2.1866
G1 X76.2200 Y71.2180 E2.8227
G1 X137.4030 Y71.2180 E5.0204
G1 X137.4030 Y71.6140 E5.0346
G1 X140.7900 Y71.6140 E5.1563
G1 X140.7900 Y71.2180 E5.1705
G1 X159.7800 Y71.2180 E5.8527
G1 X159.7800 Y101.8530 E6.9531
G1 X127.4190 Y131.9940 E8.5417
G1 X124.5780 Y131.9940 E8.6437
G1 X124.5780 Y134.6400 E8.7387
G1 X93.2200 Y163.8470 E10.2781
G1 X93.2200 Y148.9480 E10.8133
G1 X76.2200 Y148.9480 E11.4239
G1 X75.7400 Y149.4280 F6000
G92 E0.0000
G1 X75.7400 Y91.4520 E2.0825 F2880 ; custom inner perimeter feedrate
G1 X76.1650 Y91.4520 E2.0978
G1 X76.1650 Y90.5820 E2.1291
G1 X75.7400 Y90.5820 E2.1443
G1 X75.7400 Y90.2600 E2.1559
G1 X76.1650 Y90.2600 E2.1712
G1 X76.1650 Y89.4050 E2.2019
G1 X75.7400 Y89.4050 E2.2172
G1 X75.7400 Y70.7380 E2.8877
G1 X137.8830 Y70.7380 E5.1199
G1 X137.8830 Y71.1340 E5.1341
G1 X138.7820 Y71.1340 E5.1664
G1 X138.7820 Y70.7380 E5.1806
G1 X139.4170 Y70.7380 E5.2034
G1 X139.4170 Y71.1340 E5.2177
G1 X140.3100 Y71.1340 E5.2497
G1 X140.3100 Y70.7380 E5.2640
