; generated by PrusaSlicer 2.6.0+win64 on 2023-07-13 at 05:19:38 UTC

; 

; external perimeters extrusion width = 0.42mm
; perimeters extrusion width = 0.44mm
; infill extrusion width = 0.44mm
; solid infill extrusion width = 0.44mm
; top infill extrusion width = 0.40mm
; first layer extrusion width = 0.42mm

; external perimeters extrusion width = 0.42mm
; perimeters extrusion width = 0.44mm
; infill extrusion width = 0.44mm
; solid infill extrusion width = 0.44mm
; top infill extrusion width = 0.40mm
; first layer extrusion width = 0.42mm

; external perimeters extrusion width = 0.42mm
; perimeters extrusion width = 0.44mm
; infill extrusion width = 0.44mm
; solid infill extrusion width = 0.44mm
; top infill extrusion width = 0.40mm
; first layer extrusion width = 0.42mm

; external perimeters extrusion width = 0.42mm
; perimeters extrusion width = 0.44mm
; infill extrusion width = 0.44mm
; solid infill extrusion width = 0.44mm
; top infill extrusion width = 0.40mm
; first layer extrusion width = 0.42mm

; external perimeters extrusion width = 0.42mm
; perimeters extrusion width = 0.44mm
; infill extrusion width = 0.44mm
; solid infill extrusion width = 0.44mm
; top infill extrusion width = 0.40mm
; first layer extrusion width = 0.42mm

;TYPE:Custom
; Ender 3 Custom Start G-code
G92 E0 ; Reset Extruder

M140 S50 ; set bed temp
M190 S50 ; wait for bed temp

G28 ; Home all axes
M104 S205 ; set extruder temp 
BED_MESH_CALIBRATE AREA_START=83.7684,88.5669 AREA_END=143.763,126.207

G1 Z2.0 F3000 ; Move Z Axis up little to prevent scratching of Heat Bed
M109 S205 ; wait for extruder temp
G1 X0.1 Y20 Z0.3 F5000.0 ; Move to start position

G1 X0.1 Y200.0 Z0.3 F1500.0 E15 ; Draw the first line
G1 X0.4 Y200.0 Z0.3 F5000.0 ; Move to side a little
G1 X0.4 Y20 Z0.3 F1500.0 E30 ; Draw the second line
G92 E0 ; Reset Extruder
G1 Z2.0 F3000 ; Move Z Axis up little to prevent scratching of Heat Bed
G1 X5 Y20 Z0.3 F5000.0 ; Move over to prevent blob squish
G21 ; set units to millimeters
G90 ; use absolute coordinates
M83 ; use relative distances for extrusion
; Filament gcode
M107
;LAYER_CHANGE
;Z:0.2
;HEIGHT:0.2
;BEFORE_LAYER_CHANGE
G92 E0
;0.2


G1 E-1.6 F2400
G1 Z.2 F6000
;AFTER_LAYER_CHANGE
;0.2
G1 X87.857 Y91.701
G1 E1.6 F2400
M204 S500
;TYPE:Skirt/Brim
;WIDTH:0.42
G1 F1200
G1 X88.725 Y90.996 E.03296
G1 X89.656 Y90.382 E.03287
G1 X91.322 Y89.564 E.0547
G1 X93.099 Y89.026 E.05472
G1 X94.721 Y88.79 E.04831
G1 X131.692 Y88.755 E1.08965
G1 X132.884 Y88.805 E.03516
G1 X133.843 Y88.938 E.02854
G1 X135.87 Y89.494 E.06195
G1 X137.7 Y90.365 E.05973
G1 X139.14 Y91.376 E.05186
G1 X140.583 Y92.775 E.05924
G1 X141.374 Y93.79 E.03793
G1 X141.835 Y94.519 E.02542
G1 X142.681 Y96.304 E.05822
G1 X143.24 Y98.341 E.06226
G1 X143.425 Y100.341 E.0592
G1 X143.575 Y114.341 E.41265
G1 X143.503 Y115.668 E.03917
G1 X143.296 Y116.888 E.03647
G1 X142.676 Y118.864 E.06104
G1 X141.69 Y120.733 E.06228
G1 X140.467 Y122.296 E.05849
G1 X139.688 Y123.064 E.03224
G1 X138.815 Y123.771 E.03311
G1 X137.173 Y124.778 E.05677
G1 X136.08 Y125.257 E.03517
G1 X134.281 Y125.783 E.05524
G1 X132.523 Y126.003 E.05222
G1 X95.078 Y126.009 E1.10362
G1 X93.39 Y125.81 E.0501
G1 X92.295 Y125.542 E.03323
G1 X91.185 Y125.153 E.03467
G1 X89.854 Y124.506 E.04362
G1 X88.8 Y123.835 E.03683
G1 X87.851 Y123.075 E.03583
G1 X86.76 Y121.96 E.04598
G1 X86.154 Y121.19 E.02888
G1 X85.328 Y119.862 E.04609
G1 X84.772 Y118.665 E.0389
G1 X84.319 Y117.276 E.04306
G1 X84.013 Y115.506 E.05294
G1 X83.957 Y114.505 E.02955
G1 X83.987 Y99.578 E.43994
G1 X84.339 Y97.433 E.06407
G1 X84.956 Y95.673 E.05497
G1 X85.359 Y94.854 E.0269
G1 X86.242 Y93.468 E.04844
G1 X86.875 Y92.684 E.0297
G1 X87.814 Y91.744 E.03916
G1 X88.08 Y92.01 F6000
G1 F1200
G1 X88.937 Y91.308 E.03265
G1 X89.836 Y90.714 E.03176
G1 X91.455 Y89.917 E.05319
G1 X92.992 Y89.437 E.04746
G1 X94.74 Y89.166 E.05213
G1 X131.692 Y89.133 E1.08909
G1 X133.767 Y89.308 E.06137
G1 X135.748 Y89.851 E.06054
G1 X137.509 Y90.69 E.05749
G1 X138.893 Y91.661 E.04983
G1 X140.304 Y93.029 E.05792
G1 X141.07 Y94.013 E.03675
G1 X141.565 Y94.802 E.02745
G1 X142.414 Y96.673 E.06056
G1 X142.882 Y98.473 E.05482
G1 X143.048 Y100.345 E.05539
G1 X143.198 Y114.345 E.41265
G1 X143.13 Y115.614 E.03745
G1 X142.924 Y116.824 E.03618
G1 X142.331 Y118.712 E.05833
G1 X141.369 Y120.534 E.06073
G1 X140.198 Y122.031 E.05602
G1 X139.594 Y122.642 E.02532
G1 X138.603 Y123.459 E.03785
G1 X136.981 Y124.453 E.05607
G1 X135.395 Y125.098 E.05046
G1 X134.218 Y125.411 E.0359
G1 X132.355 Y125.634 E.0553
G1 X95.105 Y125.633 E1.09787
G1 X93.449 Y125.437 E.04915
G1 X92.304 Y125.154 E.03476
G1 X91.337 Y124.807 E.03028
G1 X90.03 Y124.173 E.04281
G1 X89.019 Y123.528 E.03534
G1 X88.102 Y122.794 E.03462
G1 X87.039 Y121.706 E.04483
G1 X86.452 Y120.958 E.02802
G1 X85.657 Y119.676 E.04446
G1 X85.128 Y118.539 E.03696
G1 X84.684 Y117.182 E.04208
G1 X84.387 Y115.46 E.0515
G1 X84.334 Y114.505 E.02819
G1 X84.363 Y99.603 E.43921
G1 X84.7 Y97.541 E.06158
G1 X85.307 Y95.811 E.05404
G1 X85.705 Y95.004 E.02652
G1 X86.553 Y93.681 E.04632
G1 X87.156 Y92.934 E.02829
G1 X88.038 Y92.052 E.03676
G1 X88.304 Y92.318 F6000
G1 F1200
G1 X89.149 Y91.62 E.0323
G1 X90.029 Y91.037 E.03111
G1 X91.588 Y90.27 E.05121
G1 X93.208 Y89.774 E.04993
G1 X94.758 Y89.543 E.04619
G1 X131.692 Y89.51 E1.08856
G1 X133.69 Y89.677 E.05909
G1 X135.628 Y90.208 E.05922
G1 X137.318 Y91.015 E.0552
G1 X138.647 Y91.947 E.04784
G1 X140.013 Y93.269 E.05603
G1 X140.766 Y94.236 E.03612
G1 X141.237 Y94.988 E.02615
G1 X142.054 Y96.785 E.05818
G1 X142.512 Y98.545 E.0536
G1 X142.671 Y100.349 E.05338
G1 X142.821 Y114.349 E.41265
G1 X142.744 Y115.641 E.03815
G1 X142.521 Y116.917 E.03818
G1 X142.276 Y117.78 E.02644
G1 X141.409 Y119.75 E.06344
G1 X140.675 Y120.874 E.03957
G1 X140.018 Y121.672 E.03047
G1 X139.333 Y122.37 E.02882
G1 X138.39 Y123.147 E.03601
G1 X136.804 Y124.12 E.05484
G1 X135.27 Y124.742 E.04879
G1 X134.141 Y125.042 E.03443
G1 X132.345 Y125.257 E.05331
G1 X95.131 Y125.257 E1.09681
G1 X93.508 Y125.065 E.04817
G1 X92.409 Y124.792 E.03338
G1 X91.488 Y124.462 E.02883
G1 X90.206 Y123.839 E.04201
G1 X89.238 Y123.221 E.03385
G1 X88.306 Y122.47 E.03528
G1 X87.318 Y121.453 E.04179
G1 X86.76 Y120.741 E.02666
G1 X85.985 Y119.491 E.04335
G1 X85.483 Y118.413 E.03505
G1 X85.05 Y117.087 E.04111
G1 X84.761 Y115.415 E.05001
G1 X84.739 Y99.629 E.46526
G1 X85.061 Y97.651 E.05907
G1 X85.658 Y95.949 E.05316
G1 X86.04 Y95.178 E.02536
G1 X86.862 Y93.897 E.04486
G1 X87.438 Y93.185 E.02699
G1 X88.262 Y92.361 E.03435
; printing object Shape-Box id:3 copy 0
G1 E-1.12 F2400
;WIPE_START
G1 F4800
G1 X89.038 Y91.713 E-.48
;WIPE_END
G1 X97.506 Y109.071 F6000
G1 E1.6 F2400
;TYPE:External perimeter
G1 F1200
G1 X97.586 Y109.071 E.00236
G1 X97.586 Y109.651 E.01709
G1 X97.506 Y109.651 E.00236
G1 X97.506 Y109.131 E.01533
G1 X97.577 Y109.108 F6000
; stop printing object Shape-Box id:3 copy 0
; printing object Shape-Box id:4 copy 0
G1 E-1.12 F2400
;WIPE_START
G1 F4800
G1 X97.586 Y109.071 E-.0475
G1 X97.586 Y109.651 E-.2755
G1 X97.506 Y109.651 E-.038
G1 X97.506 Y109.4 E-.119
;WIPE_END
G1 X97.489 Y106.861 F6000
G1 E1.6 F2400
G1 F1200
G1 X97.489 Y106.281 E.01709
G1 X97.569 Y106.281 E.00236
G1 X97.569 Y106.861 E.01709
G1 X97.549 Y106.861 E.00059
G1 X97.508 Y106.462 F6000
; stop printing object Shape-Box id:4 copy 0
; printing object Shape-Box id:0 copy 0
G1 E-1.12 F2400
;WIPE_START
G1 F4800
G1 X97.489 Y106.281 E-.27697
G1 X97.569 Y106.281 E-.038
G1 X97.569 Y106.628 E-.16503
;WIPE_END
G1 X117.988 Y106.473 F6000
G1 E1.6 F2400
;TYPE:Perimeter
G1 F1200
G1 X117.819 Y106.64 E.007
G1 X117.68 Y106.706 E.00454
G1 X117.513 Y106.715 E.00493
G1 X117.364 Y106.681 E.0045
G1 X117.287 Y106.629 E.00274
G1 X117.211 Y106.52 E.00392
G1 X117.17 Y106.343 E.00535
G1 X117.179 Y106.099 E.0072
G1 X117.228 Y105.933 E.0051
G1 X117.303 Y105.821 E.00397
G1 X117.39 Y105.749 E.00333
G1 X117.49 Y105.711 E.00315
G1 X117.614 Y105.71 E.00365
G1 X117.728 Y105.764 E.00372
G1 X117.788 Y105.846 E.00299
G1 X117.97 Y106.416 E.01764
G1 E-1.12 F2400
;WIPE_START
G1 F4800
G1 X117.819 Y106.64 E-.12832
G1 X117.68 Y106.706 E-.07309
G1 X117.513 Y106.715 E-.07944
G1 X117.364 Y106.681 E-.07259
G1 X117.287 Y106.629 E-.04413
G1 X117.211 Y106.52 E-.06312
G1 X117.202 Y106.48 E-.01931
;WIPE_END
G1 X109.398 Y106.473 F6000
G1 E1.6 F2400
G1 F1200
G1 X109.228 Y106.64 E.00702
G1 X109.089 Y106.706 E.00454
G1 X108.922 Y106.715 E.00493
G1 X108.773 Y106.681 E.0045
G1 X108.696 Y106.629 E.00274
G1 X108.62 Y106.52 E.00392
G1 X108.579 Y106.343 E.00535
G1 X108.588 Y106.099 E.0072
G1 X108.637 Y105.933 E.0051
G1 X108.712 Y105.821 E.00397
G1 X108.8 Y105.749 E.00335
G1 X108.9 Y105.711 E.00315
G1 X109.023 Y105.71 E.00363
G1 X109.137 Y105.764 E.00372
G1 X109.197 Y105.846 E.00299
G1 X109.379 Y106.416 E.01764
G1 E-1.12 F2400
;WIPE_START
G1 F4800
G1 X109.228 Y106.64 E-.12832
G1 X109.089 Y106.706 E-.07309
G1 X108.922 Y106.715 E-.07944
G1 X108.773 Y106.681 E-.07259
G1 X108.696 Y106.629 E-.04413
G1 X108.62 Y106.52 E-.06312
G1 X108.611 Y106.48 E-.01931
;WIPE_END
G1 X99.589 Y106.503 F6000
G1 E1.6 F2400
G1 F1200
G1 X99.589 Y106.622 E.00351
G1 X99.413 Y106.422 E.00785
G1 X99.589 Y106.443 E.00522
G1 E-1.12 F2400
;WIPE_START
G1 F4800
G1 X99.589 Y106.622 E-.08503
G1 X99.413 Y106.422 E-.12655
G1 X99.589 Y106.443 E-.08419
;WIPE_END
G1 E-.18423 F2400
G1 X94.807 Y107.356 F6000
G1 E1.6 F2400
;TYPE:External perimeter
G1 F1200
G1 X94.829 Y108.599 E.03664
G1 X94.197 Y108.948 E.02128
G1 X93.809 Y109.244 E.01438
G1 X93.511 Y109.552 E.01263
G1 X93.22 Y110.002 E.01579
G1 X92.336 Y110.002 E.02605
G1 X92.336 Y104.279 E.16867
G1 X93.58 Y104.279 E.03666
G1 X93.574 Y106.583 E.06791
G1 X93.546 Y107.094 E.01508
G1 X93.48 Y107.585 E.0146
G1 X93.484 Y108.128 E.016
G1 X93.908 Y107.868 E.01466
G1 X94.054 Y107.715 E.00623
G1 X94.753 Y107.382 E.02282
G1 X95.201 Y107.283 F6000
G1 E-1.12 F2400
;WIPE_START
G1 F4800
G1 X94.816 Y108.391 E-.48
;WIPE_END
G1 X129.109 Y108.219 F6000
G1 E1.6 F2400
;TYPE:Perimeter
G1 F1200
G1 X129.063 Y108.371 E.00468
G1 X128.976 Y108.471 E.00391
G1 X128.819 Y108.485 E.00465
G1 X128.747 Y108.444 E.00244
G1 X128.751 Y108.321 E.00363
G1 X128.813 Y108.283 E.00214
G1 X129.049 Y108.222 E.00718
G1 E-1.12 F2400
;WIPE_START
G1 F4800
G1 X129.063 Y108.371 E-.07109
G1 X128.976 Y108.471 E-.06296
G1 X128.819 Y108.485 E-.07487
G1 X128.747 Y108.444 E-.03936
G1 X128.751 Y108.321 E-.05846
G1 X128.813 Y108.283 E-.03454
G1 X129.049 Y108.222 E-.11578
;WIPE_END
G1 E-.02294 F2400
G1 X131.132 Y108.317 F6000
G1 E1.6 F2400
G1 F1200
G1 X131.236 Y107.821 E.01494
G1 X131.39 Y107.992 E.00678
G1 X131.727 Y108.272 E.01291
G1 X131.815 Y108.319 E.00294
G1 X131.192 Y108.317 E.01836
G1 X131.222 Y107.804 F6000
G1 F1200
G1 X129.851 Y107.6 E.04085
G1 X129.896 Y107.373 E.00682
G1 X129.977 Y106.686 E.02039
G1 X130.747 Y106.564 E.02298
G1 X130.762 Y106.758 E.00573
G1 X130.816 Y107.011 E.00762
G1 X130.967 Y107.409 E.01255
G1 X131.188 Y107.755 E.0121
G1 E-1.12 F2400
;WIPE_START
G1 F4800
G1 X130.184 Y107.639 E-.48
;WIPE_END
G1 X129.19 Y106.182 F6000
G1 E1.6 F2400
G1 F1200
G1 X129.223 Y106.298 E.00355
G1 X128.92 Y106.363 E.00913
G1 X128.768 Y106.37 E.00448
G1 X128.672 Y106.348 E.0029
G1 X128.553 Y106.251 E.00452
G1 X128.517 Y106.173 E.00253
G1 X128.508 Y106.043 E.00384
G1 X128.536 Y105.922 E.00366
G1 X128.587 Y105.837 E.00292
G1 X128.669 Y105.762 E.00328
G1 X128.751 Y105.723 E.00268
G1 X128.925 Y105.709 E.00514
G1 X128.986 Y105.73 E.0019
G1 X129.071 Y105.814 E.00352
G1 X129.174 Y106.124 E.00963
G1 E-1.12 F2400
;WIPE_START
G1 F4800
G1 X129.223 Y106.298 E-.08586
G1 X128.92 Y106.363 E-.1472
G1 X128.768 Y106.37 E-.07228
G1 X128.672 Y106.348 E-.04678
G1 X128.553 Y106.251 E-.07292
G1 X128.517 Y106.173 E-.04081
G1 X128.515 Y106.143 E-.01415
;WIPE_END
G1 X132.77 Y106.255 F6000
G1 E1.6 F2400
G1 F1200
G1 X132.776 Y106.099 E.0046
G1 X132.825 Y105.933 E.0051
G1 X132.9 Y105.821 E.00397
G1 X132.988 Y105.749 E.00335
G1 X133.087 Y105.711 E.00313
G1 X133.211 Y105.71 E.00365
G1 X133.325 Y105.764 E.00372
G1 X133.385 Y105.846 E.00299
G1 X133.586 Y106.473 E.01941
G1 X133.416 Y106.64 E.00702
G1 X133.312 Y106.694 E.00345
G1 X133.11 Y106.715 E.00599
G1 X132.961 Y106.681 E.0045
G1 X132.884 Y106.629 E.00274
G1 X132.808 Y106.52 E.00392
G1 X132.768 Y106.315 E.00616
G1 E-1.12 F2400
;WIPE_START
G1 F4800
G1 X132.776 Y106.099 E-.10267
G1 X132.825 Y105.933 E-.08221
G1 X132.9 Y105.821 E-.06403
G1 X132.988 Y105.749 E-.05401
G1 X133.087 Y105.711 E-.05037
G1 X133.211 Y105.71 E-.0589
G1 X133.325 Y105.764 E-.05992
G1 X133.335 Y105.777 E-.00789
;WIPE_END
G1 X111.829 Y119.152 F6000
G1 E1.6 F2400
G1 F1200
G1 X111.749 Y118.734 E.01254
G1 X111.767 Y118.22 E.01516
G1 X111.858 Y117.85 E.01123
G1 X112.021 Y117.482 E.01186
G1 X112.281 Y117.113 E.0133
G1 X112.616 Y116.801 E.01349
G1 X112.955 Y116.592 E.01174
G1 X113.31 Y116.452 E.01125
G1 X113.745 Y116.37 E.01305
G1 X114.117 Y116.369 E.01096
G1 X114.581 Y116.459 E.01393
G1 X115.032 Y116.658 E.01453
G1 X115.309 Y116.85 E.00993
G1 X115.582 Y117.111 E.01113
G1 X115.847 Y117.486 E.01353
G1 X116.046 Y117.975 E.01556
G1 X116.116 Y118.385 E.01226
G1 X116.108 Y118.807 E.01244
G1 X116.009 Y119.249 E.01335
G1 X115.835 Y119.637 E.01253
G1 X115.584 Y119.99 E.01277
G1 X115.249 Y120.302 E.01349
G1 X114.907 Y120.513 E.01184
G1 X114.581 Y120.643 E.01034
G1 X114.181 Y120.728 E.01205
G1 X113.686 Y120.729 E.01459
G1 X113.28 Y120.643 E.01223
G1 X112.839 Y120.45 E.01419
G1 X112.487 Y120.197 E.01278
G1 X112.242 Y119.944 E.01038
G1 X111.988 Y119.559 E.01359
G1 X111.846 Y119.21 E.0111
G1 X112.198 Y119.076 F6000
;TYPE:External perimeter
G1 F1200
G1 X112.127 Y118.705 E.01113
G1 X112.143 Y118.273 E.01274
G1 X112.216 Y117.973 E.0091
G1 X112.351 Y117.668 E.00983
G1 X112.567 Y117.362 E.01104
G1 X112.845 Y117.103 E.0112
G1 X113.125 Y116.931 E.00969
G1 X113.415 Y116.816 E.00919
G1 X113.781 Y116.747 E.01098
G1 X114.082 Y116.746 E.00887
G1 X114.467 Y116.821 E.01156
G1 X114.847 Y116.988 E.01223
G1 X115.07 Y117.143 E.008
G1 X115.295 Y117.359 E.00919
G1 X115.514 Y117.668 E.01116
G1 X115.681 Y118.079 E.01308
G1 X115.738 Y118.413 E.00999
G1 X115.732 Y118.761 E.01026
G1 X115.649 Y119.13 E.01115
G1 X115.506 Y119.449 E.0103
G1 X115.299 Y119.741 E.01055
G1 X115.019 Y120.001 E.01126
G1 X114.737 Y120.175 E.00977
G1 X114.471 Y120.281 E.00844
G1 X114.141 Y120.351 E.00994
G1 X113.726 Y120.351 E.01223
G1 X113.395 Y120.282 E.00997
G1 X113.027 Y120.121 E.01184
G1 X112.735 Y119.911 E.0106
G1 X112.537 Y119.706 E.0084
G1 X112.323 Y119.382 E.01144
G1 X112.221 Y119.132 E.00796
G1 X111.831 Y118.989 F6000
G1 E-1.12 F2400
;WIPE_START
G1 F4800
G1 X112.127 Y118.705 E-.20768
G1 X112.143 Y118.273 E-.20534
G1 X112.176 Y118.136 E-.06698
;WIPE_END
G1 X134.754 Y110.259 F6000
G1 E1.6 F2400
;TYPE:Perimeter
G1 F1200
G1 X134.748 Y110.289 E.0009
G1 X130.964 Y110.289 E.11153
G1 X130.964 Y108.965 E.03902
G1 X130.926 Y109.078 E.00351
G1 X130.739 Y109.428 E.0117
G1 X130.491 Y109.736 E.01165
G1 X130.192 Y109.991 E.01158
G1 X129.852 Y110.185 E.01154
G1 X129.482 Y110.312 E.01153
G1 X129.087 Y110.374 E.01178
G1 X128.621 Y110.366 E.01374
G1 X128.334 Y110.317 E.00858
G1 X128.066 Y110.236 E.00825
G1 X127.812 Y110.124 E.00818
G1 X127.572 Y109.984 E.00819
G1 X127.353 Y109.811 E.00823
G1 X127.16 Y109.608 E.00826
G1 X127.003 Y109.384 E.00806
G1 X126.879 Y109.146 E.00791
G1 X126.788 Y108.895 E.00787
G1 X126.73 Y108.612 E.00851
G1 X126.735 Y108.106 E.01491
G1 X126.825 Y107.811 E.00909
G1 X127.006 Y107.461 E.01161
G1 X126.657 Y106.968 E.0178
G1 X126.565 Y107.142 E.0058
G1 X126.374 Y107.417 E.00987
G1 X126.346 Y107.427 E.00088
G1 X126.444 Y107.502 E.00364
G1 X126.637 Y108.056 E.01729
G1 X126.678 Y108.366 E.00922
G1 X126.644 Y108.776 E.01213
G1 X126.534 Y109.146 E.01138
G1 X126.431 Y109.355 E.00687
G1 X126.209 Y109.669 E.01133
G1 X125.921 Y109.94 E.01166
G1 X125.724 Y110.075 E.00704
G1 X125.375 Y110.241 E.01139
G1 X125.149 Y110.309 E.00696
G1 X124.749 Y110.373 E.01194
G1 X124.329 Y110.372 E.01238
G1 X124.093 Y110.345 E.007
G1 X123.711 Y110.247 E.01162
G1 X123.504 Y110.16 E.00662
G1 X123.306 Y110.051 E.00666
G1 X122.989 Y109.805 E.01183
G1 X122.732 Y109.511 E.01151
G1 X122.607 Y109.315 E.00685
