; generated by PrusaSlicer 2.7.1+win64 on 2024-02-23 at 13:26:48 UTC


;
;

;
;
; 

; external perimeters extrusion width = 0.42mm
; perimeters extrusion width = 0.44mm
; infill extrusion width = 0.44mm
; solid infill extrusion width = 0.44mm
; top infill extrusion width = 0.40mm
; first layer extrusion width = 0.42mm


; printing object Shape-Box id:0 copy 0
; stop printing object Shape-Box id:0 copy 0

;TYPE:Custom
; Ender 3 Custom Start G-code
G92 E0 ; Reset Extruder

M140 S55 ; set bed temp
M104 S160 ; set extruder temp
M109 S160 ; wait for extruder temp
M190 S55 ; wait for bed temp

G28 ; Home all axes
M104 S210 ; set extruder temp 
BED_MESH_CALIBRATE AREA_START=83.7684,88.5669 AREA_END=143.763,126.207

G1 Z2.0 F3000 ; Move Z Axis up little to prevent scratching of Heat Bed
M109 S210 ; wait for extruder temp
G1 X0.1 Y20 Z0.3 F5000.0 ; Move to start position

G1 X0.1 Y200.0 Z0.3 F1500.0 E15 ; Draw the first line
G1 X0.4 Y200.0 Z0.3 F5000.0 ; Move to side a little
G1 X0.4 Y20 Z0.3 F1500.0 E30 ; Draw the second line
G92 E0 ; Reset Extruder
G1 Z2.0 F3000 ; Move Z Axis up little to prevent scratching of Heat Bed
G1 X5 Y20 Z0.3 F5000.0 ; Move over to prevent blob squish
G21 ; set units to millimeters
G90 ; use absolute coordinates
M83 ; use relative distances for extrusion
; Filament gcode
M107
;LAYER_CHANGE
;Z:0.2
;HEIGHT:0.2
;BEFORE_LAYER_CHANGE
G92 E0
;0.2


G1 E-1.6 F2400
G1 Z.2 F6000
;AFTER_LAYER_CHANGE
;0.2
G1 X87.857 Y91.701
G1 Z.2
G1 E1.6 F2400
M204 S500
;TYPE:Skirt/Brim
;WIDTH:0.42
G1 F1200
G1 X88.725 Y90.996 E.03296
G1 X89.656 Y90.382 E.03287
G1 X91.322 Y89.564 E.0547
G1 X93.099 Y89.026 E.05472
G1 X94.721 Y88.79 E.04831
G1 X132.884 Y88.805 E1.12478
G1 X133.843 Y88.938 E.02854
G1 X135.87 Y89.494 E.06195
G1 X137.7 Y90.365 E.05973
G1 X139.14 Y91.376 E.05186
G1 X140.583 Y92.775 E.05924
G1 X141.374 Y93.79 E.03793
G1 X141.835 Y94.519 E.02542
G1 X142.681 Y96.304 E.05822
G1 X143.24 Y98.341 E.06226
G1 X143.425 Y100.341 E.0592
G1 X143.575 Y114.341 E.41265
G1 X143.503 Y115.668 E.03917
G1 X143.296 Y116.888 E.03647
G1 X142.676 Y118.864 E.06104
G1 X141.69 Y120.733 E.06228
G1 X140.467 Y122.296 E.05849
G1 X139.688 Y123.064 E.03224
G1 X138.815 Y123.771 E.03311
G1 X137.173 Y124.778 E.05677
G1 X136.08 Y125.257 E.03517
G1 X134.281 Y125.783 E.05524
G1 X132.523 Y126.003 E.05222
G1 X95.078 Y126.009 E1.10362
G1 X93.39 Y125.81 E.0501
G1 X92.295 Y125.542 E.03323
G1 X91.185 Y125.153 E.03467
G1 X89.854 Y124.506 E.04362
G1 X88.8 Y123.835 E.03683
G1 X87.851 Y123.075 E.03583
G1 X86.76 Y121.96 E.04598
G1 X86.154 Y121.19 E.02888
G1 X85.328 Y119.862 E.04609
G1 X84.772 Y118.665 E.0389
G1 X84.319 Y117.276 E.04306
G1 X84.013 Y115.506 E.05294
G1 X83.957 Y114.505 E.02955
G1 X83.987 Y99.578 E.43994
G1 X84.339 Y97.433 E.06407
G1 X84.956 Y95.673 E.05497
G1 X85.359 Y94.854 E.0269
G1 X86.242 Y93.468 E.04844
G1 X86.875 Y92.684 E.0297
G1 X87.814 Y91.744 E.03916
G1 X88.08 Y92.01 F6000
G1 F1200
G1 X88.109 Y91.982 E.00119
G1 X88.937 Y91.308 E.03147
G1 X89.836 Y90.714 E.03176
G1 X91.455 Y89.917 E.05319
G1 X92.992 Y89.437 E.04746
G1 X94.74 Y89.166 E.05213
G1 X131.692 Y89.133 E1.08909
G1 X133.767 Y89.308 E.06137
G1 X135.748 Y89.851 E.06054
G1 X137.509 Y90.69 E.05749
G1 X138.893 Y91.661 E.04983
G1 X140.304 Y93.029 E.05792
G1 X141.07 Y94.013 E.03675
G1 X141.565 Y94.802 E.02745
G1 X142.414 Y96.673 E.06056
G1 X142.882 Y98.473 E.05482
G1 X143.048 Y100.345 E.05539
G1 X143.198 Y114.345 E.41265
G1 X143.13 Y115.614 E.03745
G1 X142.924 Y116.824 E.03618
G1 X142.331 Y118.712 E.05833
G1 X141.369 Y120.534 E.06073
G1 X140.198 Y122.031 E.05602
G1 X139.594 Y122.642 E.02532
G1 X138.603 Y123.459 E.03785
G1 X136.981 Y124.453 E.05607
G1 X135.395 Y125.098 E.05046
G1 X134.218 Y125.411 E.0359
G1 X132.355 Y125.634 E.0553
G1 X95.105 Y125.633 E1.09787
G1 X93.449 Y125.437 E.04915
G1 X92.304 Y125.154 E.03476
G1 X91.337 Y124.807 E.03028
G1 X90.03 Y124.173 E.04281
G1 X89.019 Y123.528 E.03534
G1 X88.102 Y122.794 E.03462
G1 X87.039 Y121.706 E.04483
G1 X86.452 Y120.958 E.02802
G1 X85.657 Y119.676 E.04446
G1 X85.128 Y118.539 E.03696
G1 X84.684 Y117.182 E.04208
G1 X84.387 Y115.46 E.0515
G1 X84.334 Y114.505 E.02819
G1 X84.363 Y99.603 E.43921
G1 X84.7 Y97.541 E.06158
G1 X85.307 Y95.811 E.05404
G1 X85.705 Y95.004 E.02652
G1 X86.553 Y93.681 E.04632
G1 X87.156 Y92.934 E.02829
G1 X88.038 Y92.052 E.03676
G1 X88.304 Y92.318 F6000
G1 F1200
G1 X88.361 Y92.262 E.00236
G1 X89.149 Y91.62 E.02996
G1 X90.029 Y91.037 E.03111
G1 X91.588 Y90.27 E.05121
G1 X93.208 Y89.774 E.04993
G1 X94.758 Y89.543 E.04619
G1 X131.692 Y89.51 E1.08856
G1 X133.69 Y89.677 E.05909
G1 X135.628 Y90.208 E.05922
G1 X137.318 Y91.015 E.0552
G1 X138.647 Y91.947 E.04784
G1 X140.013 Y93.269 E.05603
G1 X140.766 Y94.236 E.03612
G1 X141.237 Y94.988 E.02615
G1 X142.054 Y96.785 E.05818
G1 X142.512 Y98.545 E.0536
G1 X142.671 Y100.349 E.05338
G1 X142.821 Y114.349 E.41265
G1 X142.744 Y115.641 E.03815
G1 X142.521 Y116.917 E.03818
G1 X142.276 Y117.78 E.02644
G1 X141.409 Y119.75 E.06344
G1 X140.675 Y120.874 E.03957
G1 X140.018 Y121.672 E.03047
G1 X139.333 Y122.37 E.02882
G1 X138.39 Y123.147 E.03601
G1 X136.804 Y124.12 E.05484
G1 X135.27 Y124.742 E.04879
G1 X134.141 Y125.042 E.03443
G1 X132.345 Y125.257 E.05331
G1 X95.131 Y125.257 E1.09681
G1 X93.508 Y125.065 E.04817
G1 X92.409 Y124.792 E.03338
G1 X91.488 Y124.462 E.02883
G1 X90.206 Y123.839 E.04201
G1 X89.238 Y123.221 E.03385
G1 X88.306 Y122.47 E.03528
G1 X87.318 Y121.453 E.04179
G1 X86.76 Y120.741 E.02666
G1 X85.985 Y119.491 E.04335
G1 X85.483 Y118.413 E.03505
G1 X85.05 Y117.087 E.04111
G1 X84.761 Y115.415 E.05001
G1 X84.739 Y99.629 E.46526
G1 X85.061 Y97.651 E.05907
G1 X85.658 Y95.948 E.05319
G1 X86.04 Y95.178 E.02533
G1 X86.862 Y93.897 E.04486
G1 X87.438 Y93.185 E.02699
G1 X88.262 Y92.361 E.03435
; printing object Shape-Box id:0 copy 0
G1 E-1.12 F2400
;WIPE_START
G1 F4800
G1 X88.304 Y92.318 E-.02855
G1 X88.361 Y92.262 E-.03796
G1 X89.036 Y91.712 E-.41349
;WIPE_END
G1 X113.362 Y104.078 F6000
G1 E1.6 F2400
;TYPE:Perimeter
G1 F1200
G1 X113.321 Y104.259 E.00547
G1 X113.263 Y104.373 E.00377
G1 X113.213 Y104.419 E.002
G1 X113.137 Y104.446 E.00238
G1 X112.998 Y104.446 E.0041
G1 X112.931 Y104.423 E.00209
G1 X112.889 Y104.383 E.00171
G1 X112.873 Y104.258 E.00371
G1 X112.9 Y104.187 E.00224
G1 X113.075 Y104.1 E.00576
G1 X113.175 Y104.079 E.00301
G1 X113.302 Y104.078 E.00374
G1 E-1.12 F2400
;WIPE_START
G1 F4800
G1 X113.362 Y104.078 E-.0285
G1 X113.321 Y104.259 E-.08815
G1 X113.263 Y104.373 E-.06076
G1 X113.213 Y104.419 E-.03227
G1 X113.137 Y104.446 E-.03831
G1 X112.998 Y104.446 E-.06602
G1 X112.931 Y104.423 E-.03365
G1 X112.889 Y104.383 E-.02755
G1 X112.873 Y104.258 E-.05986
G1 X112.9 Y104.187 E-.03608
G1 X112.917 Y104.179 E-.00885
;WIPE_END
G1 X115.326 Y103.69 F6000
G1 E1.6 F2400
G1 F1200
G1 X114.078 Y103.468 E.03736
G1 X114.21 Y102.425 E.03099
G1 X114.589 Y102.361 E.01133
G1 X115.017 Y102.245 E.01307
G1 X115.114 Y102.693 E.01351
G1 X115.532 Y103.301 E.02175
G1 X115.354 Y103.637 E.01121
G1 E-1.12 F2400
;WIPE_START
G1 F4800
G1 X115.326 Y103.69 E-.02847
G1 X114.39 Y103.524 E-.45153
;WIPE_END
G1 X113.504 Y102.09 F6000
G1 E1.6 F2400
G1 F1200
G1 X113.118 Y102.176 E.01166
G1 X112.947 Y102.183 E.00504
G1 X112.831 Y102.157 E.0035
G1 X112.749 Y102.109 E.0028
G1 X112.681 Y102.035 E.00296
G1 X112.637 Y101.938 E.00314
G1 X112.625 Y101.779 E.0047
G1 X112.659 Y101.637 E.0043
G1 X112.721 Y101.534 E.00354
G1 X112.819 Y101.444 E.00392
G1 X112.92 Y101.396 E.0033
G1 X113.129 Y101.38 E.00618
G1 X113.212 Y101.408 E.00258
G1 X113.319 Y101.516 E.00448
G1 X113.368 Y101.618 E.00334
G1 X113.487 Y102.032 E.0127
G1 E-1.12 F2400
;WIPE_START
G1 F4800
G1 X113.504 Y102.09 E-.02871
G1 X113.118 Y102.176 E-.18785
G1 X112.947 Y102.183 E-.08129
G1 X112.831 Y102.157 E-.05647
G1 X112.749 Y102.109 E-.04513
G1 X112.681 Y102.035 E-.04774
G1 X112.652 Y101.972 E-.03281
;WIPE_END
G1 X117.908 Y102.091 F6000
G1 E1.6 F2400
G1 F1200
G1 X117.531 Y102.176 E.01139
G1 X117.359 Y102.183 E.00507
G1 X117.243 Y102.157 E.0035
G1 X117.161 Y102.109 E.0028
G1 X117.094 Y102.035 E.00294
G1 X117.049 Y101.938 E.00315
G1 X117.038 Y101.779 E.0047
G1 X117.071 Y101.637 E.0043
G1 X117.14 Y101.522 E.00395
G1 X117.25 Y101.429 E.00425
G1 X117.384 Y101.381 E.0042
G1 X117.541 Y101.38 E.00463
G1 X117.675 Y101.442 E.00435
G1 X117.78 Y101.624 E.00619
G1 X117.892 Y102.034 E.01253
G1 E-1.12 F2400
;WIPE_START
G1 F4800
G1 X117.908 Y102.091 E-.02812
G1 X117.531 Y102.176 E-.18357
G1 X117.359 Y102.183 E-.08177
G1 X117.243 Y102.157 E-.05647
G1 X117.161 Y102.109 E-.04513
G1 X117.094 Y102.035 E-.04742
G1 X117.061 Y101.963 E-.03752
;WIPE_END
G1 X117.775 Y104.078 F6000
G1 E1.6 F2400
G1 F1200
G1 X117.733 Y104.259 E.00548
G1 X117.675 Y104.373 E.00377
G1 X117.626 Y104.419 E.00198
G1 X117.55 Y104.446 E.00238
G1 X117.411 Y104.446 E.0041
G1 X117.343 Y104.423 E.00212
G1 X117.301 Y104.383 E.00171
G1 X117.286 Y104.258 E.00371
G1 X117.313 Y104.187 E.00224
G1 X117.487 Y104.1 E.00573
G1 X117.587 Y104.079 E.00301
G1 X117.715 Y104.078 E.00377
G1 E-1.12 F2400
;WIPE_START
G1 F4800
G1 X117.775 Y104.078 E-.0285
G1 X117.733 Y104.259 E-.08826
G1 X117.675 Y104.373 E-.06076
G1 X117.626 Y104.419 E-.03192
G1 X117.55 Y104.446 E-.03831
G1 X117.411 Y104.446 E-.06602
G1 X117.343 Y104.423 E-.0341
G1 X117.301 Y104.383 E-.02755
G1 X117.286 Y104.258 E-.0598
G1 X117.313 Y104.187 E-.03608
G1 X117.329 Y104.179 E-.0087
;WIPE_END
G1 X117.519 Y110.844 F6000
G1 E1.6 F2400
G1 F1200
G1 X117.452 Y111.106 E.00797
G1 X117.397 Y111.434 E.0098
G1 X117.356 Y112.093 E.01946
G1 X117.372 Y112.507 E.01221
G1 X117.419 Y112.9 E.01167
G1 X117.502 Y113.284 E.01158
G1 X117.563 Y113.458 E.00543
G1 X115.664 Y113.468 E.05597
G1 X115.368 Y113.488 E.00874
G1 X115.656 Y113.167 E.01271
G1 X117.482 Y110.891 E.086
G1 E-1.12 F2400
;WIPE_START
G1 F4800
G1 X117.519 Y110.844 E-.02841
G1 X117.452 Y111.106 E-.12845
G1 X117.397 Y111.434 E-.15798
G1 X117.375 Y111.781 E-.16516
;WIPE_END
G1 X126.556 Y103.677 F6000
G1 E1.6 F2400
G1 F1200
G1 X126.574 Y103.499 E.00527
G1 X126.731 Y103.68 E.00706
G1 X126.616 Y103.678 E.00339
G1 X128.27 Y104.383 F6000
G1 F1200
G1 X128.371 Y104.397 E.00301
G1 X128.658 Y104.357 E.00854
G1 X128.615 Y104.395 E.00169
G1 X128.536 Y104.435 E.00261
G1 X128.426 Y104.451 E.00328
G1 X128.36 Y104.44 E.00197
G1 X128.321 Y104.416 E.00135
G1 E-1.12 F2400
;WIPE_START
G1 F4800
G1 X128.27 Y104.383 E-.02885
G1 X128.371 Y104.397 E-.04843
G1 X128.658 Y104.357 E-.13764
G1 X128.615 Y104.395 E-.02726
G1 X128.536 Y104.435 E-.04206
G1 X128.426 Y104.451 E-.0528
G1 X128.36 Y104.44 E-.03178
G1 X128.321 Y104.416 E-.02175
;WIPE_END
G1 E-.08943 F2400
G1 X130.986 Y103.677 F6000
G1 E1.6 F2400
G1 F1200
G1 X131.002 Y103.512 E.00489
G1 X131.145 Y103.68 E.0065
G1 X131.046 Y103.678 E.00292
G1 X132.683 Y104.383 F6000
G1 F1200
G1 X132.783 Y104.397 E.00298
G1 X133.07 Y104.357 E.00854
G1 X133.028 Y104.395 E.00167
G1 X132.948 Y104.435 E.00264
G1 X132.838 Y104.451 E.00328
G1 X132.772 Y104.44 E.00197
G1 X132.733 Y104.416 E.00135
G1 E-1.12 F2400
;WIPE_START
G1 F4800
G1 X132.683 Y104.383 E-.02846
G1 X132.783 Y104.397 E-.04796
G1 X133.07 Y104.357 E-.13764
G1 X133.028 Y104.395 E-.0269
G1 X132.948 Y104.435 E-.04249
G1 X132.838 Y104.451 E-.0528
G1 X132.772 Y104.44 E-.03178
G1 X132.733 Y104.416 E-.02175
;WIPE_END
G1 E-.09022 F2400
G1 X118.613 Y103.49 F6000
G1 E1.6 F2400
G1 F1200
G1 X119.956 Y103.729 E.0402
G1 X119.761 Y104.625 E.02703
G1 X119.63 Y105.015 E.01213
G1 X119.433 Y105.382 E.01228
G1 X119.174 Y105.704 E.01218
G1 X118.861 Y105.971 E.01213
G1 X118.505 Y106.174 E.01208
G1 X118.117 Y106.308 E.0121
G1 X117.703 Y106.372 E.01235
G1 X117.212 Y106.364 E.01447
G1 X116.911 Y106.312 E.009
G1 X116.63 Y106.228 E.00864
G1 X116.363 Y106.11 E.0086
G1 X116.112 Y105.963 E.00857
G1 X115.882 Y105.782 E.00863
G1 X115.681 Y105.571 E.00859
G1 X115.516 Y105.336 E.00846
G1 X115.387 Y105.088 E.00824
G1 X115.288 Y104.806 E.00881
G1 X115.217 Y105.015 E.00651
G1 X115.021 Y105.382 E.01226
G1 X114.762 Y105.704 E.01218
G1 X114.449 Y105.971 E.01213
G1 X114.093 Y106.174 E.01208
G1 X113.704 Y106.308 E.01213
G1 X113.291 Y106.372 E.01232
G1 X112.799 Y106.364 E.0145
G1 X112.498 Y106.312 E.009
G1 X112.217 Y106.228 E.00864
G1 X111.951 Y106.11 E.00858
G1 X111.7 Y105.963 E.00857
G1 X111.47 Y105.782 E.00863
G1 X111.268 Y105.571 E.00861
G1 X111.104 Y105.336 E.00845
G1 X110.974 Y105.088 E.00825
G1 X110.88 Y104.825 E.00823
G1 X110.822 Y104.55 E.00828
G1 X110.807 Y104.27 E.00826
G1 X110.829 Y103.989 E.00831
G1 X110.909 Y103.698 E.00889
G1 X111.138 Y103.267 E.01438
G1 X110.972 Y103.055 E.00794
G1 X110.877 Y102.879 E.00589
G1 X110.337 Y103.705 E.02909
G1 X108.472 Y106.355 E.09551
G1 X106.882 Y106.355 E.04686
G1 X106.882 Y102.83 E.10389
G1 X106.148 Y102.83 E.02163
G1 X106.148 Y100.844 E.05853
G1 X106.882 Y100.844 E.02163
G1 X106.882 Y99.541 E.0384
G1 X108.925 Y99.541 E.06021
G1 X108.925 Y100.846 E.03846
G1 X109.672 Y100.849 E.02202
G1 X110.184 Y100.879 E.01512
G1 X110.779 Y100.963 E.01771
G1 X110.825 Y100.772 E.00579
G1 X111.093 Y100.334 E.01513
G1 X111.447 Y99.974 E.01488
G1 X111.864 Y99.707 E.01459
G1 X112.322 Y99.535 E.01442
G1 X112.825 Y99.452 E.01503
G1 X113.288 Y99.451 E.01365
G1 X113.733 Y99.524 E.01329
G1 X114.154 Y99.675 E.01318
G1 X114.538 Y99.904 E.01318
G1 X114.872 Y100.207 E.01329
G1 X115.138 Y100.571 E.01329
G1 X115.22 Y100.759 E.00605
G1 X115.508 Y100.31 E.01572
G1 X115.866 Y99.966 E.01463
G1 X116.278 Y99.706 E.01436
G1 X116.735 Y99.534 E.01439
G1 X117.226 Y99.454 E.01466
G1 X117.481 Y99.444 E.00752
G1 X117.926 Y99.478 E.01315
G1 X118.36 Y99.589 E.0132
G1 X118.763 Y99.779 E.01313
G1 X119.123 Y100.045 E.01319
G1 X119.423 Y100.372 E.01308
G1 X119.652 Y100.746 E.01293
G1 X119.807 Y101.16 E.01303
G1 X119.994 Y102.251 E.03262
G1 X118.621 Y102.435 E.04083
G1 X118.491 Y103.468 E.03069
G1 X118.554 Y103.48 E.00189
G1 E-1.12 F2400
;WIPE_START
G1 F4800
G1 X118.613 Y103.49 E-.02842
G1 X119.549 Y103.657 E-.45158
;WIPE_END
G1 X115.038 Y101.849 F6000
G1 E1.6 F2400
;TYPE:External perimeter
G1 F1200
G1 X114.509 Y101.992 E.01615
G1 X113.898 Y102.095 E.01826
G1 X113.722 Y101.483 E.01877
G1 X113.645 Y101.324 E.00521
G1 X113.565 Y101.211 E.00408
G1 X113.417 Y101.089 E.00565
G1 X113.314 Y101.039 E.00337
G1 X113.058 Y100.996 E.00765
G1 X112.811 Y101.03 E.00735
G1 X112.606 Y101.127 E.00668
G1 X112.425 Y101.293 E.00724
G1 X112.305 Y101.494 E.0069
G1 X112.248 Y101.735 E.0073
G1 X112.248 Y101.906 E.00504
G1 X112.274 Y102.052 E.00437
G1 X112.363 Y102.246 E.00629
G1 X112.509 Y102.405 E.00636
G1 X112.69 Y102.512 E.0062
G1 X112.913 Y102.562 E.00674
G1 X113.168 Y102.551 E.00752
G1 X113.833 Y102.402 E.02009
G1 X113.666 Y103.724 E.03927
G1 X113.288 Y103.693 E.01118
G1 X113.123 Y103.704 E.00487
G1 X112.83 Y103.789 E.00899
G1 X112.646 Y103.901 E.00635
G1 X112.545 Y104.029 E.00481
G1 X112.494 Y104.214 E.00566
G1 X112.502 Y104.415 E.00593
G1 X112.529 Y104.509 E.00288
G1 X112.644 Y104.676 E.00598
G1 X112.822 Y104.79 E.00623
G1 X112.934 Y104.82 E.00342
G1 X113.202 Y104.819 E.0079
G1 X113.415 Y104.74 E.0067
G1 X113.579 Y104.584 E.00667
G1 X113.678 Y104.389 E.00645
G1 X113.812 Y103.804 E.01769
G1 X115.092 Y104.032 E.03832
G1 X114.985 Y104.524 E.01484
G1 X114.87 Y104.865 E.01061
G1 X114.705 Y105.173 E.0103
G1 X114.491 Y105.44 E.01008
G1 X114.231 Y105.661 E.01006
G1 X113.937 Y105.829 E.00998
G1 X113.613 Y105.94 E.01009
G1 X113.264 Y105.995 E.01041
G1 X112.835 Y105.988 E.01265
G1 X112.585 Y105.945 E.00748
G1 X112.348 Y105.873 E.0073
G1 X112.122 Y105.774 E.00727
G1 X111.913 Y105.651 E.00715
G1 X111.724 Y105.503 E.00708
G1 X111.561 Y105.331 E.00698
G1 X111.427 Y105.139 E.0069
G1 X111.32 Y104.936 E.00676
G1 X111.243 Y104.722 E.0067
G1 X111.197 Y104.501 E.00665
G1 X111.185 Y104.274 E.0067
G1 X111.202 Y104.055 E.00647
G1 X111.262 Y103.838 E.00664
G1 X111.467 Y103.451 E.01291
G1 X111.658 Y103.331 E.00665
G1 X111.775 Y103.22 E.00475
G1 X111.529 Y103.052 E.00878
G1 X111.399 Y102.988 E.00427
G1 X111.288 Y102.847 E.00529
G1 X111.162 Y102.614 E.00781
G1 X111.056 Y102.249 E.0112
G1 X111.019 Y101.977 E.00809
G1 X111.023 Y101.644 E.00982
G1 X111.051 Y101.453 E.00569
G1 X111.178 Y100.918 E.01621
G1 X111.392 Y100.567 E.01212
G1 X111.686 Y100.269 E.01234
