; generated by PrusaSlicer 2.7.4+win64 on 2024-04-16 at 18:39:01 UTC

; 

; external perimeters extrusion width = 0.42mm
; perimeters extrusion width = 0.44mm
; infill extrusion width = 0.44mm
; solid infill extrusion width = 0.44mm
; top infill extrusion width = 0.40mm
; first layer extrusion width = 0.42mm


; printing object Shape-Box id:0 copy 0
; stop printing object Shape-Box id:0 copy 0

;TYPE:Custom
; Ender 3 Custom Start G-code
G92 E0 ; Reset Extruder

M140 S55 ; set bed temp
M104 S160 ; set extruder temp
M109 S160 ; wait for extruder temp
M190 S55 ; wait for bed temp

G28 ; Home all axes
M104 S210 ; set extruder temp 
BED_MESH_CALIBRATE AREA_START=83.7684,88.5669 AREA_END=143.763,126.207

G1 Z2.0 F3000 ; Move Z Axis up little to prevent scratching of Heat Bed
M109 S210 ; wait for extruder temp
G1 X0.1 Y20 Z0.3 F5000.0 ; Move to start position

G1 X0.1 Y200.0 Z0.3 F1500.0 E15 ; Draw the first line
G1 X0.4 Y200.0 Z0.3 F5000.0 ; Move to side a little
G1 X0.4 Y20 Z0.3 F1500.0 E30 ; Draw the second line
G92 E0 ; Reset Extruder
G1 Z2.0 F3000 ; Move Z Axis up little to prevent scratching of Heat Bed
G1 X5 Y20 Z0.3 F5000.0 ; Move over to prevent blob squish
G21 ; set units to millimeters
G90 ; use absolute coordinates
M83 ; use relative distances for extrusion
; Filament gcode
M107
;LAYER_CHANGE
;Z:0.2
;HEIGHT:0.2
G1 E-1.6 F2400
G1 Z.2 F6000
G1 X87.857 Y91.701
G1 Z.2
G1 E1.6 F2400
M204 S500
;TYPE:Skirt/Brim
;WIDTH:0.42
G1 F1200
G1 X88.725 Y90.996 E.03506
G1 X89.656 Y90.382 E.03497
G1 X91.322 Y89.564 E.05819
G1 X93.099 Y89.026 E.05821
G1 X94.721 Y88.79 E.05139
G1 X132.884 Y88.805 E1.19657
G1 X133.843 Y88.938 E.03036
G1 X135.87 Y89.494 E.0659
G1 X137.7 Y90.365 E.06355
G1 X139.14 Y91.376 E.05517
G1 X140.583 Y92.775 E.06302
G1 X141.374 Y93.79 E.04035
G1 X141.835 Y94.519 E.02704
G1 X142.681 Y96.304 E.06194
G1 X143.24 Y98.341 E.06623
G1 X143.425 Y100.341 E.06298
G1 X143.575 Y114.341 E.43899
G1 X143.503 Y115.668 E.04167
G1 X143.296 Y116.888 E.0388
G1 X142.676 Y118.864 E.06493
G1 X141.69 Y120.733 E.06626
G1 X140.467 Y122.296 E.06223
G1 X139.688 Y123.064 E.0343
G1 X138.815 Y123.771 E.03522
G1 X137.173 Y124.778 E.06039
G1 X136.08 Y125.257 E.03742
G1 X134.281 Y125.783 E.05877
G1 X132.523 Y126.003 E.05555
G1 X95.078 Y126.009 E1.17406
G1 X93.39 Y125.81 E.05329
G1 X92.295 Y125.542 E.03535
G1 X91.185 Y125.153 E.03688
G1 X89.854 Y124.506 E.0464
G1 X88.8 Y123.835 E.03918
G1 X87.851 Y123.075 E.03812
G1 X86.76 Y121.96 E.04891
G1 X86.154 Y121.19 E.03072
G1 X85.328 Y119.862 E.04904
G1 X84.772 Y118.665 E.04138
G1 X84.319 Y117.276 E.04581
G1 X84.013 Y115.506 E.05632
G1 X83.957 Y114.505 E.03143
G1 X83.987 Y99.578 E.46803
G1 X84.339 Y97.433 E.06815
G1 X84.956 Y95.673 E.05848
G1 X85.359 Y94.854 E.02862
G1 X86.242 Y93.468 E.05153
G1 X86.875 Y92.684 E.03159
G1 X87.814 Y91.744 E.04166
G1 X87.814 Y91.744 F6000
G1 X88.08 Y92.01
G1 F1200
G1 X88.109 Y91.982 E.00126
G1 X88.937 Y91.308 E.03348
G1 X89.836 Y90.714 E.03378
G1 X91.455 Y89.917 E.05658
G1 X92.992 Y89.437 E.05049
G1 X94.74 Y89.166 E.05546
G1 X131.692 Y89.133 E1.1586
G1 X133.767 Y89.308 E.06529
G1 X135.748 Y89.851 E.0644
G1 X137.509 Y90.69 E.06116
G1 X138.893 Y91.661 E.05301
G1 X140.304 Y93.029 E.06162
G1 X141.07 Y94.013 E.0391
G1 X141.565 Y94.802 E.0292
G1 X142.414 Y96.673 E.06442
G1 X142.882 Y98.473 E.05831
G1 X143.048 Y100.345 E.05893
G1 X143.198 Y114.345 E.43899
G1 X143.13 Y115.614 E.03985
G1 X142.924 Y116.824 E.03848
G1 X142.331 Y118.712 E.06205
G1 X141.369 Y120.534 E.0646
G1 X140.198 Y122.031 E.05959
G1 X139.594 Y122.642 E.02694
G1 X138.603 Y123.459 E.04027
G1 X136.981 Y124.453 E.05965
G1 X135.395 Y125.098 E.05368
G1 X134.218 Y125.411 E.03819
G1 X132.355 Y125.634 E.05883
G1 X95.105 Y125.633 E1.16795
G1 X93.449 Y125.437 E.05229
G1 X92.304 Y125.154 E.03698
G1 X91.337 Y124.807 E.03221
G1 X90.03 Y124.173 E.04555
G1 X89.019 Y123.528 E.0376
G1 X88.102 Y122.794 E.03683
G1 X87.039 Y121.706 E.04769
G1 X86.452 Y120.958 E.02981
G1 X85.657 Y119.676 E.0473
G1 X85.128 Y118.539 E.03932
G1 X84.684 Y117.182 E.04477
G1 X84.387 Y115.46 E.05479
G1 X84.334 Y114.505 E.02999
G1 X84.363 Y99.603 E.46724
G1 X84.7 Y97.541 E.06551
G1 X85.307 Y95.811 E.05748
G1 X85.705 Y95.004 E.02821
G1 X86.553 Y93.681 E.04927
G1 X87.156 Y92.934 E.0301
G1 X88.038 Y92.052 E.03911
G1 X88.038 Y92.052 F6000
G1 X88.304 Y92.318
G1 F1200
G1 X88.361 Y92.262 E.00251
G1 X89.149 Y91.62 E.03187
G1 X90.029 Y91.037 E.0331
G1 X91.588 Y90.27 E.05448
G1 X93.208 Y89.774 E.05312
G1 X94.758 Y89.543 E.04914
G1 X131.692 Y89.51 E1.15804
G1 X133.69 Y89.677 E.06286
G1 X135.628 Y90.208 E.063
G1 X137.318 Y91.015 E.05872
G1 X138.647 Y91.947 E.0509
G1 X140.013 Y93.269 E.0596
G1 X140.766 Y94.236 E.03843
G1 X141.237 Y94.988 E.02782
G1 X142.054 Y96.785 E.06189
G1 X142.512 Y98.545 E.05702
G1 X142.671 Y100.349 E.05678
G1 X142.821 Y114.349 E.43899
G1 X142.744 Y115.641 E.04058
G1 X142.521 Y116.917 E.04061
G1 X142.276 Y117.78 E.02813
G1 X141.409 Y119.75 E.06749
G1 X140.675 Y120.874 E.04209
G1 X140.018 Y121.672 E.03241
G1 X139.333 Y122.37 E.03066
G1 X138.39 Y123.147 E.03831
G1 X136.804 Y124.12 E.05834
G1 X135.27 Y124.742 E.0519
G1 X134.141 Y125.042 E.03663
G1 X132.345 Y125.257 E.05671
G1 X95.131 Y125.257 E1.16682
G1 X93.508 Y125.065 E.05124
G1 X92.409 Y124.792 E.03551
G1 X91.488 Y124.462 E.03068
G1 X90.206 Y123.839 E.04469
G1 X89.238 Y123.221 E.03601
G1 X88.306 Y122.47 E.03753
G1 X87.318 Y121.453 E.04446
G1 X86.76 Y120.741 E.02836
G1 X85.985 Y119.491 E.04611
G1 X85.483 Y118.413 E.03729
G1 X85.05 Y117.087 E.04374
G1 X84.761 Y115.415 E.0532
G1 X84.739 Y99.629 E.49496
G1 X85.061 Y97.651 E.06284
G1 X85.658 Y95.949 E.05655
G1 X86.04 Y95.178 E.02698
G1 X86.862 Y93.897 E.04772
G1 X87.438 Y93.185 E.02871
G1 X88.262 Y92.361 E.03654
G1 E-1.12 F2400
;WIPE_START
G1 F4800
G1 X88.304 Y92.318 E-.02855
G1 X88.361 Y92.262 E-.03796
G1 X89.036 Y91.712 E-.41349
;WIPE_END
; printing object Shape-Box id:0 copy 0
G1 X109.271 Y110.27 F6000
G1 E1.6 F2400
;TYPE:Perimeter
G1 F1200
G1 X109.22 Y110.738 E.01476
G1 X109.788 Y110.764 E.01783
G1 X109.788 Y110.899 E.00423
G1 X108.712 Y110.788 E.03392
G1 X109.022 Y110.521 E.01283
G1 X109.229 Y110.313 E.0092
G1 X109.229 Y110.313 F6000
G1 X108.108 Y111.365
G1 F1200
G1 X108.093 Y111.547 E.00573
G1 X108.066 Y111.583 E.00141
G1 X107.979 Y111.575 E.00274
G1 X108.008 Y111.499 E.00255
G1 X108.072 Y111.413 E.00336
G1 X108.072 Y111.413 F6000
G1 X107.102 Y109.8
G1 F1200
G1 X106.914 Y109.957 E.00768
G1 X106.889 Y109.785 E.00545
G1 X107.042 Y109.795 E.00481
G1 E-1.12 F2400
;WIPE_START
G1 F4800
G1 X107.102 Y109.8 E-.0286
G1 X106.914 Y109.957 E-.11634
G1 X106.889 Y109.785 E-.08256
G1 X107.042 Y109.795 E-.07283
;WIPE_END
G1 E-.17967 F2400
G1 X97.084 Y103.537 F6000
G1 E1.6 F2400
G1 F1200
G1 X96.95 Y103.605 E.00471
G1 X96.818 Y103.62 E.00417
G1 X96.737 Y103.606 E.00258
G1 X96.695 Y103.56 E.00195
G1 X96.676 Y103.497 E.00206
G1 X96.671 Y103.362 E.00424
G1 X96.693 Y103.252 E.00352
G1 X96.766 Y103.152 E.00388
G1 X96.846 Y103.15 E.00251
G1 X96.894 Y103.177 E.00173
G1 X97.056 Y103.484 E.01088
G1 E-1.12 F2400
;WIPE_START
G1 F4800
G1 X97.084 Y103.537 E-.02847
G1 X96.95 Y103.605 E-.07138
G1 X96.818 Y103.62 E-.0631
G1 X96.737 Y103.606 E-.03905
G1 X96.695 Y103.56 E-.02959
G1 X96.676 Y103.497 E-.03126
G1 X96.671 Y103.362 E-.06417
G1 X96.693 Y103.252 E-.05328
G1 X96.766 Y103.152 E-.05881
G1 X96.846 Y103.15 E-.03801
G1 X96.851 Y103.153 E-.00288
;WIPE_END
G1 X93.756 Y109.958 F6000
G1 E1.6 F2400
G1 F1200
G1 X93.589 Y109.962 E.00524
G1 X93.507 Y109.923 E.00285
G1 X93.504 Y109.834 E.00279
G1 X93.537 Y109.776 E.00209
G1 X93.568 Y109.753 E.00121
G1 X93.649 Y109.753 E.00254
G1 X93.687 Y109.788 E.00162
G1 X93.733 Y109.903 E.00388
G1 X93.733 Y109.903 F6000
G1 X94.601 Y110.425
G1 F1200
G1 X94.92 Y110.354 E.01025
G1 X94.92 Y110.569 E.00674
G1 X95.365 Y110.678 E.01437
G1 X95.363 Y111.041 E.01138
G1 X94.475 Y110.989 E.02789
G1 X94.588 Y110.484 E.01623
G1 E-1.12 F2400
;WIPE_START
G1 F4800
G1 X94.601 Y110.425 E-.0287
G1 X94.92 Y110.354 E-.15523
G1 X94.92 Y110.569 E-.10213
G1 X95.317 Y110.667 E-.19394
;WIPE_END
G1 X129.007 Y110.662 F6000
G1 E1.6 F2400
G1 F1200
G1 X129.083 Y110.678 E.00244
G1 X129.077 Y111.359 E.02135
G1 X129.041 Y111.204 E.00499
G1 X128.914 Y110.877 E.011
G1 X128.983 Y110.717 E.00546
G1 E-1.12 F2400
;WIPE_START
G1 F4800
G1 X129.007 Y110.662 E-.0285
G1 X129.083 Y110.678 E-.03689
G1 X129.077 Y111.359 E-.32349
G1 X129.041 Y111.204 E-.07558
G1 X129.029 Y111.174 E-.01554
;WIPE_END
G1 X129.081 Y104.758 F6000
G1 E1.6 F2400
G1 F1200
G1 X129.045 Y104.603 E.00499
G1 X128.918 Y104.276 E.011
G1 X129.011 Y104.061 E.00734
G1 X129.087 Y104.076 E.00243
G1 X129.082 Y104.698 E.0195
G1 E-1.12 F2400
;WIPE_START
G1 F4800
G1 X129.081 Y104.758 E-.0285
G1 X129.045 Y104.603 E-.07558
G1 X128.918 Y104.276 E-.16663
G1 X129.011 Y104.061 E-.11127
G1 X129.087 Y104.076 E-.0368
G1 X129.086 Y104.205 E-.06122
;WIPE_END
G1 X110.125 Y108.036 F6000
G1 E1.6 F2400
G1 F1200
G1 X111.644 Y108.036 E.04763
G1 X111.644 Y108.979 E.02957
G1 X113.352 Y108.979 E.05355
G1 X113.352 Y110.326 E.04223
G1 X111.225 Y113.347 E.11584
G1 X109.786 Y113.347 E.04512
G1 X109.787 Y112.299 E.03286
G1 X109.706 Y112.478 E.00616
G1 X109.487 Y112.774 E.01154
G1 X109.224 Y113.005 E.01098
G1 X109.044 Y113.119 E.00668
G1 X108.726 Y113.258 E.01088
G1 X108.373 Y113.339 E.01136
G1 X108.004 Y113.365 E.0116
G1 X107.629 Y113.337 E.01179
G1 X107.268 Y113.248 E.01166
G1 X106.93 Y113.09 E.0117
G1 X106.636 Y112.865 E.01161
G1 X106.399 Y112.592 E.01134
G1 X106.225 Y112.28 E.0112
G1 X106.117 Y111.925 E.01163
G1 X106.101 Y111.554 E.01164
G1 X104.839 Y113.347 E.06875
G1 X103.4 Y113.347 E.04512
G1 X103.4 Y110.796 E.07998
G1 X102.869 Y110.796 E.01665
G1 X102.869 Y108.979 E.05697
G1 X103.4 Y108.979 E.01665
G1 X103.4 Y108.036 E.02957
G1 X105.258 Y108.036 E.05826
G1 X105.258 Y108.983 E.02969
G1 X105.916 Y109.015 E.02066
G1 X106.164 Y109.054 E.00787
G1 X106.043 Y108.092 E.0304
G1 X107.631 Y108.036 E.04982
G1 X108.954 Y108.04 E.04148
G1 X109.779 Y108.072 E.02589
G1 X109.778 Y108.036 E.00113
G1 X110.065 Y108.036 E.009
G1 X110.065 Y108.036 F6000
G1 X110.161 Y108.413
;TYPE:External perimeter
G1 F1200
G1 X111.267 Y108.413 E.03468
G1 X111.267 Y109.356 E.02957
G1 X112.975 Y109.356 E.05355
G1 X112.975 Y110.207 E.02668
G1 X111.029 Y112.97 E.10596
G1 X110.163 Y112.97 E.02715
G1 X110.166 Y110.403 E.08049
G1 X109.638 Y110.379 E.01657
G1 X109.736 Y109.48 E.02835
G1 X110.174 Y109.381 E.01408
G1 X110.162 Y108.473 E.02847
G1 X110.162 Y108.473 F6000
G1 X109.69 Y108.446
G1 F1200
G1 X109.632 Y108.968 E.01647
G1 X109.224 Y109.74 E.02738
G1 X108.948 Y110.068 E.01344
G1 X108.155 Y110.771 E.03323
G1 X107.872 Y111.05 E.01246
G1 X107.675 Y111.315 E.01035
G1 X107.594 Y111.524 E.00703
G1 X107.588 Y111.585 E.00192
G1 X107.617 Y111.734 E.00476
G1 X107.705 Y111.859 E.00479
G1 X107.818 Y111.93 E.00418
G1 X108.025 Y111.964 E.00658
G1 X108.13 Y111.956 E.0033
G1 X108.293 Y111.896 E.00545
G1 X108.403 Y111.785 E.0049
G1 X108.44 Y111.709 E.00265
G1 X108.466 Y111.61 E.00321
G1 X108.504 Y111.146 E.0146
G1 X109.631 Y111.262 E.03552
G1 X109.572 Y111.727 E.0147
G1 X109.5 Y112.019 E.00943
G1 X109.379 Y112.286 E.00919
G1 X109.208 Y112.518 E.00904
G1 X108.997 Y112.702 E.00878
G1 X108.867 Y112.785 E.00484
G1 X108.607 Y112.898 E.00889
G1 X108.317 Y112.965 E.00933
G1 X108.005 Y112.987 E.00981
G1 X107.689 Y112.964 E.00993
G1 X107.394 Y112.891 E.00953
G1 X107.127 Y112.766 E.00924
G1 X106.895 Y112.589 E.00915
G1 X106.709 Y112.374 E.00891
G1 X106.574 Y112.132 E.00869
G1 X106.492 Y111.861 E.00888
G1 X106.474 Y111.438 E.01327
G1 X106.536 Y111.14 E.00954
G1 X106.658 Y110.854 E.00975
G1 X106.85 Y110.569 E.01077
G1 X107.202 Y110.201 E.01597
G1 X107.541 Y109.934 E.01353
G1 X107.819 Y109.773 E.01007
G1 X108.245 Y109.4 E.01775
G1 X107.746 Y109.398 E.01565
G1 X107.256 Y109.433 E.0154
G1 X106.586 Y109.385 E.02106
G1 X106.469 Y108.454 E.02942
G1 X107.637 Y108.413 E.03664
G1 X108.946 Y108.417 E.04104
G1 X109.63 Y108.443 E.02146
G1 E-1.12 F2400
;WIPE_START
G1 F4800
G1 X109.69 Y108.446 E-.02854
G1 X109.632 Y108.968 E-.24948
G1 X109.433 Y109.344 E-.20198
;WIPE_END
G1 X106.464 Y109.482 F6000
G1 E1.6 F2400
G1 F1200
G1 X106.565 Y110.178 E.02205
G1 X106.021 Y111.013 E.03125
G1 X104.643 Y112.97 E.07505
G1 X103.777 Y112.97 E.02715
G1 X103.777 Y110.419 E.07998
G1 X103.246 Y110.419 E.01665
G1 X103.246 Y109.356 E.03333
G1 X103.777 Y109.356 E.01665
G1 X103.777 Y108.413 E.02957
G1 X104.881 Y108.413 E.03462
G1 X104.881 Y109.357 E.0296
G1 X105.432 Y109.361 E.01728
G1 X105.875 Y109.39 E.01392
G1 X106.405 Y109.473 E.01682
G1 E-1.12 F2400
;WIPE_START
G1 F4800
G1 X106.464 Y109.482 E-.02835
G1 X106.565 Y110.178 E-.33406
G1 X106.43 Y110.385 E-.11759
;WIPE_END
G1 X110.003 Y106.762 F6000
G1 E1.6 F2400
;TYPE:Perimeter
G1 F1200
G1 X110.003 Y101.435 E.16702
G1 X111.862 Y101.435 E.05829
G1 X111.855 Y103.462 E.06356
G1 X111.808 Y104.053 E.01859
G1 X112.758 Y103.634 E.03256
G1 X112.837 Y105.48 E.05793
G1 X112.139 Y105.872 E.0251
G1 X111.889 Y106.064 E.00988
G1 X111.712 Y106.246 E.00796
G1 X111.379 Y106.762 E.01926
G1 X110.063 Y106.762 E.04126
G1 X110.063 Y106.762 F6000
G1 X110.38 Y106.385
;TYPE:External perimeter
G1 F1200
G1 X110.38 Y101.812 E.14338
G1 X111.484 Y101.812 E.03462
G1 X111.478 Y103.449 E.05133
G1 X111.449 Y103.905 E.01433
G1 X111.383 Y104.338 E.01373
G1 X111.386 Y104.786 E.01405
G1 X111.629 Y104.632 E.00902
G1 X111.742 Y104.495 E.00557
G1 X112.405 Y104.202 E.02273
G1 X112.45 Y105.265 E.03336
G1 X111.931 Y105.557 E.01867
G1 X111.637 Y105.781 E.01159
G1 X111.415 Y106.01 E.01
G1 X111.174 Y106.385 E.01398
G1 X110.44 Y106.385 E.02301
G1 E-1.12 F2400
;WIPE_START
G1 F4800
G1 X110.38 Y106.385 E-.0285
G1 X110.38 Y105.434 E-.4515
;WIPE_END
G1 X109.565 Y103.634 F6000
G1 E1.6 F2400
;TYPE:Perimeter
G1 F1200
G1 X109.643 Y105.48 E.05793
G1 X108.945 Y105.872 E.0251
G1 X108.695 Y106.064 E.00988
G1 X108.518 Y106.246 E.00796
G1 X108.186 Y106.762 E.01924
G1 X106.81 Y106.762 E.04314
G1 X106.81 Y101.435 E.16702
G1 X108.669 Y101.435 E.05829
G1 X108.662 Y103.462 E.06356
G1 X108.615 Y104.053 E.01859
G1 X109.51 Y103.658 E.03067
G1 X109.51 Y103.658 F6000
G1 X109.212 Y104.202
;TYPE:External perimeter
G1 F1200
G1 X109.257 Y105.265 E.03336
G1 X108.738 Y105.557 E.01867
G1 X108.444 Y105.781 E.01159
G1 X108.222 Y106.01 E.01
G1 X107.98 Y106.385 E.01399
G1 X107.187 Y106.385 E.02486
G1 X107.187 Y101.812 E.14338
G1 X108.291 Y101.812 E.03462
G1 X108.285 Y103.449 E.05133
G1 X108.256 Y103.905 E.01433
G1 X108.19 Y104.338 E.01373
G1 X108.193 Y104.786 E.01405
G1 X108.436 Y104.632 E.00902
G1 X108.549 Y104.495 E.00557
G1 X109.157 Y104.226 E.02085
G1 E-1.12 F2400
;WIPE_START
G1 F4800
G1 X109.212 Y104.202 E-.0285
G1 X109.252 Y105.152 E-.4515
;WIPE_END
G1 X106.438 Y103.586 F6000
G1 E1.6 F2400
;TYPE:Perimeter
G1 F1200
G1 X106.721 Y104.128 E.01917
G1 X106.801 Y104.536 E.01304
G1 X106.806 Y104.943 E.01276
G1 X106.742 Y105.336 E.01248
G1 X106.608 Y105.705 E.01231
G1 X106.4 Y106.039 E.01234
G1 X106.127 Y106.322 E.01233
G1 X105.811 Y106.54 E.01204
G1 X105.456 Y106.686 E.01204
G1 X105.073 Y106.757 E.01221
G1 X104.615 Y106.747 E.01436
G1 X104.324 Y106.684 E.00934
G1 X104.058 Y106.584 E.00891
G1 X103.808 Y106.445 E.00897
G1 X103.576 Y106.268 E.00915
G1 X103.372 Y106.054 E.00927
G1 X103.203 Y105.812 E.00925
G1 X103.064 Y105.538 E.00963
G1 X102.926 Y105.087 E.01479
G1 X102.86 Y104.56 E.01665
G1 X102.851 Y103.966 E.01863
G1 X102.895 Y103.397 E.01789
G1 X103.001 Y102.887 E.01633
G1 X103.176 Y102.448 E.01482
G1 X103.345 Y102.172 E.01015
G1 X103.547 Y101.932 E.00984
G1 X103.784 Y101.73 E.00976
G1 X104.048 Y101.57 E.00968
G1 X104.338 Y101.453 E.0098
G1 X104.673 Y101.383 E.01073
G1 X105.101 Y101.371 E.01342
G1 X105.431 Y101.421 E.01047
G1 X105.74 Y101.526 E.01023
G1 X106.03 Y101.692 E.01048
G1 X106.275 Y101.916 E.01041
G1 X106.498 Y102.211 E.01159
G1 X106.718 Y102.923 E.02337
G1 X106.482 Y103.561 E.02133
G1 X106.482 Y103.561 F6000
G1 X105.436 Y103.3
;TYPE:External perimeter
G1 F1200
G1 X105.312 Y102.891 E.0134
G1 X105.283 Y102.854 E.00147
G1 X105.107 Y102.756 E.00632
G1 X104.936 Y102.739 E.00539
G1 X104.783 Y102.754 E.00482
G1 X104.661 Y102.794 E.00403
G1 X104.471 Y102.915 E.00706
