; generated by PrusaSlicer 2.7.3+win64 on 2024-04-04 at 19:59:33 UTC

; 

; external perimeters extrusion width = 0.42mm
; perimeters extrusion width = 0.44mm
; infill extrusion width = 0.44mm
; solid infill extrusion width = 0.44mm
; top infill extrusion width = 0.40mm
; first layer extrusion width = 0.42mm


; printing object Shape-Box id:0 copy 0
; stop printing object Shape-Box id:0 copy 0

;TYPE:Custom
; Ender 3 Custom Start G-code
G92 E0 ; Reset Extruder

M140 S55 ; set bed temp
M104 S160 ; set extruder temp
M109 S160 ; wait for extruder temp
M190 S55 ; wait for bed temp

G28 ; Home all axes
M104 S210 ; set extruder temp 
BED_MESH_CALIBRATE AREA_START=83.7684,88.5669 AREA_END=143.763,126.207

G1 Z2.0 F3000 ; Move Z Axis up little to prevent scratching of Heat Bed
M109 S210 ; wait for extruder temp
G1 X0.1 Y20 Z0.3 F5000.0 ; Move to start position

G1 X0.1 Y200.0 Z0.3 F1500.0 E15 ; Draw the first line
G1 X0.4 Y200.0 Z0.3 F5000.0 ; Move to side a little
G1 X0.4 Y20 Z0.3 F1500.0 E30 ; Draw the second line
G92 E0 ; Reset Extruder
G1 Z2.0 F3000 ; Move Z Axis up little to prevent scratching of Heat Bed
G1 X5 Y20 Z0.3 F5000.0 ; Move over to prevent blob squish
G21 ; set units to millimeters
G90 ; use absolute coordinates
M83 ; use relative distances for extrusion
; Filament gcode
M107
;LAYER_CHANGE
;Z:0.2
;HEIGHT:0.2
G1 E-1.6 F2400
G1 Z.2 F6000
G1 X87.855 Y91.702
G1 Z.2
G1 E1.6 F2400
M204 S500
;TYPE:Skirt/Brim
;WIDTH:0.42
G1 F1200
G1 X88.724 Y90.997 E.03368
G1 X89.655 Y90.383 E.03357
G1 X91.323 Y89.564 E.05593
G1 X93.098 Y89.026 E.05583
G1 X94.723 Y88.79 E.04943
G1 X132.884 Y88.805 E1.14865
G1 X133.843 Y88.938 E.02914
G1 X135.868 Y89.494 E.06321
G1 X137.699 Y90.365 E.06103
G1 X139.14 Y91.376 E.05298
G1 X140.596 Y92.789 E.06107
G1 X141.374 Y93.79 E.03816
G1 X141.892 Y94.615 E.02932
G1 X142.774 Y96.56 E.06428
G1 X143.252 Y98.4 E.05722
G1 X143.425 Y100.341 E.05866
G1 X143.575 Y114.341 E.42143
G1 X143.503 Y115.668 E.04
G1 X143.296 Y116.887 E.03722
G1 X142.676 Y118.864 E.06237
G1 X141.69 Y120.732 E.06358
G1 X140.466 Y122.296 E.05978
G1 X139.688 Y123.064 E.03291
G1 X138.814 Y123.771 E.03384
G1 X137.175 Y124.777 E.05789
G1 X136.082 Y125.256 E.03592
G1 X134.281 Y125.782 E.05648
G1 X132.524 Y126.003 E.0533
G1 X95.078 Y126.009 E1.12713
G1 X93.391 Y125.81 E.05113
G1 X92.2 Y125.516 E.03693
G1 X91.185 Y125.152 E.03246
G1 X89.855 Y124.507 E.04449
G1 X88.799 Y123.835 E.03768
G1 X87.85 Y123.075 E.0366
G1 X86.76 Y121.96 E.04693
G1 X86.154 Y121.19 E.02949
G1 X85.329 Y119.864 E.04701
G1 X84.772 Y118.664 E.03982
G1 X84.319 Y117.275 E.04398
G1 X84.013 Y115.506 E.05404
G1 X83.957 Y114.504 E.03021
G1 X83.987 Y99.576 E.44934
G1 X84.339 Y97.433 E.06537
G1 X84.956 Y95.674 E.05611
G1 X85.371 Y94.831 E.02828
G1 X86.243 Y93.466 E.04875
G1 X86.874 Y92.684 E.03025
G1 X87.813 Y91.745 E.03997
G1 X87.813 Y91.745 F6000
G1 X88.079 Y92.011
G1 F1200
G1 X88.108 Y91.983 E.00121
G1 X88.936 Y91.309 E.03214
G1 X89.85 Y90.706 E.03296
G1 X91.456 Y89.917 E.05386
G1 X93.131 Y89.404 E.05273
G1 X94.741 Y89.166 E.04899
G1 X131.691 Y89.133 E1.1122
G1 X133.766 Y89.308 E.06268
G1 X135.75 Y89.852 E.06192
G1 X137.508 Y90.69 E.05862
G1 X138.893 Y91.661 E.05091
G1 X140.305 Y93.029 E.05918
G1 X141.07 Y94.014 E.03754
G1 X141.564 Y94.801 E.02797
G1 X142.414 Y96.673 E.06188
G1 X142.882 Y98.472 E.05595
G1 X143.048 Y100.345 E.0566
G1 X143.198 Y114.345 E.42143
G1 X143.13 Y115.614 E.03825
G1 X142.925 Y116.823 E.03691
G1 X142.331 Y118.712 E.0596
G1 X141.37 Y120.533 E.06198
G1 X140.198 Y122.032 E.05727
G1 X139.594 Y122.643 E.02586
G1 X138.602 Y123.459 E.03866
G1 X136.981 Y124.453 E.05724
G1 X135.395 Y125.098 E.05154
G1 X134.202 Y125.414 E.03715
G1 X132.355 Y125.634 E.05599
G1 X95.105 Y125.633 E1.12123
G1 X93.45 Y125.437 E.05016
G1 X92.305 Y125.154 E.0355
G1 X91.336 Y124.807 E.03098
G1 X90.031 Y124.173 E.04367
G1 X89.033 Y123.538 E.03561
G1 X88.169 Y122.853 E.03319
G1 X87.039 Y121.707 E.04844
G1 X86.451 Y120.957 E.02869
G1 X85.658 Y119.678 E.0453
G1 X85.127 Y118.539 E.03783
G1 X84.684 Y117.181 E.043
G1 X84.387 Y115.46 E.05257
G1 X84.334 Y114.504 E.02882
G1 X84.363 Y99.602 E.44855
G1 X84.7 Y97.541 E.06286
G1 X85.307 Y95.811 E.05519
G1 X85.705 Y95.004 E.02708
G1 X86.552 Y93.682 E.04726
G1 X87.156 Y92.935 E.02892
G1 X88.037 Y92.053 E.03752
G1 X88.037 Y92.053 F6000
G1 X88.303 Y92.319
G1 F1200
G1 X88.36 Y92.263 E.00241
G1 X89.16 Y91.611 E.03106
G1 X90.736 Y90.655 E.05548
G1 X92.339 Y90.007 E.05204
G1 X93.938 Y89.635 E.04942
G1 X95.374 Y89.513 E.04338
G1 X131.691 Y89.51 E1.09315
G1 X133.69 Y89.677 E.06038
G1 X135.627 Y90.208 E.06046
G1 X137.316 Y91.015 E.05634
G1 X138.621 Y91.925 E.04789
G1 X140.014 Y93.269 E.05826
G1 X140.767 Y94.238 E.03694
G1 X141.236 Y94.987 E.0266
G1 X142.054 Y96.786 E.05949
G1 X142.512 Y98.544 E.05468
G1 X142.671 Y100.349 E.05454
G1 X142.821 Y114.349 E.42143
G1 X142.744 Y115.643 E.03902
G1 X142.521 Y116.916 E.0389
G1 X142.264 Y117.82 E.02829
G1 X141.409 Y119.751 E.06357
G1 X140.674 Y120.874 E.0404
G1 X140.017 Y121.673 E.03114
G1 X139.333 Y122.371 E.02942
G1 X138.39 Y123.148 E.03678
G1 X136.804 Y124.12 E.05599
G1 X135.27 Y124.742 E.04982
G1 X134.14 Y125.042 E.03519
G1 X132.346 Y125.257 E.05439
G1 X95.131 Y125.257 E1.12018
G1 X93.509 Y125.065 E.04916
G1 X92.411 Y124.792 E.03406
G1 X91.487 Y124.462 E.02953
G1 X90.207 Y123.84 E.04284
G1 X89.237 Y123.221 E.03464
G1 X88.306 Y122.47 E.036
G1 X87.318 Y121.453 E.04268
G1 X86.76 Y120.74 E.02725
G1 X85.986 Y119.492 E.0442
G1 X85.483 Y118.413 E.03583
G1 X85.049 Y117.086 E.04202
G1 X84.761 Y115.415 E.05104
G1 X84.739 Y99.628 E.47519
G1 X85.061 Y97.65 E.06032
G1 X85.658 Y95.949 E.05426
G1 X86.04 Y95.177 E.02593
G1 X86.861 Y93.898 E.04575
G1 X87.437 Y93.186 E.02757
G1 X88.261 Y92.362 E.03508
G1 E-1.12 F2400
;WIPE_START
G1 F4800
G1 X88.303 Y92.319 E-.02855
G1 X88.36 Y92.263 E-.03796
G1 X89.035 Y91.713 E-.41349
;WIPE_END
; printing object Shape-Box id:0 copy 0
G1 X109.391 Y107.707 F6000
G1 E1.6 F2400
;TYPE:Perimeter
G1 F1200
G1 X109.104 Y107.656 E.00877
G1 X109.207 Y107.135 E.01599
G1 X109.497 Y107.078 E.0089
G1 X109.504 Y107.185 E.00323
G1 X109.559 Y107.426 E.00744
G1 X109.74 Y107.769 E.01167
G1 X109.45 Y107.717 E.00887
G1 X109.45 Y107.717 F6000
G1 X108.372 Y106.66
G1 F1200
G1 X108.258 Y106.666 E.00344
G1 X108.189 Y106.637 E.00225
G1 X108.179 Y106.538 E.003
G1 X108.197 Y106.515 E.00088
G1 X108.28 Y106.499 E.00254
G1 X108.311 Y106.526 E.00124
G1 X108.347 Y106.605 E.00261
G1 E-1.12 F2400
;WIPE_START
G1 F4800
G1 X108.372 Y106.66 E-.0287
G1 X108.258 Y106.666 E-.05422
G1 X108.189 Y106.637 E-.03555
G1 X108.179 Y106.538 E-.04726
G1 X108.197 Y106.515 E-.01387
G1 X108.28 Y106.499 E-.04015
G1 X108.311 Y106.526 E-.01953
G1 X108.347 Y106.605 E-.04124
;WIPE_END
G1 E-.19948 F2400
G1 X100.522 Y108.114 F6000
G1 E1.6 F2400
G1 F1200
G1 X100.515 Y108.2 E.0026
G1 X100.464 Y108.211 E.00157
G1 X100.492 Y108.165 E.00162
G1 X100.492 Y108.165 F6000
G1 X99.461 Y106.597
G1 F1200
G1 X99.347 Y106.691 E.00445
G1 X99.164 Y106.877 E.00785
G1 X98.925 Y107.183 E.01169
G1 X98.803 Y107.391 E.00726
G1 X98.683 Y107.745 E.01125
G1 X98.628 Y108.15 E.0123
G1 X98.638 Y108.193 E.00133
G1 X98.144 Y108.157 E.01491
G1 X97.949 Y108.171 E.00588
G1 X98.17 Y107.798 E.01305
G1 X98.331 Y107.447 E.01162
G1 X98.463 Y107.088 E.01151
G1 X98.594 Y106.606 E.01503
G1 X98.594 Y106.642 E.00108
G1 X99.401 Y106.6 E.02432
G1 E-1.12 F2400
;WIPE_START
G1 F4800
G1 X99.461 Y106.597 E-.02854
G1 X99.347 Y106.691 E-.07018
G1 X99.164 Y106.877 E-.12394
G1 X98.925 Y107.183 E-.18443
G1 X98.847 Y107.316 E-.07291
;WIPE_END
G1 X128.38 Y107.548 F6000
G1 E1.6 F2400
G1 F1200
G1 X128.456 Y107.38 E.00555
G1 X128.496 Y107.386 E.00122
G1 X128.495 Y107.84 E.01367
G1 X128.402 Y107.604 E.00764
G1 E-1.12 F2400
;WIPE_START
G1 F4800
G1 X128.38 Y107.548 E-.02858
G1 X128.456 Y107.38 E-.08759
G1 X128.496 Y107.386 E-.01921
G1 X128.495 Y107.84 E-.21565
G1 X128.402 Y107.604 E-.12049
;WIPE_END
G1 E-.00848 F2400
G1 X120.633 Y106.913 F6000
G1 E1.6 F2400
G1 F1200
G1 X120.754 Y107.088 E.0064
G1 X120.902 Y107.448 E.01172
G1 X120.932 Y107.657 E.00636
G1 X121.297 Y106.921 E.02473
G1 X121.405 Y106.64 E.00906
G1 X121.556 Y106.127 E.0161
G1 X121.634 Y105.672 E.0139
G1 X121.715 Y104.796 E.02648
G1 X123.549 Y104.796 E.0552
G1 X123.491 Y105.792 E.03003
G1 X123.391 Y106.405 E.0187
G1 X123.206 Y107.088 E.0213
G1 X123.074 Y107.447 E.01151
G1 X122.913 Y107.798 E.01162
G1 X122.71 Y108.145 E.0121
G1 X124.028 Y108.069 E.03974
G1 X124.042 Y109.915 E.05557
G1 X121.864 Y109.912 E.06556
G1 X120.181 Y109.838 E.05071
G1 X120.211 Y109.599 E.00725
G1 X119.869 Y109.825 E.01234
G1 X119.495 Y109.943 E.0118
G1 X119.121 Y109.981 E.01132
G1 X118.835 Y109.962 E.00863
G1 X118.562 Y109.902 E.00841
G1 X118.299 Y109.802 E.00847
G1 X118.053 Y109.661 E.00853
G1 X117.816 Y109.472 E.00912
G1 X117.628 Y109.243 E.00892
G1 X117.518 Y109.066 E.00627
G1 X117.336 Y109.368 E.01061
G1 X117.122 Y109.592 E.00932
G1 X116.868 Y109.768 E.0093
G1 X116.587 Y109.891 E.00923
G1 X116.293 Y109.96 E.00909
G1 X115.981 Y109.982 E.00941
G1 X115.545 Y109.935 E.0132
G1 X115.131 Y109.78 E.01331
G1 X114.774 Y109.526 E.01319
G1 X114.5 Y109.196 E.01291
G1 X114.306 Y108.826 E.01258
G1 X114.171 Y108.414 E.01305
G1 X114.091 Y107.93 E.01477
G1 X114.066 Y107.35 E.01747
G1 X114.105 Y106.665 E.02065
G1 X114.195 Y106.199 E.01429
G1 X114.342 Y105.794 E.01297
G1 X114.486 Y105.536 E.00889
G1 X114.659 Y105.307 E.00864
G1 X114.869 Y105.104 E.00879
G1 X115.118 Y104.937 E.00902
G1 X115.402 Y104.816 E.00929
G1 X115.734 Y104.745 E.01022
G1 X116.187 Y104.737 E.01364
G1 X116.585 Y104.817 E.01222
G1 X116.951 Y104.988 E.01216
G1 X117.275 Y105.254 E.01262
G1 X117.545 Y105.672 E.01498
G1 X117.789 Y105.306 E.01324
G1 X118.03 Y105.093 E.00968
G1 X118.289 Y104.931 E.0092
G1 X118.576 Y104.815 E.00932
G1 X118.907 Y104.746 E.01018
G1 X119.321 Y104.734 E.01247
G1 X119.643 Y104.783 E.0098
G1 X119.946 Y104.886 E.00963
G1 X120.229 Y105.05 E.00985
G1 X120.468 Y105.267 E.00972
G1 X120.687 Y105.557 E.01094
G1 X120.904 Y106.261 E.02217
G1 X120.666 Y106.872 E.01974
G1 E-1.12 F2400
;WIPE_START
G1 F4800
G1 X120.633 Y106.913 E-.025
G1 X120.754 Y107.088 E-.10106
G1 X120.902 Y107.448 E-.18489
G1 X120.932 Y107.657 E-.10029
G1 X120.996 Y107.527 E-.06876
;WIPE_END
G1 X117.19 Y105.8 F6000
G1 E1.6 F2400
;TYPE:External perimeter
G1 F1200
G1 X117.276 Y106.001 E.00658
G1 X117.414 Y106.835 E.02544
G1 X117.438 Y107.353 E.01561
G1 X117.418 Y107.839 E.01464
G1 X117.382 Y108.126 E.00871
G1 X117.264 Y108.719 E.0182
G1 X117.162 Y108.939 E.0073
G1 X117.038 Y109.134 E.00696
G1 X116.876 Y109.304 E.00707
G1 X116.683 Y109.437 E.00706
G1 X116.468 Y109.531 E.00706
G1 X116.236 Y109.586 E.00718
G1 X115.988 Y109.603 E.00748
G1 X115.633 Y109.565 E.01075
G1 X115.309 Y109.444 E.01041
G1 X115.033 Y109.247 E.01021
G1 X114.815 Y108.985 E.01026
G1 X114.655 Y108.678 E.01042
G1 X114.538 Y108.324 E.01122
G1 X114.467 Y107.891 E.01321
G1 X114.444 Y107.353 E.01621
G1 X114.48 Y106.712 E.01932
G1 X114.56 Y106.299 E.01266
G1 X114.686 Y105.951 E.01114
G1 X114.802 Y105.742 E.00719
G1 X114.942 Y105.558 E.00696
G1 X115.107 Y105.399 E.0069
G1 X115.299 Y105.27 E.00696
G1 X115.516 Y105.177 E.00711
G1 X115.777 Y105.122 E.00803
G1 X116.153 Y105.114 E.01132
G1 X116.466 Y105.178 E.00962
G1 X116.749 Y105.31 E.0094
G1 X116.993 Y105.511 E.00952
G1 X117.156 Y105.75 E.00871
G1 E-1.12 F2400
;WIPE_START
G1 F4800
G1 X117.19 Y105.8 E-.02872
G1 X117.276 Y106.001 E-.10385
G1 X117.395 Y106.722 E-.34743
;WIPE_END
G1 X119.636 Y106.626 F6000
G1 E1.6 F2400
G1 F1200
G1 X119.49 Y106.18 E.01413
G1 X119.381 Y106.114 E.00384
G1 X119.24 Y106.072 E.00443
G1 X119.014 Y106.084 E.00681
G1 X118.897 Y106.128 E.00376
G1 X118.73 Y106.233 E.00594
G1 X118.616 Y106.438 E.00706
G1 X118.532 Y106.739 E.00941
G1 X118.856 Y106.599 E.01062
G1 X119.184 Y106.557 E.00995
G1 X119.578 Y106.614 E.01198
G1 X119.924 Y106.785 E.01162
G1 X120.322 Y107.127 E.0158
G1 X120.421 Y107.269 E.00521
G1 X120.535 Y107.548 E.00907
G1 X120.581 Y107.862 E.00955
G1 X120.558 Y108.198 E.01014
G1 X120.415 Y108.612 E.01318
G1 X120.178 Y109.101 E.01636
G1 X119.958 Y109.319 E.00932
G1 X119.707 Y109.481 E.00899
G1 X119.418 Y109.572 E.00912
G1 X119.114 Y109.603 E.0092
G1 X118.888 Y109.587 E.00682
G1 X118.67 Y109.54 E.00671
G1 X118.461 Y109.46 E.00674
G1 X118.266 Y109.348 E.00677
G1 X118.082 Y109.202 E.00707
G1 X117.935 Y109.023 E.00697
G1 X117.81 Y108.822 E.00712
G1 X117.734 Y108.591 E.00732
G1 X117.642 Y108.102 E.01498
G1 X117.603 Y107.634 E.01414
G1 X117.61 Y107.101 E.01604
G1 X117.642 Y106.773 E.00992
G1 X117.801 Y105.995 E.0239
G1 X117.924 Y105.763 E.0079
G1 X118.07 Y105.561 E.0075
G1 X118.257 Y105.396 E.00751
G1 X118.461 Y105.268 E.00725
G1 X118.686 Y105.177 E.00731
G1 X118.952 Y105.122 E.00818
G1 X119.298 Y105.112 E.01042
G1 X119.553 Y105.151 E.00776
G1 X119.79 Y105.231 E.00753
G1 X120.005 Y105.356 E.00749
G1 X120.188 Y105.523 E.00746
G1 X120.347 Y105.732 E.0079
G1 X120.505 Y106.246 E.01619
G1 X120.384 Y106.557 E.01004
G1 X119.696 Y106.621 E.0208
G1 E-1.12 F2400
;WIPE_START
G1 F4800
G1 X119.636 Y106.626 E-.0286
G1 X119.49 Y106.18 E-.22291
G1 X119.381 Y106.114 E-.06053
G1 X119.24 Y106.072 E-.06988
G1 X119.034 Y106.083 E-.09808
;WIPE_END
G1 X120.606 Y109.479 F6000
G1 E1.6 F2400
G1 F1200
G1 X120.693 Y108.787 E.02099
G1 X120.875 Y108.528 E.00953
G1 X121.342 Y107.698 E.02867
G1 X121.644 Y107.07 E.02098
G1 X121.763 Y106.761 E.00997
G1 X121.924 Y106.212 E.01722
G1 X122.008 Y105.721 E.01499
G1 X122.059 Y105.173 E.01657
G1 X123.149 Y105.173 E.03281
G1 X123.115 Y105.751 E.01743
G1 X123.022 Y106.325 E.0175
G1 X122.846 Y106.974 E.02024
G1 X122.725 Y107.303 E.01055
G1 X122.578 Y107.624 E.01063
G1 X122.393 Y107.94 E.01102
G1 X122.171 Y108.197 E.01022
G1 X121.925 Y108.567 E.01337
G1 X122.407 Y108.57 E.01451
G1 X122.866 Y108.504 E.01396
G1 X123.654 Y108.465 E.02375
G1 X123.662 Y109.538 E.0323
G1 X121.873 Y109.535 E.05385
G1 X120.666 Y109.482 E.03637
G1 E-1.12 F2400
;WIPE_START
G1 F4800
G1 X120.606 Y109.479 E-.02854
G1 X120.693 Y108.787 E-.33129
G1 X120.839 Y108.58 E-.12017
;WIPE_END
G1 X125.242 Y107.603 F6000
G1 E1.6 F2400
;TYPE:Perimeter
G1 F1200
G1 X124.994 Y107.149 E.01557
G1 X124.904 Y106.862 E.00905
G1 X124.882 Y106.568 E.00887
G1 X124.909 Y106.206 E.01093
G1 X125.016 Y105.852 E.01113
G1 X125.193 Y105.531 E.01103
G1 X125.434 Y105.25 E.01114
G1 X125.731 Y105.019 E.01133
G1 X126.071 Y104.853 E.01139
G1 X126.426 Y104.761 E.01104
G1 X126.655 Y104.736 E.00693
G1 X127.011 Y104.737 E.01072
G1 X127.386 Y104.8 E.01145
G1 X127.731 Y104.931 E.01111
G1 X127.946 Y105.059 E.00753
G1 X128.32 Y105.428 E.01581
G1 X128.456 Y105.659 E.00807
G1 X128.503 Y105.811 E.00479
G1 X128.477 Y104.796 E.03056
G1 X130.332 Y104.796 E.05584
G1 X130.332 Y105.707 E.02742
G1 X130.898 Y105.71 E.01704
G1 X132.024 Y105.775 E.03395
G1 X131.923 Y106.525 E.02278
G1 X132.13 Y106.501 E.00627
G1 X132.126 Y105.409 E.03287
G1 X133.942 Y105.409 E.05466
G1 X133.942 Y106.449 E.0313
G1 X134.975 Y106.449 E.03109
G1 X134.975 Y108.258 E.05445
G1 X133.942 Y108.258 E.03109
G1 X133.942 Y109.291 E.03109
G1 X132.127 Y109.291 E.05463
G1 X132.128 Y108.231 E.03191
G1 X131.204 Y108.103 E.02808
G1 X129.917 Y109.964 E.06811
G1 X128.491 Y109.964 E.04292
G1 X128.493 Y108.9 E.03203
G1 X128.471 Y108.975 E.00235
G1 X128.21 Y109.392 E.01481
G1 X127.829 Y109.716 E.01505
G1 X127.49 Y109.877 E.0113
G1 X127 Y109.977 E.01505
G1 X126.472 Y109.957 E.0159
G1 X125.975 Y109.803 E.01566
G1 X125.549 Y109.507 E.01561
G1 X125.232 Y109.106 E.01539
G1 X125.068 Y108.646 E.0147
G1 X125.036 Y108.288 E.01082
G1 X125.072 Y108.016 E.00826
G1 X125.219 Y107.658 E.01165
G1 X125.219 Y107.658 F6000
G1 X125.845 Y107.558
;TYPE:External perimeter
G1 F1200
G1 X125.735 Y107.467 E.0043
G1 X125.543 Y107.368 E.0065
G1 X125.343 Y107 E.01261
G1 X125.276 Y106.79 E.00663
G1 X125.26 Y106.568 E.0067
G1 X125.282 Y106.276 E.00881
G1 X125.366 Y105.999 E.00871
G1 X125.504 Y105.747 E.00865
G1 X125.696 Y105.524 E.00886
G1 X125.931 Y105.34 E.00898
G1 X126.202 Y105.209 E.00906
G1 X126.495 Y105.133 E.00911
G1 X126.676 Y105.113 E.00548
G1 X126.979 Y105.114 E.00912
G1 X127.287 Y105.166 E.0094
G1 X127.566 Y105.272 E.00898
G1 X127.714 Y105.36 E.00518
