; generated by PrusaSlicer 2.7.1+win64 on 2024-02-06 at 19:57:05 UTC


;
;

;
;
; 

; external perimeters extrusion width = 0.42mm
; perimeters extrusion width = 0.44mm
; infill extrusion width = 0.44mm
; solid infill extrusion width = 0.44mm
; top infill extrusion width = 0.40mm
; first layer extrusion width = 0.42mm


; printing object Shape-Box id:0 copy 0
; stop printing object Shape-Box id:0 copy 0

;TYPE:Custom
; Ender 3 Custom Start G-code
G92 E0 ; Reset Extruder

M140 S55 ; set bed temp
M104 S160 ; set extruder temp
M109 S160 ; wait for extruder temp
M190 S55 ; wait for bed temp

G28 ; Home all axes
M104 S210 ; set extruder temp 
BED_MESH_CALIBRATE AREA_START=83.7684,88.5669 AREA_END=143.763,126.207

G1 Z2.0 F3000 ; Move Z Axis up little to prevent scratching of Heat Bed
M109 S210 ; wait for extruder temp
G1 X0.1 Y20 Z0.3 F5000.0 ; Move to start position

G1 X0.1 Y200.0 Z0.3 F1500.0 E15 ; Draw the first line
G1 X0.4 Y200.0 Z0.3 F5000.0 ; Move to side a little
G1 X0.4 Y20 Z0.3 F1500.0 E30 ; Draw the second line
G92 E0 ; Reset Extruder
G1 Z2.0 F3000 ; Move Z Axis up little to prevent scratching of Heat Bed
G1 X5 Y20 Z0.3 F5000.0 ; Move over to prevent blob squish
G21 ; set units to millimeters
G90 ; use absolute coordinates
M83 ; use relative distances for extrusion
; Filament gcode
M107
;LAYER_CHANGE
;Z:0.2
;HEIGHT:0.2
;BEFORE_LAYER_CHANGE
G92 E0
;0.2


G1 E-1.6 F2400
G1 Z.2 F6000
;AFTER_LAYER_CHANGE
;0.2
G1 X87.857 Y91.701
G1 Z.2
G1 E1.6 F2400
M204 S500
;TYPE:Skirt/Brim
;WIDTH:0.42
G1 F1200
G1 X88.725 Y90.996 E.03296
G1 X89.656 Y90.382 E.03287
G1 X91.322 Y89.564 E.0547
G1 X93.099 Y89.026 E.05472
G1 X94.721 Y88.79 E.04831
G1 X132.884 Y88.805 E1.12478
G1 X133.843 Y88.938 E.02854
G1 X135.87 Y89.494 E.06195
G1 X137.7 Y90.365 E.05973
G1 X139.14 Y91.376 E.05186
G1 X140.583 Y92.775 E.05924
G1 X141.374 Y93.79 E.03793
G1 X141.835 Y94.519 E.02542
G1 X142.681 Y96.304 E.05822
G1 X143.24 Y98.341 E.06226
G1 X143.425 Y100.341 E.0592
G1 X143.575 Y114.341 E.41265
G1 X143.503 Y115.668 E.03917
G1 X143.296 Y116.888 E.03647
G1 X142.676 Y118.864 E.06104
G1 X141.69 Y120.733 E.06228
G1 X140.467 Y122.296 E.05849
G1 X139.688 Y123.064 E.03224
G1 X138.815 Y123.771 E.03311
G1 X137.173 Y124.778 E.05677
G1 X136.08 Y125.257 E.03517
G1 X134.281 Y125.783 E.05524
G1 X132.523 Y126.003 E.05222
G1 X95.078 Y126.009 E1.10362
G1 X93.39 Y125.81 E.0501
G1 X92.295 Y125.542 E.03323
G1 X91.185 Y125.153 E.03467
G1 X89.854 Y124.506 E.04362
G1 X88.8 Y123.835 E.03683
G1 X87.851 Y123.075 E.03583
G1 X86.76 Y121.96 E.04598
G1 X86.154 Y121.19 E.02888
G1 X85.328 Y119.862 E.04609
G1 X84.772 Y118.665 E.0389
G1 X84.319 Y117.276 E.04306
G1 X84.013 Y115.506 E.05294
G1 X83.957 Y114.505 E.02955
G1 X83.987 Y99.578 E.43994
G1 X84.339 Y97.433 E.06407
G1 X84.956 Y95.673 E.05497
G1 X85.359 Y94.854 E.0269
G1 X86.242 Y93.468 E.04844
G1 X86.875 Y92.684 E.0297
G1 X87.814 Y91.744 E.03916
G1 X88.08 Y92.01 F6000
G1 F1200
G1 X88.109 Y91.982 E.00119
G1 X88.937 Y91.308 E.03147
G1 X89.836 Y90.714 E.03176
G1 X91.455 Y89.917 E.05319
G1 X92.992 Y89.437 E.04746
G1 X94.74 Y89.166 E.05213
G1 X131.692 Y89.133 E1.08909
G1 X133.767 Y89.308 E.06137
G1 X135.748 Y89.851 E.06054
G1 X137.509 Y90.69 E.05749
G1 X138.893 Y91.661 E.04983
G1 X140.304 Y93.029 E.05792
G1 X141.07 Y94.013 E.03675
G1 X141.565 Y94.802 E.02745
G1 X142.414 Y96.673 E.06056
G1 X142.882 Y98.473 E.05482
G1 X143.048 Y100.345 E.05539
G1 X143.198 Y114.345 E.41265
G1 X143.13 Y115.614 E.03745
G1 X142.924 Y116.824 E.03618
G1 X142.331 Y118.712 E.05833
G1 X141.369 Y120.534 E.06073
G1 X140.198 Y122.031 E.05602
G1 X139.594 Y122.642 E.02532
G1 X138.603 Y123.459 E.03785
G1 X136.981 Y124.453 E.05607
G1 X135.395 Y125.098 E.05046
G1 X134.218 Y125.411 E.0359
G1 X132.355 Y125.634 E.0553
G1 X95.105 Y125.633 E1.09787
G1 X93.449 Y125.437 E.04915
G1 X92.304 Y125.154 E.03476
G1 X91.337 Y124.807 E.03028
G1 X90.03 Y124.173 E.04281
G1 X89.019 Y123.528 E.03534
G1 X88.102 Y122.794 E.03462
G1 X87.039 Y121.706 E.04483
G1 X86.452 Y120.958 E.02802
G1 X85.657 Y119.676 E.04446
G1 X85.128 Y118.539 E.03696
G1 X84.684 Y117.182 E.04208
G1 X84.387 Y115.46 E.0515
G1 X84.334 Y114.505 E.02819
G1 X84.363 Y99.603 E.43921
G1 X84.7 Y97.541 E.06158
G1 X85.307 Y95.811 E.05404
G1 X85.705 Y95.004 E.02652
G1 X86.553 Y93.681 E.04632
G1 X87.156 Y92.934 E.02829
G1 X88.038 Y92.052 E.03676
G1 X88.304 Y92.318 F6000
G1 F1200
G1 X88.361 Y92.262 E.00236
G1 X89.149 Y91.62 E.02996
G1 X90.029 Y91.037 E.03111
G1 X91.588 Y90.27 E.05121
G1 X93.208 Y89.774 E.04993
G1 X94.758 Y89.543 E.04619
G1 X131.692 Y89.51 E1.08856
G1 X133.69 Y89.677 E.05909
G1 X135.628 Y90.208 E.05922
G1 X137.318 Y91.015 E.0552
G1 X138.647 Y91.947 E.04784
G1 X140.013 Y93.269 E.05603
G1 X140.766 Y94.236 E.03612
G1 X141.237 Y94.988 E.02615
G1 X142.054 Y96.785 E.05818
G1 X142.512 Y98.545 E.0536
G1 X142.671 Y100.349 E.05338
G1 X142.821 Y114.349 E.41265
G1 X142.744 Y115.641 E.03815
G1 X142.521 Y116.917 E.03818
G1 X142.276 Y117.78 E.02644
G1 X141.409 Y119.75 E.06344
G1 X140.675 Y120.874 E.03957
G1 X140.018 Y121.672 E.03047
G1 X139.333 Y122.37 E.02882
G1 X138.39 Y123.147 E.03601
G1 X136.804 Y124.12 E.05484
G1 X135.27 Y124.742 E.04879
G1 X134.141 Y125.042 E.03443
G1 X132.345 Y125.257 E.05331
G1 X95.131 Y125.257 E1.09681
G1 X93.508 Y125.065 E.04817
G1 X92.409 Y124.792 E.03338
G1 X91.488 Y124.462 E.02883
G1 X90.206 Y123.839 E.04201
G1 X89.238 Y123.221 E.03385
G1 X88.306 Y122.47 E.03528
G1 X87.318 Y121.453 E.04179
G1 X86.76 Y120.741 E.02666
G1 X85.985 Y119.491 E.04335
G1 X85.483 Y118.413 E.03505
G1 X85.05 Y117.087 E.04111
G1 X84.761 Y115.415 E.05001
G1 X84.739 Y99.629 E.46526
G1 X85.061 Y97.651 E.05907
G1 X85.658 Y95.948 E.05319
G1 X86.04 Y95.178 E.02533
G1 X86.862 Y93.897 E.04486
G1 X87.438 Y93.185 E.02699
G1 X88.262 Y92.361 E.03435
; printing object Shape-Box id:0 copy 0
G1 E-1.12 F2400
;WIPE_START
G1 F4800
G1 X88.304 Y92.318 E-.02855
G1 X88.361 Y92.262 E-.03796
G1 X89.036 Y91.712 E-.41349
;WIPE_END
G1 X115.534 Y107.785 F6000
G1 E1.6 F2400
;TYPE:Perimeter
G1 F1200
G1 X115.603 Y107.754 E.00223
G1 X115.607 Y107.852 E.00289
G1 X115.578 Y107.826 E.00115
G1 E-1.12 F2400
;WIPE_START
G1 F4800
G1 X115.534 Y107.785 E-.02857
G1 X115.603 Y107.754 E-.03593
G1 X115.607 Y107.852 E-.04659
G1 X115.578 Y107.826 E-.0185
;WIPE_END
G1 E-.35041 F2400
G1 X111.842 Y107.809 F6000
G1 E1.6 F2400
G1 F1200
G1 X111.737 Y107.891 E.00393
G1 X111.691 Y108.006 E.00365
G1 X109.78 Y107.809 E.05662
G1 X109.745 Y108.62 E.02392
G1 X109.726 Y108.736 E.00346
G1 X109.684 Y108.829 E.00301
G1 X109.577 Y108.913 E.00401
G1 X109.398 Y108.941 E.00534
G1 X109.238 Y108.916 E.00477
G1 X109.127 Y108.832 E.0041
G1 X109.092 Y108.7 E.00402
G1 X109.12 Y108.578 E.00369
G1 X109.258 Y108.336 E.00821
G1 X109.398 Y108.168 E.00645
G1 X109.769 Y107.802 E.01536
G1 X110.835 Y106.879 E.04156
G1 X111.274 Y106.417 E.01878
G1 X111.273 Y106.534 E.00345
G1 X111.326 Y106.866 E.00991
G1 X111.434 Y107.217 E.01082
G1 X111.808 Y107.759 E.01941
G1 E-1.12 F2400
;WIPE_START
G1 F4800
G1 X111.842 Y107.809 E-.02872
G1 X111.737 Y107.891 E-.06328
G1 X111.691 Y108.006 E-.05883
G1 X111.002 Y107.935 E-.32917
;WIPE_END
G1 X100.479 Y106.725 F6000
G1 E1.6 F2400
G1 F1200
G1 X100.475 Y106.833 E.00319
G1 X100.372 Y106.716 E.00459
G1 X100.428 Y106.716 E.00165
G1 X98.866 Y106.029 F6000
G1 F1200
G1 X98.537 Y106.028 E.0097
G1 X98.671 Y105.984 E.00416
G1 X98.813 Y106.001 E.00422
G1 E-1.12 F2400
;WIPE_START
G1 F4800
G1 X98.866 Y106.029 E-.02847
G1 X98.537 Y106.028 E-.15628
G1 X98.671 Y105.984 E-.06699
G1 X98.813 Y106.001 E-.06793
;WIPE_END
G1 E-.16033 F2400
G1 X126.416 Y108.003 F6000
G1 E1.6 F2400
G1 F1200
G1 X124.95 Y107.794 E.04364
G1 X124.846 Y108.75 E.02834
G1 X124.809 Y108.829 E.00257
G1 X124.702 Y108.913 E.00401
G1 X124.523 Y108.941 E.00534
G1 X124.363 Y108.916 E.00477
G1 X124.252 Y108.832 E.0041
G1 X124.217 Y108.7 E.00402
G1 X124.245 Y108.578 E.00369
G1 X124.383 Y108.336 E.00821
G1 X124.523 Y108.168 E.00645
G1 X124.894 Y107.802 E.01536
G1 X125.96 Y106.879 E.04156
G1 X126.369 Y106.456 E.01734
G1 X126.518 Y106.265 E.00714
G1 X126.491 Y106.371 E.00322
G1 X126.409 Y107.077 E.02095
G1 X126.396 Y107.614 E.01583
G1 X126.413 Y107.943 E.00971
G1 E-1.12 F2400
;WIPE_START
G1 F4800
G1 X126.416 Y108.003 E-.02854
G1 X125.475 Y107.869 E-.45146
;WIPE_END
G1 X129.116 Y106.029 F6000
G1 E1.6 F2400
G1 F1200
G1 X128.788 Y106.028 E.00967
G1 X128.922 Y105.984 E.00416
G1 X129.063 Y106.001 E.00419
G1 E-1.12 F2400
;WIPE_START
G1 F4800
G1 X129.116 Y106.029 E-.02847
G1 X128.788 Y106.028 E-.1558
G1 X128.922 Y105.984 E-.06699
G1 X129.063 Y106.001 E-.06746
;WIPE_END
G1 E-.16128 F2400
G1 X119.912 Y105.114 F6000
G1 E1.6 F2400
G1 F1200
G1 X119.924 Y105.131 E.00061
G1 X120.067 Y105.406 E.00914
G1 X120.187 Y105.712 E.00969
G1 X120.34 Y106.343 E.01914
G1 X120.414 Y107.068 E.02148
G1 X120.41 Y107.947 E.02591
G1 X120.339 Y108.61 E.01965
G1 X120.197 Y109.192 E.01766
G1 X119.974 Y109.703 E.01643
G1 X119.663 Y110.146 E.01595
G1 X119.254 Y110.507 E.01608
G1 X118.753 Y110.748 E.01639
G1 X118.207 Y110.851 E.01638
G1 X117.737 Y110.843 E.01385
G1 X117.452 Y110.795 E.00852
G1 X117.168 Y110.71 E.00874
G1 X116.722 Y110.473 E.01489
G1 X116.498 Y110.29 E.00853
G1 X116.301 Y110.081 E.00846
G1 X116.021 Y109.652 E.0151
G1 X115.864 Y109.277 E.01198
G1 X115.77 Y109.589 E.0096
G1 X115.665 Y109.803 E.00703
G1 X115.436 Y110.126 E.01167
G1 X115.14 Y110.404 E.01197
G1 X114.939 Y110.542 E.00719
G1 X114.579 Y110.713 E.01175
G1 X114.347 Y110.783 E.00714
G1 X113.934 Y110.849 E.01233
G1 X113.501 Y110.848 E.01276
G1 X113.258 Y110.82 E.00721
G1 X112.864 Y110.719 E.01199
G1 X112.448 Y110.518 E.01362
G1 X112.122 Y110.265 E.01216
G1 X111.858 Y109.962 E.01184
G1 X111.73 Y109.762 E.007
G1 X111.605 Y109.472 E.00931
G1 X111.456 Y109.792 E.0104
G1 X111.201 Y110.138 E.01267
G1 X110.88 Y110.42 E.01259
G1 X110.669 Y110.554 E.00737
G1 X110.278 Y110.724 E.01257
G1 X109.843 Y110.825 E.01316
G1 X109.393 Y110.856 E.01329
G1 X109.135 Y110.847 E.00761
G1 X108.689 Y110.778 E.0133
G1 X108.26 Y110.627 E.0134
G1 X107.874 Y110.394 E.01329
G1 X107.551 Y110.088 E.01311
G1 X107.311 Y109.748 E.01227
G1 X107.203 Y109.527 E.00725
G1 X107.083 Y109.13 E.01222
G1 X107.044 Y108.709 E.01246
G1 X107.093 Y108.228 E.01425
G1 X107.228 Y107.801 E.0132
G1 X107.463 Y107.372 E.01442
G1 X107.872 Y106.869 E.01911
G1 X108.376 Y106.386 E.02057
G1 X108.682 Y106.146 E.01146
G1 X107.038 Y106.168 E.04846
G1 X107.038 Y104.162 E.05912
G1 X111.947 Y104.162 E.14468
G1 X111.914 Y104.782 E.0183
G1 X112.138 Y104.568 E.00913
G1 X112.537 Y104.319 E.01386
G1 X112.984 Y104.156 E.01402
G1 X113.492 Y104.078 E.01515
G1 X113.949 Y104.079 E.01347
G1 X114.421 Y104.157 E.0141
G1 X114.866 Y104.319 E.01396
G1 X115.266 Y104.569 E.0139
G1 X115.606 Y104.896 E.0139
G1 X115.869 Y105.282 E.01377
G1 X115.935 Y105.457 E.00551
G1 X116.231 Y104.934 E.01771
G1 X116.477 Y104.655 E.01096
G1 X116.772 Y104.415 E.01121
G1 X117.25 Y104.184 E.01565
G1 X117.621 Y104.099 E.01122
G1 X117.861 Y104.076 E.00711
G1 X118.251 Y104.081 E.0115
G1 X118.524 Y104.121 E.00813
G1 X118.98 Y104.268 E.01412
G1 X119.401 Y104.525 E.01454
G1 X119.744 Y104.87 E.01434
G1 X119.878 Y105.065 E.00697
G1 E-1.12 F2400
;WIPE_START
G1 F4800
G1 X119.912 Y105.114 E-.02833
G1 X119.924 Y105.131 E-.00988
G1 X120.067 Y105.406 E-.14723
G1 X120.187 Y105.712 E-.15613
G1 X120.256 Y105.995 E-.13843
;WIPE_END
G1 X114.98 Y107.705 F6000
G1 E1.6 F2400
;TYPE:External perimeter
G1 F1200
G1 X114.93 Y107.744 E.00187
G1 X115.363 Y108.14 E.01729
G1 X115.512 Y108.558 E.01308
G1 X115.539 Y108.798 E.00712
G1 X115.512 Y109.138 E.01005
G1 X115.417 Y109.451 E.00964
G1 X115.339 Y109.609 E.00519
G1 X115.15 Y109.877 E.00967
G1 X114.903 Y110.11 E.01001
G1 X114.75 Y110.214 E.00545
G1 X114.443 Y110.36 E.01002
G1 X114.263 Y110.415 E.00555
G1 X113.904 Y110.472 E.01071
G1 X113.523 Y110.471 E.01123
G1 X113.328 Y110.448 E.00579
G1 X112.985 Y110.36 E.01044
G1 X112.816 Y110.289 E.0054
G1 X112.656 Y110.202 E.00537
G1 X112.382 Y109.989 E.01023
G1 X112.16 Y109.736 E.00992
G1 X112.065 Y109.585 E.00526
G1 X111.935 Y109.284 E.00966
G1 X111.874 Y108.958 E.00977
G1 X111.868 Y108.774 E.00543
G1 X111.896 Y108.548 E.00671
G1 X111.96 Y108.348 E.00619
G1 X112.05 Y108.125 E.00709
G1 X112.221 Y107.989 E.00644
G1 X112.328 Y107.864 E.00485
G1 X112.484 Y107.732 E.00602
G1 X112.253 Y107.563 E.00844
G1 X112.099 Y107.517 E.00474
G1 X111.777 Y107.051 E.01669
G1 X111.694 Y106.78 E.00835
G1 X111.65 Y106.506 E.00818
G1 X111.654 Y106.166 E.01002
G1 X111.726 Y105.794 E.01117
G1 X111.871 Y105.448 E.01106
G1 X112.088 Y105.138 E.01115
G1 X112.37 Y104.867 E.01153
G1 X112.703 Y104.66 E.01156
G1 X113.078 Y104.523 E.01177
G1 X113.52 Y104.455 E.01318
G1 X113.918 Y104.456 E.01173
G1 X114.325 Y104.523 E.01216
G1 X114.699 Y104.66 E.01174
G1 X115.032 Y104.868 E.01157
G1 X115.316 Y105.141 E.01161
G1 X115.532 Y105.458 E.01131
G1 X115.668 Y105.815 E.01126
G1 X115.722 Y106.198 E.0114
G1 X115.686 Y106.66 E.01366
G1 X115.642 Y106.94 E.00835
G1 X115.383 Y107.439 E.01657
G1 X115.23 Y107.508 E.00495
G1 X115.027 Y107.668 E.00762
G1 E-1.12 F2400
;WIPE_START
G1 F4800
G1 X114.98 Y107.705 E-.02841
G1 X114.93 Y107.744 E-.03012
G1 X115.363 Y108.14 E-.27872
G1 X115.464 Y108.423 E-.14275
;WIPE_END
G1 X116.755 Y110.013 F6000
G1 E1.6 F2400
G1 F1200
G1 X116.598 Y109.847 E.00673
G1 X116.355 Y109.475 E.0131
G1 X116.171 Y109.033 E.01411
G1 X116.042 Y108.513 E.01579
G1 X115.989 Y108.028 E.01438
G1 X115.978 Y107.655 E.011
G1 X115.995 Y107.216 E.01295
G1 X116.11 Y106.214 E.02973
G1 X116.186 Y105.868 E.01044
G1 X116.302 Y105.553 E.00989
G1 X116.537 Y105.157 E.01357
G1 X116.739 Y104.928 E.009
G1 X116.976 Y104.735 E.00901
G1 X117.376 Y104.542 E.01309
G1 X117.682 Y104.472 E.00925
G1 X117.876 Y104.453 E.00575
G1 X118.221 Y104.458 E.01017
G1 X118.438 Y104.49 E.00646
G1 X118.822 Y104.613 E.01188
G1 X119.166 Y104.823 E.01188
G1 X119.453 Y105.112 E.012
G1 X119.6 Y105.326 E.00765
G1 X119.723 Y105.562 E.00784
G1 X119.826 Y105.825 E.00832
G1 X119.968 Y106.407 E.01766
G1 X120.037 Y107.087 E.02014
G1 X120.033 Y107.926 E.02473
G1 X119.967 Y108.545 E.01835
G1 X119.839 Y109.071 E.01596
G1 X119.643 Y109.518 E.01439
G1 X119.38 Y109.893 E.0135
G1 X119.043 Y110.19 E.01324
G1 X118.635 Y110.387 E.01335
G1 X118.175 Y110.473 E.01379
G1 X117.771 Y110.466 E.01191
G1 X117.538 Y110.427 E.00696
G1 X117.312 Y110.359 E.00696
G1 X116.932 Y110.157 E.01268
G1 X116.802 Y110.051 E.00494
G1 E-1.12 F2400
;WIPE_START
G1 F4800
G1 X116.755 Y110.013 E-.02871
G1 X116.598 Y109.847 E-.10853
G1 X116.355 Y109.475 E-.21106
G1 X116.248 Y109.219 E-.1317
;WIPE_END
G1 X111.457 Y108.361 F6000
G1 E1.6 F2400
G1 F1200
G1 X111.347 Y109.063 E.02094
G1 X111.225 Y109.419 E.01109
G1 X111.135 Y109.593 E.00577
G1 X110.922 Y109.882 E.01058
G1 X110.654 Y110.117 E.01051
G1 X110.491 Y110.22 E.00568
G1 X110.159 Y110.365 E.01068
G1 X109.787 Y110.451 E.01125
G1 X109.387 Y110.478 E.01182
G1 X109.171 Y110.471 E.00637
G1 X108.781 Y110.41 E.01163
G1 X108.422 Y110.284 E.01121
G1 X108.104 Y110.092 E.01095
G1 X107.837 Y109.84 E.01082
G1 X107.637 Y109.556 E.01024
G1 X107.555 Y109.388 E.00551
G1 X107.455 Y109.057 E.01019
G1 X107.422 Y108.701 E.01054
G1 X107.432 Y108.507 E.00573
G1 X107.462 Y108.314 E.00576
G1 X107.576 Y107.95 E.01124
G1 X107.778 Y107.584 E.01232
G1 X108.15 Y107.126 E.01739
G1 X108.624 Y106.671 E.01936
G1 X109.129 Y106.273 E.01895
G1 X109.302 Y106.155 E.00617
G1 X109.448 Y106.089 E.00472
G1 X109.883 Y105.684 E.01752
G1 X109.471 Y105.684 E.01214
G1 X109.045 Y105.741 E.01267
G1 X108.6 Y105.774 E.01315
G1 X107.415 Y105.787 E.03493
G1 X107.415 Y104.539 E.03678
G1 X111.549 Y104.539 E.12184
G1 X111.518 Y105.13 E.01744
G1 X111.443 Y105.406 E.00843
G1 X111.351 Y105.619 E.00684
G1 X111.115 Y106.009 E.01344
G1 X110.959 Y106.208 E.00745
G1 X110.576 Y106.605 E.01626
G1 X109.512 Y107.525 E.04146
G1 X109.12 Y107.913 E.01626
G1 X108.954 Y108.112 E.00764
G1 X108.842 Y108.284 E.00605
G1 X108.767 Y108.443 E.00518
G1 X108.725 Y108.585 E.00436
G1 X108.712 Y108.708 E.00365
G1 X108.739 Y108.898 E.00566
G1 X108.781 Y108.995 E.00312
G1 X108.846 Y109.087 E.00332
G1 X108.998 Y109.218 E.00591
G1 X109.105 Y109.271 E.00352
G1 X109.238 Y109.306 E.00405
