; G-Code originally generated by Simplify3D(R) Version 4.1.2
; This calibration test gcode modified by the Teaching Tech Calibration website: https://teachingtechyt.github.io/calibration.html
;M80 ; power supply on
G90
M82
M106 S0
M140 S50 ; custom bed temp
M190 S50 ; custom bed temp
M104 S155 T0 ; custom hot end temp minus 50 degrees
G28 ; home all axes
G29 ; probe ABL
;M420 S1 ; restore ABL mesh
M109 S205 T0 ; custom hot end temp 
; custom start gcode
; Ender 3 Custom Start G-code
G92 E0 ; Reset Extruder

G28 ; Home all axes
BED_MESH_CALIBRATE

G1 Z2.0 F3000 ; Move Z Axis up little to prevent scratching of Heat Bed
G1 X0.1 Y20 Z0.3 F5000.0 ; Move to start position

G1 X0.1 Y200.0 Z0.3 F1500.0 E15 ; Draw the first line
G1 X0.4 Y200.0 Z0.3 F5000.0 ; Move to side a little
G1 X0.4 Y20 Z0.3 F1500.0 E30 ; Draw the second line
G92 E0 ; Reset Extruder
G1 Z2.0 F3000 ; Move Z Axis up little to prevent scratching of Heat Bed
G1 X5 Y20 Z0.3 F5000.0 ; Move over to prevent blob squish
G0 Z3; fix for delta printers that home at max
;process Process
;layer 1, Z = 0.120
T0
G92 E0.0000
G1 E-1 F2400 ; custom retraction
;fan1;
G1 Z0.120 F1200
G1 X105.1360 Y106.8140 F8000 ; custom feedrate
G1 E0 F2400 ; custom un-retraction/prime
G92 E0.0000
G1 X106.8140 Y105.1360 E0.0614 F2400 ; custom feedrate
G1 X129.1860 Y105.1360 E0.6400
G1 X130.8640 Y106.8140 E0.7014
G1 X130.8640 Y129.1860 E1.2800
G1 X129.1860 Y130.8640 E1.3413
G1 X106.8140 Y130.8640 E1.9200
G1 X105.1360 Y129.1860 E1.9813
G1 X105.1360 Y106.8140 E2.5600
G92 E0.0000
G1 E-1 F2400 ; custom retraction
;zhop1
G1 X105.7120 Y107.0520 F8000 ; custom feedrate
G1 Z0.120 F1200
G1 E0 F2400 ; custom un-retraction/prime
G92 E0.0000
G1 X107.0520 Y105.7120 E0.0490 F2400 ; custom feedrate
G1 X128.9480 Y105.7120 E0.6153
G1 X130.2880 Y107.0520 E0.6643
G1 X130.2880 Y128.9480 E1.2306
G1 X128.9480 Y130.2880 E1.2796
G1 X107.0520 Y130.2880 E1.8459
G1 X105.7120 Y128.9480 E1.8949
G1 X105.7120 Y107.0520 E2.4612
G92 E0.0000
G1 E-1 F2400 ; custom retraction
;zhop1
G1 X108.2880 Y108.2880 F8000 ; custom feedrate
G1 X108.2880 Y108.7020
G1 X109.4400 Y109.4400
G1 Z0.120 F1200
G1 E0 F2400 ; custom un-retraction/prime
G92 E0.0000
G1 X126.5600 Y109.4400 E0.4428 F1920 ; custom feedrate
G1 X126.5600 Y126.5600 E0.8856
G1 X109.4400 Y126.5600 E1.3283
G1 X109.4400 Y109.4400 E1.7711
G1 X108.8640 Y108.8640 F8000 ; custom feedrate
G92 E0.0000
G1 X127.1360 Y108.8640 E0.4726 F1920 ; custom feedrate
G1 X127.1360 Y127.1360 E0.9451
G1 X108.8640 Y127.1360 E1.4177
G1 X108.8640 Y108.8640 E1.8903
G1 X108.2880 Y108.2880 F8000 ; custom feedrate
G92 E0.0000
G1 X127.7120 Y108.2880 E0.5024 F1440 ; custom feedrate
G1 X127.7120 Y127.7120 E1.0047
G1 X108.2880 Y127.7120 E1.5071
G1 X108.2880 Y108.2880 E2.0095
G1 X126.0770 Y109.7860 F8000 ; custom feedrate
G92 E0.0000
G1 X126.2140 Y109.9230 E0.0050 F1920 ; custom feedrate
G1 X126.2140 Y110.7370 E0.0261
G1 X125.2630 Y109.7860 E0.0609
G1 X124.4480 Y109.7860 E0.0820
G1 X126.2140 Y111.5520 E0.1466
G1 X126.2140 Y112.3660 E0.1676
G1 X123.6340 Y109.7860 E0.2620
G1 X122.8190 Y109.7860 E0.2831
G1 X126.2140 Y113.1810 E0.4073
G1 X126.2140 Y113.9960 E0.4283
G1 X122.0040 Y109.7860 E0.5823
G1 X121.1900 Y109.7860 E0.6034
G1 X126.2140 Y114.8100 E0.7872
G1 X126.2140 Y115.6250 E0.8082
G1 X120.3750 Y109.7860 E1.0218
G1 X119.5610 Y109.7860 E1.0429
G1 X126.2140 Y116.4390 E1.2862
G1 X126.2140 Y117.2540 E1.3073
G1 X118.7460 Y109.7860 E1.5805
G1 X117.9310 Y109.7860 E1.6015
G1 X126.2140 Y118.0690 E1.9045
G1 X126.2140 Y118.8830 E1.9256
G1 X117.1170 Y109.7860 E2.2583
G1 X116.3020 Y109.7860 E2.2794
G1 X126.2140 Y119.6980 E2.6419
G1 X126.2140 Y120.5120 E2.6630
G1 X115.4880 Y109.7860 E3.0553
G1 X114.6730 Y109.7860 E3.0764
G1 X126.2140 Y121.3270 E3.4985
G1 X126.2140 Y122.1410 E3.5196
G1 X113.8590 Y109.7860 E3.9715
G1 X113.0440 Y109.7860 E3.9926
G1 X126.2140 Y122.9560 E4.4743
G1 X126.2140 Y123.7710 E4.4954
G1 X112.2290 Y109.7860 E5.0069
G1 X111.4150 Y109.7860 E5.0280
G1 X126.2140 Y124.5850 E5.5693
G1 X126.2140 Y125.4000 E5.5903
G1 X110.6000 Y109.7860 E6.1615
G1 X109.7860 Y109.7860 E6.1825
G1 X126.2140 Y126.2140 E6.7834
G1 X125.4000 Y126.2140 E6.8045
G1 X109.7860 Y110.6000 E7.3756
G1 X109.7860 Y111.4150 E7.3967
G1 X124.5850 Y126.2140 E7.9380
G1 X123.7710 Y126.2140 E7.9590
G1 X109.7860 Y112.2290 E8.4706
G1 X109.7860 Y113.0440 E8.4916
G1 X122.9560 Y126.2140 E8.9733
G1 X122.1410 Y126.2140 E8.9944
G1 X109.7860 Y113.8590 E9.4463
G1 X109.7860 Y114.6730 E9.4674
G1 X121.3270 Y126.2140 E9.8895
G1 X120.5120 Y126.2140 E9.9106
G1 X109.7860 Y115.4880 E10.3029
G1 X109.7860 Y116.3020 E10.3240
G1 X119.6980 Y126.2140 E10.6866
G1 X118.8830 Y126.2140 E10.7076
G1 X109.7860 Y117.1170 E11.0404
G1 X109.7860 Y117.9310 E11.0614
G1 X118.0690 Y126.2140 E11.3644
G1 X117.2540 Y126.2140 E11.3855
G1 X109.7860 Y118.7460 E11.6586
G1 X109.7860 Y119.5610 E11.6797
G1 X116.4390 Y126.2140 E11.9231
G1 X115.6250 Y126.2140 E11.9441
G1 X109.7860 Y120.3750 E12.1577
G1 X109.7860 Y121.1900 E12.1788
G1 X114.8100 Y126.2140 E12.3626
G1 X113.9960 Y126.2140 E12.3836
G1 X109.7860 Y122.0040 E12.5376
G1 X109.7860 Y122.8190 E12.5587
G1 X113.1810 Y126.2140 E12.6829
G1 X112.3660 Y126.2140 E12.7039
G1 X109.7860 Y123.6340 E12.7983
G1 X109.7860 Y124.4480 E12.8194
G1 X111.5520 Y126.2140 E12.8840
G1 X110.7370 Y126.2140 E12.9051
G1 X109.7860 Y125.2630 E12.9399
G1 X109.7860 Y126.0770 E12.9609
G1 X109.9230 Y126.2140 E12.9660
G92 E0.0000
G1 E-1 F2400 ; custom retraction
;layer 2, Z = 0.240
M106 S255; custom fan 100% from layer 2
G1 Z0.240 F1200
G1 X109.2000 Y126.8000 F8000 ; custom feedrate
G1 E0 F2400 ; custom un-retraction/prime
G92 E0.0000
G1 X109.2000 Y109.2000 E0.3793 F3840 ; custom feedrate
G1 X126.8000 Y109.2000 E0.7587
G1 X126.8000 Y126.8000 E1.1380
G1 X109.2000 Y126.8000 E1.5173
G1 X108.7200 Y127.2800 F8000 ; custom feedrate
G92 E0.0000
G1 X108.7200 Y108.7200 E0.4000 F3840 ; custom feedrate
G1 X127.2800 Y108.7200 E0.8000
G1 X127.2800 Y127.2800 E1.2000
G1 X108.7200 Y127.2800 E1.6001
G1 X108.2400 Y127.7600 F8000 ; custom feedrate
G92 E0.0000
G1 X108.2400 Y108.2400 E0.4207 F2880 ; custom feedrate
G1 X127.7600 Y108.2400 E0.8414
G1 X127.7600 Y127.7600 E1.2621
G1 X108.2400 Y127.7600 E1.6828
G1 X109.4880 Y109.5410 F8000 ; custom feedrate
G92 E0.0000
G1 X109.5410 Y109.4880 E0.0016 F3840 ; custom feedrate
G1 X110.2200 Y109.4880 E0.0163
G1 X109.4880 Y110.2200 E0.0386
G1 X109.4880 Y110.8990 E0.0532
G1 X110.8990 Y109.4880 E0.0962
G1 X111.5780 Y109.4880 E0.1109
G1 X109.4880 Y111.5780 E0.1746
G1 X109.4880 Y112.2570 E0.1892
G1 X112.2570 Y109.4880 E0.2736
G1 X112.9360 Y109.4880 E0.2882
G1 X109.4880 Y112.9360 E0.3933
G1 X109.4880 Y113.6140 E0.4079
G1 X113.6140 Y109.4880 E0.5337
G1 X114.2930 Y109.4880 E0.5483
G1 X109.4880 Y114.2930 E0.6948
G1 X109.4880 Y114.9720 E0.7094
G1 X114.9720 Y109.4880 E0.8766
G1 X115.6510 Y109.4880 E0.8912
G1 X109.4880 Y115.6510 E1.0790
G1 X109.4880 Y116.3300 E1.0937
G1 X116.3300 Y109.4880 E1.3022
G1 X117.0090 Y109.4880 E1.3168
G1 X109.4880 Y117.0090 E1.5461
G1 X109.4880 Y117.6870 E1.5607
G1 X117.6870 Y109.4880 E1.8106
G1 X118.3660 Y109.4880 E1.8252
G1 X109.4880 Y118.3660 E2.0958
G1 X109.4880 Y119.0450 E2.1105
G1 X119.0450 Y109.4880 E2.4018
G1 X119.7240 Y109.4880 E2.4164
G1 X109.4880 Y119.7240 E2.7284
G1 X109.4880 Y120.4030 E2.7430
G1 X120.4030 Y109.4880 E3.0757
G1 X121.0810 Y109.4880 E3.0903
G1 X109.4880 Y121.0810 E3.4437
G1 X109.4880 Y121.7600 E3.4583
G1 X121.7600 Y109.4880 E3.8324
G1 X122.4390 Y109.4880 E3.8470
G1 X109.4880 Y122.4390 E4.2418
G1 X109.4880 Y123.1180 E4.2564
G1 X123.1180 Y109.4880 E4.6718
G1 X123.7970 Y109.4880 E4.6865
G1 X109.4880 Y123.7970 E5.1226
G1 X109.4880 Y124.4760 E5.1372
G1 X124.4760 Y109.4880 E5.5940
G1 X125.1540 Y109.4880 E5.6087
G1 X109.4880 Y125.1540 E6.0862
G1 X109.4880 Y125.8330 E6.1008
G1 X125.8330 Y109.4880 E6.5990
G1 X126.5120 Y109.4880 E6.6136
G1 X109.4880 Y126.5120 E7.1325
G1 X110.1670 Y126.5120 E7.1472
G1 X126.5120 Y110.1670 E7.6454
G1 X126.5120 Y110.8460 E7.6600
G1 X110.8460 Y126.5120 E8.1375
G1 X111.5250 Y126.5120 E8.1521
G1 X126.5120 Y111.5250 E8.6089
G1 X126.5120 Y112.2030 E8.6236
G1 X112.2030 Y126.5120 E9.0597
G1 X112.8820 Y126.5120 E9.0743
G1 X126.5120 Y112.8820 E9.4898
G1 X126.5120 Y113.5610 E9.5044
G1 X113.5610 Y126.5120 E9.8992
G1 X114.2400 Y126.5120 E9.9138
G1 X126.5120 Y114.2400 E10.2878
G1 X126.5120 Y114.9190 E10.3025
G1 X114.9190 Y126.5120 E10.6558
G1 X115.5970 Y126.5120 E10.6705
G1 X126.5120 Y115.5970 E11.0031
G1 X126.5120 Y116.2760 E11.0178
G1 X116.2760 Y126.5120 E11.3298
G1 X116.9550 Y126.5120 E11.3444
G1 X126.5120 Y116.9550 E11.6357
G1 X126.5120 Y117.6340 E11.6503
G1 X117.6340 Y126.5120 E11.9209
G1 X118.3130 Y126.5120 E11.9355
G1 X126.5120 Y118.3130 E12.1855
G1 X126.5120 Y118.9920 E12.2001
G1 X118.9920 Y126.5120 E12.4293
G1 X119.6700 Y126.5120 E12.4439
G1 X126.5120 Y119.6700 E12.6525
G1 X126.5120 Y120.3490 E12.6671
G1 X120.3490 Y126.5120 E12.8549
G1 X121.0280 Y126.5120 E12.8696
G1 X126.5120 Y121.0280 E13.0367
G1 X126.5120 Y121.7070 E13.0514
G1 X121.7070 Y126.5120 E13.1978
G1 X122.3860 Y126.5120 E13.2124
G1 X126.5120 Y122.3860 E13.3382
G1 X126.5120 Y123.0640 E13.3528
G1 X123.0640 Y126.5120 E13.4579
G1 X123.7430 Y126.5120 E13.4726
G1 X126.5120 Y123.7430 E13.5569
G1 X126.5120 Y124.4220 E13.5716
G1 X124.4220 Y126.5120 E13.6353
G1 X125.1010 Y126.5120 E13.6499
G1 X126.5120 Y125.1010 E13.6929
G1 X126.5120 Y125.7800 E13.7075
G1 X125.7800 Y126.5120 E13.7299
G1 X126.4590 Y126.5120 E13.7445
G1 X126.5120 Y126.4590 E13.7461
G92 E0.0000
G1 E-1 F2400 ; custom retraction
;layer 3, Z = 0.360
;fan3;
G1 Z0.360 F1200
G1 X126.8000 Y126.8000 F8000 ; custom feedrate
G1 E0 F2400 ; custom un-retraction/prime
G92 E0.0000
G1 X109.2000 Y126.8000 E0.3793 F3840 ; custom feedrate
G1 X109.2000 Y109.2000 E0.7587
G1 X126.8000 Y109.2000 E1.1380
G1 X126.8000 Y126.8000 E1.5173
G1 X127.2800 Y127.2800 F8000 ; custom feedrate
G92 E0.0000
G1 X108.7200 Y127.2800 E0.4000 F3840 ; custom feedrate
G1 X108.7200 Y108.7200 E0.8000
G1 X127.2800 Y108.7200 E1.2000
G1 X127.2800 Y127.2800 E1.6001
G1 X127.7600 Y127.7600 F8000 ; custom feedrate
G92 E0.0000
G1 X108.2400 Y127.7600 E0.4207 F2880 ; custom feedrate
G1 X108.2400 Y108.2400 E0.8414
G1 X127.7600 Y108.2400 E1.2621
G1 X127.7600 Y127.7600 E1.6828
G1 X109.5410 Y126.5120 F8000 ; custom feedrate
G92 E0.0000
G1 X109.4880 Y126.4590 E0.0016 F3840 ; custom feedrate
G1 X109.4880 Y125.7800 E0.0163
G1 X110.2200 Y126.5120 E0.0386
G1 X110.8990 Y126.5120 E0.0532
G1 X109.4880 Y125.1010 E0.0962
G1 X109.4880 Y124.4220 E0.1108
G1 X111.5780 Y126.5120 E0.1746
G1 X112.2570 Y126.5120 E0.1892
G1 X109.4880 Y123.7430 E0.2736
G1 X109.4880 Y123.0640 E0.2882
G1 X112.9360 Y126.5120 E0.3933
G1 X113.6140 Y126.5120 E0.4079
G1 X109.4880 Y122.3860 E0.5337
G1 X109.4880 Y121.7070 E0.5483
G1 X114.2930 Y126.5120 E0.6948
G1 X114.9720 Y126.5120 E0.7094
G1 X109.4880 Y121.0280 E0.8766
G1 X109.4880 Y120.3490 E0.8912
G1 X115.6510 Y126.5120 E1.0790
G1 X116.3300 Y126.5120 E1.0937
G1 X109.4880 Y119.6700 E1.3022
G1 X109.4880 Y118.9920 E1.3168
G1 X117.0080 Y126.5120 E1.5461
G1 X117.6870 Y126.5120 E1.5607
G1 X109.4880 Y118.3130 E1.8106
G1 X109.4880 Y117.6340 E1.8252
G1 X118.3660 Y126.5120 E2.0958
G1 X119.0450 Y126.5120 E2.1105
G1 X109.4880 Y116.9550 E2.4018
G1 X109.4880 Y116.2760 E2.4164
G1 X119.7240 Y126.5120 E2.7284
G1 X120.4030 Y126.5120 E2.7430
G1 X109.4880 Y115.5970 E3.0757
G1 X109.4880 Y114.9190 E3.0903
G1 X121.0810 Y126.5120 E3.4437
G1 X121.7600 Y126.5120 E3.4583
G1 X109.4880 Y114.2400 E3.8324
G1 X109.4880 Y113.5610 E3.8470
G1 X122.4390 Y126.5120 E4.2417
G1 X123.1180 Y126.5120 E4.2564
G1 X109.4880 Y112.8820 E4.6718
G1 X109.4880 Y112.2030 E4.6864
G1 X123.7970 Y126.5120 E5.1226
G1 X124.4760 Y126.5120 E5.1372
G1 X109.4880 Y111.5240 E5.5940
G1 X109.4880 Y110.8460 E5.6087
G1 X125.1540 Y126.5120 E6.0862
G1 X125.8330 Y126.5120 E6.1008
G1 X109.4880 Y110.1670 E6.5990
G1 X109.4880 Y109.4880 E6.6136
G1 X126.5120 Y126.5120 E7.1325
G1 X126.5120 Y125.8330 E7.1471
G1 X110.1670 Y109.4880 E7.6453
G1 X110.8460 Y109.4880 E7.6600
G1 X126.5120 Y125.1540 E8.1375
G1 X126.5120 Y124.4760 E8.1521
G1 X111.5240 Y109.4880 E8.6089
G1 X112.2030 Y109.4880 E8.6236
G1 X126.5120 Y123.7970 E9.0597
G1 X126.5120 Y123.1180 E9.0743
G1 X112.8820 Y109.4880 E9.4898
G1 X113.5610 Y109.4880 E9.5044
G1 X126.5120 Y122.4390 E9.8991
G1 X126.5120 Y121.7600 E9.9138
G1 X114.2400 Y109.4880 E10.2878
G1 X114.9190 Y109.4880 E10.3025
G1 X126.5120 Y121.0810 E10.6558
G1 X126.5120 Y120.4030 E10.6705
G1 X115.5970 Y109.4880 E11.0031
G1 X116.2760 Y109.4880 E11.0178
G1 X126.5120 Y119.7240 E11.3297
G1 X126.5120 Y119.0450 E11.3444
G1 X116.9550 Y109.4880 E11.6357
G1 X117.6340 Y109.4880 E11.6503
G1 X126.5120 Y118.3660 E11.9209
G1 X126.5120 Y117.6870 E11.9355
G1 X118.3130 Y109.4880 E12.1854
G1 X118.9920 Y109.4880 E12.2001
G1 X126.5120 Y117.0080 E12.4293
G1 X126.5120 Y116.3300 E12.4439
G1 X119.6700 Y109.4880 E12.6525
G1 X120.3490 Y109.4880 E12.6671
G1 X126.5120 Y115.6510 E12.8549
G1 X126.5120 Y114.9720 E12.8696
G1 X121.0280 Y109.4880 E13.0367
G1 X121.7070 Y109.4880 E13.0514
G1 X126.5120 Y114.2930 E13.1978
G1 X126.5120 Y113.6140 E13.2124
G1 X122.3860 Y109.4880 E13.3382
G1 X123.0640 Y109.4880 E13.3528
G1 X126.5120 Y112.9360 E13.4579
G1 X126.5120 Y112.2570 E13.4726
G1 X123.7430 Y109.4880 E13.5569
G1 X124.4220 Y109.4880 E13.5716
G1 X126.5120 Y111.5780 E13.6353
G1 X126.5120 Y110.8990 E13.6499
G1 X125.1010 Y109.4880 E13.6929
G1 X125.7800 Y109.4880 E13.7075
G1 X126.5120 Y110.2200 E13.7299
G1 X126.5120 Y109.5410 E13.7445
G1 X126.4590 Y109.4880 E13.7461
G92 E0.0000
G1 E-1 F2400 ; custom retraction
;layer 4, Z = 0.480
;fan4;
G1 Z0.480 F1200
G1 X126.8000 Y109.2000 F8000 ; custom feedrate
G1 E0 F2400 ; custom un-retraction/prime
G92 E0.0000
G1 X126.8000 Y126.8000 E0.3793 F3840 ; custom feedrate
G1 X109.2000 Y126.8000 E0.7587
G1 X109.2000 Y109.2000 E1.1380
G1 X126.8000 Y109.2000 E1.5173
G1 X127.2800 Y108.7200 F8000 ; custom feedrate
G92 E0.0000
G1 X127.2800 Y127.2800 E0.4000 F3840 ; custom feedrate
G1 X108.7200 Y127.2800 E0.8000
G1 X108.7200 Y108.7200 E1.2000
G1 X127.2800 Y108.7200 E1.6001
G1 X127.7600 Y108.2400 F8000 ; custom feedrate
G92 E0.0000
G1 X127.7600 Y127.7600 E0.4207 F2880 ; custom feedrate
G1 X108.2400 Y127.7600 E0.8414
G1 X108.2400 Y108.2400 E1.2621
G1 X127.7600 Y108.2400 E1.6828
G1 X126.4520 Y122.2760 F8000 ; custom feedrate
G92 E0.0000
G1 X122.2760 Y126.4520 E0.1591 F4800 ; custom feedrate
G1 X118.0330 Y126.4520 E0.2734
G1 X126.4520 Y118.0330 E0.5942
G1 X126.4520 Y113.7910 E0.7085
G1 X113.7910 Y126.4520 E1.1909
G1 X109.5480 Y126.4520 E1.3052
G1 X126.4520 Y109.5480 E1.9492
G1 X122.2090 Y109.5480 E2.0635
G1 X109.5480 Y122.2090 E2.5459
G1 X109.5480 Y117.9670 E2.6602
G1 X117.9670 Y109.5480 E2.9809
G1 X113.7240 Y109.5480 E3.0952
G1 X109.5480 Y113.7240 E3.2544
G92 E0.0000
G1 E-1 F2400 ; custom retraction
;layer 5, Z = 0.600
;fan5;
;
G1 Z0.600 F1200
G1 X109.2000 Y109.2000 F8000 ; custom feedrate
G1 E0 F2400 ; custom un-retraction/prime
G92 E0.0000
G1 X126.8000 Y109.2000 E0.3793 F3840 ; custom feedrate
G1 X126.8000 Y126.8000 E0.7587
G1 X109.2000 Y126.8000 E1.1380
G1 X109.2000 Y109.2000 E1.5173
G1 X108.7200 Y108.7200 F8000 ; custom feedrate
G92 E0.0000
G1 X127.2800 Y108.7200 E0.4000 F3840 ; custom feedrate
G1 X127.2800 Y127.2800 E0.8000
G1 X108.7200 Y127.2800 E1.2000
G1 X108.7200 Y108.7200 E1.6001
G1 X108.2400 Y108.2400 F8000 ; custom feedrate
G92 E0.0000
G1 X127.7600 Y108.2400 E0.4207 F2880 ; custom feedrate
G1 X127.7600 Y127.7600 E0.8414
G1 X108.2400 Y127.7600 E1.2621
G1 X108.2400 Y108.2400 E1.6828
G1 X122.2760 Y109.5480 F8000 ; custom feedrate
G92 E0.0000
G1 X126.4520 Y113.7240 E0.1591 F4800 ; custom feedrate
G1 X126.4520 Y117.9670 E0.2734
G1 X118.0330 Y109.5480 E0.5942
G1 X113.7910 Y109.5480 E0.7085
G1 X126.4520 Y122.2090 E1.1909
G1 X126.4520 Y126.4520 E1.3052
G1 X109.5480 Y109.5480 E1.9492
G1 X109.5480 Y113.7910 E2.0635
G1 X122.2090 Y126.4520 E2.5459
G1 X117.9670 Y126.4520 E2.6602
G1 X109.5480 Y118.0330 E2.9809
G1 X109.5480 Y122.2760 E3.0952
G1 X113.7240 Y126.4520 E3.2544
G92 E0.0000
G1 E-1 F2400 ; custom retraction
;layer 6, Z = 0.720
;fan6;
G1 Z0.720 F1200
G1 X109.2000 Y126.8000 F8000 ; custom feedrate
G1 E0 F2400 ; custom un-retraction/prime
G92 E0.0000
G1 X109.2000 Y109.2000 E0.3793 F3840 ; custom feedrate
G1 X126.8000 Y109.2000 E0.7587
G1 X126.8000 Y126.8000 E1.1380
G1 X109.2000 Y126.8000 E1.5173
G1 X108.7200 Y127.2800 F8000 ; custom feedrate
G92 E0.0000
G1 X108.7200 Y108.7200 E0.4000 F3840 ; custom feedrate
G1 X127.2800 Y108.7200 E0.8000
G1 X127.2800 Y127.2800 E1.2000
G1 X108.7200 Y127.2800 E1.6001
G1 X108.2400 Y127.7600 F8000 ; custom feedrate
G92 E0.0000
G1 X108.2400 Y108.2400 E0.4207 F2880 ; custom feedrate
G1 X127.7600 Y108.2400 E0.8414
G1 X127.7600 Y127.7600 E1.2621
G1 X108.2400 Y127.7600 E1.6828
G1 X109.5480 Y113.7240 F8000 ; custom feedrate
G92 E0.0000
G1 X113.7240 Y109.5480 E0.1591 F4800 ; custom feedrate
G1 X117.9670 Y109.5480 E0.2734
G1 X109.5480 Y117.9670 E0.5942
G1 X109.5480 Y122.2090 E0.7085
G1 X122.2090 Y109.5480 E1.1909
G1 X126.4520 Y109.5480 E1.3052
G1 X109.5480 Y126.4520 E1.9492
G1 X113.7910 Y126.4520 E2.0635
G1 X126.4520 Y113.7910 E2.5459
G1 X126.4520 Y118.0330 E2.6602
G1 X118.0330 Y126.4520 E2.9809
G1 X122.2760 Y126.4520 E3.0952
G1 X126.4520 Y122.2760 E3.2544
G92 E0.0000
G1 E-1 F2400 ; custom retraction
;layer 7, Z = 0.840
;fan7;
G1 Z0.840 F1200
G1 X126.8000 Y126.8000 F8000 ; custom feedrate
G1 E0 F2400 ; custom un-retraction/prime
G92 E0.0000
G1 X109.2000 Y126.8000 E0.3793 F3840 ; custom feedrate
G1 X109.2000 Y109.2000 E0.7587
G1 X126.8000 Y109.2000 E1.1380
G1 X126.8000 Y126.8000 E1.5173
G1 X127.2800 Y127.2800 F8000 ; custom feedrate
G92 E0.0000
G1 X108.7200 Y127.2800 E0.4000 F3840 ; custom feedrate
G1 X108.7200 Y108.7200 E0.8000
G1 X127.2800 Y108.7200 E1.2000
G1 X127.2800 Y127.2800 E1.6001
G1 X127.7600 Y127.7600 F8000 ; custom feedrate
G92 E0.0000
G1 X108.2400 Y127.7600 E0.4207 F2880 ; custom feedrate
G1 X108.2400 Y108.2400 E0.8414
G1 X127.7600 Y108.2400 E1.2621
G1 X127.7600 Y127.7600 E1.6828
G1 X113.7240 Y126.4520 F8000 ; custom feedrate
G92 E0.0000
G1 X109.5480 Y122.2760 E0.1591 F4800 ; custom feedrate
G1 X109.5480 Y118.0330 E0.2734
G1 X117.9670 Y126.4520 E0.5942
G1 X122.2090 Y126.4520 E0.7085
G1 X109.5480 Y113.7910 E1.1909
G1 X109.5480 Y109.5480 E1.3052
G1 X126.4520 Y126.4520 E1.9492
G1 X126.4520 Y122.2090 E2.0635
G1 X113.7910 Y109.5480 E2.5459
G1 X118.0330 Y109.5480 E2.6602
G1 X126.4520 Y117.9670 E2.9809
G1 X126.4520 Y113.7240 E3.0952
G1 X122.2760 Y109.5480 E3.2544
G92 E0.0000
G1 E-1 F2400 ; custom retraction
;layer 8, Z = 0.960
;fan8;
G1 Z0.960 F1200
G1 X126.8000 Y109.2000 F8000 ; custom feedrate
G1 E0 F2400 ; custom un-retraction/prime
G92 E0.0000
G1 X126.8000 Y126.8000 E0.3793 F3840 ; custom feedrate
G1 X109.2000 Y126.8000 E0.7587
G1 X109.2000 Y109.2000 E1.1380
G1 X126.8000 Y109.2000 E1.5173
G1 X127.2800 Y108.7200 F8000 ; custom feedrate
G92 E0.0000
G1 X127.2800 Y127.2800 E0.4000 F3840 ; custom feedrate
G1 X108.7200 Y127.2800 E0.8000
G1 X108.7200 Y108.7200 E1.2000
G1 X127.2800 Y108.7200 E1.6001
G1 X127.7600 Y108.2400 F8000 ; custom feedrate
G92 E0.0000
G1 X127.7600 Y127.7600 E0.4207 F2880 ; custom feedrate
G1 X108.2400 Y127.7600 E0.8414
G1 X108.2400 Y108.2400 E1.2621
G1 X127.7600 Y108.2400 E1.6828
G1 X126.4520 Y122.2760 F8000 ; custom feedrate
G92 E0.0000
G1 X122.2760 Y126.4520 E0.1591 F4800 ; custom feedrate
G1 X118.0330 Y126.4520 E0.2734
G1 X126.4520 Y118.0330 E0.5942
G1 X126.4520 Y113.7910 E0.7085
G1 X113.7910 Y126.4520 E1.1909
G1 X109.5480 Y126.4520 E1.3052
G1 X126.4520 Y109.5480 E1.9492
G1 X122.2090 Y109.5480 E2.0635
G1 X109.5480 Y122.2090 E2.5459
G1 X109.5480 Y117.9670 E2.6602
G1 X117.9670 Y109.5480 E2.9809
G1 X113.7240 Y109.5480 E3.0952
G1 X109.5480 Y113.7240 E3.2544
G92 E0.0000
G1 E-1 F2400 ; custom retraction
;layer 9, Z = 1.080
;fan9;
G1 Z1.080 F1200
G1 X109.2000 Y109.2000 F8000 ; custom feedrate
G1 E0 F2400 ; custom un-retraction/prime
G92 E0.0000
G1 X126.8000 Y109.2000 E0.3793 F3840 ; custom feedrate
G1 X126.8000 Y126.8000 E0.7587
G1 X109.2000 Y126.8000 E1.1380
G1 X109.2000 Y109.2000 E1.5173
G1 X108.7200 Y108.7200 F8000 ; custom feedrate
G92 E0.0000
G1 X127.2800 Y108.7200 E0.4000 F3840 ; custom feedrate
G1 X127.2800 Y127.2800 E0.8000
G1 X108.7200 Y127.2800 E1.2000
G1 X108.7200 Y108.7200 E1.6001
G1 X108.2400 Y108.2400 F8000 ; custom feedrate
G92 E0.0000
G1 X127.7600 Y108.2400 E0.4207 F2880 ; custom feedrate
G1 X127.7600 Y127.7600 E0.8414
G1 X108.2400 Y127.7600 E1.2621
G1 X108.2400 Y108.2400 E1.6828
G1 X122.2760 Y109.5480 F8000 ; custom feedrate
G92 E0.0000
G1 X126.4520 Y113.7240 E0.1591 F4800 ; custom feedrate
G1 X126.4520 Y117.9670 E0.2734
G1 X118.0330 Y109.5480 E0.5942
G1 X113.7910 Y109.5480 E0.7085
G1 X126.4520 Y122.2090 E1.1909
G1 X126.4520 Y126.4520 E1.3052
G1 X109.5480 Y109.5480 E1.9492
G1 X109.5480 Y113.7910 E2.0635
G1 X122.2090 Y126.4520 E2.5459
G1 X117.9670 Y126.4520 E2.6602
G1 X109.5480 Y118.0330 E2.9809
G1 X109.5480 Y122.2760 E3.0952
G1 X113.7240 Y126.4520 E3.2544
G92 E0.0000
G1 E-1 F2400 ; custom retraction
;layer 10, Z = 1.200
;fan10;
G1 Z1.200 F1200
G1 X109.2000 Y126.8000 F8000 ; custom feedrate
G1 E0 F2400 ; custom un-retraction/prime
G92 E0.0000
G1 X109.2000 Y109.2000 E0.3793 F3840 ; custom feedrate
G1 X126.8000 Y109.2000 E0.7587
G1 X126.8000 Y126.8000 E1.1380
G1 X109.2000 Y126.8000 E1.5173
G1 X108.7200 Y127.2800 F8000 ; custom feedrate
G92 E0.0000
G1 X108.7200 Y108.7200 E0.4000 F3840 ; custom feedrate
G1 X127.2800 Y108.7200 E0.8000
G1 X127.2800 Y127.2800 E1.2000
G1 X108.7200 Y127.2800 E1.6001
G1 X108.2400 Y127.7600 F8000 ; custom feedrate
G92 E0.0000
G1 X108.2400 Y108.2400 E0.4207 F2880 ; custom feedrate
G1 X127.7600 Y108.2400 E0.8414
G1 X127.7600 Y127.7600 E1.2621
G1 X108.2400 Y127.7600 E1.6828
G1 X109.5480 Y113.7240 F8000 ; custom feedrate
G92 E0.0000
G1 X113.7240 Y109.5480 E0.1591 F4800 ; custom feedrate
G1 X117.9670 Y109.5480 E0.2734
G1 X109.5480 Y117.9670 E0.5942
G1 X109.5480 Y122.2090 E0.7085
G1 X122.2090 Y109.5480 E1.1909
G1 X126.4520 Y109.5480 E1.3052
G1 X109.5480 Y126.4520 E1.9492
G1 X113.7910 Y126.4520 E2.0635
G1 X126.4520 Y113.7910 E2.5459
G1 X126.4520 Y118.0330 E2.6602
G1 X118.0330 Y126.4520 E2.9809
G1 X122.2760 Y126.4520 E3.0952
G1 X126.4520 Y122.2760 E3.2544
G92 E0.0000
G1 E-1 F2400 ; custom retraction
;layer 11, Z = 1.320
;fan11;
G1 Z1.320 F1200
G1 X126.8000 Y126.8000 F8000 ; custom feedrate
G1 E0 F2400 ; custom un-retraction/prime
G92 E0.0000
G1 X109.2000 Y126.8000 E0.3793 F3840 ; custom feedrate
G1 X109.2000 Y109.2000 E0.7587
G1 X126.8000 Y109.2000 E1.1380
G1 X126.8000 Y126.8000 E1.5173
G1 X127.2800 Y127.2800 F8000 ; custom feedrate
G92 E0.0000
G1 X108.7200 Y127.2800 E0.4000 F3840 ; custom feedrate
G1 X108.7200 Y108.7200 E0.8000
G1 X127.2800 Y108.7200 E1.2000
G1 X127.2800 Y127.2800 E1.6001
G1 X127.7600 Y127.7600 F8000 ; custom feedrate
G92 E0.0000
G1 X108.2400 Y127.7600 E0.4207 F2880 ; custom feedrate
G1 X108.2400 Y108.2400 E0.8414
G1 X127.7600 Y108.2400 E1.2621
G1 X127.7600 Y127.7600 E1.6828
G1 X113.7240 Y126.4520 F8000 ; custom feedrate
G92 E0.0000
G1 X109.5480 Y122.2760 E0.1591 F4800 ; custom feedrate
G1 X109.5480 Y118.0330 E0.2734
G1 X117.9670 Y126.4520 E0.5942
G1 X122.2090 Y126.4520 E0.7085
G1 X109.5480 Y113.7910 E1.1909
G1 X109.5480 Y109.5480 E1.3052
G1 X126.4520 Y126.4520 E1.9492
G1 X126.4520 Y122.2090 E2.0635
G1 X113.7910 Y109.5480 E2.5459
G1 X118.0330 Y109.5480 E2.6602
G1 X126.4520 Y117.9670 E2.9809
G1 X126.4520 Y113.7240 E3.0952
G1 X122.2760 Y109.5480 E3.2544
G92 E0.0000
G1 E-1 F2400 ; custom retraction
;layer 12, Z = 1.440
;fan12;
G1 Z1.440 F1200
G1 X126.8000 Y109.2000 F8000 ; custom feedrate
G1 E0 F2400 ; custom un-retraction/prime
G92 E0.0000
G1 X126.8000 Y126.8000 E0.3793 F3840 ; custom feedrate
G1 X109.2000 Y126.8000 E0.7587
G1 X109.2000 Y109.2000 E1.1380
G1 X126.8000 Y109.2000 E1.5173
G1 X127.2800 Y108.7200 F8000 ; custom feedrate
G92 E0.0000
G1 X127.2800 Y127.2800 E0.4000 F3840 ; custom feedrate
G1 X108.7200 Y127.2800 E0.8000
G1 X108.7200 Y108.7200 E1.2000
G1 X127.2800 Y108.7200 E1.6001
G1 X127.7600 Y108.2400 F8000 ; custom feedrate
G92 E0.0000
G1 X127.7600 Y127.7600 E0.4207 F2880 ; custom feedrate
G1 X108.2400 Y127.7600 E0.8414
G1 X108.2400 Y108.2400 E1.2621
G1 X127.7600 Y108.2400 E1.6828
G1 X126.4520 Y122.2760 F8000 ; custom feedrate
G92 E0.0000
G1 X122.2760 Y126.4520 E0.1591 F4800 ; custom feedrate
G1 X118.0330 Y126.4520 E0.2734
G1 X126.4520 Y118.0330 E0.5942
G1 X126.4520 Y113.7910 E0.7085
G1 X113.7910 Y126.4520 E1.1909
G1 X109.5480 Y126.4520 E1.3052
G1 X126.4520 Y109.5480 E1.9492
G1 X122.2090 Y109.5480 E2.0635
G1 X109.5480 Y122.2090 E2.5459
G1 X109.5480 Y117.9670 E2.6602
G1 X117.9670 Y109.5480 E2.9809
G1 X113.7240 Y109.5480 E3.0952
G1 X109.5480 Y113.7240 E3.2544
G92 E0.0000
G1 E-1 F2400 ; custom retraction
;layer 13, Z = 1.560
;fan13;
G1 Z1.560 F1200
G1 X109.2000 Y109.2000 F8000 ; custom feedrate
G1 E0 F2400 ; custom un-retraction/prime
G92 E0.0000
G1 X126.8000 Y109.2000 E0.3793 F3840 ; custom feedrate
G1 X126.8000 Y126.8000 E0.7587
G1 X109.2000 Y126.8000 E1.1380
G1 X109.2000 Y109.2000 E1.5173
G1 X108.7200 Y108.7200 F8000 ; custom feedrate
G92 E0.0000
G1 X127.2800 Y108.7200 E0.4000 F3840 ; custom feedrate
G1 X127.2800 Y127.2800 E0.8000
G1 X108.7200 Y127.2800 E1.2000
G1 X108.7200 Y108.7200 E1.6001
G1 X108.2400 Y108.2400 F8000 ; custom feedrate
G92 E0.0000
G1 X127.7600 Y108.2400 E0.4207 F2880 ; custom feedrate
G1 X127.7600 Y127.7600 E0.8414
G1 X108.2400 Y127.7600 E1.2621
G1 X108.2400 Y108.2400 E1.6828
G1 X122.2760 Y109.5480 F8000 ; custom feedrate
G92 E0.0000
G1 X126.4520 Y113.7240 E0.1591 F4800 ; custom feedrate
G1 X126.4520 Y117.9670 E0.2734
G1 X118.0330 Y109.5480 E0.5942
G1 X113.7910 Y109.5480 E0.7085
G1 X126.4520 Y122.2090 E1.1909
G1 X126.4520 Y126.4520 E1.3052
G1 X109.5480 Y109.5480 E1.9492
G1 X109.5480 Y113.7910 E2.0635
G1 X122.2090 Y126.4520 E2.5459
G1 X117.9670 Y126.4520 E2.6602
G1 X109.5480 Y118.0330 E2.9809
G1 X109.5480 Y122.2760 E3.0952
G1 X113.7240 Y126.4520 E3.2544
G92 E0.0000
G1 E-1 F2400 ; custom retraction
;layer 14, Z = 1.680
;fan14;
G1 Z1.680 F1200
G1 X109.2000 Y126.8000 F8000 ; custom feedrate
G1 E0 F2400 ; custom un-retraction/prime
G92 E0.0000
G1 X109.2000 Y109.2000 E0.3793 F3840 ; custom feedrate
G1 X126.8000 Y109.2000 E0.7587
G1 X126.8000 Y126.8000 E1.1380
G1 X109.2000 Y126.8000 E1.5173
G1 X108.7200 Y127.2800 F8000 ; custom feedrate
G92 E0.0000
G1 X108.7200 Y108.7200 E0.4000 F3840 ; custom feedrate
G1 X127.2800 Y108.7200 E0.8000
G1 X127.2800 Y127.2800 E1.2000
G1 X108.7200 Y127.2800 E1.6001
G1 X108.2400 Y127.7600 F8000 ; custom feedrate
G92 E0.0000
G1 X108.2400 Y108.2400 E0.4207 F2880 ; custom feedrate
G1 X127.7600 Y108.2400 E0.8414
G1 X127.7600 Y127.7600 E1.2621
G1 X108.2400 Y127.7600 E1.6828
G1 X109.5480 Y113.7240 F8000 ; custom feedrate
G92 E0.0000
G1 X113.7240 Y109.5480 E0.1591 F4800 ; custom feedrate
G1 X117.9670 Y109.5480 E0.2734
G1 X109.5480 Y117.9670 E0.5942
G1 X109.5480 Y122.2090 E0.7085
G1 X122.2090 Y109.5480 E1.1909
G1 X126.4520 Y109.5480 E1.3052
G1 X109.5480 Y126.4520 E1.9492
G1 X113.7910 Y126.4520 E2.0635
G1 X126.4520 Y113.7910 E2.5459
G1 X126.4520 Y118.0330 E2.6602
G1 X118.0330 Y126.4520 E2.9809
G1 X122.2760 Y126.4520 E3.0952
G1 X126.4520 Y122.2760 E3.2544
G92 E0.0000
G1 E-1 F2400 ; custom retraction
;layer 15, Z = 1.800
;fan15;
G1 Z1.800 F1200
G1 X126.8000 Y126.8000 F8000 ; custom feedrate
G1 E0 F2400 ; custom un-retraction/prime
G92 E0.0000
G1 X109.2000 Y126.8000 E0.3793 F3840 ; custom feedrate
G1 X109.2000 Y109.2000 E0.7587
G1 X126.8000 Y109.2000 E1.1380
G1 X126.8000 Y126.8000 E1.5173
G1 X127.2800 Y127.2800 F8000 ; custom feedrate
G92 E0.0000
G1 X108.7200 Y127.2800 E0.4000 F3840 ; custom feedrate
G1 X108.7200 Y108.7200 E0.8000
G1 X127.2800 Y108.7200 E1.2000
G1 X127.2800 Y127.2800 E1.6001
G1 X127.7600 Y127.7600 F8000 ; custom feedrate
G92 E0.0000
G1 X108.2400 Y127.7600 E0.4207 F2880 ; custom feedrate
G1 X108.2400 Y108.2400 E0.8414
G1 X127.7600 Y108.2400 E1.2621
G1 X127.7600 Y127.7600 E1.6828
G1 X113.7240 Y126.4520 F8000 ; custom feedrate
G92 E0.0000
G1 X109.5480 Y122.2760 E0.1591 F4800 ; custom feedrate
G1 X109.5480 Y118.0330 E0.2734
G1 X117.9670 Y126.4520 E0.5942
G1 X122.2090 Y126.4520 E0.7085
G1 X109.5480 Y113.7910 E1.1909
G1 X109.5480 Y109.5480 E1.3052
G1 X126.4520 Y126.4520 E1.9492
G1 X126.4520 Y122.2090 E2.0635
G1 X113.7910 Y109.5480 E2.5459
G1 X118.0330 Y109.5480 E2.6602
G1 X126.4520 Y117.9670 E2.9809
G1 X126.4520 Y113.7240 E3.0952
G1 X122.2760 Y109.5480 E3.2544
G92 E0.0000
G1 E-1 F2400 ; custom retraction
;layer 16, Z = 1.920
;fan16;
G1 Z1.920 F1200
G1 X126.8000 Y109.2000 F8000 ; custom feedrate
G1 E0 F2400 ; custom un-retraction/prime
G92 E0.0000
G1 X126.8000 Y126.8000 E0.3793 F3840 ; custom feedrate
G1 X109.2000 Y126.8000 E0.7587
G1 X109.2000 Y109.2000 E1.1380
G1 X126.8000 Y109.2000 E1.5173
G1 X127.2800 Y108.7200 F8000 ; custom feedrate
G92 E0.0000
G1 X127.2800 Y127.2800 E0.4000 F3840 ; custom feedrate
G1 X108.7200 Y127.2800 E0.8000
G1 X108.7200 Y108.7200 E1.2000
G1 X127.2800 Y108.7200 E1.6001
G1 X127.7600 Y108.2400 F8000 ; custom feedrate
G92 E0.0000
G1 X127.7600 Y127.7600 E0.4207 F2880 ; custom feedrate
G1 X108.2400 Y127.7600 E0.8414
G1 X108.2400 Y108.2400 E1.2621
G1 X127.7600 Y108.2400 E1.6828
G1 X126.4520 Y122.2760 F8000 ; custom feedrate
G92 E0.0000
G1 X122.2760 Y126.4520 E0.1591 F4800 ; custom feedrate
G1 X118.0330 Y126.4520 E0.2734
G1 X126.4520 Y118.0330 E0.5942
G1 X126.4520 Y113.7910 E0.7085
G1 X113.7910 Y126.4520 E1.1909
G1 X109.5480 Y126.4520 E1.3052
G1 X126.4520 Y109.5480 E1.9492
G1 X122.2090 Y109.5480 E2.0635
G1 X109.5480 Y122.2090 E2.5459
G1 X109.5480 Y117.9670 E2.6602
G1 X117.9670 Y109.5480 E2.9809
G1 X113.7240 Y109.5480 E3.0952
G1 X109.5480 Y113.7240 E3.2544
G92 E0.0000
G1 E-1 F2400 ; custom retraction
;layer 17, Z = 2.040
;fan17;
G1 Z2.040 F1200
G1 X109.2000 Y109.2000 F8000 ; custom feedrate
G1 E0 F2400 ; custom un-retraction/prime
G92 E0.0000
G1 X126.8000 Y109.2000 E0.3793 F3840 ; custom feedrate
G1 X126.8000 Y126.8000 E0.7587
G1 X109.2000 Y126.8000 E1.1380
G1 X109.2000 Y109.2000 E1.5173
G1 X108.7200 Y108.7200 F8000 ; custom feedrate
G92 E0.0000
G1 X127.2800 Y108.7200 E0.4000 F3840 ; custom feedrate
G1 X127.2800 Y127.2800 E0.8000
G1 X108.7200 Y127.2800 E1.2000
G1 X108.7200 Y108.7200 E1.6001
G1 X108.2400 Y108.2400 F8000 ; custom feedrate
G92 E0.0000
G1 X127.7600 Y108.2400 E0.4207 F2880 ; custom feedrate
G1 X127.7600 Y127.7600 E0.8414
G1 X108.2400 Y127.7600 E1.2621
G1 X108.2400 Y108.2400 E1.6828
G1 X122.2760 Y109.5480 F8000 ; custom feedrate
G92 E0.0000
G1 X126.4520 Y113.7240 E0.1591 F4800 ; custom feedrate
G1 X126.4520 Y117.9670 E0.2734
G1 X118.0330 Y109.5480 E0.5942
G1 X113.7910 Y109.5480 E0.7085
G1 X126.4520 Y122.2090 E1.1909
G1 X126.4520 Y126.4520 E1.3052
G1 X109.5480 Y109.5480 E1.9492
G1 X109.5480 Y113.7910 E2.0635
G1 X122.2090 Y126.4520 E2.5459
G1 X117.9670 Y126.4520 E2.6602
G1 X109.5480 Y118.0330 E2.9809
G1 X109.5480 Y122.2760 E3.0952
G1 X113.7240 Y126.4520 E3.2544
G92 E0.0000
G1 E-1 F2400 ; custom retraction
;layer 18, Z = 2.160
;fan18;
G1 Z2.160 F1200
G1 X109.2000 Y126.8000 F8000 ; custom feedrate
G1 E0 F2400 ; custom un-retraction/prime
G92 E0.0000
G1 X109.2000 Y109.2000 E0.3793 F3840 ; custom feedrate
G1 X126.8000 Y109.2000 E0.7587
G1 X126.8000 Y126.8000 E1.1380
G1 X109.2000 Y126.8000 E1.5173
G1 X108.7200 Y127.2800 F8000 ; custom feedrate
G92 E0.0000
G1 X108.7200 Y108.7200 E0.4000 F3840 ; custom feedrate
G1 X127.2800 Y108.7200 E0.8000
G1 X127.2800 Y127.2800 E1.2000
G1 X108.7200 Y127.2800 E1.6001
G1 X108.2400 Y127.7600 F8000 ; custom feedrate
G92 E0.0000
G1 X108.2400 Y108.2400 E0.4207 F2880 ; custom feedrate
G1 X127.7600 Y108.2400 E0.8414
G1 X127.7600 Y127.7600 E1.2621
G1 X108.2400 Y127.7600 E1.6828
G1 X109.5480 Y113.7240 F8000 ; custom feedrate
G92 E0.0000
G1 X113.7240 Y109.5480 E0.1591 F4800 ; custom feedrate
G1 X117.9670 Y109.5480 E0.2734
G1 X109.5480 Y117.9670 E0.5942
G1 X109.5480 Y122.2090 E0.7085
G1 X122.2090 Y109.5480 E1.1909
G1 X126.4520 Y109.5480 E1.3052
G1 X109.5480 Y126.4520 E1.9492
G1 X113.7910 Y126.4520 E2.0635
G1 X126.4520 Y113.7910 E2.5459
G1 X126.4520 Y118.0330 E2.6602
G1 X118.0330 Y126.4520 E2.9809
G1 X122.2760 Y126.4520 E3.0952
G1 X126.4520 Y122.2760 E3.2544
G92 E0.0000
G1 E-1 F2400 ; custom retraction
;layer 19, Z = 2.280
;fan19;
G1 Z2.280 F1200
G1 X126.8000 Y126.8000 F8000 ; custom feedrate
G1 E0 F2400 ; custom un-retraction/prime
G92 E0.0000
G1 X109.2000 Y126.8000 E0.3793 F3840 ; custom feedrate
G1 X109.2000 Y109.2000 E0.7587
G1 X126.8000 Y109.2000 E1.1380
G1 X126.8000 Y126.8000 E1.5173
G1 X127.2800 Y127.2800 F8000 ; custom feedrate
G92 E0.0000
G1 X108.7200 Y127.2800 E0.4000 F3840 ; custom feedrate
G1 X108.7200 Y108.7200 E0.8000
G1 X127.2800 Y108.7200 E1.2000
G1 X127.2800 Y127.2800 E1.6001
G1 X127.7600 Y127.7600 F8000 ; custom feedrate
G92 E0.0000
G1 X108.2400 Y127.7600 E0.4207 F2880 ; custom feedrate
G1 X108.2400 Y108.2400 E0.8414
G1 X127.7600 Y108.2400 E1.2621
G1 X127.7600 Y127.7600 E1.6828
G1 X113.7240 Y126.4520 F8000 ; custom feedrate
G92 E0.0000
G1 X109.5480 Y122.2760 E0.1591 F4800 ; custom feedrate
G1 X109.5480 Y118.0330 E0.2734
G1 X117.9670 Y126.4520 E0.5942
G1 X122.2090 Y126.4520 E0.7085
G1 X109.5480 Y113.7910 E1.1909
G1 X109.5480 Y109.5480 E1.3052
G1 X126.4520 Y126.4520 E1.9492
G1 X126.4520 Y122.2090 E2.0635
G1 X113.7910 Y109.5480 E2.5459
G1 X118.0330 Y109.5480 E2.6602
G1 X126.4520 Y117.9670 E2.9809
G1 X126.4520 Y113.7240 E3.0952
G1 X122.2760 Y109.5480 E3.2544
G92 E0.0000
G1 E-1 F2400 ; custom retraction
;layer 20, Z = 2.400
;fan20;
G1 Z2.400 F1200
G1 X126.8000 Y109.2000 F8000 ; custom feedrate
G1 E0 F2400 ; custom un-retraction/prime
G92 E0.0000
G1 X126.8000 Y126.8000 E0.3793 F3840 ; custom feedrate
G1 X109.2000 Y126.8000 E0.7587
G1 X109.2000 Y109.2000 E1.1380
G1 X126.8000 Y109.2000 E1.5173
G1 X127.2800 Y108.7200 F8000 ; custom feedrate
G92 E0.0000
G1 X127.2800 Y127.2800 E0.4000 F3840 ; custom feedrate
G1 X108.7200 Y127.2800 E0.8000
G1 X108.7200 Y108.7200 E1.2000
G1 X127.2800 Y108.7200 E1.6001
G1 X127.7600 Y108.2400 F8000 ; custom feedrate
G92 E0.0000
G1 X127.7600 Y127.7600 E0.4207 F2880 ; custom feedrate
G1 X108.2400 Y127.7600 E0.8414
G1 X108.2400 Y108.2400 E1.2621
G1 X127.7600 Y108.2400 E1.6828
G1 X126.4520 Y122.2760 F8000 ; custom feedrate
G92 E0.0000
G1 X122.2760 Y126.4520 E0.1591 F4800 ; custom feedrate
G1 X118.0330 Y126.4520 E0.2734
G1 X126.4520 Y118.0330 E0.5942
G1 X126.4520 Y113.7910 E0.7085
G1 X113.7910 Y126.4520 E1.1909
G1 X109.5480 Y126.4520 E1.3052
G1 X126.4520 Y109.5480 E1.9492
G1 X122.2090 Y109.5480 E2.0635
G1 X109.5480 Y122.2090 E2.5459
G1 X109.5480 Y117.9670 E2.6602
G1 X117.9670 Y109.5480 E2.9809
G1 X113.7240 Y109.5480 E3.0952
G1 X109.5480 Y113.7240 E3.2544
G92 E0.0000
G1 E-1 F2400 ; custom retraction
;layer 21, Z = 2.520
;fan21;
G1 Z2.520 F1200
G1 X109.2000 Y109.2000 F8000 ; custom feedrate
G1 E0 F2400 ; custom un-retraction/prime
G92 E0.0000
G1 X126.8000 Y109.2000 E0.3793 F3840 ; custom feedrate
G1 X126.8000 Y126.8000 E0.7587
G1 X109.2000 Y126.8000 E1.1380
G1 X109.2000 Y109.2000 E1.5173
G1 X108.7200 Y108.7200 F8000 ; custom feedrate
G92 E0.0000
G1 X127.2800 Y108.7200 E0.4000 F3840 ; custom feedrate
G1 X127.2800 Y127.2800 E0.8000
G1 X108.7200 Y127.2800 E1.2000
G1 X108.7200 Y108.7200 E1.6001
G1 X108.2400 Y108.2400 F8000 ; custom feedrate
G92 E0.0000
G1 X127.7600 Y108.2400 E0.4207 F2880 ; custom feedrate
G1 X127.7600 Y127.7600 E0.8414
G1 X108.2400 Y127.7600 E1.2621
G1 X108.2400 Y108.2400 E1.6828
G1 X122.2760 Y109.5480 F8000 ; custom feedrate
G92 E0.0000
G1 X126.4520 Y113.7240 E0.1591 F4800 ; custom feedrate
G1 X126.4520 Y117.9670 E0.2734
G1 X118.0330 Y109.5480 E0.5942
G1 X113.7910 Y109.5480 E0.7085
G1 X126.4520 Y122.2090 E1.1909
G1 X126.4520 Y126.4520 E1.3052
G1 X109.5480 Y109.5480 E1.9492
G1 X109.5480 Y113.7910 E2.0635
G1 X122.2090 Y126.4520 E2.5459
G1 X117.9670 Y126.4520 E2.6602
G1 X109.5480 Y118.0330 E2.9809
G1 X109.5480 Y122.2760 E3.0952
G1 X113.7240 Y126.4520 E3.2544
G92 E0.0000
G1 E-1 F2400 ; custom retraction
;layer 22, Z = 2.640
;fan22;
G1 Z2.640 F1200
G1 X109.2000 Y126.8000 F8000 ; custom feedrate
G1 E0 F2400 ; custom un-retraction/prime
G92 E0.0000
G1 X109.2000 Y109.2000 E0.3793 F3840 ; custom feedrate
G1 X126.8000 Y109.2000 E0.7587
G1 X126.8000 Y126.8000 E1.1380
G1 X109.2000 Y126.8000 E1.5173
G1 X108.7200 Y127.2800 F8000 ; custom feedrate
G92 E0.0000
G1 X108.7200 Y108.7200 E0.4000 F3840 ; custom feedrate
G1 X127.2800 Y108.7200 E0.8000
G1 X127.2800 Y127.2800 E1.2000
G1 X108.7200 Y127.2800 E1.6001
G1 X108.2400 Y127.7600 F8000 ; custom feedrate
G92 E0.0000
G1 X108.2400 Y108.2400 E0.4207 F2880 ; custom feedrate
G1 X127.7600 Y108.2400 E0.8414
G1 X127.7600 Y127.7600 E1.2621
G1 X108.2400 Y127.7600 E1.6828
G1 X109.5480 Y113.7240 F8000 ; custom feedrate
G92 E0.0000
G1 X113.7240 Y109.5480 E0.1591 F4800 ; custom feedrate
G1 X117.9670 Y109.5480 E0.2734
G1 X109.5480 Y117.9670 E0.5942
G1 X109.5480 Y122.2090 E0.7085
G1 X122.2090 Y109.5480 E1.1909
G1 X126.4520 Y109.5480 E1.3052
G1 X109.5480 Y126.4520 E1.9492
G1 X113.7910 Y126.4520 E2.0635
G1 X126.4520 Y113.7910 E2.5459
G1 X126.4520 Y118.0330 E2.6602
G1 X118.0330 Y126.4520 E2.9809
G1 X122.2760 Y126.4520 E3.0952
G1 X126.4520 Y122.2760 E3.2544
G92 E0.0000
G1 E-1 F2400 ; custom retraction
;layer 23, Z = 2.760
;fan23;
G1 Z2.760 F1200
G1 X126.8000 Y126.8000 F8000 ; custom feedrate
G1 E0 F2400 ; custom un-retraction/prime
G92 E0.0000
G1 X109.2000 Y126.8000 E0.3793 F3840 ; custom feedrate
G1 X109.2000 Y109.2000 E0.7587
G1 X126.8000 Y109.2000 E1.1380
G1 X126.8000 Y126.8000 E1.5173
G1 X127.2800 Y127.2800 F8000 ; custom feedrate
G92 E0.0000
G1 X108.7200 Y127.2800 E0.4000 F3840 ; custom feedrate
G1 X108.7200 Y108.7200 E0.8000
G1 X127.2800 Y108.7200 E1.2000
G1 X127.2800 Y127.2800 E1.6001
G1 X127.7600 Y127.7600 F8000 ; custom feedrate
G92 E0.0000
G1 X108.2400 Y127.7600 E0.4207 F2880 ; custom feedrate
G1 X108.2400 Y108.2400 E0.8414
G1 X127.7600 Y108.2400 E1.2621
G1 X127.7600 Y127.7600 E1.6828
G1 X113.7240 Y126.4520 F8000 ; custom feedrate
G92 E0.0000
G1 X109.5480 Y122.2760 E0.1591 F4800 ; custom feedrate
G1 X109.5480 Y118.0330 E0.2734
G1 X117.9670 Y126.4520 E0.5942
G1 X122.2090 Y126.4520 E0.7085
G1 X109.5480 Y113.7910 E1.1909
G1 X109.5480 Y109.5480 E1.3052
G1 X126.4520 Y126.4520 E1.9492
G1 X126.4520 Y122.2090 E2.0635
G1 X113.7910 Y109.5480 E2.5459
G1 X118.0330 Y109.5480 E2.6602
G1 X126.4520 Y117.9670 E2.9809
G1 X126.4520 Y113.7240 E3.0952
G1 X122.2760 Y109.5480 E3.2544
G92 E0.0000
G1 E-1 F2400 ; custom retraction
;layer 24, Z = 2.880
;fan24;
G1 Z2.880 F1200
G1 X126.8000 Y109.2000 F8000 ; custom feedrate
G1 E0 F2400 ; custom un-retraction/prime
G92 E0.0000
G1 X126.8000 Y126.8000 E0.3793 F3840 ; custom feedrate
G1 X109.2000 Y126.8000 E0.7587
G1 X109.2000 Y109.2000 E1.1380
G1 X126.8000 Y109.2000 E1.5173
G1 X127.2800 Y108.7200 F8000 ; custom feedrate
G92 E0.0000
G1 X127.2800 Y127.2800 E0.4000 F3840 ; custom feedrate
G1 X108.7200 Y127.2800 E0.8000
G1 X108.7200 Y108.7200 E1.2000
G1 X127.2800 Y108.7200 E1.6001
G1 X127.7600 Y108.2400 F8000 ; custom feedrate
G92 E0.0000
G1 X127.7600 Y127.7600 E0.4207 F2880 ; custom feedrate
G1 X108.2400 Y127.7600 E0.8414
G1 X108.2400 Y108.2400 E1.2621
G1 X127.7600 Y108.2400 E1.6828
G1 X126.4520 Y122.2760 F8000 ; custom feedrate
G92 E0.0000
G1 X122.2760 Y126.4520 E0.1591 F4800 ; custom feedrate
G1 X118.0330 Y126.4520 E0.2734
G1 X126.4520 Y118.0330 E0.5942
G1 X126.4520 Y113.7910 E0.7085
G1 X113.7910 Y126.4520 E1.1909
G1 X109.5480 Y126.4520 E1.3052
G1 X126.4520 Y109.5480 E1.9492
G1 X122.2090 Y109.5480 E2.0635
G1 X109.5480 Y122.2090 E2.5459
G1 X109.5480 Y117.9670 E2.6602
G1 X117.9670 Y109.5480 E2.9809
G1 X113.7240 Y109.5480 E3.0952
G1 X109.5480 Y113.7240 E3.2544
G92 E0.0000
G1 E-1 F2400 ; custom retraction
;layer 25, Z = 3.000
;fan25;
G1 Z3.000 F1200
G1 X109.2000 Y109.2000 F8000 ; custom feedrate
G1 E0 F2400 ; custom un-retraction/prime
G92 E0.0000
G1 X126.8000 Y109.2000 E0.3793 F3840 ; custom feedrate
G1 X126.8000 Y126.8000 E0.7587
G1 X109.2000 Y126.8000 E1.1380
G1 X109.2000 Y109.2000 E1.5173
G1 X108.7200 Y108.7200 F8000 ; custom feedrate
G92 E0.0000
G1 X127.2800 Y108.7200 E0.4000 F3840 ; custom feedrate
G1 X127.2800 Y127.2800 E0.8000
G1 X108.7200 Y127.2800 E1.2000
G1 X108.7200 Y108.7200 E1.6001
G1 X108.2400 Y108.2400 F8000 ; custom feedrate
G92 E0.0000
G1 X127.7600 Y108.2400 E0.4207 F2880 ; custom feedrate
G1 X127.7600 Y127.7600 E0.8414
G1 X108.2400 Y127.7600 E1.2621
G1 X108.2400 Y108.2400 E1.6828
G1 X122.2760 Y109.5480 F8000 ; custom feedrate
G92 E0.0000
G1 X126.4520 Y113.7240 E0.1591 F4800 ; custom feedrate
G1 X126.4520 Y117.9670 E0.2734
G1 X118.0330 Y109.5480 E0.5942
G1 X113.7910 Y109.5480 E0.7085
G1 X126.4520 Y122.2090 E1.1909
G1 X126.4520 Y126.4520 E1.3052
G1 X109.5480 Y109.5480 E1.9492
G1 X109.5480 Y113.7910 E2.0635
G1 X122.2090 Y126.4520 E2.5459
G1 X117.9670 Y126.4520 E2.6602
G1 X109.5480 Y118.0330 E2.9809
G1 X109.5480 Y122.2760 E3.0952
G1 X113.7240 Y126.4520 E3.2544
G92 E0.0000
G1 E-1 F2400 ; custom retraction
;layer 26, Z = 3.120
;fan26;
G1 Z3.120 F1200
G1 X109.2000 Y126.8000 F8000 ; custom feedrate
G1 E0 F2400 ; custom un-retraction/prime
G92 E0.0000
G1 X109.2000 Y109.2000 E0.3793 F3840 ; custom feedrate
G1 X126.8000 Y109.2000 E0.7587
G1 X126.8000 Y126.8000 E1.1380
G1 X109.2000 Y126.8000 E1.5173
G1 X108.7200 Y127.2800 F8000 ; custom feedrate
G92 E0.0000
G1 X108.7200 Y108.7200 E0.4000 F3840 ; custom feedrate
G1 X127.2800 Y108.7200 E0.8000
G1 X127.2800 Y127.2800 E1.2000
G1 X108.7200 Y127.2800 E1.6001
G1 X108.2400 Y127.7600 F8000 ; custom feedrate
G92 E0.0000
G1 X108.2400 Y108.2400 E0.4207 F2880 ; custom feedrate
G1 X127.7600 Y108.2400 E0.8414
G1 X127.7600 Y127.7600 E1.2621
G1 X108.2400 Y127.7600 E1.6828
G1 X109.5480 Y113.7240 F8000 ; custom feedrate
G92 E0.0000
G1 X113.7240 Y109.5480 E0.1591 F4800 ; custom feedrate
G1 X117.9670 Y109.5480 E0.2734
G1 X109.5480 Y117.9670 E0.5942
G1 X109.5480 Y122.2090 E0.7085
G1 X122.2090 Y109.5480 E1.1909
G1 X126.4520 Y109.5480 E1.3052
G1 X109.5480 Y126.4520 E1.9492
G1 X113.7910 Y126.4520 E2.0635
G1 X126.4520 Y113.7910 E2.5459
G1 X126.4520 Y118.0330 E2.6602
G1 X118.0330 Y126.4520 E2.9809
G1 X122.2760 Y126.4520 E3.0952
G1 X126.4520 Y122.2760 E3.2544
G92 E0.0000
G1 E-1 F2400 ; custom retraction
;layer 27, Z = 3.240
;fan27;
G1 Z3.240 F1200
G1 X126.8000 Y126.8000 F8000 ; custom feedrate
G1 E0 F2400 ; custom un-retraction/prime
G92 E0.0000
G1 X109.2000 Y126.8000 E0.3793 F3840 ; custom feedrate
G1 X109.2000 Y109.2000 E0.7587
G1 X126.8000 Y109.2000 E1.1380
G1 X126.8000 Y126.8000 E1.5173
G1 X127.2800 Y127.2800 F8000 ; custom feedrate
G92 E0.0000
G1 X108.7200 Y127.2800 E0.4000 F3840 ; custom feedrate
G1 X108.7200 Y108.7200 E0.8000
G1 X127.2800 Y108.7200 E1.2000
G1 X127.2800 Y127.2800 E1.6001
G1 X127.7600 Y127.7600 F8000 ; custom feedrate
G92 E0.0000
G1 X108.2400 Y127.7600 E0.4207 F2880 ; custom feedrate
G1 X108.2400 Y108.2400 E0.8414
G1 X127.7600 Y108.2400 E1.2621
G1 X127.7600 Y127.7600 E1.6828
G1 X113.7240 Y126.4520 F8000 ; custom feedrate
G92 E0.0000
G1 X109.5480 Y122.2760 E0.1591 F4800 ; custom feedrate
G1 X109.5480 Y118.0330 E0.2734
G1 X117.9670 Y126.4520 E0.5942
G1 X122.2090 Y126.4520 E0.7085
G1 X109.5480 Y113.7910 E1.1909
G1 X109.5480 Y109.5480 E1.3052
G1 X126.4520 Y126.4520 E1.9492
G1 X126.4520 Y122.2090 E2.0635
G1 X113.7910 Y109.5480 E2.5459
G1 X118.0330 Y109.5480 E2.6602
G1 X126.4520 Y117.9670 E2.9809
G1 X126.4520 Y113.7240 E3.0952
G1 X122.2760 Y109.5480 E3.2544
G92 E0.0000
G1 E-1 F2400 ; custom retraction
;layer 28, Z = 3.360
;fan28;
G1 Z3.360 F1200
G1 X126.8000 Y109.2000 F8000 ; custom feedrate
G1 E0 F2400 ; custom un-retraction/prime
G92 E0.0000
G1 X126.8000 Y126.8000 E0.3793 F3840 ; custom feedrate
G1 X109.2000 Y126.8000 E0.7587
G1 X109.2000 Y109.2000 E1.1380
G1 X126.8000 Y109.2000 E1.5173
G1 X127.2800 Y108.7200 F8000 ; custom feedrate
G92 E0.0000
G1 X127.2800 Y127.2800 E0.4000 F3840 ; custom feedrate
G1 X108.7200 Y127.2800 E0.8000
G1 X108.7200 Y108.7200 E1.2000
G1 X127.2800 Y108.7200 E1.6001
G1 X127.7600 Y108.2400 F8000 ; custom feedrate
G92 E0.0000
G1 X127.7600 Y127.7600 E0.4207 F2880 ; custom feedrate
G1 X108.2400 Y127.7600 E0.8414
G1 X108.2400 Y108.2400 E1.2621
G1 X127.7600 Y108.2400 E1.6828
G1 X123.0640 Y110.8990 F8000 ; custom feedrate
G92 E0.0000
G1 X123.2610 Y110.7030 E0.0060 F3840 ; custom feedrate
G1 X123.2610 Y110.0240 E0.0206
G1 X122.3850 Y110.8990 E0.0473
G1 X121.7070 Y110.8990 E0.0619
G1 X123.1180 Y109.4880 E0.1050
G1 X122.4390 Y109.4880 E0.1196
G1 X121.0280 Y110.8990 E0.1626
G1 X120.3490 Y110.8990 E0.1772
G1 X121.7600 Y109.4880 E0.2203
G1 X121.0810 Y109.4880 E0.2349
G1 X119.6700 Y110.8990 E0.2779
G1 X119.4650 Y110.8990 E0.2823
G1 X119.4660 Y110.4250 E0.2926
G1 X120.4030 Y109.4880 E0.3211
G1 X119.7240 Y109.4880 E0.3357
G1 X119.4660 Y109.7460 E0.3436
G1 X115.5970 Y110.8990 F8000 ; custom feedrate
G92 E0.0000
G1 X115.7210 Y110.7760 E0.0038 F3840 ; custom feedrate
G1 X115.7210 Y110.0970 E0.0184
G1 X114.9180 Y110.8990 E0.0429
G1 X114.2390 Y110.8990 E0.0575
G1 X115.6510 Y109.4880 E0.1005
G1 X114.9720 Y109.4880 E0.1151
G1 X113.5610 Y110.8990 E0.1582
G1 X112.8820 Y110.8990 E0.1728
G1 X114.2930 Y109.4880 E0.2158
G1 X113.6140 Y109.4880 E0.2304
G1 X112.2030 Y110.8990 E0.2735
G1 X112.0890 Y110.8990 E0.2759
G1 X112.0880 Y110.3350 E0.2881
G1 X112.9360 Y109.4880 E0.3139
G1 X112.2570 Y109.4880 E0.3285
G1 X112.0880 Y109.6570 E0.3337
G1 X125.0470 Y116.3840 F8000 ; custom feedrate
G92 E0.0000
G1 X125.6110 Y115.8200 E0.0172 F3840 ; custom feedrate
G1 X126.2890 Y115.8200 E0.0318
G1 X125.0470 Y117.0630 E0.0697
G1 X125.0460 Y117.7420 E0.0843
G1 X126.5120 Y116.2760 E0.1290
G1 X126.5120 Y116.9550 E0.1436
G1 X125.0460 Y118.4210 E0.1883
G1 X125.0460 Y119.1000 E0.2029
G1 X126.5120 Y117.6340 E0.2476
G1 X126.5120 Y118.3130 E0.2623
G1 X125.3080 Y119.5170 E0.2990
G1 X125.9860 Y119.5170 E0.3136
G1 X126.5120 Y118.9920 E0.3296
G1 X126.4520 Y122.2760 F8000 ; custom feedrate
G92 E0.0000
G1 X122.2760 Y126.4520 E0.1591 F4800 ; custom feedrate
G1 X118.0330 Y126.4520 E0.2734
G1 X124.5050 Y119.9800 E0.5200
G1 X124.5070 Y115.7360 E0.6343
G1 X113.7910 Y126.4520 E1.0426
G1 X109.5480 Y126.4520 E1.1569
G1 X126.4520 Y109.5480 E1.8010
G1 X123.8010 Y109.5480 E1.8724
G1 X123.8000 Y111.4390 E1.9233
G1 X120.3180 Y111.4390 E2.0172
G1 X109.5480 Y122.2090 E2.4275
G1 X109.5480 Y117.9670 E2.5418
G1 X116.0750 Y111.4390 E2.7905
G1 X111.8330 Y111.4390 E2.9048
G1 X109.5480 Y113.7240 E2.9918
G92 E0.0000
G1 E-1 F2400 ; custom retraction
;layer 29, Z = 3.480
;fan29;
G1 Z3.480 F1200
G1 X109.2000 Y109.2000 F8000 ; custom feedrate
G1 E0 F2400 ; custom un-retraction/prime
G92 E0.0000
G1 X126.8000 Y109.2000 E0.3793 F3840 ; custom feedrate
G1 X126.8000 Y126.8000 E0.7587
G1 X109.2000 Y126.8000 E1.1380
G1 X109.2000 Y109.2000 E1.5173
G1 X108.7200 Y108.7200 F8000 ; custom feedrate
G92 E0.0000
G1 X127.2800 Y108.7200 E0.4000 F3840 ; custom feedrate
G1 X127.2800 Y127.2800 E0.8000
G1 X108.7200 Y127.2800 E1.2000
G1 X108.7200 Y108.7200 E1.6001
G1 X108.2400 Y108.2400 F8000 ; custom feedrate
G92 E0.0000
G1 X127.7600 Y108.2400 E0.4207 F2880 ; custom feedrate
G1 X127.7600 Y127.7600 E0.8414
G1 X108.2400 Y127.7600 E1.2621
G1 X108.2400 Y108.2400 E1.6828
G1 X112.0890 Y110.7310 F8000 ; custom feedrate
G92 E0.0000
G1 X112.2570 Y110.9000 E0.0051 F3840 ; custom feedrate
G1 X112.9360 Y110.9000 E0.0198
G1 X112.0880 Y110.0520 E0.0456
G1 X112.0880 Y109.4880 E0.0578
G1 X112.2030 Y109.4880 E0.0602
G1 X113.6150 Y110.9000 E0.1033
G1 X114.2940 Y110.9000 E0.1179
G1 X112.8820 Y109.4880 E0.1609
G1 X113.5610 Y109.4880 E0.1755
G1 X114.9720 Y110.9000 E0.2186
G1 X115.6510 Y110.9000 E0.2332
G1 X114.2400 Y109.4880 E0.2762
G1 X114.9190 Y109.4880 E0.2909
G1 X115.7920 Y110.3610 E0.3175
G1 X115.7910 Y109.6820 E0.3321
G1 X115.5970 Y109.4880 E0.3380
G1 X119.3920 Y110.5680 F8000 ; custom feedrate
G92 E0.0000
G1 X119.7240 Y110.9000 E0.0101 F3840 ; custom feedrate
G1 X120.4030 Y110.9000 E0.0247
G1 X119.3930 Y109.8890 E0.0555
G1 X119.3930 Y109.4880 E0.0642
G1 X119.6700 Y109.4880 E0.0702
G1 X121.0820 Y110.9000 E0.1132
G1 X121.7610 Y110.9000 E0.1278
G1 X120.3490 Y109.4880 E0.1708
G1 X121.0280 Y109.4880 E0.1855
G1 X122.4400 Y110.9000 E0.2285
G1 X123.1180 Y110.9000 E0.2431
G1 X121.7070 Y109.4880 E0.2861
G1 X122.3860 Y109.4880 E0.3008
G1 X123.2610 Y110.3630 E0.3275
G1 X123.2610 Y109.6850 E0.3421
G1 X123.0640 Y109.4880 E0.3481
G1 X126.0010 Y115.8190 F8000 ; custom feedrate
G92 E0.0000
G1 X126.5120 Y116.3300 E0.0156 F3840 ; custom feedrate
G1 X126.5120 Y117.0080 E0.0302
G1 X125.3220 Y115.8190 E0.0665
G1 X125.0470 Y115.8200 E0.0724
G1 X125.0470 Y116.2220 E0.0811
G1 X126.5120 Y117.6870 E0.1257
G1 X126.5120 Y118.3660 E0.1404
G1 X125.0470 Y116.9010 E0.1850
G1 X125.0460 Y117.5790 E0.1997
G1 X126.5120 Y119.0450 E0.2443
G1 X126.5120 Y119.5170 E0.2545
G1 X126.3050 Y119.5170 E0.2590
G1 X125.0460 Y118.2580 E0.2974
G1 X125.0460 Y118.9360 E0.3120
G1 X125.6260 Y119.5170 E0.3297
G1 X123.8000 Y111.0720 F8000 ; custom feedrate
G92 E0.0000
G1 X126.4520 Y113.7240 E0.1010 F4800 ; custom feedrate
G1 X126.4520 Y115.2790 E0.1429
G1 X124.5070 Y115.2800 E0.1953
G1 X124.5070 Y116.0220 E0.2153
G1 X119.9250 Y111.4400 E0.3899
G1 X118.8520 Y111.4400 E0.4188
G1 X118.8530 Y110.3670 E0.4477
G1 X118.0330 Y109.5480 E0.4789
G1 X116.3310 Y109.5480 E0.5248
G1 X116.3320 Y111.4400 E0.5757
G1 X115.6820 Y111.4400 E0.5932
G1 X126.4520 Y122.2090 E1.0036
G1 X126.4520 Y126.4520 E1.1179
G1 X109.5480 Y109.5480 E1.7619
G1 X109.5480 Y113.7910 E1.8762
G1 X122.2090 Y126.4520 E2.3586
G1 X117.9670 Y126.4520 E2.4729
G1 X109.5480 Y118.0330 E2.7937
G1 X109.5480 Y122.2760 E2.9080
G1 X113.7240 Y126.4520 E3.0671
G92 E0.0000
G1 E-1 F2400 ; custom retraction
;layer 30, Z = 3.600
;fan30;
G1 Z3.600 F1200
G1 X109.2000 Y126.8000 F8000 ; custom feedrate
G1 E0 F2400 ; custom un-retraction/prime
G92 E0.0000
G1 X109.2000 Y109.2000 E0.3793 F3840 ; custom feedrate
G1 X126.8000 Y109.2000 E0.7587
G1 X126.8000 Y126.8000 E1.1380
G1 X109.2000 Y126.8000 E1.5173
G1 X108.7200 Y127.2800 F8000 ; custom feedrate
G92 E0.0000
G1 X108.7200 Y108.7200 E0.4000 F3840 ; custom feedrate
G1 X127.2800 Y108.7200 E0.8000
G1 X127.2800 Y127.2800 E1.2000
G1 X108.7200 Y127.2800 E1.6001
G1 X108.2400 Y127.7600 F8000 ; custom feedrate
G92 E0.0000
G1 X108.2400 Y108.2400 E0.4207 F2880 ; custom feedrate
G1 X127.7600 Y108.2400 E0.8414
G1 X127.7600 Y127.7600 E1.2621
G1 X108.2400 Y127.7600 E1.6828
G1 X115.5970 Y110.9000 F8000 ; custom feedrate
G92 E0.0000
G1 X115.8630 Y110.6330 E0.0081 F3840 ; custom feedrate
G1 X115.8630 Y109.9550 E0.0227
G1 X114.9180 Y110.9000 E0.0515
G1 X114.2390 Y110.9000 E0.0662
G1 X115.6510 Y109.4880 E0.1092
G1 X114.9720 Y109.4880 E0.1238
G1 X113.5600 Y110.9000 E0.1668
G1 X112.8820 Y110.9000 E0.1815
G1 X114.2930 Y109.4880 E0.2245
G1 X113.6140 Y109.4880 E0.2391
G1 X112.2030 Y110.9000 E0.2821
G1 X112.1550 Y110.9000 E0.2832
G1 X112.0890 Y110.8990 E0.2846
G1 X112.0880 Y110.3350 E0.2968
G1 X112.9360 Y109.4880 E0.3226
G1 X112.2570 Y109.4880 E0.3372
G1 X112.0880 Y109.6570 E0.3424
G1 X119.3200 Y109.8920 F8000 ; custom feedrate
G92 E0.0000
G1 X119.7240 Y109.4880 E0.0123 F3840 ; custom feedrate
G1 X120.4030 Y109.4880 E0.0269
G1 X119.3190 Y110.5710 E0.0600
G1 X119.3190 Y110.9000 E0.0670
G1 X119.6700 Y110.9000 E0.0746
G1 X121.0810 Y109.4880 E0.1176
G1 X121.7600 Y109.4880 E0.1323
G1 X120.3490 Y110.9000 E0.1753
G1 X121.0270 Y110.9000 E0.1899
G1 X122.4390 Y109.4880 E0.2329
G1 X123.1180 Y109.4880 E0.2476
G1 X121.7060 Y110.9000 E0.2906
G1 X122.3850 Y110.9000 E0.3052
G1 X123.2610 Y110.0240 E0.3319
G1 X123.2610 Y110.7030 E0.3466
G1 X123.0640 Y110.9000 E0.3526
G1 X125.0470 Y116.3840 F8000 ; custom feedrate
G92 E0.0000
G1 X125.6130 Y115.8180 E0.0173 F3840 ; custom feedrate
G1 X126.2920 Y115.8180 E0.0319
G1 X125.0470 Y117.0630 E0.0698
G1 X125.0460 Y117.7420 E0.0845
G1 X126.5120 Y116.2760 E0.1291
G1 X126.5120 Y116.9550 E0.1438
G1 X125.0460 Y118.4210 E0.1885
G1 X125.0460 Y119.1000 E0.2031
G1 X126.5120 Y117.6340 E0.2478
G1 X126.5120 Y118.3130 E0.2624
G1 X125.3080 Y119.5170 E0.2991
G1 X125.9860 Y119.5170 E0.3138
G1 X126.5120 Y118.9920 E0.3298
G1 X126.4520 Y122.2760 F8000 ; custom feedrate
G92 E0.0000
G1 X122.2760 Y126.4520 E0.1591 F4800 ; custom feedrate
G1 X118.0330 Y126.4520 E0.2734
G1 X124.5050 Y119.9800 E0.5200
G1 X124.5070 Y115.7360 E0.6343
G1 X113.7910 Y126.4520 E1.0426
G1 X109.5480 Y126.4520 E1.1569
G1 X126.4520 Y109.5480 E1.8010
G1 X123.8010 Y109.5480 E1.8724
G1 X123.8000 Y111.4390 E1.9233
G1 X123.7250 Y111.4390 E1.9254
G1 X123.6490 Y111.4400 E1.9274
G1 X120.3180 Y111.4400 E2.0172
G1 X109.5480 Y122.2090 E2.4275
G1 X109.5480 Y117.9670 E2.5418
G1 X116.0750 Y111.4400 E2.7905
G1 X111.8320 Y111.4400 E2.9048
G1 X109.5480 Y113.7240 E2.9918
G92 E0.0000
G1 E-1 F2400 ; custom retraction
;layer 31, Z = 3.720
;fan31;
G1 Z3.720 F1200
G1 X109.2000 Y109.2000 F8000 ; custom feedrate
G1 E0 F2400 ; custom un-retraction/prime
G92 E0.0000
G1 X126.8000 Y109.2000 E0.3793 F3840 ; custom feedrate
G1 X126.8000 Y126.8000 E0.7587
G1 X109.2000 Y126.8000 E1.1380
G1 X109.2000 Y109.2000 E1.5173
G1 X108.7200 Y108.7200 F8000 ; custom feedrate
G92 E0.0000
G1 X127.2800 Y108.7200 E0.4000 F3840 ; custom feedrate
G1 X127.2800 Y127.2800 E0.8000
G1 X108.7200 Y127.2800 E1.2000
G1 X108.7200 Y108.7200 E1.6001
G1 X108.2400 Y108.2400 F8000 ; custom feedrate
G92 E0.0000
G1 X127.7600 Y108.2400 E0.4207 F2880 ; custom feedrate
G1 X127.7600 Y127.7600 E0.8414
G1 X108.2400 Y127.7600 E1.2621
G1 X108.2400 Y108.2400 E1.6828
G1 X112.0890 Y110.7310 F8000 ; custom feedrate
G92 E0.0000
G1 X112.2570 Y110.9000 E0.0051 F3840 ; custom feedrate
G1 X112.2890 Y110.9000 E0.0058
G1 X112.9360 Y110.9000 E0.0198
G1 X112.0880 Y110.0520 E0.0456
G1 X112.0880 Y109.4880 E0.0578
G1 X112.2030 Y109.4880 E0.0603
G1 X113.6150 Y110.9000 E0.1033
G1 X114.2940 Y110.9000 E0.1179
G1 X112.8820 Y109.4880 E0.1609
G1 X113.5610 Y109.4880 E0.1756
G1 X114.9730 Y110.9000 E0.2186
G1 X115.6510 Y110.9000 E0.2332
G1 X114.2400 Y109.4880 E0.2763
G1 X114.9190 Y109.4880 E0.2909
G1 X115.9340 Y110.5030 E0.3218
G1 X115.9340 Y109.8240 E0.3365
G1 X115.5970 Y109.4880 E0.3467
G1 X119.2460 Y110.4220 F8000 ; custom feedrate
G92 E0.0000
G1 X119.7240 Y110.9000 E0.0146 F3840 ; custom feedrate
G1 X120.4030 Y110.9000 E0.0292
G1 X119.2470 Y109.7430 E0.0645
G1 X119.2470 Y109.4880 E0.0700
G1 X119.6700 Y109.4880 E0.0791
G1 X121.0820 Y110.9000 E0.1221
G1 X121.7610 Y110.9000 E0.1367
G1 X120.3490 Y109.4880 E0.1798
G1 X121.0280 Y109.4880 E0.1944
G1 X122.4400 Y110.9000 E0.2374
G1 X123.0330 Y110.9000 E0.2502
G1 X123.1090 Y110.9000 E0.2519
G1 X123.1180 Y110.9000 E0.2521
G1 X121.7070 Y109.4880 E0.2951
G1 X122.3860 Y109.4880 E0.3097
G1 X123.2610 Y110.3630 E0.3364
G1 X123.2610 Y109.6850 E0.3510
G1 X123.0640 Y109.4880 E0.3570
G1 X125.9990 Y115.8160 F8000 ; custom feedrate
G92 E0.0000
G1 X126.5120 Y116.3300 E0.0156 F3840 ; custom feedrate
G1 X126.5120 Y117.0080 E0.0303
G1 X125.3200 Y115.8160 E0.0666
G1 X125.0470 Y115.8200 E0.0726
G1 X125.0470 Y116.2220 E0.0812
G1 X126.5120 Y117.6870 E0.1259
G1 X126.5120 Y118.3660 E0.1405
G1 X125.0470 Y116.9010 E0.1852
G1 X125.0460 Y117.5790 E0.1998
G1 X126.5120 Y119.0450 E0.2445
G1 X126.5120 Y119.5170 E0.2547
G1 X126.3050 Y119.5170 E0.2591
G1 X125.0460 Y118.2580 E0.2975
G1 X125.0460 Y118.9360 E0.3121
G1 X125.6260 Y119.5170 E0.3298
G1 X123.8000 Y111.0720 F8000 ; custom feedrate
G92 E0.0000
G1 X126.4520 Y113.7240 E0.1010 F4800 ; custom feedrate
G1 X126.4520 Y115.2770 E0.1428
G1 X124.5070 Y115.2800 E0.1953
G1 X124.5070 Y116.0220 E0.2153
G1 X119.9250 Y111.4400 E0.3899
G1 X118.7060 Y111.4400 E0.4228
G1 X118.7060 Y110.2210 E0.4556
G1 X118.0330 Y109.5480 E0.4812
G1 X116.4740 Y109.5480 E0.5233
G1 X116.4750 Y111.4400 E0.5742
G1 X115.6820 Y111.4400 E0.5956
G1 X126.4520 Y122.2090 E1.0059
G1 X126.4520 Y126.4520 E1.1202
G1 X109.5480 Y109.5480 E1.7642
G1 X109.5480 Y113.7910 E1.8785
G1 X122.2090 Y126.4520 E2.3609
G1 X117.9670 Y126.4520 E2.4752
G1 X109.5480 Y118.0330 E2.7960
G1 X109.5480 Y122.2760 E2.9103
G1 X113.7240 Y126.4520 E3.0694
G92 E0.0000
G1 E-1 F2400 ; custom retraction
;layer 32, Z = 3.840
;fan32;
G1 Z3.840 F1200
G1 X109.2000 Y126.8000 F8000 ; custom feedrate
G1 E0 F2400 ; custom un-retraction/prime
G92 E0.0000
G1 X109.2000 Y109.2000 E0.3793 F3840 ; custom feedrate
G1 X111.8960 Y109.2000 E0.4374
G1 X111.8970 Y111.0910 E0.4782
G1 X115.9130 Y111.0910 E0.5648
G1 X115.9120 Y109.2000 E0.6055
G1 X119.2740 Y109.2000 E0.6780
G1 X119.2730 Y111.0910 E0.7187
G1 X123.4520 Y111.0910 E0.8088
G1 X123.4530 Y109.2000 E0.8496
G1 X126.8000 Y109.2000 E0.9217
G1 X126.8000 Y115.6290 E1.0603
G1 X124.8550 Y115.6280 E1.1022
G1 X124.8530 Y119.7090 E1.1901
G1 X126.8000 Y119.7090 E1.2321
G1 X126.8000 Y126.8000 E1.3849
G1 X109.2000 Y126.8000 E1.7642
G1 X108.7200 Y127.2800 F8000 ; custom feedrate
G92 E0.0000
G1 X108.7200 Y108.7200 E0.4000 F3840 ; custom feedrate
G1 X112.3760 Y108.7200 E0.4788
G1 X112.3770 Y110.6110 E0.5196
G1 X115.4330 Y110.6110 E0.5854
G1 X115.4320 Y108.7200 E0.6262
G1 X119.7540 Y108.7200 E0.7194
G1 X119.7540 Y110.6110 E0.7601
G1 X122.9730 Y110.6110 E0.8295
G1 X122.9740 Y108.7200 E0.8703
G1 X127.2800 Y108.7200 E0.9631
G1 X127.2800 Y116.1090 E1.1223
G1 X125.3350 Y116.1080 E1.1643
G1 X125.3340 Y119.2290 E1.2315
G1 X127.2800 Y119.2300 E1.2735
G1 X127.2800 Y127.2800 E1.4470
G1 X108.7200 Y127.2800 E1.8470
G1 X108.2400 Y127.7600 F8000 ; custom feedrate
G92 E0.0000
G1 X108.2400 Y108.2400 E0.4207 F2880 ; custom feedrate
G1 X112.8550 Y108.2400 E0.5202
G1 X112.8560 Y110.1310 E0.5609
G1 X114.9530 Y110.1310 E0.6061
G1 X114.9520 Y108.2400 E0.6469
G1 X120.2350 Y108.2400 E0.7608
G1 X120.2340 Y110.1310 E0.8015
G1 X122.4930 Y110.1310 E0.8502
G1 X122.4940 Y108.2400 E0.8910
G1 X127.7600 Y108.2400 E1.0045
G1 X127.7600 Y116.5890 E1.1844
G1 X125.8150 Y116.5880 E1.2263
G1 X125.8140 Y118.7490 E1.2729
G1 X127.7600 Y118.7500 E1.3149
G1 X127.7600 Y127.7600 E1.5090
G1 X108.2400 Y127.7600 E1.9298
G1 X109.5480 Y113.7240 F8000 ; custom feedrate
G92 E0.0000
G1 X111.8330 Y111.4390 E0.0870 F4800 ; custom feedrate
G1 X116.0750 Y111.4390 E0.2013
G1 X109.5480 Y117.9670 E0.4500
G1 X109.5480 Y122.2090 E0.5643
G1 X120.3180 Y111.4390 E0.9747
G1 X123.8000 Y111.4390 E1.0685
G1 X123.8010 Y109.5480 E1.1194
G1 X126.4520 Y109.5480 E1.1909
G1 X109.5480 Y126.4520 E1.8349
G1 X113.7910 Y126.4520 E1.9492
G1 X124.5070 Y115.7360 E2.3575
G1 X124.5050 Y119.9800 E2.4718
G1 X118.0330 Y126.4520 E2.7184
G1 X122.2760 Y126.4520 E2.8327
G1 X126.4520 Y122.2760 E2.9918
G92 E0.0000
G1 E-1 F2400 ; custom retraction
;layer 33, Z = 3.960
;fan33;
G1 Z3.960 F1200
G1 X126.8000 Y119.7080 F8000 ; custom feedrate
G1 E0 F2400 ; custom un-retraction/prime
G92 E0.0000
G1 X126.8000 Y126.8000 E0.1528 F3840 ; custom feedrate
G1 X109.2000 Y126.8000 E0.5322
G1 X109.2000 Y109.2000 E0.9115
G1 X111.9630 Y109.2000 E0.9710
G1 X111.9630 Y111.0920 E1.0118
G1 X115.9840 Y111.0920 E1.0985
G1 X115.9830 Y109.2000 E1.1392
G1 X119.2010 Y109.2000 E1.2086
G1 X119.2000 Y111.0920 E1.2494
G1 X123.3770 Y111.0920 E1.3394
G1 X123.3780 Y109.2000 E1.3801
G1 X126.8000 Y109.2000 E1.4539
G1 X126.8000 Y115.6270 E1.5924
G1 X124.8550 Y115.6260 E1.6343
G1 X124.8540 Y119.7070 E1.7223
G1 X126.8000 Y119.7080 E1.7642
G1 X127.2800 Y119.2280 F8000 ; custom feedrate
G92 E0.0000
G1 X127.2800 Y127.2800 E0.1735 F3840 ; custom feedrate
G1 X108.7200 Y127.2800 E0.5736
G1 X108.7200 Y108.7200 E0.9736
G1 X112.4420 Y108.7200 E1.0538
G1 X112.4430 Y110.6120 E1.0946
G1 X115.5040 Y110.6120 E1.1605
G1 X115.5030 Y108.7200 E1.2013
G1 X119.6810 Y108.7200 E1.2913
G1 X119.6800 Y110.6120 E1.3321
G1 X122.8970 Y110.6120 E1.4014
G1 X122.8980 Y108.7200 E1.4422
G1 X127.2800 Y108.7200 E1.5367
G1 X127.2800 Y116.1080 E1.6959
G1 X125.3350 Y116.1070 E1.7378
G1 X125.3340 Y119.2270 E1.8050
G1 X127.2800 Y119.2280 E1.8470
G1 X127.7600 Y118.7490 F8000 ; custom feedrate
G92 E0.0000
G1 X127.7600 Y127.7600 E0.1942 F2880 ; custom feedrate
G1 X108.2400 Y127.7600 E0.6149
G1 X108.2400 Y108.2400 E1.0356
G1 X112.9220 Y108.2400 E1.1365
G1 X112.9230 Y110.1320 E1.1773
G1 X115.0240 Y110.1320 E1.2226
G1 X115.0230 Y108.2400 E1.2634
G1 X120.1620 Y108.2400 E1.3741
G1 X120.1610 Y110.1320 E1.4149
G1 X122.4170 Y110.1320 E1.4635
G1 X122.4180 Y108.2400 E1.5043
G1 X127.7600 Y108.2400 E1.6194
G1 X127.7600 Y116.5880 E1.7993
G1 X125.8150 Y116.5870 E1.8412
G1 X125.8140 Y118.7480 E1.8878
G1 X127.7600 Y118.7490 E1.9298
G92 E0.0000
G1 E-1 F2400 ; custom retraction
;zhop1
G1 X125.8140 Y118.7480 F8000 ; custom feedrate
G1 X125.8150 Y116.5870
G1 X126.6350 Y116.5870
G1 X123.7250 Y110.9970
G1 Z3.960 F1200
G1 E0 F2400 ; custom un-retraction/prime
G92 E0.0000
G1 X126.4520 Y113.7240 E0.1039 F4800 ; custom feedrate
G1 X126.4520 Y115.2790 E0.1458
G1 X124.5080 Y115.2780 E0.1982
G1 X124.5070 Y116.0220 E0.2182
G1 X119.9250 Y111.4400 E0.3928
G1 X118.8520 Y111.4400 E0.4217
G1 X118.8530 Y110.3670 E0.4506
G1 X118.0330 Y109.5480 E0.4818
G1 X116.3310 Y109.5480 E0.5277
G1 X116.3320 Y111.4400 E0.5786
G1 X115.6820 Y111.4400 E0.5961
G1 X126.4520 Y122.2090 E1.0065
G1 X126.4520 Y126.4520 E1.1208
G1 X109.5480 Y109.5480 E1.7648
G1 X109.5480 Y113.7910 E1.8791
G1 X122.2090 Y126.4520 E2.3615
G1 X117.9670 Y126.4520 E2.4758
G1 X109.5480 Y118.0330 E2.7966
G1 X109.5480 Y122.2760 E2.9109
G1 X113.7240 Y126.4520 E3.0700
G92 E0.0000
G1 E-1 F2400 ; custom retraction
;layer 34, Z = 4.080
;fan34;
G1 Z4.080 F1200
G1 X109.2000 Y126.8000 F8000 ; custom feedrate
G1 E0 F2400 ; custom un-retraction/prime
G92 E0.0000
G1 X109.2000 Y109.2000 E0.3793 F3840 ; custom feedrate
G1 X112.0290 Y109.2000 E0.4403
G1 X112.0300 Y111.0920 E0.4811
G1 X116.0550 Y111.0920 E0.5678
G1 X116.0540 Y109.2000 E0.6086
G1 X119.1280 Y109.2000 E0.6748
G1 X119.1270 Y111.0920 E0.7156
G1 X123.3010 Y111.0920 E0.8056
G1 X123.3020 Y109.2000 E0.8463
G1 X126.8000 Y109.2000 E0.9217
G1 X126.8000 Y115.6260 E1.0602
G1 X124.8560 Y115.6250 E1.1021
G1 X124.8540 Y119.7060 E1.1901
G1 X126.8000 Y119.7070 E1.2320
G1 X126.8000 Y126.8000 E1.3849
G1 X109.2000 Y126.8000 E1.7642
G1 X108.7200 Y127.2800 F8000 ; custom feedrate
G92 E0.0000
G1 X108.7200 Y108.7200 E0.4000 F3840 ; custom feedrate
G1 X112.5090 Y108.7200 E0.4817
G1 X112.5100 Y110.6120 E0.5224
G1 X115.5750 Y110.6120 E0.5885
G1 X115.5740 Y108.7200 E0.6293
G1 X119.6080 Y108.7200 E0.7162
G1 X119.6070 Y110.6120 E0.7570
G1 X122.8210 Y110.6120 E0.8263
G1 X122.8220 Y108.7200 E0.8670
G1 X127.2800 Y108.7200 E0.9631
G1 X127.2800 Y116.1060 E1.1223
G1 X125.3350 Y116.1050 E1.1642
G1 X125.3340 Y119.2260 E1.2315
G1 X127.2800 Y119.2270 E1.2734
G1 X127.2800 Y127.2800 E1.4470
G1 X108.7200 Y127.2800 E1.8470
G1 X108.2400 Y127.7600 F8000 ; custom feedrate
G92 E0.0000
G1 X108.2400 Y108.2400 E0.4207 F2880 ; custom feedrate
G1 X112.9890 Y108.2400 E0.5231
G1 X112.9900 Y110.1320 E0.5638
G1 X115.0950 Y110.1320 E0.6092
G1 X115.0940 Y108.2400 E0.6500
G1 X120.0880 Y108.2400 E0.7576
G1 X120.0880 Y110.1320 E0.7984
G1 X122.3410 Y110.1320 E0.8470
G1 X122.3420 Y108.2400 E0.8877
G1 X127.7600 Y108.2400 E1.0045
G1 X127.7600 Y116.5860 E1.1844
G1 X125.8150 Y116.5860 E1.2263
G1 X125.8140 Y118.7460 E1.2729
G1 X127.7600 Y118.7470 E1.3148
G1 X127.7600 Y127.7600 E1.5091
G1 X108.2400 Y127.7600 E1.9298
G1 X109.5480 Y113.7240 F8000 ; custom feedrate
G92 E0.0000
G1 X111.8320 Y111.4400 E0.0870 F4800 ; custom feedrate
G1 X116.0750 Y111.4400 E0.2013
G1 X109.5480 Y117.9670 E0.4500
G1 X109.5480 Y122.2090 E0.5643
G1 X120.3180 Y111.4400 E0.9746
G1 X123.6490 Y111.4400 E1.0644
G1 X123.6500 Y109.5480 E1.1153
G1 X126.4520 Y109.5480 E1.1908
G1 X109.5480 Y126.4520 E1.8349
G1 X113.7910 Y126.4520 E1.9492
G1 X124.5070 Y115.7350 E2.3575
G1 X124.5060 Y119.9800 E2.4718
G1 X118.0330 Y126.4520 E2.7184
G1 X122.2760 Y126.4520 E2.8327
G1 X126.4520 Y122.2760 E2.9918
G92 E0.0000
G1 E-1 F2400 ; custom retraction
;layer 35, Z = 4.200
;fan35;
G1 Z4.200 F1200
G1 X126.8000 Y119.7060 F8000 ; custom feedrate
G1 E0 F2400 ; custom un-retraction/prime
G92 E0.0000
G1 X126.8000 Y126.8000 E0.1529 F3840 ; custom feedrate
G1 X109.2000 Y126.8000 E0.5322
G1 X109.2000 Y109.2000 E0.9116
G1 X112.0960 Y109.2000 E0.9740
G1 X112.0970 Y111.0920 E1.0147
G1 X116.1260 Y111.0920 E1.1016
G1 X116.1250 Y109.2000 E1.1424
G1 X119.0550 Y109.2000 E1.2055
G1 X119.0540 Y111.0920 E1.2463
G1 X123.2250 Y111.0920 E1.3362
G1 X123.2260 Y109.2000 E1.3769
G1 X126.8000 Y109.2000 E1.4540
G1 X126.8000 Y115.6250 E1.5924
G1 X124.8560 Y115.6240 E1.6343
G1 X124.8540 Y119.7050 E1.7223
G1 X126.8000 Y119.7060 E1.7642
G1 X127.2800 Y119.2260 F8000 ; custom feedrate
G92 E0.0000
G1 X127.2800 Y127.2800 E0.1736 F3840 ; custom feedrate
G1 X108.7200 Y127.2800 E0.5736
G1 X108.7200 Y108.7200 E0.9736
G1 X112.5760 Y108.7200 E1.0567
G1 X112.5760 Y110.6120 E1.0975
G1 X115.6460 Y110.6120 E1.1636
G1 X115.6450 Y108.7200 E1.2044
G1 X119.5350 Y108.7200 E1.2883
G1 X119.5340 Y110.6120 E1.3290
G1 X122.7450 Y110.6120 E1.3982
G1 X122.7460 Y108.7200 E1.4390
G1 X127.2800 Y108.7200 E1.5367
G1 X127.2800 Y116.1050 E1.6959
G1 X125.3360 Y116.1040 E1.7378
G1 X125.3340 Y119.2250 E1.8051
G1 X127.2800 Y119.2260 E1.8470
G1 X127.7600 Y118.7460 F8000 ; custom feedrate
G92 E0.0000
G1 X127.7600 Y127.7600 E0.1943 F2880 ; custom feedrate
G1 X108.2400 Y127.7600 E0.6150
G1 X108.2400 Y108.2400 E1.0357
G1 X113.0550 Y108.2400 E1.1395
G1 X113.0560 Y110.1320 E1.1802
G1 X115.1660 Y110.1320 E1.2257
G1 X115.1650 Y108.2400 E1.2665
G1 X120.0150 Y108.2400 E1.3710
G1 X120.0140 Y110.1320 E1.4118
G1 X122.2650 Y110.1320 E1.4603
G1 X122.2660 Y108.2400 E1.5011
G1 X127.7600 Y108.2400 E1.6195
G1 X127.7600 Y116.5850 E1.7993
G1 X125.8150 Y116.5840 E1.8413
G1 X125.8140 Y118.7450 E1.8878
G1 X127.7600 Y118.7460 E1.9298
G92 E0.0000
G1 E-1 F2400 ; custom retraction
;zhop1
G1 X125.8140 Y118.7450 F8000 ; custom feedrate
G1 X125.8150 Y116.5840
G1 X126.6150 Y116.5850
G1 X123.5730 Y110.8450
G1 Z4.200 F1200
G1 E0 F2400 ; custom un-retraction/prime
G92 E0.0000
G1 X126.4520 Y113.7240 E0.1097 F4800 ; custom feedrate
G1 X126.4520 Y115.2770 E0.1515
G1 X124.5080 Y115.2760 E0.2039
G1 X124.5080 Y116.0220 E0.2240
G1 X119.9250 Y111.4400 E0.3986
G1 X118.7060 Y111.4400 E0.4314
G1 X118.7060 Y110.2210 E0.4643
G1 X118.0330 Y109.5480 E0.4899
G1 X116.4740 Y109.5480 E0.5319
G1 X116.4750 Y111.4400 E0.5829
G1 X115.6820 Y111.4400 E0.6042
G1 X126.4520 Y122.2090 E1.0146
G1 X126.4520 Y126.4520 E1.1289
G1 X109.5480 Y109.5480 E1.7729
G1 X109.5480 Y113.7910 E1.8872
G1 X122.2090 Y126.4520 E2.3696
G1 X117.9670 Y126.4520 E2.4839
G1 X109.5480 Y118.0330 E2.8047
G1 X109.5480 Y122.2760 E2.9190
G1 X113.7240 Y126.4520 E3.0781
G92 E0.0000
G1 E-1 F2400 ; custom retraction
;layer 36, Z = 4.320
;fan36;
G1 Z4.320 F1200
G1 X109.2000 Y126.8000 F8000 ; custom feedrate
G1 E0 F2400 ; custom un-retraction/prime
G92 E0.0000
G1 X109.2000 Y109.2000 E0.3793 F3840 ; custom feedrate
G1 X112.1620 Y109.2000 E0.4432
G1 X112.1630 Y111.0920 E0.4839
G1 X116.1970 Y111.0920 E0.5709
G1 X116.1970 Y109.2000 E0.6117
G1 X118.9820 Y109.2000 E0.6717
G1 X118.9810 Y111.0920 E0.7125
G1 X123.1490 Y111.0920 E0.8023
G1 X123.1500 Y109.2000 E0.8431
G1 X126.8000 Y109.2000 E0.9217
G1 X126.8000 Y115.6230 E1.0602
G1 X124.8560 Y115.6230 E1.1021
G1 X124.8540 Y119.7030 E1.1900
G1 X126.8000 Y119.7040 E1.2320
G1 X126.8000 Y126.8000 E1.3849
G1 X109.2000 Y126.8000 E1.7642
G1 X108.7200 Y127.2800 F8000 ; custom feedrate
G92 E0.0000
G1 X108.7200 Y108.7200 E0.4000 F3840 ; custom feedrate
G1 X112.6420 Y108.7200 E0.4845
G1 X112.6430 Y110.6120 E0.5253
G1 X115.7170 Y110.6120 E0.5916
G1 X115.7160 Y108.7200 E0.6324
G1 X119.4620 Y108.7200 E0.7131
G1 X119.4610 Y110.6120 E0.7539
G1 X122.6690 Y110.6120 E0.8230
G1 X122.6700 Y108.7200 E0.8638
G1 X127.2800 Y108.7200 E0.9631
G1 X127.2800 Y116.1040 E1.1223
G1 X125.3360 Y116.1030 E1.1642
G1 X125.3340 Y119.2240 E1.2314
G1 X127.2800 Y119.2240 E1.2734
G1 X127.2800 Y127.2800 E1.4470
G1 X108.7200 Y127.2800 E1.8470
G1 X108.2400 Y127.7600 F8000 ; custom feedrate
G92 E0.0000
G1 X108.2400 Y108.2400 E0.4207 F2880 ; custom feedrate
G1 X113.1220 Y108.2400 E0.5259
G1 X113.1230 Y110.1320 E0.5667
G1 X115.2370 Y110.1320 E0.6123
G1 X115.2360 Y108.2400 E0.6530
G1 X119.9420 Y108.2400 E0.7545
G1 X119.9410 Y110.1320 E0.7952
G1 X122.1890 Y110.1320 E0.8437
G1 X122.1900 Y108.2400 E0.8845
G1 X127.7600 Y108.2400 E1.0045
G1 X127.7600 Y116.5840 E1.1843
G1 X125.8150 Y116.5830 E1.2262
G1 X125.8150 Y118.7440 E1.2728
G1 X127.7600 Y118.7450 E1.3147
G1 X127.7600 Y127.7600 E1.5091
G1 X108.2400 Y127.7600 E1.9298
G1 X109.5480 Y113.7240 F8000 ; custom feedrate
G92 E0.0000
G1 X111.8320 Y111.4400 E0.0870 F4800 ; custom feedrate
G1 X116.0750 Y111.4400 E0.2013
G1 X109.5480 Y117.9670 E0.4500
G1 X109.5480 Y122.2090 E0.5643
G1 X120.3180 Y111.4400 E0.9746
G1 X123.4970 Y111.4400 E1.0603
G1 X123.4980 Y109.5480 E1.1112
G1 X126.4520 Y109.5480 E1.1908
G1 X109.5480 Y126.4520 E1.8349
G1 X113.7910 Y126.4520 E1.9492
G1 X124.5080 Y115.7350 E2.3575
G1 X124.5060 Y119.9790 E2.4718
G1 X118.0330 Y126.4520 E2.7185
G1 X122.2760 Y126.4520 E2.8328
G1 X126.4520 Y122.2760 E2.9919
G92 E0.0000
G1 E-1 F2400 ; custom retraction
;layer 37, Z = 4.440
;fan37;
G1 Z4.440 F1200
G1 X126.8000 Y119.7030 F8000 ; custom feedrate
G1 E0 F2400 ; custom un-retraction/prime
G92 E0.0000
G1 X126.8000 Y126.8000 E0.1530 F3840 ; custom feedrate
G1 X109.2000 Y126.8000 E0.5323
G1 X109.2000 Y109.2000 E0.9116
G1 X112.2290 Y109.2000 E0.9769
G1 X112.2300 Y111.0920 E1.0177
G1 X116.2690 Y111.0920 E1.1047
G1 X116.2680 Y109.2000 E1.1455
G1 X118.9090 Y109.2000 E1.2024
G1 X118.9080 Y111.0920 E1.2432
G1 X123.0730 Y111.0920 E1.3330
G1 X123.0740 Y109.2000 E1.3737
G1 X126.8000 Y109.2000 E1.4540
G1 X126.8000 Y115.6220 E1.5925
G1 X124.8560 Y115.6210 E1.6343
G1 X124.8540 Y119.7020 E1.7223
G1 X126.8000 Y119.7030 E1.7642
G1 X127.2800 Y119.2230 F8000 ; custom feedrate
G92 E0.0000
G1 X127.2800 Y127.2800 E0.1736 F3840 ; custom feedrate
G1 X108.7200 Y127.2800 E0.5737
G1 X108.7200 Y108.7200 E0.9737
G1 X112.7090 Y108.7200 E1.0596
G1 X112.7100 Y110.6120 E1.1004
G1 X115.7880 Y110.6120 E1.1668
G1 X115.7870 Y108.7200 E1.2076
G1 X119.3890 Y108.7200 E1.2852
G1 X119.3880 Y110.6120 E1.3259
G1 X122.5930 Y110.6120 E1.3950
G1 X122.5940 Y108.7200 E1.4358
G1 X127.2800 Y108.7200 E1.5368
G1 X127.2800 Y116.1020 E1.6959
G1 X125.3360 Y116.1010 E1.7378
G1 X125.3350 Y119.2220 E1.8051
G1 X127.2800 Y119.2230 E1.8470
G1 X127.7600 Y118.7430 F8000 ; custom feedrate
G92 E0.0000
G1 X127.7600 Y127.7600 E0.1943 F2880 ; custom feedrate
G1 X108.2400 Y127.7600 E0.6150
G1 X108.2400 Y108.2400 E1.0357
G1 X113.1890 Y108.2400 E1.1424
G1 X113.1890 Y110.1320 E1.1832
G1 X115.3080 Y110.1320 E1.2288
G1 X115.3070 Y108.2400 E1.2696
G1 X119.8690 Y108.2400 E1.3679
G1 X119.8680 Y110.1320 E1.4087
G1 X122.1140 Y110.1320 E1.4571
G1 X122.1150 Y108.2400 E1.4979
G1 X127.7600 Y108.2400 E1.6196
G1 X127.7600 Y116.5830 E1.7994
G1 X125.8160 Y116.5820 E1.8413
G1 X125.8150 Y118.7420 E1.8878
G1 X127.7600 Y118.7430 E1.9298
G92 E0.0000
G1 E-1 F2400 ; custom retraction
;zhop1
G1 X125.8150 Y118.7420 F8000 ; custom feedrate
G1 X125.8160 Y116.5820
G1 X126.5950 Y116.5820
G1 X123.4210 Y110.6930
G1 Z4.440 F1200
G1 E0 F2400 ; custom un-retraction/prime
G92 E0.0000
G1 X126.4520 Y113.7240 E0.1155 F4800 ; custom feedrate
G1 X126.4520 Y115.2740 E0.1572
G1 X124.5080 Y115.2730 E0.2096
G1 X124.5080 Y116.0230 E0.2298
G1 X119.9250 Y111.4400 E0.4044
G1 X118.5600 Y111.4400 E0.4412
G1 X118.5600 Y110.0750 E0.4779
G1 X118.0330 Y109.5480 E0.4980
G1 X116.6160 Y109.5480 E0.5362
G1 X116.6170 Y111.4400 E0.5872
G1 X115.6830 Y111.4400 E0.6124
G1 X126.4520 Y122.2090 E1.0227
G1 X126.4520 Y126.4520 E1.1370
G1 X109.5480 Y109.5480 E1.7810
G1 X109.5480 Y113.7910 E1.8953
G1 X122.2090 Y126.4520 E2.3777
G1 X117.9670 Y126.4520 E2.4920
G1 X109.5480 Y118.0330 E2.8128
G1 X109.5480 Y122.2760 E2.9271
G1 X113.7240 Y126.4520 E3.0862
G92 E0.0000
G1 E-1 F2400 ; custom retraction
;layer 38, Z = 4.560
;fan38;
G1 Z4.560 F1200
G1 X109.2000 Y126.8000 F8000 ; custom feedrate
G1 E0 F2400 ; custom un-retraction/prime
G92 E0.0000
G1 X109.2000 Y109.2000 E0.3793 F3840 ; custom feedrate
G1 X112.2960 Y109.2000 E0.4460
G1 X112.2960 Y111.0920 E0.4868
G1 X116.3400 Y111.0920 E0.5740
G1 X116.3390 Y109.2000 E0.6147
G1 X118.8360 Y109.2000 E0.6686
G1 X118.8350 Y111.0920 E0.7093
G1 X122.9970 Y111.0920 E0.7990
G1 X122.9980 Y109.2000 E0.8398
G1 X126.8000 Y109.2000 E0.9218
G1 X126.8000 Y115.6210 E1.0601
G1 X124.8560 Y115.6200 E1.1020
G1 X124.8540 Y119.7010 E1.1900
G1 X126.8000 Y119.7020 E1.2319
G1 X126.8000 Y126.8000 E1.3849
G1 X109.2000 Y126.8000 E1.7642
G1 X108.7200 Y127.2800 F8000 ; custom feedrate
G92 E0.0000
G1 X108.7200 Y108.7200 E0.4000 F3840 ; custom feedrate
G1 X112.7750 Y108.7200 E0.4874
G1 X112.7760 Y110.6120 E0.5282
G1 X115.8590 Y110.6120 E0.5946
G1 X115.8580 Y108.7200 E0.6354
G1 X119.3160 Y108.7200 E0.7099
G1 X119.3150 Y110.6120 E0.7507
G1 X122.5170 Y110.6120 E0.8197
G1 X122.5180 Y108.7200 E0.8605
G1 X127.2800 Y108.7200 E0.9631
G1 X127.2800 Y116.1010 E1.1222
G1 X125.3360 Y116.1000 E1.1641
G1 X125.3350 Y119.2210 E1.2314
G1 X127.2800 Y119.2220 E1.2733
G1 X127.2800 Y127.2800 E1.4470
G1 X108.7200 Y127.2800 E1.8470
G1 X108.2400 Y127.7600 F8000 ; custom feedrate
G92 E0.0000
G1 X108.2400 Y108.2400 E0.4207 F2880 ; custom feedrate
G1 X113.2550 Y108.2400 E0.5288
G1 X113.2560 Y110.1320 E0.5696
G1 X115.3790 Y110.1320 E0.6153
G1 X115.3780 Y108.2400 E0.6561
G1 X119.7960 Y108.2400 E0.7513
G1 X119.7950 Y110.1320 E0.7921
G1 X122.0380 Y110.1320 E0.8404
G1 X122.0390 Y108.2400 E0.8812
G1 X127.7600 Y108.2400 E1.0045
G1 X127.7600 Y116.5810 E1.1843
G1 X125.8160 Y116.5800 E1.2262
G1 X125.8150 Y118.7410 E1.2728
G1 X127.7600 Y118.7420 E1.3147
G1 X127.7600 Y127.7600 E1.5091
G1 X108.2400 Y127.7600 E1.9298
G1 X109.5480 Y113.7240 F8000 ; custom feedrate
G92 E0.0000
G1 X111.9490 Y111.3240 E0.0915 F4800 ; custom feedrate
G1 X111.9490 Y111.4400 E0.0946
G1 X116.0750 Y111.4400 E0.2058
G1 X109.5480 Y117.9670 E0.4544
G1 X109.5480 Y122.2090 E0.5687
G1 X120.3170 Y111.4400 E0.9790
G1 X123.3450 Y111.4400 E1.0606
G1 X123.3460 Y109.5480 E1.1116
G1 X126.4520 Y109.5480 E1.1953
G1 X109.5480 Y126.4520 E1.8393
G1 X113.7910 Y126.4520 E1.9536
G1 X124.5080 Y115.7340 E2.3619
G1 X124.5060 Y119.9790 E2.4763
G1 X118.0330 Y126.4520 E2.7229
G1 X122.2760 Y126.4520 E2.8372
G1 X126.4520 Y122.2760 E2.9963
G92 E0.0000
G1 E-1 F2400 ; custom retraction
;layer 39, Z = 4.680
;fan39;
G1 Z4.680 F1200
G1 X126.8000 Y119.7000 F8000 ; custom feedrate
G1 E0 F2400 ; custom un-retraction/prime
G92 E0.0000
G1 X126.8000 Y126.8000 E0.1530 F3840 ; custom feedrate
G1 X109.2000 Y126.8000 E0.5323
G1 X109.2000 Y109.2000 E0.9117
G1 X112.3620 Y109.2000 E0.9798
G1 X112.3630 Y111.0920 E1.0206
G1 X116.4110 Y111.0920 E1.1078
G1 X116.4100 Y109.2000 E1.1486
G1 X118.7630 Y109.2000 E1.1993
G1 X118.7620 Y111.0920 E1.2401
G1 X122.9210 Y111.0920 E1.3298
G1 X122.9220 Y109.2000 E1.3705
G1 X126.8000 Y109.2000 E1.4541
G1 X126.8000 Y115.6200 E1.5925
G1 X124.8560 Y115.6190 E1.6344
G1 X124.8550 Y119.6990 E1.7223
G1 X126.8000 Y119.7000 E1.7642
G1 X127.2800 Y119.2210 F8000 ; custom feedrate
G92 E0.0000
G1 X127.2800 Y127.2800 E0.1737 F3840 ; custom feedrate
G1 X108.7200 Y127.2800 E0.5737
G1 X108.7200 Y108.7200 E0.9737
G1 X112.8420 Y108.7200 E1.0626
G1 X112.8430 Y110.6120 E1.1034
G1 X115.9300 Y110.6120 E1.1699
G1 X115.9300 Y108.7200 E1.2107
G1 X119.2430 Y108.7200 E1.2821
G1 X119.2420 Y110.6120 E1.3229
G1 X122.4420 Y110.6120 E1.3918
G1 X122.4430 Y108.7200 E1.4326
G1 X127.2800 Y108.7200 E1.5369
G1 X127.2800 Y116.1000 E1.6959
G1 X125.3360 Y116.0990 E1.7378
G1 X125.3350 Y119.2200 E1.8051
G1 X127.2800 Y119.2210 E1.8470
G1 X127.7600 Y118.7410 F8000 ; custom feedrate
G92 E0.0000
G1 X127.7600 Y127.7600 E0.1944 F2880 ; custom feedrate
G1 X108.2400 Y127.7600 E0.6151
G1 X108.2400 Y108.2400 E1.0358
G1 X113.3220 Y108.2400 E1.1453
G1 X113.3230 Y110.1320 E1.1861
G1 X115.4500 Y110.1320 E1.2320
G1 X115.4490 Y108.2400 E1.2727
G1 X119.7230 Y108.2400 E1.3649
G1 X119.7220 Y110.1320 E1.4056
G1 X121.9620 Y110.1320 E1.4539
G1 X121.9630 Y108.2400 E1.4947
G1 X127.7600 Y108.2400 E1.6196
G1 X127.7600 Y116.5800 E1.7994
G1 X125.8160 Y116.5790 E1.8413
G1 X125.8150 Y118.7400 E1.8878
G1 X127.7600 Y118.7410 E1.9298
G92 E0.0000
G1 E-1 F2400 ; custom retraction
;zhop1
G1 X125.8150 Y118.7400 F8000 ; custom feedrate
G1 X125.8160 Y116.5790
G1 X126.5760 Y116.5790
G1 X123.2700 Y110.5420
G1 Z4.680 F1200
G1 E0 F2400 ; custom un-retraction/prime
G92 E0.0000
G1 X126.4520 Y113.7240 E0.1212 F4800 ; custom feedrate
G1 X126.4520 Y115.2710 E0.1629
G1 X124.5090 Y115.2710 E0.2153
G1 X124.5080 Y116.0230 E0.2356
G1 X119.9250 Y111.4400 E0.4102
G1 X118.4130 Y111.4400 E0.4509
G1 X118.4140 Y109.9290 E0.4916
G1 X118.0330 Y109.5480 E0.5061
G1 X116.7580 Y109.5480 E0.5405
G1 X116.7590 Y111.4400 E0.5915
G1 X115.6830 Y111.4400 E0.6205
G1 X126.4520 Y122.2090 E1.0308
G1 X126.4520 Y126.4520 E1.1451
G1 X109.5480 Y109.5480 E1.7891
G1 X109.5480 Y113.7910 E1.9034
G1 X122.2090 Y126.4520 E2.3858
G1 X117.9670 Y126.4520 E2.5001
G1 X109.5480 Y118.0330 E2.8209
G1 X109.5480 Y122.2760 E2.9352
G1 X113.7240 Y126.4520 E3.0943
G92 E0.0000
G1 E-1 F2400 ; custom retraction
;layer 40, Z = 4.800
;fan40;
G1 Z4.800 F1200
G1 X109.2000 Y126.8000 F8000 ; custom feedrate
G1 E0 F2400 ; custom un-retraction/prime
G92 E0.0000
G1 X109.2000 Y109.2000 E0.3793 F3840 ; custom feedrate
G1 X112.4290 Y109.2000 E0.4489
G1 X112.4300 Y111.0920 E0.4897
G1 X116.4820 Y111.0920 E0.5770
G1 X116.4810 Y109.2000 E0.6178
G1 X118.6890 Y109.2000 E0.6654
G1 X118.6880 Y111.0920 E0.7062
G1 X122.8450 Y111.0920 E0.7958
G1 X122.8460 Y109.2000 E0.8366
G1 X126.8000 Y109.2000 E0.9218
G1 X126.8000 Y115.6180 E1.0601
G1 X124.8570 Y115.6170 E1.1020
G1 X124.8550 Y119.6980 E1.1899
G1 X126.8000 Y119.6990 E1.2319
G1 X126.8000 Y126.8000 E1.3849
G1 X109.2000 Y126.8000 E1.7642
G1 X108.7200 Y127.2800 F8000 ; custom feedrate
G92 E0.0000
G1 X108.7200 Y108.7200 E0.4000 F3840 ; custom feedrate
G1 X112.9090 Y108.7200 E0.4903
G1 X112.9090 Y110.6120 E0.5311
G1 X116.0020 Y110.6120 E0.5977
G1 X116.0010 Y108.7200 E0.6385
G1 X119.1700 Y108.7200 E0.7068
G1 X119.1690 Y110.6120 E0.7476
G1 X122.3660 Y110.6120 E0.8165
G1 X122.3670 Y108.7200 E0.8573
G1 X127.2800 Y108.7200 E0.9632
G1 X127.2800 Y116.0980 E1.1222
G1 X125.3360 Y116.0980 E1.1641
G1 X125.3350 Y119.2180 E1.2313
G1 X127.2800 Y119.2190 E1.2733
G1 X127.2800 Y127.2800 E1.4470
G1 X108.7200 Y127.2800 E1.8470
G1 X108.2400 Y127.7600 F8000 ; custom feedrate
G92 E0.0000
G1 X108.2400 Y108.2400 E0.4207 F2880 ; custom feedrate
G1 X113.3880 Y108.2400 E0.5317
G1 X113.3890 Y110.1320 E0.5724
G1 X115.5210 Y110.1320 E0.6184
G1 X115.5200 Y108.2400 E0.6592
G1 X119.6500 Y108.2400 E0.7482
G1 X119.6490 Y110.1320 E0.7890
G1 X121.8860 Y110.1320 E0.8372
G1 X121.8870 Y108.2400 E0.8780
G1 X127.7600 Y108.2400 E1.0045
G1 X127.7600 Y116.5790 E1.1843
G1 X125.8160 Y116.5780 E1.2262
G1 X125.8150 Y118.7390 E1.2727
G1 X127.7600 Y118.7390 E1.3146
G1 X127.7600 Y127.7600 E1.5091
G1 X108.2400 Y127.7600 E1.9298
G1 X109.5480 Y113.7240 F8000 ; custom feedrate
G92 E0.0000
G1 X112.0820 Y111.1900 E0.0965 F4800 ; custom feedrate
G1 X112.0820 Y111.4400 E0.1033
G1 X116.0750 Y111.4400 E0.2108
G1 X109.5480 Y117.9670 E0.4595
G1 X109.5480 Y122.2090 E0.5738
G1 X120.3170 Y111.4400 E0.9841
G1 X123.1930 Y111.4400 E1.0616
G1 X123.1940 Y109.5480 E1.1126
G1 X126.4520 Y109.5480 E1.2003
G1 X109.5480 Y126.4520 E1.8444
G1 X113.7910 Y126.4520 E1.9587
G1 X124.5090 Y115.7340 E2.3670
G1 X124.5070 Y119.9790 E2.4814
G1 X118.0330 Y126.4520 E2.7280
G1 X122.2760 Y126.4520 E2.8423
G1 X126.4520 Y122.2760 E3.0014
G92 E0.0000
G1 E-1 F2400 ; custom retraction
;layer 41, Z = 4.920
;fan41;
G1 Z4.920 F1200
G1 X126.8000 Y119.6980 F8000 ; custom feedrate
G1 E0 F2400 ; custom un-retraction/prime
G92 E0.0000
G1 X126.8000 Y126.8000 E0.1531 F3840 ; custom feedrate
G1 X109.2000 Y126.8000 E0.5324
G1 X109.2000 Y109.2000 E0.9117
G1 X112.4950 Y109.2000 E0.9827
G1 X112.4960 Y111.0920 E1.0235
G1 X116.5530 Y111.0920 E1.1110
G1 X116.5520 Y109.2000 E1.1517
G1 X118.6160 Y109.2000 E1.1962
G1 X118.6150 Y111.0920 E1.2370
G1 X122.7700 Y111.0920 E1.3266
G1 X122.7710 Y109.2000 E1.3673
G1 X126.8000 Y109.2000 E1.4542
G1 X126.8000 Y115.6170 E1.5925
G1 X124.8570 Y115.6160 E1.6344
G1 X124.8550 Y119.6970 E1.7223
G1 X126.8000 Y119.6980 E1.7642
G1 X127.2800 Y119.2180 F8000 ; custom feedrate
G92 E0.0000
G1 X127.2800 Y127.2800 E0.1738 F3840 ; custom feedrate
G1 X108.7200 Y127.2800 E0.5738
G1 X108.7200 Y108.7200 E0.9738
G1 X112.9750 Y108.7200 E1.0655
G1 X112.9760 Y110.6120 E1.1063
G1 X116.0730 Y110.6120 E1.1730
G1 X116.0720 Y108.7200 E1.2138
G1 X119.0970 Y108.7200 E1.2790
G1 X119.0960 Y110.6120 E1.3198
G1 X122.2900 Y110.6120 E1.3886
G1 X122.2910 Y108.7200 E1.4294
G1 X127.2800 Y108.7200 E1.5369
G1 X127.2800 Y116.0970 E1.6959
G1 X125.3370 Y116.0960 E1.7378
G1 X125.3350 Y119.2170 E1.8051
G1 X127.2800 Y119.2180 E1.8470
G1 X127.7600 Y118.7380 F8000 ; custom feedrate
G92 E0.0000
G1 X127.7600 Y127.7600 E0.1944 F2880 ; custom feedrate
G1 X108.2400 Y127.7600 E0.6152
G1 X108.2400 Y108.2400 E1.0359
G1 X113.4550 Y108.2400 E1.1483
G1 X113.4560 Y110.1320 E1.1890
G1 X115.5920 Y110.1320 E1.2351
G1 X115.5920 Y108.2400 E1.2759
G1 X119.5770 Y108.2400 E1.3618
G1 X119.5760 Y110.1320 E1.4025
G1 X121.8100 Y110.1320 E1.4507
G1 X121.8110 Y108.2400 E1.4915
G1 X127.7600 Y108.2400 E1.6197
G1 X127.7600 Y116.5770 E1.7994
G1 X125.8160 Y116.5770 E1.8413
G1 X125.8150 Y118.7370 E1.8879
G1 X127.7600 Y118.7380 E1.9298
G92 E0.0000
G1 E-1 F2400 ; custom retraction
;zhop1
G1 X125.8150 Y118.7370 F8000 ; custom feedrate
G1 X125.8160 Y116.5770
G1 X126.5580 Y116.5770
G1 X123.1180 Y110.3900
G1 Z4.920 F1200
G1 E0 F2400 ; custom un-retraction/prime
G92 E0.0000
G1 X126.4520 Y113.7240 E0.1270 F4800 ; custom feedrate
G1 X126.4520 Y115.2690 E0.1686
G1 X124.5090 Y115.2680 E0.2210
G1 X124.5090 Y116.0230 E0.2413
G1 X119.9260 Y111.4400 E0.4160
G1 X118.2670 Y111.4400 E0.4606
G1 X118.2680 Y109.7830 E0.5053
G1 X118.0330 Y109.5480 E0.5142
G1 X116.9000 Y109.5480 E0.5448
G1 X116.9010 Y111.4400 E0.5957
G1 X115.6830 Y111.4400 E0.6286
G1 X126.4520 Y122.2090 E1.0389
G1 X126.4520 Y126.4520 E1.1532
G1 X109.5480 Y109.5480 E1.7972
G1 X109.5480 Y113.7910 E1.9115
G1 X122.2090 Y126.4520 E2.3939
G1 X117.9670 Y126.4520 E2.5082
G1 X109.5480 Y118.0330 E2.8289
G1 X109.5480 Y122.2760 E2.9432
G1 X113.7240 Y126.4520 E3.1024
G92 E0.0000
G1 E-1 F2400 ; custom retraction
;layer 42, Z = 5.040
;fan42;
G1 Z5.040 F1200
G1 X109.2000 Y126.8000 F8000 ; custom feedrate
G1 E0 F2400 ; custom un-retraction/prime
G92 E0.0000
G1 X109.2000 Y109.2000 E0.3793 F3840 ; custom feedrate
G1 X112.5620 Y109.2000 E0.4518
G1 X112.5630 Y111.0920 E0.4926
G1 X116.6240 Y111.0920 E0.5801
G1 X116.6230 Y109.2000 E0.6209
G1 X118.5430 Y109.2000 E0.6623
G1 X118.5420 Y111.0920 E0.7031
G1 X122.6940 Y111.0920 E0.7925
G1 X122.6950 Y109.2000 E0.8333
G1 X126.8000 Y109.2000 E0.9218
G1 X126.8000 Y115.6160 E1.0601
G1 X124.8570 Y115.6150 E1.1019
G1 X124.8550 Y119.6960 E1.1899
G1 X126.8000 Y119.6960 E1.2318
G1 X126.8000 Y126.8000 E1.3849
G1 X109.2000 Y126.8000 E1.7642
G1 X108.7200 Y127.2800 F8000 ; custom feedrate
G92 E0.0000
G1 X108.7200 Y108.7200 E0.4000 F3840 ; custom feedrate
G1 X113.0420 Y108.7200 E0.4932
G1 X113.0430 Y110.6120 E0.5339
G1 X116.1440 Y110.6120 E0.6008
G1 X116.1430 Y108.7200 E0.6416
G1 X119.0230 Y108.7200 E0.7037
G1 X119.0220 Y110.6120 E0.7444
G1 X122.2140 Y110.6120 E0.8132
G1 X122.2150 Y108.7200 E0.8540
G1 X127.2800 Y108.7200 E0.9632
G1 X127.2800 Y116.0960 E1.1221
G1 X125.3370 Y116.0950 E1.1640
G1 X125.3350 Y119.2160 E1.2313
G1 X127.2800 Y119.2170 E1.2732
G1 X127.2800 Y127.2800 E1.4470
G1 X108.7200 Y127.2800 E1.8470
G1 X108.2400 Y127.7600 F8000 ; custom feedrate
G92 E0.0000
G1 X108.2400 Y108.2400 E0.4207 F2880 ; custom feedrate
G1 X113.5220 Y108.2400 E0.5345
G1 X113.5220 Y110.1320 E0.5753
G1 X115.6640 Y110.1320 E0.6215
G1 X115.6630 Y108.2400 E0.6623
G1 X119.5040 Y108.2400 E0.7450
G1 X119.5030 Y110.1320 E0.7858
G1 X121.7340 Y110.1320 E0.8339
G1 X121.7350 Y108.2400 E0.8747
G1 X127.7600 Y108.2400 E1.0046
G1 X127.7600 Y116.5760 E1.1842
G1 X125.8170 Y116.5750 E1.2261
G1 X125.8160 Y118.7360 E1.2727
G1 X127.7600 Y118.7370 E1.3146
G1 X127.7600 Y127.7600 E1.5091
G1 X108.2400 Y127.7600 E1.9298
G1 X109.5480 Y113.7240 F8000 ; custom feedrate
G92 E0.0000
G1 X112.2150 Y111.0570 E0.1016 F4800 ; custom feedrate
G1 X112.2150 Y111.4400 E0.1119
G1 X116.0740 Y111.4400 E0.2159
G1 X109.5480 Y117.9670 E0.4646
G1 X109.5480 Y122.2090 E0.5789
G1 X120.3170 Y111.4400 E0.9892
G1 X123.0420 Y111.4400 E1.0626
G1 X123.0430 Y109.5480 E1.1135
G1 X126.4520 Y109.5480 E1.2054
G1 X109.5480 Y126.4520 E1.8494
G1 X113.7910 Y126.4520 E1.9637
G1 X124.5090 Y115.7340 E2.3721
G1 X124.5070 Y119.9780 E2.4864
G1 X118.0330 Y126.4520 E2.7331
G1 X122.2760 Y126.4520 E2.8474
G1 X126.4520 Y122.2760 E3.0065
G92 E0.0000
G1 E-1 F2400 ; custom retraction
;layer 43, Z = 5.160
;fan43;
G1 Z5.160 F1200
G1 X126.8000 Y119.6950 F8000 ; custom feedrate
G1 E0 F2400 ; custom un-retraction/prime
G92 E0.0000
G1 X126.8000 Y126.8000 E0.1531 F3840 ; custom feedrate
G1 X109.2000 Y126.8000 E0.5325
G1 X109.2000 Y109.2000 E0.9118
G1 X112.6290 Y109.2000 E0.9857
G1 X112.6300 Y111.0930 E1.0265
G1 X116.6950 Y111.0930 E1.1141
G1 X116.6940 Y109.2000 E1.1549
G1 X118.4700 Y109.2000 E1.1932
G1 X118.4690 Y111.0930 E1.2339
G1 X122.6180 Y111.0930 E1.3234
G1 X122.6190 Y109.2000 E1.3641
G1 X126.8000 Y109.2000 E1.4543
G1 X126.8000 Y115.6140 E1.5925
G1 X124.8570 Y115.6130 E1.6344
G1 X124.8550 Y119.6940 E1.7223
G1 X126.8000 Y119.6950 E1.7642
G1 X127.2800 Y119.2150 F8000 ; custom feedrate
G92 E0.0000
G1 X127.2800 Y127.2800 E0.1738 F3840 ; custom feedrate
G1 X108.7200 Y127.2800 E0.5738
G1 X108.7200 Y108.7200 E0.9738
G1 X113.1080 Y108.7200 E1.0684
G1 X113.1090 Y110.6130 E1.1092
G1 X116.2150 Y110.6130 E1.1761
G1 X116.2140 Y108.7200 E1.2169
G1 X118.9500 Y108.7200 E1.2759
G1 X118.9490 Y110.6130 E1.3167
G1 X122.1380 Y110.6130 E1.3854
G1 X122.1390 Y108.7200 E1.4262
G1 X127.2800 Y108.7200 E1.5370
G1 X127.2800 Y116.0950 E1.6960
G1 X125.3370 Y116.0940 E1.7378
G1 X125.3360 Y119.2140 E1.8051
G1 X127.2800 Y119.2150 E1.8470
G1 X127.7600 Y118.7360 F8000 ; custom feedrate
G92 E0.0000
G1 X127.7600 Y127.7600 E0.1945 F2880 ; custom feedrate
G1 X108.2400 Y127.7600 E0.6152
G1 X108.2400 Y108.2400 E1.0359
G1 X113.5880 Y108.2400 E1.1512
G1 X113.5890 Y110.1330 E1.1920
G1 X115.7350 Y110.1330 E1.2382
G1 X115.7340 Y108.2400 E1.2790
G1 X119.4310 Y108.2400 E1.3587
G1 X119.4300 Y110.1330 E1.3995
G1 X121.6580 Y110.1330 E1.4475
G1 X121.6590 Y108.2400 E1.4883
G1 X127.7600 Y108.2400 E1.6198
G1 X127.7600 Y116.5750 E1.7994
G1 X125.8170 Y116.5740 E1.8413
G1 X125.8160 Y118.7350 E1.8879
G1 X127.7600 Y118.7360 E1.9298
G92 E0.0000
G1 E-1 F2400 ; custom retraction
;zhop1
G1 X125.8160 Y118.7350 F8000 ; custom feedrate
G1 X125.8170 Y116.5740
G1 X126.5410 Y116.5740
G1 X122.9660 Y110.2380
G1 Z5.160 F1200
G1 E0 F2400 ; custom un-retraction/prime
G92 E0.0000
G1 X126.4520 Y113.7240 E0.1328 F4800 ; custom feedrate
G1 X126.4520 Y115.2660 E0.1744
G1 X124.5090 Y115.2650 E0.2267
G1 X124.5090 Y116.0240 E0.2471
G1 X119.9260 Y111.4410 E0.4217
G1 X118.1210 Y111.4410 E0.4704
G1 X118.1220 Y109.6370 E0.5190
G1 X118.0330 Y109.5480 E0.5223
G1 X117.0420 Y109.5480 E0.5490
G1 X117.0430 Y111.4410 E0.6000
G1 X115.6830 Y111.4410 E0.6367
G1 X126.4520 Y122.2090 E1.0470
G1 X126.4520 Y126.4520 E1.1613
G1 X109.5480 Y109.5480 E1.8053
G1 X109.5480 Y113.7910 E1.9196
G1 X122.2090 Y126.4520 E2.4020
G1 X117.9670 Y126.4520 E2.5163
G1 X109.5480 Y118.0330 E2.8370
G1 X109.5480 Y122.2760 E2.9513
G1 X113.7240 Y126.4520 E3.1105
G92 E0.0000
G1 E-1 F2400 ; custom retraction
;layer 44, Z = 5.280
;fan44;
G1 Z5.280 F1200
G1 X109.2000 Y126.8000 F8000 ; custom feedrate
G1 E0 F2400 ; custom un-retraction/prime
G92 E0.0000
G1 X109.2000 Y109.2000 E0.3793 F3840 ; custom feedrate
G1 X112.6950 Y109.2000 E0.4547
G1 X112.6960 Y111.0930 E0.4954
G1 X116.7660 Y111.0930 E0.5832
G1 X116.7650 Y109.2000 E0.6240
G1 X118.3970 Y109.2000 E0.6591
G1 X118.3960 Y111.0930 E0.6999
G1 X122.5420 Y111.0930 E0.7893
G1 X122.5430 Y109.2000 E0.8301
G1 X126.8000 Y109.2000 E0.9218
G1 X126.8000 Y115.6130 E1.0600
G1 X124.8570 Y115.6120 E1.1019
G1 X124.8560 Y119.6930 E1.1899
G1 X126.8000 Y119.6940 E1.2318
G1 X126.8000 Y126.8000 E1.3849
G1 X109.2000 Y126.8000 E1.7642
G1 X108.7200 Y127.2800 F8000 ; custom feedrate
G92 E0.0000
G1 X108.7200 Y108.7200 E0.4000 F3840 ; custom feedrate
G1 X113.1750 Y108.7200 E0.4960
G1 X113.1760 Y110.6130 E0.5368
G1 X116.2860 Y110.6130 E0.6039
G1 X116.2850 Y108.7200 E0.6446
G1 X118.8770 Y108.7200 E0.7005
G1 X118.8760 Y110.6130 E0.7413
G1 X122.0620 Y110.6130 E0.8100
G1 X122.0630 Y108.7200 E0.8508
G1 X127.2800 Y108.7200 E0.9632
G1 X127.2800 Y116.0930 E1.1221
G1 X125.3370 Y116.0920 E1.1640
G1 X125.3360 Y119.2130 E1.2312
G1 X127.2800 Y119.2140 E1.2731
G1 X127.2800 Y127.2800 E1.4470
G1 X108.7200 Y127.2800 E1.8470
G1 X108.2400 Y127.7600 F8000 ; custom feedrate
G92 E0.0000
G1 X108.2400 Y108.2400 E0.4207 F2880 ; custom feedrate
G1 X113.6550 Y108.2400 E0.5374
G1 X113.6560 Y110.1330 E0.5782
G1 X115.8060 Y110.1330 E0.6245
G1 X115.8050 Y108.2400 E0.6653
G1 X119.3570 Y108.2400 E0.7419
G1 X119.3570 Y110.1330 E0.7827
G1 X121.5820 Y110.1330 E0.8307
G1 X121.5830 Y108.2400 E0.8715
G1 X127.7600 Y108.2400 E1.0046
G1 X127.7600 Y116.5730 E1.1842
G1 X125.8170 Y116.5730 E1.2261
G1 X125.8160 Y118.7330 E1.2726
G1 X127.7600 Y118.7340 E1.3145
G1 X127.7600 Y127.7600 E1.5091
G1 X108.2400 Y127.7600 E1.9298
G1 X109.5480 Y113.7240 F8000 ; custom feedrate
G92 E0.0000
G1 X112.3480 Y110.9240 E0.1067 F4800 ; custom feedrate
G1 X112.3480 Y111.4410 E0.1206
G1 X116.0740 Y111.4410 E0.2210
G1 X109.5480 Y117.9670 E0.4696
G1 X109.5480 Y122.2090 E0.5839
G1 X120.3170 Y111.4410 E0.9942
G1 X122.8900 Y111.4410 E1.0635
G1 X122.8910 Y109.5480 E1.1145
G1 X126.4520 Y109.5480 E1.2105
G1 X109.5480 Y126.4520 E1.8545
G1 X113.7910 Y126.4520 E1.9688
G1 X124.5090 Y115.7330 E2.3772
G1 X124.5070 Y119.9780 E2.4915
G1 X118.0330 Y126.4520 E2.7382
G1 X122.2760 Y126.4520 E2.8525
G1 X126.4520 Y122.2760 E3.0116
G92 E0.0000
G1 E-1 F2400 ; custom retraction
;layer 45, Z = 5.400
;fan45;
G1 Z5.400 F1200
G1 X126.8000 Y119.6930 F8000 ; custom feedrate
G1 E0 F2400 ; custom un-retraction/prime
G92 E0.0000
G1 X126.8000 Y126.8000 E0.1532 F3840 ; custom feedrate
G1 X109.2000 Y126.8000 E0.5325
G1 X109.2000 Y109.2000 E0.9118
G1 X112.7620 Y109.2000 E0.9886
G1 X112.7630 Y111.0930 E1.0294
G1 X116.8370 Y111.0930 E1.1172
G1 X116.8360 Y109.2000 E1.1580
G1 X118.3240 Y109.2000 E1.1901
G1 X118.3230 Y111.0930 E1.2309
G1 X122.4660 Y111.0930 E1.3202
G1 X122.4670 Y109.2000 E1.3609
G1 X126.8000 Y109.2000 E1.4543
G1 X126.8000 Y115.6120 E1.5925
G1 X124.8580 Y115.6110 E1.6344
G1 X124.8560 Y119.6920 E1.7223
G1 X126.8000 Y119.6930 E1.7642
G1 X127.2800 Y119.2130 F8000 ; custom feedrate
G92 E0.0000
G1 X127.2800 Y127.2800 E0.1739 F3840 ; custom feedrate
G1 X108.7200 Y127.2800 E0.5739
G1 X108.7200 Y108.7200 E0.9739
G1 X113.2420 Y108.7200 E1.0714
G1 X113.2430 Y110.6130 E1.1121
G1 X116.3570 Y110.6130 E1.1793
G1 X116.3560 Y108.7200 E1.2201
G1 X118.8040 Y108.7200 E1.2728
G1 X118.8030 Y110.6130 E1.3136
G1 X121.9860 Y110.6130 E1.3822
G1 X121.9870 Y108.7200 E1.4230
G1 X127.2800 Y108.7200 E1.5371
G1 X127.2800 Y116.0920 E1.6960
G1 X125.3370 Y116.0910 E1.7378
G1 X125.3360 Y119.2120 E1.8051
G1 X127.2800 Y119.2130 E1.8470
G1 X127.7600 Y118.7330 F8000 ; custom feedrate
G92 E0.0000
G1 X127.7600 Y127.7600 E0.1946 F2880 ; custom feedrate
G1 X108.2400 Y127.7600 E0.6153
G1 X108.2400 Y108.2400 E1.0360
G1 X113.7210 Y108.2400 E1.1541
G1 X113.7220 Y110.1330 E1.1949
G1 X115.8770 Y110.1330 E1.2413
G1 X115.8760 Y108.2400 E1.2821
G1 X119.2840 Y108.2400 E1.3556
G1 X119.2830 Y110.1330 E1.3964
G1 X121.5070 Y110.1330 E1.4443
G1 X121.5080 Y108.2400 E1.4851
G1 X127.7600 Y108.2400 E1.6198
G1 X127.7600 Y116.5720 E1.7994
G1 X125.8170 Y116.5710 E1.8413
G1 X125.8160 Y118.7320 E1.8879
G1 X127.7600 Y118.7330 E1.9298
G92 E0.0000
G1 E-1 F2400 ; custom retraction
;zhop1
G1 X125.8160 Y118.7320 F8000 ; custom feedrate
G1 X125.8170 Y116.5710
G1 X126.5240 Y116.5720
G1 X122.8150 Y110.0870
G1 Z5.400 F1200
G1 E0 F2400 ; custom un-retraction/prime
G92 E0.0000
G1 X126.4520 Y113.7240 E0.1386 F4800 ; custom feedrate
G1 X126.4520 Y115.2640 E0.1801
G1 X124.5100 Y115.2630 E0.2324
G1 X124.5090 Y116.0240 E0.2529
G1 X119.9260 Y111.4410 E0.4275
G1 X117.9750 Y111.4410 E0.4801
G1 X117.9760 Y109.5480 E0.5311
G1 X117.1850 Y109.5480 E0.5524
G1 X117.1850 Y111.4410 E0.6034
G1 X115.6830 Y111.4410 E0.6439
G1 X126.4520 Y122.2090 E1.0541
G1 X126.4520 Y126.4520 E1.1684
G1 X109.5480 Y109.5480 E1.8125
G1 X109.5480 Y113.7910 E1.9268
G1 X122.2090 Y126.4520 E2.4092
G1 X117.9670 Y126.4520 E2.5235
G1 X109.5480 Y118.0330 E2.8442
G1 X109.5480 Y122.2760 E2.9585
G1 X113.7240 Y126.4520 E3.1176
G92 E0.0000
G1 E-1 F2400 ; custom retraction
;layer 46, Z = 5.520
;fan46;
G1 Z5.520 F1200
G1 X109.2000 Y126.8000 F8000 ; custom feedrate
G1 E0 F2400 ; custom un-retraction/prime
G92 E0.0000
G1 X109.2000 Y109.2000 E0.3793 F3840 ; custom feedrate
G1 X112.8280 Y109.2000 E0.4575
G1 X112.8290 Y111.0930 E0.4983
G1 X116.9080 Y111.0930 E0.5862
G1 X116.9070 Y109.2000 E0.6270
G1 X118.2510 Y109.2000 E0.6560
G1 X118.2500 Y111.0930 E0.6968
G1 X122.3900 Y111.0930 E0.7860
G1 X122.3910 Y109.2000 E0.8268
G1 X126.8000 Y109.2000 E0.9218
G1 X126.8000 Y115.6100 E1.0600
G1 X124.8580 Y115.6100 E1.1019
G1 X124.8560 Y119.6900 E1.1898
G1 X126.8000 Y119.6910 E1.2317
G1 X126.8000 Y126.8000 E1.3849
G1 X109.2000 Y126.8000 E1.7642
G1 X108.7200 Y127.2800 F8000 ; custom feedrate
G92 E0.0000
G1 X108.7200 Y108.7200 E0.4000 F3840 ; custom feedrate
G1 X113.3080 Y108.7200 E0.4989
G1 X113.3090 Y110.6130 E0.5397
G1 X116.4280 Y110.6130 E0.6069
G1 X116.4270 Y108.7200 E0.6477
G1 X118.7310 Y108.7200 E0.6974
G1 X118.7300 Y110.6130 E0.7382
G1 X121.9100 Y110.6130 E0.8067
G1 X121.9110 Y108.7200 E0.8475
G1 X127.2800 Y108.7200 E0.9632
G1 X127.2800 Y116.0910 E1.1221
G1 X125.3380 Y116.0900 E1.1639
G1 X125.3360 Y119.2110 E1.2312
G1 X127.2800 Y119.2110 E1.2731
G1 X127.2800 Y127.2800 E1.4470
G1 X108.7200 Y127.2800 E1.8470
G1 X108.2400 Y127.7600 F8000 ; custom feedrate
G92 E0.0000
G1 X108.2400 Y108.2400 E0.4207 F2880 ; custom feedrate
G1 X113.7880 Y108.2400 E0.5403
G1 X113.7890 Y110.1330 E0.5811
G1 X115.9480 Y110.1330 E0.6276
G1 X115.9470 Y108.2400 E0.6684
G1 X119.2110 Y108.2400 E0.7388
G1 X119.2100 Y110.1330 E0.7796
G1 X121.4310 Y110.1330 E0.8274
G1 X121.4320 Y108.2400 E0.8682
G1 X127.7600 Y108.2400 E1.0046
G1 X127.7600 Y116.5710 E1.1841
G1 X125.8170 Y116.5700 E1.2260
G1 X125.8160 Y118.7310 E1.2726
G1 X127.7600 Y118.7320 E1.3145
G1 X127.7600 Y127.7600 E1.5091
G1 X108.2400 Y127.7600 E1.9298
G1 X109.5480 Y113.7240 F8000 ; custom feedrate
G92 E0.0000
G1 X112.4810 Y110.7910 E0.1118 F4800 ; custom feedrate
G1 X112.4820 Y111.4410 E0.1293
G1 X116.0740 Y111.4410 E0.2260
G1 X109.5480 Y117.9670 E0.4747
G1 X109.5480 Y122.2090 E0.5890
G1 X120.3170 Y111.4410 E0.9993
G1 X122.7380 Y111.4410 E1.0645
G1 X122.7390 Y109.5480 E1.1155
G1 X126.4520 Y109.5480 E1.2155
G1 X109.5480 Y126.4520 E1.8596
G1 X113.7910 Y126.4520 E1.9739
G1 X124.5100 Y115.7330 E2.3823
G1 X124.5080 Y119.9780 E2.4966
G1 X118.0330 Y126.4520 E2.7433
G1 X122.2760 Y126.4520 E2.8576
G1 X126.4520 Y122.2760 E3.0167
G92 E0.0000
G1 E-1 F2400 ; custom retraction
;layer 47, Z = 5.640
;fan47;
G1 Z5.640 F1200
G1 X126.8000 Y119.6900 F8000 ; custom feedrate
G1 E0 F2400 ; custom un-retraction/prime
G92 E0.0000
G1 X126.8000 Y126.8000 E0.1532 F3840 ; custom feedrate
G1 X109.2000 Y126.8000 E0.5326
G1 X109.2000 Y109.2000 E0.9119
G1 X112.8950 Y109.2000 E0.9915
G1 X112.8960 Y111.0930 E1.0323
G1 X116.9790 Y111.0930 E1.1203
G1 X116.9790 Y109.2000 E1.1611
G1 X118.1780 Y109.2000 E1.1870
G1 X118.1770 Y111.0930 E1.2278
G1 X122.3140 Y111.0930 E1.3170
G1 X122.3150 Y109.2000 E1.3578
G1 X126.8000 Y109.2000 E1.4544
G1 X126.8000 Y115.6090 E1.5925
G1 X124.8580 Y115.6080 E1.6344
G1 X124.8560 Y119.6890 E1.7223
G1 X126.8000 Y119.6900 E1.7642
G1 X127.2800 Y119.2100 F8000 ; custom feedrate
G92 E0.0000
G1 X127.2800 Y127.2800 E0.1739 F3840 ; custom feedrate
G1 X108.7200 Y127.2800 E0.5739
G1 X108.7200 Y108.7200 E0.9740
G1 X113.3750 Y108.7200 E1.0743
G1 X113.3760 Y110.6130 E1.1151
G1 X116.4990 Y110.6130 E1.1824
G1 X116.4980 Y108.7200 E1.2232
G1 X118.6580 Y108.7200 E1.2697
G1 X118.6570 Y110.6130 E1.3105
G1 X121.8350 Y110.6130 E1.3790
G1 X121.8360 Y108.7200 E1.4198
G1 X127.2800 Y108.7200 E1.5372
G1 X127.2800 Y116.0890 E1.6960
G1 X125.3380 Y116.0880 E1.7379
G1 X125.3360 Y119.2090 E1.8051
G1 X127.2800 Y119.2100 E1.8470
G1 X127.7600 Y118.7300 F8000 ; custom feedrate
G92 E0.0000
G1 X127.7600 Y127.7600 E0.1946 F2880 ; custom feedrate
G1 X108.2400 Y127.7600 E0.6153
G1 X108.2400 Y108.2400 E1.0360
G1 X113.8550 Y108.2400 E1.1570
G1 X113.8560 Y110.1330 E1.1978
G1 X116.0190 Y110.1330 E1.2445
G1 X116.0180 Y108.2400 E1.2853
G1 X119.1380 Y108.2400 E1.3525
G1 X119.1370 Y110.1330 E1.3933
G1 X121.3550 Y110.1330 E1.4411
G1 X121.3560 Y108.2400 E1.4819
G1 X127.7600 Y108.2400 E1.6199
G1 X127.7600 Y116.5700 E1.7994
G1 X125.8180 Y116.5690 E1.8413
G1 X125.8170 Y118.7290 E1.8879
G1 X127.7600 Y118.7300 E1.9298
G92 E0.0000
G1 E-1 F2400 ; custom retraction
;zhop1
G1 X125.8170 Y118.7290 F8000 ; custom feedrate
G1 X125.8180 Y116.5690
G1 X126.5070 Y116.5690
G1 X122.6630 Y109.9350
G1 Z5.640 F1200
G1 E0 F2400 ; custom un-retraction/prime
G92 E0.0000
G1 X126.4520 Y113.7240 E0.1444 F4800 ; custom feedrate
G1 X126.4520 Y115.2610 E0.1858
G1 X124.5100 Y115.2600 E0.2381
G1 X124.5100 Y116.0240 E0.2587
G1 X119.9260 Y111.4410 E0.4333
G1 X117.8290 Y111.4410 E0.4898
G1 X117.8300 Y109.5480 E0.5408
G1 X117.3270 Y109.5480 E0.5544
G1 X117.3280 Y111.4410 E0.6054
G1 X115.6840 Y111.4410 E0.6497
G1 X126.4520 Y122.2090 E1.0599
G1 X126.4520 Y126.4520 E1.1742
G1 X109.5480 Y109.5480 E1.8183
G1 X109.5480 Y113.7910 E1.9326
G1 X122.2090 Y126.4520 E2.4150
G1 X117.9670 Y126.4520 E2.5293
G1 X109.5480 Y118.0330 E2.8500
G1 X109.5480 Y122.2760 E2.9643
G1 X113.7240 Y126.4520 E3.1234
G92 E0.0000
G1 E-1 F2400 ; custom retraction
;layer 48, Z = 5.760
;fan48;
G1 Z5.760 F1200
G1 X109.2000 Y126.8000 F8000 ; custom feedrate
G1 E0 F2400 ; custom un-retraction/prime
G92 E0.0000
G1 X109.2000 Y109.2000 E0.3793 F3840 ; custom feedrate
G1 X112.9620 Y109.2000 E0.4604
G1 X112.9630 Y111.0930 E0.5012
G1 X117.0510 Y111.0930 E0.5893
G1 X117.0500 Y109.2000 E0.6301
G1 X118.1050 Y109.2000 E0.6528
G1 X118.1040 Y111.0930 E0.6936
G1 X122.2380 Y111.0930 E0.7828
G1 X122.2390 Y109.2000 E0.8236
G1 X126.8000 Y109.2000 E0.9218
G1 X126.8000 Y115.6080 E1.0600
G1 X124.8580 Y115.6070 E1.1018
G1 X124.8560 Y119.6880 E1.1898
G1 X126.8000 Y119.6890 E1.2316
G1 X126.8000 Y126.8000 E1.3849
G1 X109.2000 Y126.8000 E1.7642
G1 X108.7200 Y127.2800 F8000 ; custom feedrate
G92 E0.0000
G1 X108.7200 Y108.7200 E0.4000 F3840 ; custom feedrate
G1 X113.4420 Y108.7200 E0.5018
G1 X113.4420 Y110.6130 E0.5426
G1 X116.5700 Y110.6130 E0.6100
G1 X116.5690 Y108.7200 E0.6508
G1 X118.5850 Y108.7200 E0.6942
G1 X118.5840 Y110.6130 E0.7350
G1 X121.7590 Y110.6130 E0.8035
G1 X121.7600 Y108.7200 E0.8443
G1 X127.2800 Y108.7200 E0.9632
G1 X127.2800 Y116.0880 E1.1220
G1 X125.3380 Y116.0870 E1.1639
G1 X125.3370 Y119.2080 E1.2311
G1 X127.2800 Y119.2090 E1.2730
G1 X127.2800 Y127.2800 E1.4470
G1 X108.7200 Y127.2800 E1.8470
G1 X108.2400 Y127.7600 F8000 ; custom feedrate
G92 E0.0000
G1 X108.2400 Y108.2400 E0.4207 F2880 ; custom feedrate
G1 X113.9210 Y108.2400 E0.5432
G1 X113.9220 Y110.1330 E0.5840
G1 X116.0900 Y110.1330 E0.6307
G1 X116.0890 Y108.2400 E0.6715
G1 X119.0650 Y108.2400 E0.7356
G1 X119.0640 Y110.1330 E0.7764
G1 X121.2790 Y110.1330 E0.8241
G1 X121.2800 Y108.2400 E0.8649
G1 X127.7600 Y108.2400 E1.0046
G1 X127.7600 Y116.5680 E1.1841
G1 X125.8180 Y116.5670 E1.2260
G1 X125.8170 Y118.7280 E1.2725
G1 X127.7600 Y118.7290 E1.3144
G1 X127.7600 Y127.7600 E1.5091
G1 X108.2400 Y127.7600 E1.9298
G1 X109.5480 Y113.7240 F8000 ; custom feedrate
G92 E0.0000
G1 X112.6140 Y110.6580 E0.1168 F4800 ; custom feedrate
G1 X112.6150 Y111.4410 E0.1379
G1 X116.0740 Y111.4410 E0.2311
G1 X109.5480 Y117.9670 E0.4797
G1 X109.5480 Y122.2090 E0.5940
G1 X120.3160 Y111.4410 E1.0043
G1 X122.5860 Y111.4410 E1.0655
G1 X122.5870 Y109.5480 E1.1165
G1 X126.4520 Y109.5480 E1.2206
G1 X109.5480 Y126.4520 E1.8646
G1 X113.7910 Y126.4520 E1.9789
G1 X124.5100 Y115.7330 E2.3873
G1 X124.5080 Y119.9770 E2.5017
G1 X118.0330 Y126.4520 E2.7484
G1 X122.2760 Y126.4520 E2.8627
G1 X126.4520 Y122.2760 E3.0218
G92 E0.0000
G1 E-1 F2400 ; custom retraction
;layer 49, Z = 5.880
;fan49;
G1 Z5.880 F1200
G1 X126.8000 Y119.6870 F8000 ; custom feedrate
G1 E0 F2400 ; custom un-retraction/prime
G92 E0.0000
G1 X126.8000 Y126.8000 E0.1533 F3840 ; custom feedrate
G1 X109.2000 Y126.8000 E0.5326
G1 X109.2000 Y109.2000 E0.9119
G1 X113.0280 Y109.2000 E0.9945
G1 X113.0290 Y111.0930 E1.0353
G1 X117.1220 Y111.0930 E1.1235
G1 X117.1210 Y109.2000 E1.1643
G1 X118.0320 Y109.2000 E1.1839
G1 X118.0310 Y111.0930 E1.2247
G1 X122.1630 Y111.0930 E1.3138
G1 X122.1640 Y109.2000 E1.3546
G1 X126.8000 Y109.2000 E1.4545
G1 X126.8000 Y115.6070 E1.5926
G1 X124.8580 Y115.6060 E1.6344
