; G-Code originally generated by Simplify3D(R) Version 4.1.2
; This calibration test gcode modified by the Teaching Tech Calibration website: https://teachingtechyt.github.io/calibration.html
;M80 ; power supply on
G90
M82
M106 S0
M140 S60 ; custom bed temp
M190 S60 ; custom bed temp
M104 S160 T0 ; custom hot end temp minus 50 degrees
G28 ; home all axes
G29 ; probe ABL
;M420 S1 ; restore ABL mesh
M109 S210 T0 ; custom hot end temp 
; custom start gcode
; Ender 3 Custom Start G-code
G92 E0 ; Reset Extruder

G28 ; Home all axes
BED_MESH_CALIBRATE

G1 Z2.0 F3000 ; Move Z Axis up little to prevent scratching of Heat Bed
G1 X0.1 Y20 Z0.3 F5000.0 ; Move to start position

G1 X0.1 Y200.0 Z0.3 F1500.0 E15 ; Draw the first line
G1 X0.4 Y200.0 Z0.3 F5000.0 ; Move to side a little
G1 X0.4 Y20 Z0.3 F1500.0 E30 ; Draw the second line
G92 E0 ; Reset Extruder
G1 Z2.0 F3000 ; Move Z Axis up little to prevent scratching of Heat Bed
G1 X5 Y20 Z0.3 F5000.0 ; Move over to prevent blob squish
G0 Z3; fix for delta printers that home at max
;process Process
;layer 1, Z = 0.200
T0
G92 E0.0000
G1 E-5 F2400 ; custom retraction
;fan1;
G1 Z0.200 F1200
G1 X105.1360 Y106.8140 F6000
G1 E0 F2400 ; custom un-retraction/prime
G92 E0.0000
G1 X106.8140 Y105.1360 E0.1023 F1800
G1 X129.1860 Y105.1360 E1.0666
G1 X130.8640 Y106.8140 E1.1689
G1 X130.8640 Y129.1860 E2.1333
G1 X129.1860 Y130.8640 E2.2356
G1 X106.8140 Y130.8640 E3.1999
G1 X105.1360 Y129.1860 E3.3022
G1 X105.1360 Y106.8140 E4.2666
G92 E0.0000
G1 E-5 F2400 ; custom retraction
;zhop1
G1 X105.7120 Y107.0520 F6000
G1 Z0.200 F1200
G1 E0 F2400 ; custom un-retraction/prime
G92 E0.0000
G1 X107.0520 Y105.7120 E0.0817 F1800
G1 X128.9480 Y105.7120 E1.0255
G1 X130.2880 Y107.0520 E1.1072
G1 X130.2880 Y128.9480 E2.0510
G1 X128.9480 Y130.2880 E2.1327
G1 X107.0520 Y130.2880 E3.0765
G1 X105.7120 Y128.9480 E3.1582
G1 X105.7120 Y107.0520 E4.1020
G92 E0.0000
G1 E-5 F2400 ; custom retraction
;zhop1
G1 X108.2880 Y108.2880 F6000
G1 X108.2880 Y108.7020
G1 X109.4400 Y109.4400
G1 Z0.200 F1200
G1 E0 F2400 ; custom un-retraction/prime
G92 E0.0000
G1 X126.5600 Y109.4400 E0.7380 F1440
G1 X126.5600 Y126.5600 E1.4759
G1 X109.4400 Y126.5600 E2.2139
G1 X109.4400 Y109.4400 E2.9518
G1 X108.8640 Y108.8640 F6000
G92 E0.0000
G1 X127.1360 Y108.8640 E0.7876 F1440
G1 X127.1360 Y127.1360 E1.5752
G1 X108.8640 Y127.1360 E2.3629
G1 X108.8640 Y108.8640 E3.1505
G1 X108.2880 Y108.2880 F6000
G92 E0.0000
G1 X127.7120 Y108.2880 E0.8373 F1080
G1 X127.7120 Y127.7120 E1.6745
G1 X108.2880 Y127.7120 E2.5118
G1 X108.2880 Y108.2880 E3.3491
G1 X126.0770 Y109.7860 F6000
G92 E0.0000
G1 X126.2140 Y109.9230 E0.0084 F1440
G1 X126.2140 Y110.7370 E0.0435
G1 X125.2630 Y109.7860 E0.1015
G1 X124.4480 Y109.7860 E0.1366
G1 X126.2140 Y111.5520 E0.2443
G1 X126.2140 Y112.3660 E0.2794
G1 X123.6340 Y109.7860 E0.4367
G1 X122.8190 Y109.7860 E0.4718
G1 X126.2140 Y113.1810 E0.6788
G1 X126.2140 Y113.9960 E0.7139
G1 X122.0040 Y109.7860 E0.9705
G1 X121.1900 Y109.7860 E1.0057
G1 X126.2140 Y114.8100 E1.3120
G1 X126.2140 Y115.6250 E1.3471
G1 X120.3750 Y109.7860 E1.7030
G1 X119.5610 Y109.7860 E1.7381
G1 X126.2140 Y116.4390 E2.1437
G1 X126.2140 Y117.2540 E2.1789
G1 X118.7460 Y109.7860 E2.6341
G1 X117.9310 Y109.7860 E2.6692
G1 X126.2140 Y118.0690 E3.1742
G1 X126.2140 Y118.8830 E3.2093
G1 X117.1170 Y109.7860 E3.7639
G1 X116.3020 Y109.7860 E3.7990
G1 X126.2140 Y119.6980 E4.4032
G1 X126.2140 Y120.5120 E4.4383
G1 X115.4880 Y109.7860 E5.0922
G1 X114.6730 Y109.7860 E5.1273
G1 X126.2140 Y121.3270 E5.8309
G1 X126.2140 Y122.1410 E5.8660
G1 X113.8590 Y109.7860 E6.6192
G1 X113.0440 Y109.7860 E6.6543
G1 X126.2140 Y122.9560 E7.4572
G1 X126.2140 Y123.7710 E7.4923
G1 X112.2290 Y109.7860 E8.3448
G1 X111.4150 Y109.7860 E8.3799
G1 X126.2140 Y124.5850 E9.2821
G1 X126.2140 Y125.4000 E9.3172
G1 X110.6000 Y109.7860 E10.2691
G1 X109.7860 Y109.7860 E10.3042
G1 X126.2140 Y126.2140 E11.3057
G1 X125.4000 Y126.2140 E11.3408
G1 X109.7860 Y110.6000 E12.2926
G1 X109.7860 Y111.4150 E12.3278
G1 X124.5850 Y126.2140 E13.2299
G1 X123.7710 Y126.2140 E13.2651
G1 X109.7860 Y112.2290 E14.1176
G1 X109.7860 Y113.0440 E14.1527
G1 X122.9560 Y126.2140 E14.9556
G1 X122.1410 Y126.2140 E14.9907
G1 X109.7860 Y113.8590 E15.7439
G1 X109.7860 Y114.6730 E15.7790
G1 X121.3270 Y126.2140 E16.4826
G1 X120.5120 Y126.2140 E16.5177
G1 X109.7860 Y115.4880 E17.1716
G1 X109.7860 Y116.3020 E17.2067
G1 X119.6980 Y126.2140 E17.8109
G1 X118.8830 Y126.2140 E17.8460
G1 X109.7860 Y117.1170 E18.4006
G1 X109.7860 Y117.9310 E18.4357
G1 X118.0690 Y126.2140 E18.9407
G1 X117.2540 Y126.2140 E18.9758
G1 X109.7860 Y118.7460 E19.4310
G1 X109.7860 Y119.5610 E19.4662
G1 X116.4390 Y126.2140 E19.8718
G1 X115.6250 Y126.2140 E19.9069
G1 X109.7860 Y120.3750 E20.2628
G1 X109.7860 Y121.1900 E20.2980
G1 X114.8100 Y126.2140 E20.6043
G1 X113.9960 Y126.2140 E20.6394
G1 X109.7860 Y122.0040 E20.8960
G1 X109.7860 Y122.8190 E20.9311
G1 X113.1810 Y126.2140 E21.1381
G1 X112.3660 Y126.2140 E21.1732
G1 X109.7860 Y123.6340 E21.3305
G1 X109.7860 Y124.4480 E21.3657
G1 X111.5520 Y126.2140 E21.4733
G1 X110.7370 Y126.2140 E21.5084
G1 X109.7860 Y125.2630 E21.5665
G1 X109.7860 Y126.0770 E21.6016
G1 X109.9230 Y126.2140 E21.6099
G92 E0.0000
G1 E-5 F2400 ; custom retraction
;layer 2, Z = 0.400
M106 S255; custom fan 100% from layer 2
G1 Z0.400 F1200
G1 X109.2000 Y126.8000 F6000
G1 E0 F2400 ; custom un-retraction/prime
G92 E0.0000
G1 X109.2000 Y109.2000 E0.6322 F2880
G1 X126.8000 Y109.2000 E1.2644
G1 X126.8000 Y126.8000 E1.8966
G1 X109.2000 Y126.8000 E2.5288
G1 X108.7200 Y127.2800 F6000
G92 E0.0000
G1 X108.7200 Y108.7200 E0.6667 F2880
G1 X127.2800 Y108.7200 E1.3334
G1 X127.2800 Y127.2800 E2.0001
G1 X108.7200 Y127.2800 E2.6668
G1 X108.2400 Y127.7600 F6000
G92 E0.0000
G1 X108.2400 Y108.2400 E0.7012 F2160
G1 X127.7600 Y108.2400 E1.4024
G1 X127.7600 Y127.7600 E2.1035
G1 X108.2400 Y127.7600 E2.8047
G1 X109.4880 Y109.5410 F6000
G92 E0.0000
G1 X109.5410 Y109.4880 E0.0027 F2880
G1 X110.2200 Y109.4880 E0.0271
G1 X109.4880 Y110.2200 E0.0643
G1 X109.4880 Y110.8990 E0.0887
G1 X110.8990 Y109.4880 E0.1604
G1 X111.5780 Y109.4880 E0.1848
G1 X109.4880 Y111.5780 E0.2909
G1 X109.4880 Y112.2570 E0.3153
G1 X112.2570 Y109.4880 E0.4560
G1 X112.9360 Y109.4880 E0.4803
G1 X109.4880 Y112.9360 E0.6555
G1 X109.4880 Y113.6140 E0.6799
G1 X113.6140 Y109.4880 E0.8895
G1 X114.2930 Y109.4880 E0.9139
G1 X109.4880 Y114.2930 E1.1580
G1 X109.4880 Y114.9720 E1.1824
G1 X114.9720 Y109.4880 E1.4609
G1 X115.6510 Y109.4880 E1.4853
G1 X109.4880 Y115.6510 E1.7984
G1 X109.4880 Y116.3300 E1.8228
G1 X116.3300 Y109.4880 E2.1703
G1 X117.0090 Y109.4880 E2.1947
G1 X109.4880 Y117.0090 E2.5768
G1 X109.4880 Y117.6870 E2.6012
G1 X117.6870 Y109.4880 E3.0177
G1 X118.3660 Y109.4880 E3.0421
G1 X109.4880 Y118.3660 E3.4931
G1 X109.4880 Y119.0450 E3.5175
G1 X119.0450 Y109.4880 E4.0030
G1 X119.7240 Y109.4880 E4.0273
G1 X109.4880 Y119.7240 E4.5473
G1 X109.4880 Y120.4030 E4.5717
G1 X120.4030 Y109.4880 E5.1262
G1 X121.0810 Y109.4880 E5.1505
G1 X109.4880 Y121.0810 E5.7395
G1 X109.4880 Y121.7600 E5.7639
G1 X121.7600 Y109.4880 E6.3873
G1 X122.4390 Y109.4880 E6.4117
G1 X109.4880 Y122.4390 E7.0696
G1 X109.4880 Y123.1180 E7.0940
G1 X123.1180 Y109.4880 E7.7864
G1 X123.7970 Y109.4880 E7.8108
G1 X109.4880 Y123.7970 E8.5377
G1 X109.4880 Y124.4760 E8.5620
G1 X124.4760 Y109.4880 E9.3234
G1 X125.1540 Y109.4880 E9.3478
G1 X109.4880 Y125.1540 E10.1436
G1 X109.4880 Y125.8330 E10.1680
G1 X125.8330 Y109.4880 E10.9984
G1 X126.5120 Y109.4880 E11.0227
G1 X109.4880 Y126.5120 E11.8876
G1 X110.1670 Y126.5120 E11.9119
G1 X126.5120 Y110.1670 E12.7423
G1 X126.5120 Y110.8460 E12.7667
G1 X110.8460 Y126.5120 E13.5625
G1 X111.5250 Y126.5120 E13.5869
G1 X126.5120 Y111.5250 E14.3482
G1 X126.5120 Y112.2030 E14.3726
G1 X112.2030 Y126.5120 E15.0995
G1 X112.8820 Y126.5120 E15.1239
G1 X126.5120 Y112.8820 E15.8163
G1 X126.5120 Y113.5610 E15.8407
G1 X113.5610 Y126.5120 E16.4986
G1 X114.2400 Y126.5120 E16.5230
G1 X126.5120 Y114.2400 E17.1464
G1 X126.5120 Y114.9190 E17.1708
G1 X114.9190 Y126.5120 E17.7597
G1 X115.5970 Y126.5120 E17.7841
G1 X126.5120 Y115.5970 E18.3386
G1 X126.5120 Y116.2760 E18.3629
G1 X116.2760 Y126.5120 E18.8829
G1 X116.9550 Y126.5120 E18.9073
G1 X126.5120 Y116.9550 E19.3928
G1 X126.5120 Y117.6340 E19.4172
G1 X117.6340 Y126.5120 E19.8682
G1 X118.3130 Y126.5120 E19.8926
G1 X126.5120 Y118.3130 E20.3091
G1 X126.5120 Y118.9920 E20.3335
G1 X118.9920 Y126.5120 E20.7155
G1 X119.6700 Y126.5120 E20.7399
G1 X126.5120 Y119.6700 E21.0875
G1 X126.5120 Y120.3490 E21.1118
G1 X120.3490 Y126.5120 E21.4249
G1 X121.0280 Y126.5120 E21.4493
G1 X126.5120 Y121.0280 E21.7279
G1 X126.5120 Y121.7070 E21.7523
G1 X121.7070 Y126.5120 E21.9964
G1 X122.3860 Y126.5120 E22.0207
G1 X126.5120 Y122.3860 E22.2304
G1 X126.5120 Y123.0640 E22.2547
G1 X123.0640 Y126.5120 E22.4299
G1 X123.7430 Y126.5120 E22.4543
G1 X126.5120 Y123.7430 E22.5949
G1 X126.5120 Y124.4220 E22.6193
G1 X124.4220 Y126.5120 E22.7255
G1 X125.1010 Y126.5120 E22.7498
G1 X126.5120 Y125.1010 E22.8215
G1 X126.5120 Y125.7800 E22.8459
G1 X125.7800 Y126.5120 E22.8831
G1 X126.4590 Y126.5120 E22.9075
G1 X126.5120 Y126.4590 E22.9102
G92 E0.0000
G1 E-5 F2400 ; custom retraction
;layer 3, Z = 0.600
;fan3;
G1 Z0.600 F1200
G1 X126.8000 Y126.8000 F6000
G1 E0 F2400 ; custom un-retraction/prime
G92 E0.0000
G1 X109.2000 Y126.8000 E0.6322 F2880
G1 X109.2000 Y109.2000 E1.2644
G1 X126.8000 Y109.2000 E1.8966
G1 X126.8000 Y126.8000 E2.5288
G1 X127.2800 Y127.2800 F6000
G92 E0.0000
G1 X108.7200 Y127.2800 E0.6667 F2880
G1 X108.7200 Y108.7200 E1.3334
G1 X127.2800 Y108.7200 E2.0001
G1 X127.2800 Y127.2800 E2.6668
G1 X127.7600 Y127.7600 F6000
G92 E0.0000
G1 X108.2400 Y127.7600 E0.7012 F2160
G1 X108.2400 Y108.2400 E1.4024
G1 X127.7600 Y108.2400 E2.1035
G1 X127.7600 Y127.7600 E2.8047
G1 X109.5410 Y126.5120 F6000
G92 E0.0000
G1 X109.4880 Y126.4590 E0.0027 F2880
G1 X109.4880 Y125.7800 E0.0271
G1 X110.2200 Y126.5120 E0.0643
G1 X110.8990 Y126.5120 E0.0887
G1 X109.4880 Y125.1010 E0.1604
G1 X109.4880 Y124.4220 E0.1847
G1 X111.5780 Y126.5120 E0.2909
G1 X112.2570 Y126.5120 E0.3153
G1 X109.4880 Y123.7430 E0.4560
G1 X109.4880 Y123.0640 E0.4803
G1 X112.9360 Y126.5120 E0.6555
G1 X113.6140 Y126.5120 E0.6799
G1 X109.4880 Y122.3860 E0.8895
G1 X109.4880 Y121.7070 E0.9139
G1 X114.2930 Y126.5120 E1.1580
G1 X114.9720 Y126.5120 E1.1823
G1 X109.4880 Y121.0280 E1.4609
G1 X109.4880 Y120.3490 E1.4853
G1 X115.6510 Y126.5120 E1.7984
G1 X116.3300 Y126.5120 E1.8228
G1 X109.4880 Y119.6700 E2.1703
G1 X109.4880 Y118.9920 E2.1947
G1 X117.0080 Y126.5120 E2.5768
G1 X117.6870 Y126.5120 E2.6011
G1 X109.4880 Y118.3130 E3.0177
G1 X109.4880 Y117.6340 E3.0420
G1 X118.3660 Y126.5120 E3.4931
G1 X119.0450 Y126.5120 E3.5174
G1 X109.4880 Y116.9550 E4.0029
G1 X109.4880 Y116.2760 E4.0273
G1 X119.7240 Y126.5120 E4.5473
G1 X120.4030 Y126.5120 E4.5717
G1 X109.4880 Y115.5970 E5.1261
G1 X109.4880 Y114.9190 E5.1505
G1 X121.0810 Y126.5120 E5.7395
G1 X121.7600 Y126.5120 E5.7639
G1 X109.4880 Y114.2400 E6.3873
G1 X109.4880 Y113.5610 E6.4117
G1 X122.4390 Y126.5120 E7.0696
G1 X123.1180 Y126.5120 E7.0940
G1 X109.4880 Y112.8820 E7.7864
G1 X109.4880 Y112.2030 E7.8107
G1 X123.7970 Y126.5120 E8.5376
G1 X124.4760 Y126.5120 E8.5620
G1 X109.4880 Y111.5240 E9.3234
G1 X109.4880 Y110.8460 E9.3478
G1 X125.1540 Y126.5120 E10.1436
G1 X125.8330 Y126.5120 E10.1680
G1 X109.4880 Y110.1670 E10.9983
G1 X109.4880 Y109.4880 E11.0227
G1 X126.5120 Y126.5120 E11.8875
G1 X126.5120 Y125.8330 E11.9119
G1 X110.1670 Y109.4880 E12.7422
G1 X110.8460 Y109.4880 E12.7666
G1 X126.5120 Y125.1540 E13.5625
G1 X126.5120 Y124.4760 E13.5869
G1 X111.5240 Y109.4880 E14.3482
G1 X112.2030 Y109.4880 E14.3726
G1 X126.5120 Y123.7970 E15.0995
G1 X126.5120 Y123.1180 E15.1239
G1 X112.8820 Y109.4880 E15.8163
G1 X113.5610 Y109.4880 E15.8407
G1 X126.5120 Y122.4390 E16.4986
G1 X126.5120 Y121.7600 E16.5230
G1 X114.2400 Y109.4880 E17.1464
G1 X114.9190 Y109.4880 E17.1708
G1 X126.5120 Y121.0810 E17.7597
G1 X126.5120 Y120.4030 E17.7841
G1 X115.5970 Y109.4880 E18.3385
G1 X116.2760 Y109.4880 E18.3629
G1 X126.5120 Y119.7240 E18.8829
G1 X126.5120 Y119.0450 E18.9073
G1 X116.9550 Y109.4880 E19.3928
G1 X117.6340 Y109.4880 E19.4172
G1 X126.5120 Y118.3660 E19.8682
G1 X126.5120 Y117.6870 E19.8926
G1 X118.3130 Y109.4880 E20.3091
G1 X118.9920 Y109.4880 E20.3335
G1 X126.5120 Y117.0080 E20.7155
G1 X126.5120 Y116.3300 E20.7399
G1 X119.6700 Y109.4880 E21.0874
G1 X120.3490 Y109.4880 E21.1118
G1 X126.5120 Y115.6510 E21.4249
G1 X126.5120 Y114.9720 E21.4493
G1 X121.0280 Y109.4880 E21.7279
G1 X121.7070 Y109.4880 E21.7523
G1 X126.5120 Y114.2930 E21.9964
G1 X126.5120 Y113.6140 E22.0207
G1 X122.3860 Y109.4880 E22.2304
G1 X123.0640 Y109.4880 E22.2547
G1 X126.5120 Y112.9360 E22.4299
G1 X126.5120 Y112.2570 E22.4543
G1 X123.7430 Y109.4880 E22.5949
G1 X124.4220 Y109.4880 E22.6193
G1 X126.5120 Y111.5780 E22.7255
G1 X126.5120 Y110.8990 E22.7498
G1 X125.1010 Y109.4880 E22.8215
G1 X125.7800 Y109.4880 E22.8459
G1 X126.5120 Y110.2200 E22.8831
G1 X126.5120 Y109.5410 E22.9075
G1 X126.4590 Y109.4880 E22.9102
G92 E0.0000
G1 E-5 F2400 ; custom retraction
;layer 4, Z = 0.800
;fan4;
G1 Z0.800 F1200
G1 X126.8000 Y109.2000 F6000
G1 E0 F2400 ; custom un-retraction/prime
G92 E0.0000
G1 X126.8000 Y126.8000 E0.6322 F2880
G1 X109.2000 Y126.8000 E1.2644
G1 X109.2000 Y109.2000 E1.8966
G1 X126.8000 Y109.2000 E2.5288
G1 X127.2800 Y108.7200 F6000
G92 E0.0000
G1 X127.2800 Y127.2800 E0.6667 F2880
G1 X108.7200 Y127.2800 E1.3334
G1 X108.7200 Y108.7200 E2.0001
G1 X127.2800 Y108.7200 E2.6668
G1 X127.7600 Y108.2400 F6000
G92 E0.0000
G1 X127.7600 Y127.7600 E0.7012 F2160
G1 X108.2400 Y127.7600 E1.4024
G1 X108.2400 Y108.2400 E2.1035
G1 X127.7600 Y108.2400 E2.8047
G1 X126.4520 Y122.2760 F6000
G92 E0.0000
G1 X122.2760 Y126.4520 E0.2652 F3600
G1 X118.0330 Y126.4520 E0.4557
G1 X126.4520 Y118.0330 E0.9903
G1 X126.4520 Y113.7910 E1.1808
G1 X113.7910 Y126.4520 E1.9848
G1 X109.5480 Y126.4520 E2.1753
G1 X126.4520 Y109.5480 E3.2487
G1 X122.2090 Y109.5480 E3.4392
G1 X109.5480 Y122.2090 E4.2432
G1 X109.5480 Y117.9670 E4.4337
G1 X117.9670 Y109.5480 E4.9682
G1 X113.7240 Y109.5480 E5.1587
G1 X109.5480 Y113.7240 E5.4239
G92 E0.0000
G1 E-5 F2400 ; custom retraction
;layer 5, Z = 1.000
;fan5;
;
G1 Z1.000 F1200
G1 X109.2000 Y109.2000 F6000
G1 E0 F2400 ; custom un-retraction/prime
G92 E0.0000
G1 X126.8000 Y109.2000 E0.6322 F2880
G1 X126.8000 Y126.8000 E1.2644
G1 X109.2000 Y126.8000 E1.8966
G1 X109.2000 Y109.2000 E2.5288
G1 X108.7200 Y108.7200 F6000
G92 E0.0000
G1 X127.2800 Y108.7200 E0.6667 F2880
G1 X127.2800 Y127.2800 E1.3334
G1 X108.7200 Y127.2800 E2.0001
G1 X108.7200 Y108.7200 E2.6668
G1 X108.2400 Y108.2400 F6000
G92 E0.0000
G1 X127.7600 Y108.2400 E0.7012 F2160
G1 X127.7600 Y127.7600 E1.4024
G1 X108.2400 Y127.7600 E2.1035
G1 X108.2400 Y108.2400 E2.8047
G1 X122.2760 Y109.5480 F6000
G92 E0.0000
G1 X126.4520 Y113.7240 E0.2652 F3600
G1 X126.4520 Y117.9670 E0.4557
G1 X118.0330 Y109.5480 E0.9903
G1 X113.7910 Y109.5480 E1.1808
G1 X126.4520 Y122.2090 E1.9848
G1 X126.4520 Y126.4520 E2.1753
G1 X109.5480 Y109.5480 E3.2487
G1 X109.5480 Y113.7910 E3.4392
G1 X122.2090 Y126.4520 E4.2432
G1 X117.9670 Y126.4520 E4.4337
G1 X109.5480 Y118.0330 E4.9682
G1 X109.5480 Y122.2760 E5.1587
G1 X113.7240 Y126.4520 E5.4239
G92 E0.0000
G1 E-5 F2400 ; custom retraction
;layer 6, Z = 1.200
;fan6;
G1 Z1.200 F1200
G1 X109.2000 Y126.8000 F6000
G1 E0 F2400 ; custom un-retraction/prime
G92 E0.0000
G1 X109.2000 Y109.2000 E0.6322 F2880
G1 X126.8000 Y109.2000 E1.2644
G1 X126.8000 Y126.8000 E1.8966
G1 X109.2000 Y126.8000 E2.5288
G1 X108.7200 Y127.2800 F6000
G92 E0.0000
G1 X108.7200 Y108.7200 E0.6667 F2880
G1 X127.2800 Y108.7200 E1.3334
G1 X127.2800 Y127.2800 E2.0001
G1 X108.7200 Y127.2800 E2.6668
G1 X108.2400 Y127.7600 F6000
G92 E0.0000
G1 X108.2400 Y108.2400 E0.7012 F2160
G1 X127.7600 Y108.2400 E1.4024
G1 X127.7600 Y127.7600 E2.1035
G1 X108.2400 Y127.7600 E2.8047
G1 X109.5480 Y113.7240 F6000
G92 E0.0000
G1 X113.7240 Y109.5480 E0.2652 F3600
G1 X117.9670 Y109.5480 E0.4557
G1 X109.5480 Y117.9670 E0.9903
G1 X109.5480 Y122.2090 E1.1808
G1 X122.2090 Y109.5480 E1.9848
G1 X126.4520 Y109.5480 E2.1753
G1 X109.5480 Y126.4520 E3.2487
G1 X113.7910 Y126.4520 E3.4392
G1 X126.4520 Y113.7910 E4.2432
G1 X126.4520 Y118.0330 E4.4337
G1 X118.0330 Y126.4520 E4.9682
G1 X122.2760 Y126.4520 E5.1587
G1 X126.4520 Y122.2760 E5.4239
G92 E0.0000
G1 E-5 F2400 ; custom retraction
;layer 7, Z = 1.400
;fan7;
G1 Z1.400 F1200
G1 X126.8000 Y126.8000 F6000
G1 E0 F2400 ; custom un-retraction/prime
G92 E0.0000
G1 X109.2000 Y126.8000 E0.6322 F2880
G1 X109.2000 Y109.2000 E1.2644
G1 X126.8000 Y109.2000 E1.8966
G1 X126.8000 Y126.8000 E2.5288
G1 X127.2800 Y127.2800 F6000
G92 E0.0000
G1 X108.7200 Y127.2800 E0.6667 F2880
G1 X108.7200 Y108.7200 E1.3334
G1 X127.2800 Y108.7200 E2.0001
G1 X127.2800 Y127.2800 E2.6668
G1 X127.7600 Y127.7600 F6000
G92 E0.0000
G1 X108.2400 Y127.7600 E0.7012 F2160
G1 X108.2400 Y108.2400 E1.4024
G1 X127.7600 Y108.2400 E2.1035
G1 X127.7600 Y127.7600 E2.8047
G1 X113.7240 Y126.4520 F6000
G92 E0.0000
G1 X109.5480 Y122.2760 E0.2652 F3600
G1 X109.5480 Y118.0330 E0.4557
G1 X117.9670 Y126.4520 E0.9903
G1 X122.2090 Y126.4520 E1.1808
G1 X109.5480 Y113.7910 E1.9848
G1 X109.5480 Y109.5480 E2.1753
G1 X126.4520 Y126.4520 E3.2487
G1 X126.4520 Y122.2090 E3.4392
G1 X113.7910 Y109.5480 E4.2432
G1 X118.0330 Y109.5480 E4.4337
G1 X126.4520 Y117.9670 E4.9682
G1 X126.4520 Y113.7240 E5.1587
G1 X122.2760 Y109.5480 E5.4239
G92 E0.0000
G1 E-5 F2400 ; custom retraction
;layer 8, Z = 1.600
;fan8;
G1 Z1.600 F1200
G1 X126.8000 Y109.2000 F6000
G1 E0 F2400 ; custom un-retraction/prime
G92 E0.0000
G1 X126.8000 Y126.8000 E0.6322 F2880
G1 X109.2000 Y126.8000 E1.2644
G1 X109.2000 Y109.2000 E1.8966
G1 X126.8000 Y109.2000 E2.5288
G1 X127.2800 Y108.7200 F6000
G92 E0.0000
G1 X127.2800 Y127.2800 E0.6667 F2880
G1 X108.7200 Y127.2800 E1.3334
G1 X108.7200 Y108.7200 E2.0001
G1 X127.2800 Y108.7200 E2.6668
G1 X127.7600 Y108.2400 F6000
G92 E0.0000
G1 X127.7600 Y127.7600 E0.7012 F2160
G1 X108.2400 Y127.7600 E1.4024
G1 X108.2400 Y108.2400 E2.1035
G1 X127.7600 Y108.2400 E2.8047
G1 X126.4520 Y122.2760 F6000
G92 E0.0000
G1 X122.2760 Y126.4520 E0.2652 F3600
G1 X118.0330 Y126.4520 E0.4557
G1 X126.4520 Y118.0330 E0.9903
G1 X126.4520 Y113.7910 E1.1808
G1 X113.7910 Y126.4520 E1.9848
G1 X109.5480 Y126.4520 E2.1753
G1 X126.4520 Y109.5480 E3.2487
G1 X122.2090 Y109.5480 E3.4392
G1 X109.5480 Y122.2090 E4.2432
G1 X109.5480 Y117.9670 E4.4337
G1 X117.9670 Y109.5480 E4.9682
G1 X113.7240 Y109.5480 E5.1587
G1 X109.5480 Y113.7240 E5.4239
G92 E0.0000
G1 E-5 F2400 ; custom retraction
;layer 9, Z = 1.800
;fan9;
G1 Z1.800 F1200
G1 X109.2000 Y109.2000 F6000
G1 E0 F2400 ; custom un-retraction/prime
G92 E0.0000
G1 X126.8000 Y109.2000 E0.6322 F2880
G1 X126.8000 Y126.8000 E1.2644
G1 X109.2000 Y126.8000 E1.8966
G1 X109.2000 Y109.2000 E2.5288
G1 X108.7200 Y108.7200 F6000
G92 E0.0000
G1 X127.2800 Y108.7200 E0.6667 F2880
G1 X127.2800 Y127.2800 E1.3334
G1 X108.7200 Y127.2800 E2.0001
G1 X108.7200 Y108.7200 E2.6668
G1 X108.2400 Y108.2400 F6000
G92 E0.0000
G1 X127.7600 Y108.2400 E0.7012 F2160
G1 X127.7600 Y127.7600 E1.4024
G1 X108.2400 Y127.7600 E2.1035
G1 X108.2400 Y108.2400 E2.8047
G1 X122.2760 Y109.5480 F6000
G92 E0.0000
G1 X126.4520 Y113.7240 E0.2652 F3600
G1 X126.4520 Y117.9670 E0.4557
G1 X118.0330 Y109.5480 E0.9903
G1 X113.7910 Y109.5480 E1.1808
G1 X126.4520 Y122.2090 E1.9848
G1 X126.4520 Y126.4520 E2.1753
G1 X109.5480 Y109.5480 E3.2487
G1 X109.5480 Y113.7910 E3.4392
G1 X122.2090 Y126.4520 E4.2432
G1 X117.9670 Y126.4520 E4.4337
G1 X109.5480 Y118.0330 E4.9682
G1 X109.5480 Y122.2760 E5.1587
G1 X113.7240 Y126.4520 E5.4239
G92 E0.0000
G1 E-5 F2400 ; custom retraction
;layer 10, Z = 2.000
;fan10;
G1 Z2.000 F1200
G1 X109.2000 Y126.8000 F6000
G1 E0 F2400 ; custom un-retraction/prime
G92 E0.0000
G1 X109.2000 Y109.2000 E0.6322 F2880
G1 X126.8000 Y109.2000 E1.2644
G1 X126.8000 Y126.8000 E1.8966
G1 X109.2000 Y126.8000 E2.5288
G1 X108.7200 Y127.2800 F6000
G92 E0.0000
G1 X108.7200 Y108.7200 E0.6667 F2880
G1 X127.2800 Y108.7200 E1.3334
G1 X127.2800 Y127.2800 E2.0001
G1 X108.7200 Y127.2800 E2.6668
G1 X108.2400 Y127.7600 F6000
G92 E0.0000
G1 X108.2400 Y108.2400 E0.7012 F2160
G1 X127.7600 Y108.2400 E1.4024
G1 X127.7600 Y127.7600 E2.1035
G1 X108.2400 Y127.7600 E2.8047
G1 X109.5480 Y113.7240 F6000
G92 E0.0000
G1 X113.7240 Y109.5480 E0.2652 F3600
G1 X117.9670 Y109.5480 E0.4557
G1 X109.5480 Y117.9670 E0.9903
G1 X109.5480 Y122.2090 E1.1808
G1 X122.2090 Y109.5480 E1.9848
G1 X126.4520 Y109.5480 E2.1753
G1 X109.5480 Y126.4520 E3.2487
G1 X113.7910 Y126.4520 E3.4392
G1 X126.4520 Y113.7910 E4.2432
G1 X126.4520 Y118.0330 E4.4337
G1 X118.0330 Y126.4520 E4.9682
G1 X122.2760 Y126.4520 E5.1587
G1 X126.4520 Y122.2760 E5.4239
G92 E0.0000
G1 E-5 F2400 ; custom retraction
;layer 11, Z = 2.200
;fan11;
G1 Z2.200 F1200
G1 X126.8000 Y126.8000 F6000
G1 E0 F2400 ; custom un-retraction/prime
G92 E0.0000
G1 X109.2000 Y126.8000 E0.6322 F2880
G1 X109.2000 Y109.2000 E1.2644
G1 X126.8000 Y109.2000 E1.8966
G1 X126.8000 Y126.8000 E2.5288
G1 X127.2800 Y127.2800 F6000
G92 E0.0000
G1 X108.7200 Y127.2800 E0.6667 F2880
G1 X108.7200 Y108.7200 E1.3334
G1 X127.2800 Y108.7200 E2.0001
G1 X127.2800 Y127.2800 E2.6668
G1 X127.7600 Y127.7600 F6000
G92 E0.0000
G1 X108.2400 Y127.7600 E0.7012 F2160
G1 X108.2400 Y108.2400 E1.4024
G1 X127.7600 Y108.2400 E2.1035
G1 X127.7600 Y127.7600 E2.8047
G1 X113.7240 Y126.4520 F6000
G92 E0.0000
G1 X109.5480 Y122.2760 E0.2652 F3600
G1 X109.5480 Y118.0330 E0.4557
G1 X117.9670 Y126.4520 E0.9903
G1 X122.2090 Y126.4520 E1.1808
G1 X109.5480 Y113.7910 E1.9848
G1 X109.5480 Y109.5480 E2.1753
G1 X126.4520 Y126.4520 E3.2487
G1 X126.4520 Y122.2090 E3.4392
G1 X113.7910 Y109.5480 E4.2432
G1 X118.0330 Y109.5480 E4.4337
G1 X126.4520 Y117.9670 E4.9682
G1 X126.4520 Y113.7240 E5.1587
G1 X122.2760 Y109.5480 E5.4239
G92 E0.0000
G1 E-5 F2400 ; custom retraction
;layer 12, Z = 2.400
;fan12;
G1 Z2.400 F1200
G1 X126.8000 Y109.2000 F6000
G1 E0 F2400 ; custom un-retraction/prime
G92 E0.0000
G1 X126.8000 Y126.8000 E0.6322 F2880
G1 X109.2000 Y126.8000 E1.2644
G1 X109.2000 Y109.2000 E1.8966
G1 X126.8000 Y109.2000 E2.5288
G1 X127.2800 Y108.7200 F6000
G92 E0.0000
G1 X127.2800 Y127.2800 E0.6667 F2880
G1 X108.7200 Y127.2800 E1.3334
G1 X108.7200 Y108.7200 E2.0001
G1 X127.2800 Y108.7200 E2.6668
G1 X127.7600 Y108.2400 F6000
G92 E0.0000
G1 X127.7600 Y127.7600 E0.7012 F2160
G1 X108.2400 Y127.7600 E1.4024
G1 X108.2400 Y108.2400 E2.1035
G1 X127.7600 Y108.2400 E2.8047
G1 X126.4520 Y122.2760 F6000
G92 E0.0000
G1 X122.2760 Y126.4520 E0.2652 F3600
G1 X118.0330 Y126.4520 E0.4557
G1 X126.4520 Y118.0330 E0.9903
G1 X126.4520 Y113.7910 E1.1808
G1 X113.7910 Y126.4520 E1.9848
G1 X109.5480 Y126.4520 E2.1753
G1 X126.4520 Y109.5480 E3.2487
G1 X122.2090 Y109.5480 E3.4392
G1 X109.5480 Y122.2090 E4.2432
G1 X109.5480 Y117.9670 E4.4337
G1 X117.9670 Y109.5480 E4.9682
G1 X113.7240 Y109.5480 E5.1587
G1 X109.5480 Y113.7240 E5.4239
G92 E0.0000
G1 E-5 F2400 ; custom retraction
;layer 13, Z = 2.600
;fan13;
G1 Z2.600 F1200
G1 X109.2000 Y109.2000 F6000
G1 E0 F2400 ; custom un-retraction/prime
G92 E0.0000
G1 X126.8000 Y109.2000 E0.6322 F2880
G1 X126.8000 Y126.8000 E1.2644
G1 X109.2000 Y126.8000 E1.8966
G1 X109.2000 Y109.2000 E2.5288
G1 X108.7200 Y108.7200 F6000
G92 E0.0000
G1 X127.2800 Y108.7200 E0.6667 F2880
G1 X127.2800 Y127.2800 E1.3334
G1 X108.7200 Y127.2800 E2.0001
G1 X108.7200 Y108.7200 E2.6668
G1 X108.2400 Y108.2400 F6000
G92 E0.0000
G1 X127.7600 Y108.2400 E0.7012 F2160
G1 X127.7600 Y127.7600 E1.4024
G1 X108.2400 Y127.7600 E2.1035
G1 X108.2400 Y108.2400 E2.8047
G1 X122.2760 Y109.5480 F6000
G92 E0.0000
G1 X126.4520 Y113.7240 E0.2652 F3600
G1 X126.4520 Y117.9670 E0.4557
G1 X118.0330 Y109.5480 E0.9903
G1 X113.7910 Y109.5480 E1.1808
G1 X126.4520 Y122.2090 E1.9848
G1 X126.4520 Y126.4520 E2.1753
G1 X109.5480 Y109.5480 E3.2487
G1 X109.5480 Y113.7910 E3.4392
G1 X122.2090 Y126.4520 E4.2432
G1 X117.9670 Y126.4520 E4.4337
G1 X109.5480 Y118.0330 E4.9682
G1 X109.5480 Y122.2760 E5.1587
G1 X113.7240 Y126.4520 E5.4239
G92 E0.0000
G1 E-5 F2400 ; custom retraction
;layer 14, Z = 2.800
;fan14;
G1 Z2.800 F1200
G1 X109.2000 Y126.8000 F6000
G1 E0 F2400 ; custom un-retraction/prime
G92 E0.0000
G1 X109.2000 Y109.2000 E0.6322 F2880
G1 X126.8000 Y109.2000 E1.2644
G1 X126.8000 Y126.8000 E1.8966
G1 X109.2000 Y126.8000 E2.5288
G1 X108.7200 Y127.2800 F6000
G92 E0.0000
G1 X108.7200 Y108.7200 E0.6667 F2880
G1 X127.2800 Y108.7200 E1.3334
G1 X127.2800 Y127.2800 E2.0001
G1 X108.7200 Y127.2800 E2.6668
G1 X108.2400 Y127.7600 F6000
G92 E0.0000
G1 X108.2400 Y108.2400 E0.7012 F2160
G1 X127.7600 Y108.2400 E1.4024
G1 X127.7600 Y127.7600 E2.1035
G1 X108.2400 Y127.7600 E2.8047
G1 X109.5480 Y113.7240 F6000
G92 E0.0000
G1 X113.7240 Y109.5480 E0.2652 F3600
G1 X117.9670 Y109.5480 E0.4557
G1 X109.5480 Y117.9670 E0.9903
G1 X109.5480 Y122.2090 E1.1808
G1 X122.2090 Y109.5480 E1.9848
G1 X126.4520 Y109.5480 E2.1753
G1 X109.5480 Y126.4520 E3.2487
G1 X113.7910 Y126.4520 E3.4392
G1 X126.4520 Y113.7910 E4.2432
G1 X126.4520 Y118.0330 E4.4337
G1 X118.0330 Y126.4520 E4.9682
G1 X122.2760 Y126.4520 E5.1587
G1 X126.4520 Y122.2760 E5.4239
G92 E0.0000
G1 E-5 F2400 ; custom retraction
;layer 15, Z = 3.000
;fan15;
G1 Z3.000 F1200
G1 X126.8000 Y126.8000 F6000
G1 E0 F2400 ; custom un-retraction/prime
G92 E0.0000
G1 X109.2000 Y126.8000 E0.6322 F2880
G1 X109.2000 Y109.2000 E1.2644
G1 X126.8000 Y109.2000 E1.8966
G1 X126.8000 Y126.8000 E2.5288
G1 X127.2800 Y127.2800 F6000
G92 E0.0000
G1 X108.7200 Y127.2800 E0.6667 F2880
G1 X108.7200 Y108.7200 E1.3334
G1 X127.2800 Y108.7200 E2.0001
G1 X127.2800 Y127.2800 E2.6668
G1 X127.7600 Y127.7600 F6000
G92 E0.0000
G1 X108.2400 Y127.7600 E0.7012 F2160
G1 X108.2400 Y108.2400 E1.4024
G1 X127.7600 Y108.2400 E2.1035
G1 X127.7600 Y127.7600 E2.8047
G1 X126.4600 Y117.6350 F6000
G92 E0.0000
G1 X126.5120 Y117.6870 E0.0026 F2880
G1 X126.5120 Y117.0080 E0.0270
G1 X126.5050 Y117.0010 E0.0274
G1 X123.0640 Y109.4880 F6000
G92 E0.0000
G1 X123.3120 Y109.7350 E0.0126 F2880
G1 X123.3110 Y110.4140 E0.0369
G1 X122.3860 Y109.4880 E0.0840
G1 X121.7070 Y109.4880 E0.1083
G1 X123.1180 Y110.8990 E0.1800
G1 X122.4390 Y110.8990 E0.2044
G1 X121.0280 Y109.4880 E0.2761
G1 X120.3490 Y109.4880 E0.3005
G1 X121.7610 Y110.8990 E0.3722
G1 X121.0820 Y110.8990 E0.3966
G1 X119.6700 Y109.4880 E0.4683
G1 X119.5150 Y109.4880 E0.4739
G1 X119.5150 Y110.0110 E0.4927
G1 X120.4030 Y110.8990 E0.5378
G1 X119.7240 Y110.8990 E0.5622
G1 X119.5140 Y110.6890 E0.5728
G1 X115.5970 Y109.4880 F6000
G92 E0.0000
G1 X115.6730 Y109.5630 E0.0038 F2880
G1 X115.6730 Y110.2430 E0.0282
G1 X114.9190 Y109.4880 E0.0666
G1 X114.2400 Y109.4880 E0.0910
G1 X115.6510 Y110.8990 E0.1626
G1 X114.9720 Y110.8990 E0.1870
G1 X113.5610 Y109.4880 E0.2587
G1 X112.8820 Y109.4880 E0.2831
G1 X114.2930 Y110.8990 E0.3548
G1 X113.6150 Y110.8990 E0.3792
G1 X112.2030 Y109.4880 E0.4509
G1 X112.0440 Y109.4880 E0.4566
G1 X112.0440 Y110.0070 E0.4753
G1 X112.9360 Y110.8990 E0.5206
G1 X112.2570 Y110.8990 E0.5450
G1 X112.0440 Y110.6870 E0.5558
G1 X123.8510 Y111.1230 F6000
G92 E0.0000
G1 X126.4520 Y113.7240 E0.1652 F3600
G1 X126.4520 Y116.3610 E0.2836
G1 X126.0100 Y116.3450 E0.3034
G1 X125.9320 Y117.4470 E0.3530
G1 X119.9250 Y111.4390 E0.7344
G1 X118.9740 Y111.4390 E0.7771
G1 X118.9740 Y110.4890 E0.8198
G1 X118.0330 Y109.5480 E0.8796
G1 X116.2130 Y109.5480 E0.9613
G1 X116.2140 Y111.4390 E1.0462
G1 X115.6820 Y111.4390 E1.0701
G1 X126.4520 Y122.2090 E1.7540
G1 X126.4520 Y126.4520 E1.9445
G1 X109.5480 Y109.5480 E3.0179
G1 X109.5480 Y113.7910 E3.2084
G1 X122.2090 Y126.4520 E4.0124
G1 X117.9670 Y126.4520 E4.2029
G1 X109.5480 Y118.0330 E4.7375
G1 X109.5480 Y122.2760 E4.9280
G1 X113.7240 Y126.4520 E5.1932
G92 E0.0000
G1 E-5 F2400 ; custom retraction
;layer 16, Z = 3.200
;fan16;
G1 Z3.200 F1200
G1 X109.2000 Y126.8000 F6000
G1 E0 F2400 ; custom un-retraction/prime
G92 E0.0000
G1 X109.2000 Y109.2000 E0.6322 F2880
G1 X126.8000 Y109.2000 E1.2644
G1 X126.8000 Y126.8000 E1.8966
G1 X109.2000 Y126.8000 E2.5288
G1 X108.7200 Y127.2800 F6000
G92 E0.0000
G1 X108.7200 Y108.7200 E0.6667 F2880
G1 X127.2800 Y108.7200 E1.3334
G1 X127.2800 Y127.2800 E2.0001
G1 X108.7200 Y127.2800 E2.6668
G1 X108.2400 Y127.7600 F6000
G92 E0.0000
G1 X108.2400 Y108.2400 E0.7012 F2160
G1 X127.7600 Y108.2400 E1.4024
G1 X127.7600 Y127.7600 E2.1035
G1 X108.2400 Y127.7600 E2.8047
G1 X115.5970 Y110.9000 F6000
G92 E0.0000
G1 X115.7920 Y110.7050 E0.0099 F2880
G1 X115.7920 Y110.0260 E0.0343
G1 X114.9180 Y110.9000 E0.0786
G1 X114.2390 Y110.9000 E0.1030
G1 X115.6510 Y109.4880 E0.1747
G1 X114.9720 Y109.4880 E0.1991
G1 X113.5610 Y110.9000 E0.2708
G1 X112.8820 Y110.9000 E0.2952
G1 X114.2930 Y109.4880 E0.3669
G1 X113.6140 Y109.4880 E0.3913
G1 X112.2030 Y110.9000 E0.4630
G1 X112.1550 Y110.9000 E0.4647
G1 X112.0440 Y110.8990 E0.4687
G1 X112.0440 Y110.3800 E0.4874
G1 X112.9360 Y109.4880 E0.5327
G1 X112.2570 Y109.4880 E0.5571
G1 X112.0440 Y109.7010 E0.5679
G1 X119.3930 Y109.8190 F6000
G92 E0.0000
G1 X119.7240 Y109.4880 E0.0168 F2880
G1 X120.4030 Y109.4880 E0.0412
G1 X119.3920 Y110.4980 E0.0925
G1 X119.3920 Y110.9000 E0.1069
G1 X119.6700 Y110.9000 E0.1169
G1 X121.0810 Y109.4880 E0.1886
G1 X121.7600 Y109.4880 E0.2130
G1 X120.3490 Y110.9000 E0.2847
G1 X121.0280 Y110.9000 E0.3091
G1 X122.4390 Y109.4880 E0.3808
G1 X123.1180 Y109.4880 E0.4052
G1 X121.7060 Y110.9000 E0.4769
G1 X122.3850 Y110.9000 E0.5013
G1 X123.3120 Y109.9730 E0.5483
G1 X123.3110 Y110.6520 E0.5727
G1 X123.0640 Y110.9000 E0.5853
G1 X125.0470 Y116.3840 F6000
G92 E0.0000
G1 X125.6120 Y115.8190 E0.0287 F2880
G1 X126.2900 Y115.8190 E0.0531
G1 X125.0470 Y117.0630 E0.1162
G1 X125.0460 Y117.7420 E0.1406
G1 X126.5120 Y116.2760 E0.2151
G1 X126.5120 Y116.9550 E0.2395
G1 X125.0460 Y118.4210 E0.3139
G1 X125.0460 Y119.1000 E0.3383
G1 X126.5120 Y117.6340 E0.4128
G1 X126.5120 Y118.3130 E0.4372
G1 X125.3090 Y119.5150 E0.4983
G1 X125.9880 Y119.5160 E0.5227
G1 X126.5120 Y118.9920 E0.5493
G1 X126.4520 Y122.2760 F6000
G92 E0.0000
G1 X122.2760 Y126.4520 E0.2652 F3600
G1 X118.0330 Y126.4520 E0.4557
G1 X124.5050 Y119.9800 E0.8667
G1 X124.5070 Y115.7350 E1.0572
G1 X113.7910 Y126.4520 E1.7377
G1 X109.5480 Y126.4520 E1.9282
G1 X126.4520 Y109.5480 E3.0016
G1 X123.8520 Y109.5480 E3.1184
G1 X123.8510 Y111.4390 E3.2033
G1 X123.7250 Y111.4390 E3.2090
G1 X120.3180 Y111.4400 E3.3620
G1 X109.5480 Y122.2090 E4.0458
G1 X109.5480 Y117.9670 E4.2363
G1 X116.0750 Y111.4400 E4.6508
G1 X111.8330 Y111.4400 E4.8413
G1 X109.5480 Y113.7240 E4.9864
G92 E0.0000
G1 E-5 F2400 ; custom retraction
;layer 17, Z = 3.400
;fan17;
G1 Z3.400 F1200
G1 X109.2000 Y109.2000 F6000
G1 E0 F2400 ; custom un-retraction/prime
G92 E0.0000
G1 X126.8000 Y109.2000 E0.6322 F2880
G1 X126.8000 Y126.8000 E1.2644
G1 X109.2000 Y126.8000 E1.8966
G1 X109.2000 Y109.2000 E2.5288
G1 X108.7200 Y108.7200 F6000
G92 E0.0000
G1 X127.2800 Y108.7200 E0.6667 F2880
G1 X127.2800 Y127.2800 E1.3334
G1 X108.7200 Y127.2800 E2.0001
G1 X108.7200 Y108.7200 E2.6668
G1 X108.2400 Y108.2400 F6000
G92 E0.0000
G1 X127.7600 Y108.2400 E0.7012 F2160
G1 X127.7600 Y127.7600 E1.4024
G1 X108.2400 Y127.7600 E2.1035
G1 X108.2400 Y108.2400 E2.8047
G1 X112.0440 Y110.6870 F6000
G92 E0.0000
G1 X112.2570 Y110.9000 E0.0108 F2880
G1 X112.2660 Y110.9000 E0.0112
G1 X112.9360 Y110.9000 E0.0352
G1 X112.0440 Y110.0070 E0.0805
G1 X112.0440 Y109.4880 E0.0992
G1 X112.2030 Y109.4880 E0.1049
G1 X113.6150 Y110.9000 E0.1766
G1 X114.2940 Y110.9000 E0.2010
G1 X112.8820 Y109.4880 E0.2727
G1 X113.5610 Y109.4880 E0.2971
G1 X114.9730 Y110.9000 E0.3688
G1 X115.6510 Y110.9000 E0.3932
G1 X114.2400 Y109.4880 E0.4649
G1 X114.9190 Y109.4880 E0.4893
G1 X115.9100 Y110.4800 E0.5397
G1 X115.9100 Y109.8010 E0.5641
G1 X115.5970 Y109.4880 E0.5800
G1 X119.2710 Y110.4460 F6000
G92 E0.0000
G1 X119.7240 Y110.9000 E0.0231 F2880
G1 X120.4030 Y110.9000 E0.0474
G1 X119.2710 Y109.7670 E0.1050
G1 X119.2710 Y109.4880 E0.1150
G1 X119.6700 Y109.4880 E0.1293
G1 X121.0820 Y110.9000 E0.2010
G1 X121.7610 Y110.9000 E0.2254
G1 X120.3490 Y109.4880 E0.2971
G1 X121.0280 Y109.4880 E0.3215
G1 X122.4400 Y110.9000 E0.3932
G1 X123.0580 Y110.9000 E0.4155
G1 X123.1180 Y110.9000 E0.4176
G1 X121.7070 Y109.4880 E0.4893
G1 X122.3860 Y109.4880 E0.5137
G1 X123.3110 Y110.4140 E0.5607
G1 X123.3120 Y109.7350 E0.5851
G1 X123.0640 Y109.4880 E0.5977
G1 X125.9990 Y115.8170 F6000
G92 E0.0000
G1 X126.5120 Y116.3300 E0.0261 F2880
G1 X126.5120 Y117.0080 E0.0504
G1 X125.3200 Y115.8170 E0.1110
G1 X125.0470 Y115.8180 E0.1209
G1 X125.0470 Y116.2220 E0.1354
G1 X126.5120 Y117.6870 E0.2098
G1 X126.5120 Y118.3660 E0.2342
G1 X125.0470 Y116.9010 E0.3086
G1 X125.0460 Y117.5790 E0.3330
G1 X126.5120 Y119.0450 E0.4074
G1 X126.5120 Y119.5160 E0.4243
G1 X126.3040 Y119.5160 E0.4318
G1 X125.0460 Y118.2580 E0.4957
G1 X125.0460 Y118.9360 E0.5201
G1 X125.6250 Y119.5160 E0.5495
G1 X123.8510 Y111.1230 F6000
G92 E0.0000
G1 X126.4520 Y113.7240 E0.1652 F3600
G1 X126.4520 Y115.2770 E0.2349
G1 X124.5080 Y115.2780 E0.3223
G1 X124.5070 Y116.0220 E0.3557
G1 X119.9250 Y111.4400 E0.6467
G1 X118.7300 Y111.4400 E0.7003
G1 X118.7310 Y110.2450 E0.7539
G1 X118.0330 Y109.5480 E0.7982
G1 X116.4500 Y109.5480 E0.8693
G1 X116.4510 Y111.4400 E0.9542
G1 X115.6820 Y111.4400 E0.9888
G1 X126.4520 Y122.2090 E1.6726
G1 X126.4520 Y126.4520 E1.8631
G1 X109.5480 Y109.5480 E2.9365
G1 X109.5480 Y113.7910 E3.1270
G1 X122.2090 Y126.4520 E3.9310
G1 X117.9670 Y126.4520 E4.1215
G1 X109.5480 Y118.0330 E4.6561
G1 X109.5480 Y122.2760 E4.8466
G1 X113.7240 Y126.4520 E5.1118
G92 E0.0000
G1 E-5 F2400 ; custom retraction
;layer 18, Z = 3.600
;fan18;
G1 Z3.600 F1200
G1 X109.2000 Y126.8000 F6000
G1 E0 F2400 ; custom un-retraction/prime
G92 E0.0000
G1 X109.2000 Y109.2000 E0.6322 F2880
G1 X126.8000 Y109.2000 E1.2644
G1 X126.8000 Y126.8000 E1.8966
G1 X109.2000 Y126.8000 E2.5288
G1 X108.7200 Y127.2800 F6000
G92 E0.0000
G1 X108.7200 Y108.7200 E0.6667 F2880
G1 X127.2800 Y108.7200 E1.3334
G1 X127.2800 Y127.2800 E2.0001
G1 X108.7200 Y127.2800 E2.6668
G1 X108.2400 Y127.7600 F6000
G92 E0.0000
G1 X108.2400 Y108.2400 E0.7012 F2160
G1 X127.7600 Y108.2400 E1.4024
G1 X127.7600 Y127.7600 E2.1035
G1 X108.2400 Y127.7600 E2.8047
G1 X115.5970 Y110.9000 F6000
G92 E0.0000
G1 X116.0290 Y110.4680 E0.0220 F2880
G1 X116.0280 Y109.7890 E0.0463
G1 X114.9180 Y110.9000 E0.1027
G1 X114.2390 Y110.9000 E0.1271
G1 X115.6510 Y109.4880 E0.1989
G1 X114.9720 Y109.4880 E0.2232
G1 X113.5600 Y110.9000 E0.2950
G1 X112.8810 Y110.9000 E0.3193
G1 X114.2930 Y109.4880 E0.3911
G1 X113.6140 Y109.4880 E0.4154
G1 X112.2030 Y110.9000 E0.4872
G1 X112.1550 Y110.9000 E0.4889
G1 X112.0440 Y110.8990 E0.4929
G1 X112.0440 Y110.3800 E0.5115
G1 X112.9360 Y109.4880 E0.5568
G1 X112.2570 Y109.4880 E0.5812
G1 X112.0440 Y109.7010 E0.5920
G1 X119.1490 Y110.0630 F6000
G92 E0.0000
G1 X119.7240 Y109.4880 E0.0292 F2880
G1 X120.4030 Y109.4880 E0.0536
G1 X119.1490 Y110.7420 E0.1173
G1 X119.1490 Y110.9000 E0.1230
G1 X119.6700 Y110.9000 E0.1417
G1 X121.0810 Y109.4880 E0.2134
G1 X121.7600 Y109.4880 E0.2378
G1 X120.3480 Y110.9000 E0.3095
G1 X121.0270 Y110.9000 E0.3339
G1 X122.4390 Y109.4880 E0.4056
G1 X123.1180 Y109.4880 E0.4300
G1 X121.7060 Y110.9000 E0.5017
G1 X122.3850 Y110.9000 E0.5261
G1 X123.3120 Y109.9730 E0.5732
G1 X123.3110 Y110.6520 E0.5976
G1 X123.0640 Y110.9000 E0.6101
G1 X125.0470 Y116.3840 F6000
G92 E0.0000
G1 X125.6160 Y115.8140 E0.0289 F2880
G1 X126.2950 Y115.8150 E0.0533
G1 X125.0470 Y117.0630 E0.1167
G1 X125.0460 Y117.7420 E0.1411
G1 X126.5120 Y116.2760 E0.2155
G1 X126.5120 Y116.9550 E0.2399
G1 X125.0460 Y118.4210 E0.3144
G1 X125.0460 Y119.1000 E0.3388
G1 X126.5120 Y117.6340 E0.4133
G1 X126.5120 Y118.3130 E0.4376
G1 X125.3090 Y119.5150 E0.4987
G1 X125.9880 Y119.5160 E0.5231
G1 X126.5120 Y118.9920 E0.5497
G1 X126.4520 Y122.2760 F6000
G92 E0.0000
G1 X122.2760 Y126.4520 E0.2652 F3600
G1 X118.0330 Y126.4520 E0.4557
G1 X124.5050 Y119.9800 E0.8667
G1 X124.5070 Y115.7350 E1.0572
G1 X113.7910 Y126.4520 E1.7377
G1 X109.5480 Y126.4520 E1.9282
G1 X126.4520 Y109.5480 E3.0016
G1 X123.8520 Y109.5480 E3.1184
G1 X123.8510 Y111.4390 E3.2033
G1 X123.7250 Y111.4390 E3.2090
G1 X123.5980 Y111.4400 E3.2147
G1 X123.4720 Y111.4400 E3.2204
G1 X120.3180 Y111.4400 E3.3620
G1 X109.5480 Y122.2090 E4.0459
G1 X109.5480 Y117.9670 E4.2364
G1 X116.0750 Y111.4400 E4.6508
G1 X111.8370 Y111.4400 E4.8411
G1 X111.8320 Y111.4400 E4.8413
G1 X109.5480 Y113.7240 E4.9864
G92 E0.0000
G1 E-5 F2400 ; custom retraction
;layer 19, Z = 3.800
;fan19;
G1 Z3.800 F1200
G1 X111.8520 Y111.0910 F6000
G1 E0 F2400 ; custom un-retraction/prime
G92 E0.0000
G1 X115.8660 Y111.0910 E0.1442 F2880
G1 X115.8650 Y109.2000 E0.2121
G1 X119.3230 Y109.2000 E0.3363
G1 X119.3220 Y111.0910 E0.4043
G1 X123.5030 Y111.0910 E0.5544
G1 X123.5040 Y109.2000 E0.6224
G1 X126.8000 Y109.2000 E0.7408
G1 X126.8000 Y115.6290 E0.9717
G1 X126.4100 Y115.6290 E0.9857
G1 X126.2510 Y117.8600 E1.0661
G1 X126.8000 Y117.9380 E1.0860
G1 X126.8000 Y126.8000 E1.4043
G1 X109.2000 Y126.8000 E2.0365
G1 X109.2000 Y109.2000 E2.6687
G1 X111.8520 Y109.2000 E2.7640
G1 X111.8520 Y111.0910 E2.8319
G1 X112.3320 Y110.6110 F6000
G92 E0.0000
G1 X115.3850 Y110.6110 E0.1097 F2880
G1 X115.3840 Y108.7200 E0.1776
G1 X119.8030 Y108.7200 E0.3363
G1 X119.8020 Y110.6110 E0.4043
G1 X123.0230 Y110.6110 E0.5200
G1 X123.0240 Y108.7200 E0.5879
G1 X127.2800 Y108.7200 E0.7408
G1 X127.2800 Y116.1100 E1.0062
G1 X126.8570 Y116.1090 E1.0214
G1 X126.7620 Y117.4480 E1.0696
G1 X127.2800 Y117.5220 E1.0884
G1 X127.2800 Y127.2800 E1.4389
G1 X108.7200 Y127.2800 E2.1056
G1 X108.7200 Y108.7200 E2.7723
G1 X112.3310 Y108.7200 E2.9020
G1 X112.3320 Y110.6110 E2.9700
G1 X112.8120 Y110.1310 F6000
G92 E0.0000
G1 X114.9050 Y110.1310 E0.0752 F2160
G1 X114.9040 Y108.2400 E0.1431
G1 X120.2830 Y108.2400 E0.3364
G1 X120.2820 Y110.1310 E0.4043
G1 X122.5440 Y110.1310 E0.4855
G1 X122.5450 Y108.2400 E0.5535
G1 X127.7600 Y108.2400 E0.7408
G1 X127.7600 Y116.5900 E1.0407
G1 X127.3040 Y116.5900 E1.0571
G1 X127.2730 Y117.0360 E1.0732
G1 X127.7600 Y117.1050 E1.0909
G1 X127.7600 Y127.7600 E1.4736
G1 X108.2400 Y127.7600 E2.1748
G1 X108.2400 Y108.2400 E2.8759
G1 X112.8110 Y108.2400 E3.0401
G1 X112.8120 Y110.1310 E3.1081
G1 X114.9050 Y110.1310 F6000
G1 X114.9050 Y109.9270
G1 X119.0270 Y109.5240
G92 E0.0000
G1 X119.0350 Y109.5310 E0.0004 F2880
G1 X119.0340 Y110.2100 E0.0247
G1 X119.0270 Y110.2020 E0.0251
G1 X119.0270 Y110.8810 E0.0495
G1 X119.0340 Y110.8880 E0.0499
G1 X125.9950 Y115.8120 F6000
G92 E0.0000
G1 X126.1010 Y115.9190 E0.0054 F2880
G1 X126.0560 Y116.5520 E0.0282
G1 X125.3160 Y115.8120 E0.0658
G1 X125.0480 Y115.8140 E0.0755
G1 X125.0470 Y115.8180 E0.0757
G1 X125.0470 Y116.2220 E0.0902
G1 X126.0110 Y117.1860 E0.1391
G1 X125.9660 Y117.8200 E0.1620
G1 X125.0470 Y116.9010 E0.2086
G1 X125.0460 Y117.5790 E0.2330
G1 X126.5120 Y119.0450 E0.3075
G1 X126.5120 Y119.5160 E0.3244
G1 X126.3040 Y119.5160 E0.3318
G1 X125.0460 Y118.2580 E0.3957
G1 X125.0460 Y118.9360 E0.4201
G1 X125.6250 Y119.5160 E0.4495
G1 X126.5120 Y118.3660 F6000
G92 E0.0000
G1 X126.3040 Y118.1580 E0.0106 F2880
G1 X123.8510 Y111.1230 F6000
G92 E0.0000
G1 X126.4520 Y113.7240 E0.1652 F3600
G1 X126.4520 Y115.2730 E0.2347
G1 X124.5080 Y115.2740 E0.3221
G1 X124.5080 Y115.2780 E0.3223
G1 X124.5070 Y116.0220 E0.3557
G1 X119.9250 Y111.4390 E0.6467
G1 X119.5740 Y111.4400 E0.6625
G1 X118.4860 Y111.4400 E0.7113
G1 X118.4870 Y110.0020 E0.7759
G1 X118.0330 Y109.5480 E0.8047
G1 X116.2130 Y109.5480 E0.8864
G1 X116.2140 Y111.4390 E0.9713
G1 X115.6820 Y111.4390 E0.9952
G1 X126.4520 Y122.2090 E1.6791
G1 X126.4520 Y126.4520 E1.8696
G1 X109.5480 Y109.5480 E2.9430
G1 X109.5480 Y113.7910 E3.1335
G1 X122.2090 Y126.4520 E3.9375
G1 X117.9670 Y126.4520 E4.1280
G1 X109.5480 Y118.0330 E4.6626
G1 X109.5480 Y122.2760 E4.8531
G1 X113.7240 Y126.4520 E5.1183
G92 E0.0000
G1 E-5 F2400 ; custom retraction
;layer 20, Z = 4.000
;fan20;
G1 Z4.000 F1200
G1 X109.2000 Y126.8000 F6000
G1 E0 F2400 ; custom un-retraction/prime
G92 E0.0000
G1 X109.2000 Y109.2000 E0.6322 F2880
G1 X111.9630 Y109.2000 E0.7314
G1 X111.9630 Y111.0920 E0.7994
G1 X115.9840 Y111.0920 E0.9438
G1 X115.9830 Y109.2000 E1.0118
G1 X119.2010 Y109.2000 E1.1274
G1 X119.2000 Y111.0920 E1.1953
G1 X123.3770 Y111.0920 E1.3453
G1 X123.3780 Y109.2000 E1.4133
G1 X126.8000 Y109.2000 E1.5362
G1 X126.8000 Y115.6270 E1.7671
G1 X124.8550 Y115.6260 E1.8369
G1 X124.8540 Y119.7070 E1.9835
G1 X126.8000 Y119.7080 E2.0534
G1 X126.8000 Y126.8000 E2.3082
G1 X109.2000 Y126.8000 E2.9404
G1 X108.7200 Y127.2800 F6000
G92 E0.0000
G1 X108.7200 Y108.7200 E0.6667 F2880
G1 X112.4420 Y108.7200 E0.8004
G1 X112.4430 Y110.6120 E0.8683
G1 X115.5040 Y110.6120 E0.9783
G1 X115.5030 Y108.7200 E1.0462
G1 X119.6810 Y108.7200 E1.1963
G1 X119.6800 Y110.6120 E1.2643
G1 X122.8970 Y110.6120 E1.3798
G1 X122.8980 Y108.7200 E1.4478
G1 X127.2800 Y108.7200 E1.6052
G1 X127.2800 Y116.1080 E1.8705
G1 X125.3350 Y116.1070 E1.9404
G1 X125.3340 Y119.2270 E2.0525
G1 X127.2800 Y119.2280 E2.1224
G1 X127.2800 Y127.2800 E2.4116
G1 X108.7200 Y127.2800 E3.0783
G1 X108.2400 Y127.7600 F6000
G92 E0.0000
G1 X108.2400 Y108.2400 E0.7012 F2160
G1 X112.9220 Y108.2400 E0.8694
G1 X112.9230 Y110.1320 E0.9373
G1 X115.0240 Y110.1320 E1.0128
G1 X115.0230 Y108.2400 E1.0807
G1 X120.1620 Y108.2400 E1.2653
G1 X120.1610 Y110.1320 E1.3332
G1 X122.4170 Y110.1320 E1.4143
G1 X122.4180 Y108.2400 E1.4822
G1 X127.7600 Y108.2400 E1.6741
G1 X127.7600 Y116.5880 E1.9740
G1 X125.8150 Y116.5870 E2.0439
G1 X125.8140 Y118.7480 E2.1215
G1 X127.7600 Y118.7490 E2.1914
G1 X127.7600 Y127.7600 E2.5151
G1 X108.2400 Y127.7600 E3.2163
G1 X118.9050 Y110.3070 F6000
G92 E0.0000
G1 X118.9130 Y110.2990 E0.0004 F2880
G1 X118.9130 Y109.6200 E0.0248
G1 X118.9060 Y109.6270 E0.0251
G1 X109.5480 Y113.7240 F6000
G92 E0.0000
G1 X111.8330 Y111.4400 E0.1451 F3600
G1 X116.0750 Y111.4400 E0.3356
G1 X109.5480 Y117.9670 E0.7500
G1 X109.5480 Y122.2090 E0.9405
G1 X120.3180 Y111.4400 E1.6244
G1 X123.7240 Y111.4400 E1.7774
G1 X123.7250 Y109.5480 E1.8623
G1 X126.4520 Y109.5480 E1.9848
G1 X109.5480 Y126.4520 E3.0582
G1 X113.7910 Y126.4520 E3.2487
G1 X124.5070 Y115.7350 E3.9292
G1 X124.5050 Y119.9800 E4.1197
G1 X118.0330 Y126.4520 E4.5307
G1 X122.2760 Y126.4520 E4.7212
G1 X126.4520 Y122.2760 E4.9864
G92 E0.0000
G1 E-5 F2400 ; custom retraction
;layer 21, Z = 4.200
;fan21;
G1 Z4.200 F1200
G1 X126.8000 Y119.7060 F6000
G1 E0 F2400 ; custom un-retraction/prime
G92 E0.0000
G1 X126.8000 Y126.8000 E0.2548 F2880
G1 X109.2000 Y126.8000 E0.8870
G1 X109.2000 Y109.2000 E1.5192
G1 X112.0740 Y109.2000 E1.6225
G1 X112.0740 Y111.0920 E1.6904
G1 X116.1030 Y111.0920 E1.8351
G1 X116.1020 Y109.2000 E1.9031
G1 X119.0790 Y109.2000 E2.0100
G1 X119.0780 Y111.0920 E2.0780
G1 X123.2500 Y111.0920 E2.2278
G1 X123.2510 Y109.2000 E2.2958
G1 X126.8000 Y109.2000 E2.4233
G1 X126.8000 Y115.6250 E2.6541
G1 X124.8560 Y115.6240 E2.7239
G1 X124.8540 Y119.7050 E2.8705
G1 X126.8000 Y119.7060 E2.9404
G1 X127.2800 Y119.2260 F6000
G92 E0.0000
G1 X127.2800 Y127.2800 E0.2893 F2880
G1 X108.7200 Y127.2800 E0.9560
G1 X108.7200 Y108.7200 E1.6227
G1 X112.5530 Y108.7200 E1.7604
G1 X112.5540 Y110.6120 E1.8283
G1 X115.6220 Y110.6120 E1.9385
G1 X115.6210 Y108.7200 E2.0065
G1 X119.5600 Y108.7200 E2.1480
G1 X119.5590 Y110.6120 E2.2159
G1 X122.7700 Y110.6120 E2.3313
G1 X122.7710 Y108.7200 E2.3992
G1 X127.2800 Y108.7200 E2.5612
G1 X127.2800 Y116.1050 E2.8265
G1 X125.3350 Y116.1050 E2.8963
G1 X125.3340 Y119.2250 E3.0084
G1 X127.2800 Y119.2260 E3.0783
G1 X127.7600 Y118.7460 F6000
G92 E0.0000
G1 X127.7600 Y127.7600 E0.3238 F2160
G1 X108.2400 Y127.7600 E1.0250
G1 X108.2400 Y108.2400 E1.7261
G1 X113.0330 Y108.2400 E1.8983
G1 X113.0340 Y110.1320 E1.9663
G1 X115.1420 Y110.1320 E2.0420
G1 X115.1410 Y108.2400 E2.1099
G1 X120.0400 Y108.2400 E2.2859
G1 X120.0390 Y110.1320 E2.3538
G1 X122.2910 Y110.1320 E2.4347
G1 X122.2920 Y108.2400 E2.5027
G1 X127.7600 Y108.2400 E2.6991
G1 X127.7600 Y116.5860 E2.9989
G1 X125.8150 Y116.5850 E3.0688
G1 X125.8140 Y118.7460 E3.1464
G1 X127.7600 Y118.7460 E3.2163
G92 E0.0000
G1 E-5 F2400 ; custom retraction
;zhop1
G1 X125.8140 Y118.7460 F6000
G1 X125.8150 Y116.9890
G1 X118.7830 Y110.6370
G1 Z4.200 F1200
G1 E0 F2400 ; custom un-retraction/prime
G92 E0.0000
G1 X118.7910 Y110.6450 E0.0004 F2880
G1 X118.7910 Y109.9660 E0.0247
G1 X118.7840 Y109.9590 E0.0251
G1 X123.5980 Y110.8700 F6000
G92 E0.0000
G1 X126.4520 Y113.7240 E0.1812 F3600
G1 X126.4520 Y115.2770 E0.2509
G1 X124.5080 Y115.2760 E0.3382
G1 X124.5070 Y116.0220 E0.3717
G1 X119.9250 Y111.4400 E0.6627
G1 X119.3300 Y111.4400 E0.6895
G1 X118.2430 Y111.4400 E0.7383
G1 X118.2440 Y109.7580 E0.8138
G1 X118.0330 Y109.5480 E0.8272
G1 X116.4500 Y109.5480 E0.8983
G1 X116.4510 Y111.4400 E0.9832
G1 X115.6820 Y111.4400 E1.0177
G1 X126.4520 Y122.2090 E1.7016
G1 X126.4520 Y126.4520 E1.8921
G1 X109.5480 Y109.5480 E2.9655
G1 X109.5480 Y113.7910 E3.1560
G1 X122.2090 Y126.4520 E3.9600
G1 X117.9670 Y126.4520 E4.1505
G1 X109.5480 Y118.0330 E4.6851
G1 X109.5480 Y122.2760 E4.8756
G1 X113.7240 Y126.4520 E5.1407
G92 E0.0000
G1 E-5 F2400 ; custom retraction
;layer 22, Z = 4.400
;fan22;
G1 Z4.400 F1200
G1 X109.2000 Y126.8000 F6000
G1 E0 F2400 ; custom un-retraction/prime
G92 E0.0000
G1 X109.2000 Y109.2000 E0.6322 F2880
G1 X112.1850 Y109.2000 E0.7394
G1 X112.1850 Y111.0920 E0.8074
G1 X116.2210 Y111.0920 E0.9523
G1 X116.2200 Y109.2000 E1.0203
G1 X118.9570 Y109.2000 E1.1186
G1 X118.9560 Y111.0920 E1.1866
G1 X123.1240 Y111.0920 E1.3363
G1 X123.1250 Y109.2000 E1.4042
G1 X126.8000 Y109.2000 E1.5362
G1 X126.8000 Y115.6230 E1.7670
G1 X124.8560 Y115.6220 E1.8368
G1 X124.8540 Y119.7030 E1.9834
G1 X126.8000 Y119.7040 E2.0533
G1 X126.8000 Y126.8000 E2.3082
G1 X109.2000 Y126.8000 E2.9404
G1 X108.7200 Y127.2800 F6000
G92 E0.0000
G1 X108.7200 Y108.7200 E0.6667 F2880
G1 X112.6640 Y108.7200 E0.8084
G1 X112.6650 Y110.6120 E0.8763
G1 X115.7410 Y110.6120 E0.9868
G1 X115.7400 Y108.7200 E1.0548
G1 X119.4380 Y108.7200 E1.1876
G1 X119.4370 Y110.6120 E1.2556
G1 X122.6440 Y110.6120 E1.3708
G1 X122.6450 Y108.7200 E1.4387
G1 X127.2800 Y108.7200 E1.6052
G1 X127.2800 Y116.1030 E1.8704
G1 X125.3360 Y116.1020 E1.9403
G1 X125.3340 Y119.2230 E2.0524
G1 X127.2800 Y119.2240 E2.1223
G1 X127.2800 Y127.2800 E2.4116
G1 X108.7200 Y127.2800 E3.0783
G1 X108.2400 Y127.7600 F6000
G92 E0.0000
G1 X108.2400 Y108.2400 E0.7012 F2160
G1 X113.1440 Y108.2400 E0.8773
G1 X113.1450 Y110.1320 E0.9453
G1 X115.2610 Y110.1320 E1.0213
G1 X115.2600 Y108.2400 E1.0892
G1 X119.9180 Y108.2400 E1.2566
G1 X119.9170 Y110.1320 E1.3245
G1 X122.1640 Y110.1320 E1.4053
G1 X122.1650 Y108.2400 E1.4732
G1 X127.7600 Y108.2400 E1.6742
G1 X127.7600 Y116.5830 E1.9739
G1 X125.8160 Y116.5830 E2.0437
G1 X125.8150 Y118.7430 E2.1214
G1 X127.7600 Y118.7440 E2.1912
G1 X127.7600 Y127.7600 E2.5151
G1 X108.2400 Y127.7600 E3.2163
G1 X118.6610 Y110.5500 F6000
G92 E0.0000
G1 X118.6690 Y110.5430 E0.0004 F2880
G1 X118.6690 Y109.8640 E0.0248
G1 X118.6620 Y109.8710 E0.0251
G1 X109.5480 Y113.7240 F6000
G92 E0.0000
G1 X111.8380 Y111.4350 E0.1454 F3600
G1 X111.8380 Y111.4400 E0.1456
G1 X116.0750 Y111.4400 E0.3359
G1 X109.5480 Y117.9670 E0.7503
G1 X109.5480 Y122.2090 E0.9408
G1 X120.3180 Y111.4400 E1.6247
G1 X123.4710 Y111.4400 E1.7663
G1 X123.4720 Y109.5480 E1.8513
G1 X126.4520 Y109.5480 E1.9851
G1 X109.5480 Y126.4520 E3.0585
G1 X113.7910 Y126.4520 E3.2490
G1 X124.5080 Y115.7350 E3.9295
G1 X124.5060 Y119.9790 E4.1201
G1 X118.0330 Y126.4520 E4.5311
G1 X122.2760 Y126.4520 E4.7216
G1 X126.4520 Y122.2760 E4.9868
G92 E0.0000
G1 E-5 F2400 ; custom retraction
;layer 23, Z = 4.600
;fan23;
G1 Z4.600 F1200
G1 X126.8000 Y119.7020 F6000
G1 E0 F2400 ; custom un-retraction/prime
G92 E0.0000
G1 X126.8000 Y126.8000 E0.2550 F2880
G1 X109.2000 Y126.8000 E0.8872
G1 X109.2000 Y109.2000 E1.5194
G1 X112.2960 Y109.2000 E1.6306
G1 X112.2960 Y111.0920 E1.6986
G1 X116.3400 Y111.0920 E1.8438
G1 X116.3390 Y109.2000 E1.9118
G1 X118.8360 Y109.2000 E2.0014
G1 X118.8350 Y111.0920 E2.0694
G1 X122.9970 Y111.0920 E2.2189
G1 X122.9980 Y109.2000 E2.2869
G1 X126.8000 Y109.2000 E2.4235
G1 X126.8000 Y115.6210 E2.6541
G1 X124.8560 Y115.6200 E2.7239
G1 X124.8540 Y119.7010 E2.8705
G1 X126.8000 Y119.7020 E2.9404
G1 X127.2800 Y119.2220 F6000
G92 E0.0000
G1 X127.2800 Y127.2800 E0.2895 F2880
G1 X108.7200 Y127.2800 E0.9562
G1 X108.7200 Y108.7200 E1.6228
G1 X112.7750 Y108.7200 E1.7685
G1 X112.7760 Y110.6120 E1.8365
G1 X115.8590 Y110.6120 E1.9472
G1 X115.8580 Y108.7200 E2.0152
G1 X119.3160 Y108.7200 E2.1394
G1 X119.3150 Y110.6120 E2.2073
G1 X122.5170 Y110.6120 E2.3224
G1 X122.5180 Y108.7200 E2.3904
G1 X127.2800 Y108.7200 E2.5614
G1 X127.2800 Y116.1010 E2.8265
G1 X125.3360 Y116.1000 E2.8964
G1 X125.3350 Y119.2210 E3.0085
G1 X127.2800 Y119.2220 E3.0783
G1 X127.7600 Y118.7420 F6000
G92 E0.0000
G1 X127.7600 Y127.7600 E0.3239 F2160
G1 X108.2400 Y127.7600 E1.0251
G1 X108.2400 Y108.2400 E1.7263
G1 X113.2550 Y108.2400 E1.9064
G1 X113.2560 Y110.1320 E1.9744
G1 X115.3790 Y110.1320 E2.0507
G1 X115.3780 Y108.2400 E2.1186
G1 X119.7960 Y108.2400 E2.2773
G1 X119.7950 Y110.1320 E2.3453
G1 X122.0380 Y110.1320 E2.4258
G1 X122.0390 Y108.2400 E2.4938
G1 X127.7600 Y108.2400 E2.6993
G1 X127.7600 Y116.5810 E2.9989
G1 X125.8160 Y116.5800 E3.0688
G1 X125.8150 Y118.7410 E3.1464
G1 X127.7600 Y118.7420 E3.2163
G92 E0.0000
G1 E-5 F2400 ; custom retraction
;zhop1
G1 X125.8150 Y118.7410 F6000
G1 X125.8160 Y116.9820
G1 X118.5400 Y110.3940
G1 Z4.600 F1200
G1 E0 F2400 ; custom un-retraction/prime
G92 E0.0000
G1 X118.5470 Y110.4010 E0.0004 F2880
G1 X118.5470 Y109.7230 E0.0247
G1 X118.5400 Y109.7150 E0.0251
G1 X119.7950 Y109.9510 F6000
G1 X119.7950 Y110.1320
G1 X120.7600 Y110.1320
G1 X123.3450 Y110.6180
G92 E0.0000
G1 X126.4520 Y113.7240 E0.1973 F3600
G1 X126.4520 Y115.2730 E0.2668
G1 X124.5080 Y115.2720 E0.3541
G1 X124.5080 Y116.0230 E0.3878
G1 X119.9250 Y111.4400 E0.6788
G1 X119.0870 Y111.4410 E0.7165
G1 X117.9990 Y111.4410 E0.7653
G1 X118.0000 Y109.5480 E0.8503
G1 X116.6870 Y109.5480 E0.9093
G1 X116.6880 Y111.4400 E0.9942
G1 X115.6830 Y111.4400 E1.0393
G1 X126.4520 Y122.2090 E1.7232
G1 X126.4520 Y126.4520 E1.9137
G1 X109.5480 Y109.5480 E2.9871
G1 X109.5480 Y113.7910 E3.1776
G1 X122.2090 Y126.4520 E3.9816
G1 X117.9670 Y126.4520 E4.1721
G1 X109.5480 Y118.0330 E4.7067
G1 X109.5480 Y122.2760 E4.8972
G1 X113.7240 Y126.4520 E5.1624
G92 E0.0000
G1 E-5 F2400 ; custom retraction
;layer 24, Z = 4.800
;fan24;
G1 Z4.800 F1200
G1 X109.2000 Y126.8000 F6000
G1 E0 F2400 ; custom un-retraction/prime
G92 E0.0000
G1 X109.2000 Y109.2000 E0.6322 F2880
G1 X112.4070 Y109.2000 E0.7474
G1 X112.4070 Y111.0920 E0.8154
G1 X116.4580 Y111.0920 E0.9609
G1 X116.4570 Y109.2000 E1.0288
G1 X118.7140 Y109.2000 E1.1099
G1 X118.7130 Y111.0920 E1.1779
G1 X122.8710 Y111.0920 E1.3272
G1 X122.8720 Y109.2000 E1.3952
G1 X126.8000 Y109.2000 E1.5363
G1 X126.8000 Y115.6190 E1.7669
G1 X124.8570 Y115.6180 E1.8367
G1 X124.8550 Y119.6990 E1.9833
G1 X126.8000 Y119.6990 E2.0531
G1 X126.8000 Y126.8000 E2.3082
G1 X109.2000 Y126.8000 E2.9404
G1 X108.7200 Y127.2800 F6000
G92 E0.0000
G1 X108.7200 Y108.7200 E0.6667 F2880
G1 X112.8860 Y108.7200 E0.8164
G1 X112.8870 Y110.6120 E0.8843
G1 X115.9780 Y110.6120 E0.9953
G1 X115.9770 Y108.7200 E1.0633
G1 X119.1940 Y108.7200 E1.1789
G1 X119.1930 Y110.6120 E1.2468
G1 X122.3910 Y110.6120 E1.3617
G1 X122.3920 Y108.7200 E1.4297
G1 X127.2800 Y108.7200 E1.6053
G1 X127.2800 Y116.0990 E1.8703
G1 X125.3360 Y116.0980 E1.9401
G1 X125.3350 Y119.2190 E2.0522
G1 X127.2800 Y119.2200 E2.1221
G1 X127.2800 Y127.2800 E2.4116
G1 X108.7200 Y127.2800 E3.0783
G1 X108.2400 Y127.7600 F6000
G92 E0.0000
G1 X108.2400 Y108.2400 E0.7012 F2160
G1 X113.3660 Y108.2400 E0.8853
G1 X113.3670 Y110.1320 E0.9533
G1 X115.4980 Y110.1320 E1.0298
G1 X115.4970 Y108.2400 E1.0978
G1 X119.6740 Y108.2400 E1.2478
G1 X119.6730 Y110.1320 E1.3158
G1 X121.9110 Y110.1320 E1.3962
G1 X121.9120 Y108.2400 E1.4642
G1 X127.7600 Y108.2400 E1.6742
G1 X127.7600 Y116.5790 E1.9738
G1 X125.8160 Y116.5780 E2.0436
G1 X125.8150 Y118.7390 E2.1212
G1 X127.7600 Y118.7400 E2.1911
G1 X127.7600 Y127.7600 E2.5151
G1 X108.2400 Y127.7600 E3.2163
G1 X118.4180 Y110.7940 F6000
G92 E0.0000
G1 X118.4250 Y110.7870 E0.0004 F2880
G1 X118.4250 Y110.1080 E0.0248
G1 X118.4180 Y110.1150 E0.0251
G1 X109.5480 Y113.7240 F6000
G92 E0.0000
G1 X112.0600 Y111.2130 E0.1595 F3600
G1 X112.0600 Y111.4400 E0.1697
G1 X116.0750 Y111.4400 E0.3500
G1 X109.5480 Y117.9670 E0.7644
G1 X109.5480 Y122.2090 E0.9549
G1 X120.3170 Y111.4400 E1.6388
G1 X123.2190 Y111.4400 E1.7690
G1 X123.2200 Y109.5480 E1.8540
G1 X126.4520 Y109.5480 E1.9991
G1 X109.5480 Y126.4520 E3.0725
G1 X113.7910 Y126.4520 E3.2630
G1 X124.5090 Y115.7340 E3.9436
G1 X124.5070 Y119.9790 E4.1342
G1 X118.0330 Y126.4520 E4.5453
G1 X122.2760 Y126.4520 E4.7358
G1 X126.4520 Y122.2760 E5.0009
G92 E0.0000
G1 E-5 F2400 ; custom retraction
;layer 25, Z = 5.000
;fan25;
G1 Z5.000 F1200
G1 X126.8000 Y119.6970 F6000
G1 E0 F2400 ; custom un-retraction/prime
G92 E0.0000
G1 X126.8000 Y126.8000 E0.2551 F2880
G1 X109.2000 Y126.8000 E0.8873
G1 X109.2000 Y109.2000 E1.5196
G1 X112.5180 Y109.2000 E1.6387
G1 X112.5190 Y111.0920 E1.7067
G1 X116.5770 Y111.0920 E1.8525
G1 X116.5760 Y109.2000 E1.9204
G1 X118.5920 Y109.2000 E1.9929
G1 X118.5910 Y111.0920 E2.0608
G1 X122.7440 Y111.0920 E2.2100
G1 X122.7450 Y109.2000 E2.2780
G1 X126.8000 Y109.2000 E2.4237
G1 X126.8000 Y115.6160 E2.6542
G1 X124.8570 Y115.6160 E2.7239
G1 X124.8550 Y119.6960 E2.8705
G1 X126.8000 Y119.6970 E2.9404
G1 X127.2800 Y119.2170 F6000
G92 E0.0000
G1 X127.2800 Y127.2800 E0.2896 F2880
G1 X108.7200 Y127.2800 E0.9563
G1 X108.7200 Y108.7200 E1.6230
G1 X112.9970 Y108.7200 E1.7766
G1 X112.9980 Y110.6120 E1.8446
G1 X116.0960 Y110.6120 E1.9559
G1 X116.0950 Y108.7200 E2.0239
G1 X119.0720 Y108.7200 E2.1308
G1 X119.0710 Y110.6120 E2.1988
G1 X122.2650 Y110.6120 E2.3135
G1 X122.2660 Y108.7200 E2.3815
G1 X127.2800 Y108.7200 E2.5616
G1 X127.2800 Y116.0970 E2.8266
G1 X125.3370 Y116.0960 E2.8964
G1 X125.3350 Y119.2170 E3.0085
G1 X127.2800 Y119.2170 E3.0783
G1 X127.7600 Y118.7380 F6000
G92 E0.0000
G1 X127.7600 Y127.7600 E0.3241 F2160
G1 X108.2400 Y127.7600 E1.0253
G1 X108.2400 Y108.2400 E1.7264
G1 X113.4770 Y108.2400 E1.9146
G1 X113.4780 Y110.1320 E1.9825
G1 X115.6160 Y110.1320 E2.0593
G1 X115.6150 Y108.2400 E2.1273
G1 X119.5520 Y108.2400 E2.2687
G1 X119.5510 Y110.1320 E2.3367
G1 X121.7850 Y110.1320 E2.4169
G1 X121.7860 Y108.2400 E2.4849
G1 X127.7600 Y108.2400 E2.6995
G1 X127.7600 Y116.5770 E2.9990
G1 X125.8160 Y116.5760 E3.0688
G1 X125.8160 Y118.7370 E3.1464
G1 X127.7600 Y118.7380 E3.2163
G92 E0.0000
G1 E-5 F2400 ; custom retraction
;zhop1
G1 X125.8160 Y118.7370 F6000
G1 X125.8160 Y117.1130
G1 X118.2960 Y110.8290
G1 Z5.000 F1200
G1 E0 F2400 ; custom un-retraction/prime
G92 E0.0000
G1 X118.3030 Y110.8360 E0.0004 F2880
G1 X118.3030 Y110.1580 E0.0247
G1 X118.2960 Y110.1500 E0.0251
G1 X123.0930 Y110.3650 F6000
G92 E0.0000
G1 X126.4520 Y113.7240 E0.2133 F3600
G1 X126.4520 Y115.2680 E0.2827
G1 X124.5090 Y115.2680 E0.3699
G1 X124.5090 Y116.0230 E0.4038
G1 X119.9260 Y111.4400 E0.6949
G1 X118.8430 Y111.4410 E0.7435
G1 X117.7550 Y111.4410 E0.7923
G1 X117.7560 Y109.5480 E0.8773
G1 X116.9240 Y109.5480 E0.9147
G1 X116.9250 Y111.4400 E0.9997
G1 X115.6830 Y111.4400 E1.0554
G1 X126.4520 Y122.2090 E1.7393
G1 X126.4520 Y126.4520 E1.9298
G1 X109.5480 Y109.5480 E3.0032
G1 X109.5480 Y113.7910 E3.1937
G1 X122.2090 Y126.4520 E3.9977
G1 X117.9670 Y126.4520 E4.1882
G1 X109.5480 Y118.0330 E4.7228
G1 X109.5480 Y122.2760 E4.9133
G1 X113.7240 Y126.4520 E5.1784
G92 E0.0000
G1 E-5 F2400 ; custom retraction
;layer 26, Z = 5.200
;fan26;
G1 Z5.200 F1200
G1 X109.2000 Y126.8000 F6000
G1 E0 F2400 ; custom un-retraction/prime
G92 E0.0000
G1 X109.2000 Y109.2000 E0.6322 F2880
G1 X112.6290 Y109.2000 E0.7554
G1 X112.6300 Y111.0930 E0.8234
G1 X116.6950 Y111.0930 E0.9694
G1 X116.6940 Y109.2000 E1.0374
G1 X118.4700 Y109.2000 E1.1012
G1 X118.4690 Y111.0930 E1.1691
G1 X122.6180 Y111.0930 E1.3182
G1 X122.6190 Y109.2000 E1.3862
G1 X126.8000 Y109.2000 E1.5363
G1 X126.8000 Y115.6140 E1.7668
G1 X124.8570 Y115.6130 E1.8365
G1 X124.8550 Y119.6940 E1.9831
G1 X126.8000 Y119.6950 E2.0530
G1 X126.8000 Y126.8000 E2.3082
G1 X109.2000 Y126.8000 E2.9404
G1 X108.7200 Y127.2800 F6000
G92 E0.0000
G1 X108.7200 Y108.7200 E0.6667 F2880
G1 X113.1080 Y108.7200 E0.8243
G1 X113.1090 Y110.6130 E0.8923
G1 X116.2150 Y110.6130 E1.0039
G1 X116.2140 Y108.7200 E1.0718
G1 X118.9500 Y108.7200 E1.1701
G1 X118.9490 Y110.6130 E1.2381
G1 X122.1380 Y110.6130 E1.3527
G1 X122.1390 Y108.7200 E1.4206
G1 X127.2800 Y108.7200 E1.6053
G1 X127.2800 Y116.0950 E1.8702
G1 X125.3370 Y116.0940 E1.9400
G1 X125.3360 Y119.2140 E2.0521
G1 X127.2800 Y119.2150 E2.1220
G1 X127.2800 Y127.2800 E2.4116
G1 X108.7200 Y127.2800 E3.0783
G1 X108.2400 Y127.7600 F6000
G92 E0.0000
G1 X108.2400 Y108.2400 E0.7012 F2160
G1 X113.5880 Y108.2400 E0.8933
G1 X113.5890 Y110.1330 E0.9613
G1 X115.7350 Y110.1330 E1.0383
G1 X115.7340 Y108.2400 E1.1063
G1 X119.4310 Y108.2400 E1.2391
G1 X119.4300 Y110.1330 E1.3071
G1 X121.6580 Y110.1330 E1.3872
G1 X121.6590 Y108.2400 E1.4551
G1 X127.7600 Y108.2400 E1.6743
G1 X127.7600 Y116.5750 E1.9737
G1 X125.8170 Y116.5740 E2.0435
G1 X125.8160 Y118.7350 E2.1211
G1 X127.7600 Y118.7360 E2.1909
G1 X127.7600 Y127.7600 E2.5151
G1 X108.2400 Y127.7600 E3.2163
G1 X118.1740 Y110.3590 F6000
G92 E0.0000
G1 X118.1820 Y110.3510 E0.0004 F2880
G1 X118.1820 Y109.6720 E0.0248
G1 X118.1750 Y109.6800 E0.0251
G1 X109.5480 Y113.7240 F6000
G92 E0.0000
G1 X112.2820 Y110.9910 E0.1736 F3600
G1 X112.2820 Y111.4410 E0.1938
G1 X116.0740 Y111.4410 E0.3641
G1 X109.5480 Y117.9670 E0.7785
G1 X109.5480 Y122.2090 E0.9690
G1 X120.3170 Y111.4410 E1.6528
G1 X122.9660 Y111.4410 E1.7717
G1 X122.9670 Y109.5480 E1.8567
G1 X126.4520 Y109.5480 E2.0132
G1 X109.5480 Y126.4520 E3.0866
G1 X113.7910 Y126.4520 E3.2771
G1 X124.5090 Y115.7340 E3.9577
G1 X124.5070 Y119.9780 E4.1483
G1 X118.0330 Y126.4520 E4.5594
G1 X122.2760 Y126.4520 E4.7499
G1 X126.4520 Y122.2760 E5.0151
G92 E0.0000
G1 E-5 F2400 ; custom retraction
;layer 27, Z = 5.400
;fan27;
G1 Z5.400 F1200
G1 X126.8000 Y119.6930 F6000
G1 E0 F2400 ; custom un-retraction/prime
G92 E0.0000
G1 X126.8000 Y126.8000 E0.2553 F2880
G1 X109.2000 Y126.8000 E0.8875
G1 X109.2000 Y109.2000 E1.5197
G1 X112.7400 Y109.2000 E1.6469
G1 X112.7410 Y111.0930 E1.7148
G1 X116.8140 Y111.0930 E1.8612
G1 X116.8130 Y109.2000 E1.9291
G1 X118.3480 Y109.2000 E1.9843
G1 X118.3470 Y111.0930 E2.0523
G1 X122.4910 Y111.0930 E2.2011
G1 X122.4920 Y109.2000 E2.2691
G1 X126.8000 Y109.2000 E2.4239
G1 X126.8000 Y115.6120 E2.6542
G1 X124.8580 Y115.6110 E2.7240
G1 X124.8560 Y119.6920 E2.8706
G1 X126.8000 Y119.6930 E2.9404
G1 X127.2800 Y119.2130 F6000
G92 E0.0000
G1 X127.2800 Y127.2800 E0.2898 F2880
G1 X108.7200 Y127.2800 E0.9565
G1 X108.7200 Y108.7200 E1.6232
G1 X113.2190 Y108.7200 E1.7848
G1 X113.2200 Y110.6130 E1.8528
G1 X116.3330 Y110.6130 E1.9646
G1 X116.3320 Y108.7200 E2.0326
G1 X118.8290 Y108.7200 E2.1222
G1 X118.8280 Y110.6130 E2.1902
G1 X122.0120 Y110.6130 E2.3046
G1 X122.0130 Y108.7200 E2.3726
G1 X127.2800 Y108.7200 E2.5618
G1 X127.2800 Y116.0920 E2.8266
G1 X125.3370 Y116.0920 E2.8964
G1 X125.3360 Y119.2120 E3.0085
G1 X127.2800 Y119.2130 E3.0783
G1 X127.7600 Y118.7330 F6000
G92 E0.0000
G1 X127.7600 Y127.7600 E0.3242 F2160
G1 X108.2400 Y127.7600 E1.0254
G1 X108.2400 Y108.2400 E1.7266
G1 X113.6990 Y108.2400 E1.9227
G1 X113.7000 Y110.1330 E1.9907
G1 X115.8530 Y110.1330 E2.0680
G1 X115.8520 Y108.2400 E2.1360
G1 X119.3090 Y108.2400 E2.2602
G1 X119.3080 Y110.1330 E2.3282
G1 X121.5320 Y110.1330 E2.4081
G1 X121.5330 Y108.2400 E2.4760
G1 X127.7600 Y108.2400 E2.6997
G1 X127.7600 Y116.5730 E2.9990
G1 X125.8170 Y116.5720 E3.0688
G1 X125.8160 Y118.7330 E3.1464
G1 X127.7600 Y118.7330 E3.2163
G92 E0.0000
G1 E-5 F2400 ; custom retraction
;zhop1
G1 X125.8160 Y118.7330 F6000
G1 X125.8170 Y117.1020
G1 X118.0520 Y110.5850
G1 Z5.400 F1200
G1 E0 F2400 ; custom un-retraction/prime
G92 E0.0000
G1 X118.0600 Y110.5920 E0.0004 F2880
G1 X118.0600 Y109.9140 E0.0247
G1 X118.0530 Y109.9070 E0.0251
G1 X119.3080 Y109.9610 F6000
G1 X119.3080 Y110.1330
G1 X121.5320 Y110.1330
G1 X121.5320 Y110.0560
G1 X122.8400 Y110.1120
G92 E0.0000
G1 X126.4520 Y113.7240 E0.2294 F3600
G1 X126.4520 Y115.2640 E0.2985
G1 X124.5100 Y115.2630 E0.3857
G1 X124.5090 Y116.0240 E0.4199
G1 X119.9260 Y111.4410 E0.7109
G1 X118.5990 Y111.4410 E0.7705
G1 X117.5120 Y111.4410 E0.8194
G1 X117.5130 Y109.5480 E0.9044
G1 X117.1610 Y109.5480 E0.9202
G1 X117.1620 Y111.4410 E1.0052
G1 X115.6830 Y111.4410 E1.0715
G1 X126.4520 Y122.2090 E1.7554
G1 X126.4520 Y126.4520 E1.9459
G1 X109.5480 Y109.5480 E3.0193
G1 X109.5480 Y113.7910 E3.2098
G1 X122.2090 Y126.4520 E4.0137
G1 X117.9670 Y126.4520 E4.2042
G1 X109.5480 Y118.0330 E4.7388
G1 X109.5480 Y122.2760 E4.9293
G1 X113.7240 Y126.4520 E5.1945
G92 E0.0000
G1 E-5 F2400 ; custom retraction
;layer 28, Z = 5.600
;fan28;
G1 Z5.600 F1200
G1 X109.2000 Y126.8000 F6000
G1 E0 F2400 ; custom un-retraction/prime
G92 E0.0000
G1 X109.2000 Y109.2000 E0.6322 F2880
G1 X112.8510 Y109.2000 E0.7633
G1 X112.8520 Y111.0930 E0.8313
G1 X116.9320 Y111.0930 E0.9779
G1 X116.9310 Y109.2000 E1.0459
G1 X118.2260 Y109.2000 E1.0924
G1 X118.2250 Y111.0930 E1.1604
G1 X122.3650 Y111.0930 E1.3091
G1 X122.3660 Y109.2000 E1.3771
G1 X126.8000 Y109.2000 E1.5364
G1 X126.8000 Y115.6100 E1.7666
G1 X124.8580 Y115.6090 E1.8364
G1 X124.8560 Y119.6900 E1.9830
G1 X126.8000 Y119.6910 E2.0528
G1 X126.8000 Y126.8000 E2.3082
G1 X109.2000 Y126.8000 E2.9404
G1 X108.7200 Y127.2800 F6000
G92 E0.0000
G1 X108.7200 Y108.7200 E0.6667 F2880
G1 X113.3300 Y108.7200 E0.8323
G1 X113.3310 Y110.6130 E0.9003
G1 X116.4520 Y110.6130 E1.0124
G1 X116.4510 Y108.7200 E1.0804
G1 X118.7070 Y108.7200 E1.1614
G1 X118.7060 Y110.6130 E1.2294
G1 X121.8850 Y110.6130 E1.3436
G1 X121.8860 Y108.7200 E1.4116
G1 X127.2800 Y108.7200 E1.6054
G1 X127.2800 Y116.0900 E1.8701
G1 X125.3380 Y116.0890 E1.9399
G1 X125.3360 Y119.2100 E2.0520
G1 X127.2800 Y119.2110 E2.1218
G1 X127.2800 Y127.2800 E2.4116
G1 X108.7200 Y127.2800 E3.0783
G1 X108.2400 Y127.7600 F6000
G92 E0.0000
G1 X108.2400 Y108.2400 E0.7012 F2160
G1 X113.8100 Y108.2400 E0.9013
G1 X113.8110 Y110.1330 E0.9693
G1 X115.9720 Y110.1330 E1.0469
G1 X115.9710 Y108.2400 E1.1149
G1 X119.1870 Y108.2400 E1.2304
G1 X119.1860 Y110.1330 E1.2984
G1 X121.4050 Y110.1330 E1.3781
G1 X121.4060 Y108.2400 E1.4461
G1 X127.7600 Y108.2400 E1.6743
G1 X127.7600 Y116.5700 E1.9736
G1 X125.8170 Y116.5700 E2.0433
G1 X125.8160 Y118.7300 E2.1210
G1 X127.7600 Y118.7310 E2.1908
G1 X127.7600 Y127.7600 E2.5151
G1 X108.2400 Y127.7600 E3.2163
G1 X117.9300 Y110.6030 F6000
G92 E0.0000
G1 X117.9380 Y110.5950 E0.0004 F2880
G1 X117.9380 Y109.9160 E0.0248
G1 X117.9310 Y109.9230 E0.0251
G1 X109.5480 Y113.7240 F6000
G92 E0.0000
G1 X112.5030 Y110.7690 E0.1877 F3600
G1 X112.5040 Y111.4410 E0.2179
G1 X116.0740 Y111.4410 E0.3782
G1 X109.5480 Y117.9670 E0.7925
G1 X109.5480 Y122.2090 E0.9830
G1 X120.3170 Y111.4410 E1.6668
G1 X122.7130 Y111.4410 E1.7744
G1 X122.7140 Y109.5480 E1.8594
G1 X126.4520 Y109.5480 E2.0273
G1 X109.5480 Y126.4520 E3.1007
G1 X113.7910 Y126.4520 E3.2912
G1 X124.5100 Y115.7330 E3.9718
G1 X124.5080 Y119.9770 E4.1624
G1 X118.0330 Y126.4520 E4.5736
G1 X122.2760 Y126.4520 E4.7641
G1 X126.4520 Y122.2760 E5.0292
G92 E0.0000
G1 E-5 F2400 ; custom retraction
;layer 29, Z = 5.800
;fan29;
G1 Z5.800 F1200
G1 X126.8000 Y119.6890 F6000
G1 E0 F2400 ; custom un-retraction/prime
G92 E0.0000
G1 X126.8000 Y126.8000 E0.2554 F2880
G1 X109.2000 Y126.8000 E0.8877
G1 X109.2000 Y109.2000 E1.5199
G1 X112.9620 Y109.2000 E1.6550
G1 X112.9630 Y111.0930 E1.7230
G1 X117.0510 Y111.0930 E1.8698
G1 X117.0500 Y109.2000 E1.9378
G1 X118.1050 Y109.2000 E1.9757
G1 X118.1040 Y111.0930 E2.0437
G1 X122.2380 Y111.0930 E2.1923
G1 X122.2390 Y109.2000 E2.2603
G1 X126.8000 Y109.2000 E2.4241
G1 X126.8000 Y115.6080 E2.6542
G1 X124.8580 Y115.6070 E2.7240
G1 X124.8560 Y119.6880 E2.8706
G1 X126.8000 Y119.6890 E2.9404
G1 X127.2800 Y119.2090 F6000
G92 E0.0000
G1 X127.2800 Y127.2800 E0.2899 F2880
G1 X108.7200 Y127.2800 E0.9566
G1 X108.7200 Y108.7200 E1.6233
G1 X113.4420 Y108.7200 E1.7929
G1 X113.4420 Y110.6130 E1.8609
G1 X116.5700 Y110.6130 E1.9733
G1 X116.5690 Y108.7200 E2.0413
G1 X118.5850 Y108.7200 E2.1137
G1 X118.5840 Y110.6130 E2.1817
G1 X121.7590 Y110.6130 E2.2957
G1 X121.7600 Y108.7200 E2.3637
G1 X127.2800 Y108.7200 E2.5620
G1 X127.2800 Y116.0880 E2.8267
G1 X125.3380 Y116.0870 E2.8964
G1 X125.3370 Y119.2080 E3.0085
G1 X127.2800 Y119.2090 E3.0783
G1 X127.7600 Y118.7290 F6000
G92 E0.0000
G1 X127.7600 Y127.7600 E0.3244 F2160
G1 X108.2400 Y127.7600 E1.0256
G1 X108.2400 Y108.2400 E1.7268
G1 X113.9210 Y108.2400 E1.9308
G1 X113.9220 Y110.1330 E1.9988
G1 X116.0900 Y110.1330 E2.0767
G1 X116.0890 Y108.2400 E2.1447
G1 X119.0650 Y108.2400 E2.2516
G1 X119.0640 Y110.1330 E2.3196
G1 X121.2790 Y110.1330 E2.3992
G1 X121.2800 Y108.2400 E2.4672
G1 X127.7600 Y108.2400 E2.6999
G1 X127.7600 Y116.5680 E2.9991
G1 X125.8180 Y116.5670 E3.0689
G1 X125.8170 Y118.7280 E3.1465
G1 X127.7600 Y118.7290 E3.2163
G92 E0.0000
G1 E-5 F2400 ; custom retraction
;zhop1
G1 X125.8170 Y118.7280 F6000
G1 X125.8170 Y117.2190
G1 X117.6900 Y110.9020
G1 Z5.800 F1200
G1 E0 F2400 ; custom un-retraction/prime
G92 E0.0000
G1 X117.3380 Y110.5500 E0.0179 F2880
G1 X117.3380 Y109.8710 E0.0423
G1 X117.8160 Y110.3490 E0.0665
G1 X117.8160 Y109.6700 E0.0909
G1 X117.6340 Y109.4880 E0.1002
G1 X119.0640 Y109.5950 F6000
G1 X119.0640 Y110.1330
G1 X121.2790 Y110.1330
G1 X121.2790 Y109.7610
G1 X122.5870 Y109.8590
G92 E0.0000
G1 X126.4520 Y113.7240 E0.2454 F3600
G1 X126.4520 Y115.2600 E0.3144
G1 X124.5100 Y115.2590 E0.4016
G1 X124.5100 Y116.0250 E0.4359
G1 X119.9260 Y111.4410 E0.7270
G1 X118.3560 Y111.4420 E0.7976
G1 X116.7990 Y111.4410 E0.8675
G1 X115.6840 Y111.4410 E0.9176
G1 X126.4520 Y122.2090 E1.6013
G1 X126.4520 Y126.4520 E1.7918
G1 X109.5480 Y109.5480 E2.8652
G1 X109.5480 Y113.7910 E3.0557
G1 X122.2090 Y126.4520 E3.8597
G1 X117.9670 Y126.4520 E4.0502
G1 X109.5480 Y118.0330 E4.5848
G1 X109.5480 Y122.2760 E4.7753
G1 X113.7240 Y126.4520 E5.0405
G92 E0.0000
G1 E-5 F2400 ; custom retraction
;layer 30, Z = 6.000
;fan30;
G1 Z6.000 F1200
G1 X109.2000 Y126.8000 F6000
G1 E0 F2400 ; custom un-retraction/prime
G92 E0.0000
G1 X109.2000 Y109.2000 E0.6322 F2880
G1 X113.0730 Y109.2000 E0.7713
G1 X113.0740 Y111.0930 E0.8393
G1 X117.1690 Y111.0930 E0.9864
G1 X117.1680 Y109.2000 E1.0544
G1 X117.9830 Y109.2000 E1.0837
G1 X117.9820 Y111.0930 E1.1517
G1 X122.1120 Y111.0930 E1.3001
G1 X122.1130 Y109.2000 E1.3681
G1 X126.8000 Y109.2000 E1.5364
G1 X126.8000 Y115.6060 E1.7665
G1 X124.8580 Y115.6050 E1.8363
G1 X124.8570 Y119.6860 E1.9829
G1 X126.8000 Y119.6860 E2.0527
G1 X126.8000 Y126.8000 E2.3082
G1 X109.2000 Y126.8000 E2.9404
G1 X108.7200 Y127.2800 F6000
G92 E0.0000
G1 X108.7200 Y108.7200 E0.6667 F2880
G1 X113.5530 Y108.7200 E0.8403
G1 X113.5530 Y110.6130 E0.9083
G1 X116.6890 Y110.6130 E1.0209
G1 X116.6880 Y108.7200 E1.0889
G1 X118.4630 Y108.7200 E1.1527
G1 X118.4620 Y110.6130 E1.2207
G1 X121.6320 Y110.6130 E1.3346
G1 X121.6330 Y108.7200 E1.4026
G1 X127.2800 Y108.7200 E1.6054
G1 X127.2800 Y116.0860 E1.8700
G1 X125.3380 Y116.0850 E1.9397
G1 X125.3370 Y119.2060 E2.0518
G1 X127.2800 Y119.2070 E2.1216
G1 X127.2800 Y127.2800 E2.4117
G1 X108.7200 Y127.2800 E3.0783
G1 X108.2400 Y127.7600 F6000
G92 E0.0000
G1 X108.2400 Y108.2400 E0.7012 F2160
G1 X114.0320 Y108.2400 E0.9092
G1 X114.0330 Y110.1330 E0.9772
G1 X116.2090 Y110.1330 E1.0554
G1 X116.2080 Y108.2400 E1.1234
G1 X118.9430 Y108.2400 E1.2217
G1 X118.9420 Y110.1330 E1.2897
G1 X121.1530 Y110.1330 E1.3691
G1 X121.1540 Y108.2400 E1.4371
G1 X127.7600 Y108.2400 E1.6744
G1 X127.7600 Y116.5660 E1.9735
G1 X125.8180 Y116.5650 E2.0432
G1 X125.8170 Y118.7260 E2.1208
G1 X127.7600 Y118.7270 E2.1906
G1 X127.7600 Y127.7600 E2.5151
G1 X108.2400 Y127.7600 E3.2163
G1 X117.6940 Y110.8390 F6000
G92 E0.0000
G1 X117.6310 Y110.9020 E0.0032 F2880
G1 X117.4570 Y110.9020 E0.0094
G1 X117.4570 Y110.3970 E0.0276
G1 X117.6940 Y110.1600 E0.0396
G1 X117.6950 Y109.4880 E0.0638
G1 X117.6870 Y109.4880 E0.0640
G1 X117.4560 Y109.7190 E0.0758
G1 X109.5480 Y113.7240 F6000
G92 E0.0000
G1 X112.7250 Y110.5470 E0.2018 F3600
G1 X112.7260 Y111.4410 E0.2419
G1 X116.0740 Y111.4410 E0.3922
G1 X109.5480 Y117.9670 E0.8066
G1 X109.5480 Y122.2090 E0.9971
G1 X120.3160 Y111.4410 E1.6809
G1 X122.4600 Y111.4410 E1.7771
G1 X122.4610 Y109.5480 E1.8622
G1 X126.4520 Y109.5480 E2.0414
G1 X109.5480 Y126.4520 E3.1148
G1 X113.7910 Y126.4520 E3.3053
G1 X124.5100 Y115.7320 E3.9860
G1 X124.5080 Y119.9770 E4.1765
G1 X118.0330 Y126.4520 E4.5877
G1 X122.2760 Y126.4520 E4.7782
G1 X126.4520 Y122.2760 E5.0434
G92 E0.0000
G1 E-5 F2400 ; custom retraction
;layer 31, Z = 6.200
;fan31;
G1 Z6.200 F1200
G1 X126.8000 Y119.6840 F6000
G1 E0 F2400 ; custom un-retraction/prime
G92 E0.0000
G1 X126.8000 Y126.8000 E0.2556 F2880
G1 X109.2000 Y126.8000 E0.8878
G1 X109.2000 Y109.2000 E1.5200
G1 X113.1840 Y109.2000 E1.6631
G1 X113.1850 Y111.0930 E1.7311
G1 X117.2880 Y111.0930 E1.8785
G1 X117.2870 Y109.2000 E1.9465
G1 X117.8610 Y109.2000 E1.9672
G1 X117.8600 Y111.0930 E2.0352
G1 X121.9860 Y111.0930 E2.1834
G1 X121.9870 Y109.2000 E2.2514
G1 X126.8000 Y109.2000 E2.4243
G1 X126.8000 Y115.6030 E2.6543
G1 X124.8590 Y115.6030 E2.7240
G1 X124.8570 Y119.6830 E2.8706
G1 X126.8000 Y119.6840 E2.9404
G1 X127.2800 Y119.2040 F6000
G92 E0.0000
G1 X127.2800 Y127.2800 E0.2901 F2880
G1 X108.7200 Y127.2800 E0.9568
G1 X108.7200 Y108.7200 E1.6235
G1 X113.6640 Y108.7200 E1.8010
G1 X113.6640 Y110.6130 E1.8691
G1 X116.8070 Y110.6130 E1.9819
G1 X116.8060 Y108.7200 E2.0500
G1 X118.3410 Y108.7200 E2.1051
G1 X118.3400 Y110.6130 E2.1731
G1 X121.5060 Y110.6130 E2.2868
G1 X121.5070 Y108.7200 E2.3548
G1 X127.2800 Y108.7200 E2.5622
G1 X127.2800 Y116.0840 E2.8267
G1 X125.3390 Y116.0830 E2.8965
G1 X125.3370 Y119.2040 E3.0086
G1 X127.2800 Y119.2040 E3.0783
G1 X127.7600 Y118.7250 F6000
G92 E0.0000
G1 X127.7600 Y127.7600 E0.3246 F2160
G1 X108.2400 Y127.7600 E1.0257
G1 X108.2400 Y108.2400 E1.7269
G1 X114.1430 Y108.2400 E1.9390
G1 X114.1440 Y110.1330 E2.0070
G1 X116.3270 Y110.1330 E2.0854
G1 X116.3260 Y108.2400 E2.1534
G1 X118.8210 Y108.2400 E2.2430
G1 X118.8200 Y110.1330 E2.3110
G1 X121.0260 Y110.1330 E2.3903
G1 X121.0270 Y108.2400 E2.4583
G1 X127.7600 Y108.2400 E2.7001
G1 X127.7600 Y116.5640 E2.9991
G1 X125.8180 Y116.5630 E3.0689
G1 X125.8170 Y118.7240 E3.1465
G1 X127.7600 Y118.7250 E3.2163
G92 E0.0000
G1 E-5 F2400 ; custom retraction
;zhop1
G1 X125.8170 Y118.7240 F6000
G1 X125.8180 Y116.5630
G1 X126.4740 Y116.5630
G1 X122.3340 Y109.6060
G1 Z6.200 F1200
G1 E0 F2400 ; custom un-retraction/prime
G92 E0.0000
G1 X126.4520 Y113.7240 E0.2615 F3600
G1 X126.4520 Y115.2550 E0.3302
G1 X124.5110 Y115.2550 E0.4174
G1 X124.5110 Y116.0250 E0.4520
G1 X119.9270 Y111.4410 E0.7431
G1 X115.6840 Y111.4410 E0.9336
G1 X126.4520 Y122.2090 E1.6173
G1 X126.4520 Y126.4520 E1.8078
G1 X109.5480 Y109.5480 E2.8812
G1 X109.5480 Y113.7910 E3.0717
G1 X122.2090 Y126.4520 E3.8757
G1 X117.9670 Y126.4520 E4.0662
G1 X109.5480 Y118.0330 E4.6008
G1 X109.5480 Y122.2760 E4.7913
G1 X113.7240 Y126.4520 E5.0565
G92 E0.0000
G1 E-5 F2400 ; custom retraction
;layer 32, Z = 6.400
;fan32;
G1 Z6.400 F1200
G1 X109.2000 Y126.8000 F6000
G1 E0 F2400 ; custom un-retraction/prime
G92 E0.0000
G1 X109.2000 Y109.2000 E0.6322 F2880
G1 X113.2950 Y109.2000 E0.7793
G1 X113.2960 Y111.0940 E0.8473
G1 X121.8590 Y111.0940 E1.1549
G1 X121.8600 Y109.2000 E1.2229
G1 X126.8000 Y109.2000 E1.4004
G1 X126.8000 Y115.6010 E1.6303
G1 X124.8590 Y115.6000 E1.7000
G1 X124.8570 Y119.6810 E1.8466
G1 X126.8000 Y119.6820 E1.9164
G1 X126.8000 Y126.8000 E2.1721
G1 X109.2000 Y126.8000 E2.8043
G1 X108.7200 Y127.2800 F6000
G92 E0.0000
G1 X108.7200 Y108.7200 E0.6667 F2880
G1 X113.7750 Y108.7200 E0.8483
G1 X113.7750 Y110.6140 E0.9163
G1 X116.9260 Y110.6140 E1.0294
G1 X116.9250 Y108.7200 E1.0975
G1 X118.2190 Y108.7200 E1.1440
G1 X118.2180 Y110.6140 E1.2120
G1 X121.3790 Y110.6140 E1.3255
G1 X121.3800 Y108.7200 E1.3935
G1 X127.2800 Y108.7200 E1.6055
G1 X127.2800 Y116.0820 E1.8699
G1 X125.3390 Y116.0810 E1.9396
G1 X125.3370 Y119.2010 E2.0517
G1 X127.2800 Y119.2020 E2.1215
G1 X127.2800 Y127.2800 E2.4117
G1 X108.7200 Y127.2800 E3.0783
G1 X108.2400 Y127.7600 F6000
G92 E0.0000
G1 X108.2400 Y108.2400 E0.7012 F2160
G1 X114.2540 Y108.2400 E0.9172
G1 X114.2550 Y110.1340 E0.9852
G1 X116.4460 Y110.1340 E1.0639
G1 X116.4450 Y108.2400 E1.1319
G1 X118.7000 Y108.2400 E1.2129
G1 X118.6990 Y110.1340 E1.2809
G1 X120.9000 Y110.1340 E1.3600
G1 X120.9010 Y108.2400 E1.4280
G1 X127.7600 Y108.2400 E1.6744
G1 X127.7600 Y116.5620 E1.9733
G1 X125.8190 Y116.5610 E2.0431
G1 X125.8180 Y118.7220 E2.1207
G1 X127.7600 Y118.7230 E2.1905
G1 X127.7600 Y127.7600 E2.5151
G1 X108.2400 Y127.7600 E3.2163
G1 X117.7320 Y110.8010 F6000
G92 E0.0000
G1 X117.9300 Y110.6030 E0.0101 F3600
G1 X117.9310 Y109.9230 E0.0345
G1 X117.2140 Y110.6400 E0.0709
G1 X117.2130 Y109.9620 E0.0953
G1 X117.9310 Y109.2440 E0.1317
G1 X117.9310 Y109.0080 E0.1402
G1 X117.4890 Y109.0080 E0.1561
G1 X117.2130 Y109.2830 E0.1701
G1 X116.4450 Y109.7280 F6000
G1 X116.4460 Y110.1340
G1 X115.7460 Y110.1340
G1 X109.5480 Y113.7240
G92 E0.0000
G1 X112.9470 Y110.3250 E0.2159 F3600
G1 X112.9480 Y111.4420 E0.2660
G1 X116.0730 Y111.4420 E0.4063
G1 X109.5480 Y117.9670 E0.8207
G1 X109.5480 Y122.2090 E1.0112
G1 X120.3160 Y111.4420 E1.6949
G1 X122.2070 Y111.4420 E1.7799
G1 X122.2090 Y109.5480 E1.8649
G1 X126.4520 Y109.5480 E2.0554
G1 X109.5480 Y126.4520 E3.1288
G1 X113.7910 Y126.4520 E3.3193
G1 X124.5110 Y115.7320 E4.0000
G1 X124.5090 Y119.9760 E4.1906
G1 X118.0330 Y126.4520 E4.6018
G1 X122.2760 Y126.4520 E4.7923
G1 X126.4520 Y122.2760 E5.0575
G92 E0.0000
G1 E-5 F2400 ; custom retraction
;layer 33, Z = 6.600
;fan33;
G1 Z6.600 F1200
G1 X126.8000 Y119.6800 F6000
G1 E0 F2400 ; custom un-retraction/prime
G92 E0.0000
G1 X126.8000 Y126.8000 E0.2558 F2880
G1 X109.2000 Y126.8000 E0.8880
G1 X109.2000 Y109.2000 E1.5202
G1 X113.4060 Y109.2000 E1.6713
G1 X113.4070 Y111.0940 E1.7393
G1 X121.7330 Y111.0940 E2.0384
G1 X121.7340 Y109.2000 E2.1064
G1 X126.8000 Y109.2000 E2.2884
G1 X126.8000 Y115.5990 E2.5182
G1 X124.8590 Y115.5980 E2.5879
G1 X124.8580 Y119.6790 E2.7345
G1 X126.8000 Y119.6800 E2.8043
G1 X127.2800 Y119.2000 F6000
G92 E0.0000
G1 X127.2800 Y127.2800 E0.2902 F2880
G1 X108.7200 Y127.2800 E0.9569
G1 X108.7200 Y108.7200 E1.6236
G1 X113.8860 Y108.7200 E1.8092
G1 X113.8860 Y110.6140 E1.8772
G1 X117.0440 Y110.6140 E1.9906
G1 X117.0430 Y108.7200 E2.0587
G1 X118.0980 Y108.7200 E2.0965
G1 X118.0970 Y110.6140 E2.1645
G1 X121.2530 Y110.6140 E2.2779
G1 X121.2540 Y108.7200 E2.3459
G1 X127.2800 Y108.7200 E2.5624
G1 X127.2800 Y116.0790 E2.8268
G1 X125.3390 Y116.0790 E2.8965
G1 X125.3380 Y119.1990 E3.0086
G1 X127.2800 Y119.2000 E3.0783
G1 X127.7600 Y118.7200 F6000
G92 E0.0000
G1 X127.7600 Y127.7600 E0.3247 F2160
G1 X108.2400 Y127.7600 E1.0259
G1 X108.2400 Y108.2400 E1.7271
G1 X114.3650 Y108.2400 E1.9471
G1 X114.3660 Y110.1340 E2.0151
G1 X116.5640 Y110.1340 E2.0941
G1 X116.5630 Y108.2400 E2.1621
G1 X118.5780 Y108.2400 E2.2345
G1 X118.5770 Y110.1340 E2.3025
G1 X120.7730 Y110.1340 E2.3814
G1 X120.7740 Y108.2400 E2.4494
G1 X127.7600 Y108.2400 E2.7003
G1 X127.7600 Y116.5600 E2.9992
G1 X125.8190 Y116.5590 E3.0689
G1 X125.8180 Y118.7200 E3.1465
G1 X127.7600 Y118.7200 E3.2163
G92 E0.0000
G1 E-5 F2400 ; custom retraction
;zhop1
G1 X125.8180 Y118.7200 F6000
G1 X125.8190 Y117.2090
G1 X117.5890 Y110.8010
G1 Z6.600 F1200
G1 E0 F2400 ; custom un-retraction/prime
G92 E0.0000
G1 X117.3320 Y110.5440 E0.0130 F3600
G1 X117.3320 Y109.8650 E0.0374
G1 X117.8090 Y110.3420 E0.0617
G1 X117.8090 Y109.6630 E0.0860
G1 X117.3320 Y109.1860 E0.1103
G1 X118.5770 Y109.2770 F6000
G1 X118.5770 Y110.1340
G1 X120.7730 Y110.1340
G1 X120.7740 Y109.4380
G1 X122.2760 Y109.5480
G92 E0.0000
G1 X126.4520 Y113.7240 E0.2652 F3600
G1 X126.4520 Y115.2510 E0.3337
G1 X124.5120 Y115.2500 E0.4209
G1 X124.5110 Y116.0260 E0.4557
G1 X119.9270 Y111.4420 E0.7468
G1 X115.6840 Y111.4420 E0.9373
G1 X126.4520 Y122.2090 E1.6210
G1 X126.4520 Y126.4520 E1.8115
G1 X109.5480 Y109.5480 E2.8849
G1 X109.5480 Y113.7910 E3.0754
G1 X122.2090 Y126.4520 E3.8794
G1 X117.9670 Y126.4520 E4.0699
G1 X109.5480 Y118.0330 E4.6045
G1 X109.5480 Y122.2760 E4.7950
G1 X113.7240 Y126.4520 E5.0602
G92 E0.0000
G1 E-5 F2400 ; custom retraction
;layer 34, Z = 6.800
;fan34;
G1 Z6.800 F1200
G1 X109.2000 Y126.8000 F6000
G1 E0 F2400 ; custom un-retraction/prime
G92 E0.0000
G1 X109.2000 Y109.2000 E0.6322 F2880
G1 X113.5170 Y109.2000 E0.7873
G1 X113.5180 Y111.0940 E0.8553
G1 X121.6060 Y111.0940 E1.1458
G1 X121.6070 Y109.2000 E1.2139
G1 X126.8000 Y109.2000 E1.4004
G1 X126.8000 Y115.5970 E1.6302
G1 X124.8600 Y115.5960 E1.6999
G1 X124.8580 Y119.6770 E1.8465
G1 X126.8000 Y119.6780 E1.9162
G1 X126.8000 Y126.8000 E2.1721
G1 X109.2000 Y126.8000 E2.8043
G1 X108.7200 Y127.2800 F6000
G92 E0.0000
G1 X108.7200 Y108.7200 E0.6667 F2880
G1 X113.9970 Y108.7200 E0.8562
G1 X113.9970 Y110.6140 E0.9243
G1 X117.1630 Y110.6140 E1.0380
G1 X117.1620 Y108.7200 E1.1060
G1 X117.9760 Y108.7200 E1.1352
G1 X117.9750 Y110.6140 E1.2033
G1 X121.1260 Y110.6140 E1.3165
G1 X121.1270 Y108.7200 E1.3845
G1 X127.2800 Y108.7200 E1.6055
G1 X127.2800 Y116.0770 E1.8698
G1 X125.3390 Y116.0760 E1.9395
G1 X125.3380 Y119.1970 E2.0516
G1 X127.2800 Y119.1980 E2.1213
G1 X127.2800 Y127.2800 E2.4117
G1 X108.7200 Y127.2800 E3.0784
G1 X108.2400 Y127.7600 F6000
G92 E0.0000
G1 X108.2400 Y108.2400 E0.7012 F2160
G1 X114.4760 Y108.2400 E0.9252
G1 X114.4770 Y110.1340 E0.9932
G1 X116.6830 Y110.1340 E1.0724
G1 X116.6820 Y108.2400 E1.1405
G1 X118.4560 Y108.2400 E1.2042
G1 X118.4550 Y110.1340 E1.2722
G1 X120.6470 Y110.1340 E1.3510
G1 X120.6480 Y108.2400 E1.4190
G1 X127.7600 Y108.2400 E1.6745
G1 X127.7600 Y116.5570 E1.9732
G1 X125.8190 Y116.5570 E2.0430
G1 X125.8180 Y118.7170 E2.1206
G1 X127.7600 Y118.7180 E2.1903
G1 X127.7600 Y127.7600 E2.5151
G1 X108.2400 Y127.7600 E3.2163
G1 X117.6870 Y110.1670 F6000
G92 E0.0000
G1 X117.4510 Y110.4030 E0.0120 F3600
G1 X117.4500 Y109.7250 E0.0364
G1 X117.6870 Y109.4880 E0.0484
G1 X117.6880 Y109.0080 E0.0657
G1 X117.4890 Y109.0080 E0.0728
G1 X117.4500 Y109.0460 E0.0748
G1 X116.6820 Y109.5010 F6000
G1 X116.6830 Y110.1340
G1 X115.6130 Y110.1340
G1 X109.5480 Y113.7240
G92 E0.0000
G1 X113.1690 Y110.1030 E0.2299 F3600
G1 X113.1700 Y111.4420 E0.2901
G1 X116.0730 Y111.4420 E0.4204
G1 X109.5480 Y117.9670 E0.8348
G1 X109.5480 Y122.2090 E1.0253
G1 X120.3160 Y111.4420 E1.7090
G1 X121.9540 Y111.4420 E1.7826
G1 X121.9550 Y109.8030 E1.8562
G1 X122.2090 Y109.5480 E1.8723
G1 X126.4520 Y109.5480 E2.0628
G1 X109.5480 Y126.4520 E3.1362
G1 X113.7910 Y126.4520 E3.3267
G1 X124.5120 Y115.7310 E4.0075
G1 X124.5100 Y119.9760 E4.1981
G1 X118.0330 Y126.4520 E4.6093
G1 X122.2760 Y126.4520 E4.7998
G1 X126.4520 Y122.2760 E5.0650
G92 E0.0000
G1 E-5 F2400 ; custom retraction
;layer 35, Z = 7.000
;fan35;
G1 Z7.000 F1200
G1 X126.8000 Y119.6760 F6000
G1 E0 F2400 ; custom un-retraction/prime
G92 E0.0000
G1 X126.8000 Y126.8000 E0.2559 F2880
G1 X109.2000 Y126.8000 E0.8881
G1 X109.2000 Y109.2000 E1.5203
G1 X113.6280 Y109.2000 E1.6794
G1 X113.6290 Y111.0940 E1.7474
G1 X121.4800 Y111.0940 E2.0294
G1 X121.4810 Y109.2000 E2.0975
G1 X126.8000 Y109.2000 E2.2885
G1 X126.8000 Y115.5950 E2.5183
G1 X124.8600 Y115.5940 E2.5879
G1 X124.8580 Y119.6750 E2.7345
G1 X126.8000 Y119.6760 E2.8043
G1 X127.2800 Y119.1960 F6000
G92 E0.0000
G1 X127.2800 Y127.2800 E0.2904 F2880
G1 X108.7200 Y127.2800 E0.9571
G1 X108.7200 Y108.7200 E1.6238
G1 X114.1080 Y108.7200 E1.8173
G1 X114.1090 Y110.6140 E1.8853
G1 X117.2810 Y110.6140 E1.9993
G1 X117.2800 Y108.7200 E2.0673
G1 X117.8540 Y108.7200 E2.0879
G1 X117.8530 Y110.6140 E2.1560
G1 X121.0000 Y110.6140 E2.2690
G1 X121.0010 Y108.7200 E2.3371
G1 X127.2800 Y108.7200 E2.5626
G1 X127.2800 Y116.0750 E2.8268
G1 X125.3400 Y116.0740 E2.8965
G1 X125.3380 Y119.1950 E3.0086
G1 X127.2800 Y119.1960 E3.0784
G1 X127.7600 Y118.7160 F6000
G92 E0.0000
G1 X127.7600 Y127.7600 E0.3249 F2160
G1 X108.2400 Y127.7600 E1.0260
G1 X108.2400 Y108.2400 E1.7272
G1 X114.5870 Y108.2400 E1.9552
G1 X114.5880 Y110.1340 E2.0233
G1 X116.8010 Y110.1340 E2.1027
G1 X116.8000 Y108.2400 E2.1708
G1 X118.3340 Y108.2400 E2.2259
G1 X118.3330 Y110.1340 E2.2939
G1 X120.5200 Y110.1340 E2.3725
G1 X120.5210 Y108.2400 E2.4405
G1 X127.7600 Y108.2400 E2.7005
G1 X127.7600 Y116.5550 E2.9992
G1 X125.8200 Y116.5540 E3.0689
G1 X125.8190 Y118.7150 E3.1465
G1 X127.7600 Y118.7160 E3.2163
G92 E0.0000
G1 E-5 F2400 ; custom retraction
;zhop1
G1 X125.8190 Y118.7150 F6000
G1 X125.8200 Y116.5540
G1 X126.4670 Y116.5550
G1 X122.2760 Y109.5480
G1 Z7.000 F1200
G1 E0 F2400 ; custom un-retraction/prime
G92 E0.0000
G1 X126.4520 Y113.7240 E0.2652 F3600
G1 X126.4520 Y115.2470 E0.3335
G1 X124.5120 Y115.2460 E0.4206
G1 X124.5120 Y116.0260 E0.4557
G1 X119.9270 Y111.4420 E0.7468
G1 X115.6850 Y111.4420 E0.9373
G1 X126.4520 Y122.2090 E1.6210
G1 X126.4520 Y126.4520 E1.8115
G1 X109.5480 Y109.5480 E2.8849
G1 X109.5480 Y113.7910 E3.0754
G1 X122.2090 Y126.4520 E3.8794
G1 X117.9670 Y126.4520 E4.0699
G1 X109.5480 Y118.0330 E4.6045
G1 X109.5480 Y122.2760 E4.7950
G1 X113.7240 Y126.4520 E5.0602
G92 E0.0000
G1 E-5 F2400 ; custom retraction
;layer 36, Z = 7.200
;fan36;
G1 Z7.200 F1200
G1 X109.2000 Y126.8000 F6000
G1 E0 F2400 ; custom un-retraction/prime
G92 E0.0000
G1 X109.2000 Y109.2000 E0.6322 F2880
G1 X113.7390 Y109.2000 E0.7952
G1 X113.7400 Y111.0940 E0.8633
G1 X121.3530 Y111.0940 E1.1368
G1 X121.3540 Y109.2000 E1.2048
G1 X126.8000 Y109.2000 E1.4004
G1 X126.8000 Y115.5930 E1.6301
G1 X124.8600 Y115.5920 E1.6997
G1 X124.8580 Y119.6730 E1.8463
G1 X126.8000 Y119.6730 E1.9161
G1 X126.8000 Y126.8000 E2.1721
G1 X109.2000 Y126.8000 E2.8043
G1 X108.7200 Y127.2800 F6000
G92 E0.0000
G1 X108.7200 Y108.7200 E0.6667 F2880
G1 X114.2190 Y108.7200 E0.8642
G1 X114.2200 Y110.6140 E0.9323
G1 X120.8740 Y110.6140 E1.1713
G1 X120.8750 Y108.7200 E1.2393
G1 X127.2800 Y108.7200 E1.4694
G1 X127.2800 Y116.0730 E1.7335
G1 X125.3400 Y116.0720 E1.8032
G1 X125.3390 Y119.1930 E1.9153
G1 X127.2800 Y119.1940 E1.9850
G1 X127.2800 Y127.2800 E2.2755
G1 X108.7200 Y127.2800 E2.9422
G1 X108.2400 Y127.7600 F6000
G92 E0.0000
G1 X108.2400 Y108.2400 E0.7012 F2160
G1 X114.6980 Y108.2400 E0.9332
G1 X114.6990 Y110.1340 E1.0012
G1 X116.9200 Y110.1340 E1.0810
G1 X116.9190 Y108.2400 E1.1490
G1 X118.2120 Y108.2400 E1.1955
G1 X118.2110 Y110.1340 E1.2635
G1 X120.3940 Y110.1340 E1.3419
G1 X120.3950 Y108.2400 E1.4100
G1 X127.7600 Y108.2400 E1.6745
G1 X127.7600 Y116.5530 E1.9731
G1 X125.8200 Y116.5520 E2.0428
G1 X125.8190 Y118.7130 E2.1204
G1 X127.7600 Y118.7140 E2.1902
G1 X127.7600 Y127.7600 E2.5151
G1 X108.2400 Y127.7600 E3.2163
G1 X117.5330 Y110.3210 F6000
G92 E0.0000
G1 X117.9230 Y109.9310 E0.0198 F3600
G1 X117.9240 Y109.2520 E0.0442
G1 X117.2070 Y109.9680 E0.0806
G1 X117.2070 Y109.2890 E0.1050
G1 X117.9240 Y108.5720 E0.1414
G1 X117.9240 Y108.5280 E0.1430
G1 X117.2900 Y108.5280 E0.1658
G1 X117.2070 Y108.6110 E0.1700
G1 X116.9190 Y108.8030 F6000
G1 X116.9200 Y110.1340
G1 X114.9250 Y110.1340
G1 X109.5480 Y113.7240
G92 E0.0000
G1 X113.3910 Y109.8810 E0.2440 F3600
G1 X113.3920 Y111.4420 E0.3141
G1 X116.0730 Y111.4420 E0.4345
G1 X109.5480 Y117.9670 E0.8488
G1 X109.5480 Y122.2090 E1.0393
G1 X120.3150 Y111.4420 E1.7230
G1 X121.7010 Y111.4420 E1.7853
G1 X121.7020 Y110.0560 E1.8475
G1 X122.2090 Y109.5480 E1.8798
G1 X126.4520 Y109.5480 E2.0703
G1 X109.5480 Y126.4520 E3.1437
G1 X113.7910 Y126.4520 E3.3342
G1 X124.5120 Y115.7300 E4.0150
G1 X124.5100 Y119.9750 E4.2056
G1 X118.0330 Y126.4520 E4.6168
G1 X122.2760 Y126.4520 E4.8073
G1 X126.4520 Y122.2760 E5.0725
G92 E0.0000
G1 E-5 F2400 ; custom retraction
;layer 37, Z = 7.400
;fan37;
G1 Z7.400 F1200
G1 X126.8000 Y119.6710 F6000
G1 E0 F2400 ; custom un-retraction/prime
G92 E0.0000
G1 X126.8000 Y126.8000 E0.2561 F2880
G1 X109.2000 Y126.8000 E0.8883
G1 X109.2000 Y109.2000 E1.5205
G1 X113.8500 Y109.2000 E1.6875
G1 X113.8510 Y111.0940 E1.7556
G1 X121.2270 Y111.0940 E2.0205
G1 X121.2280 Y109.2000 E2.0886
G1 X126.8000 Y109.2000 E2.2887
G1 X126.8000 Y115.5910 E2.5183
G1 X124.8610 Y115.5900 E2.5879
G1 X124.8590 Y119.6700 E2.7345
G1 X126.8000 Y119.6710 E2.8043
G1 X127.2800 Y119.1910 F6000
G92 E0.0000
G1 X127.2800 Y127.2800 E0.2905 F2880
G1 X108.7200 Y127.2800 E0.9572
G1 X108.7200 Y108.7200 E1.6239
G1 X114.3300 Y108.7200 E1.8254
G1 X114.3310 Y110.6140 E1.8935
G1 X120.7470 Y110.6140 E2.1240
G1 X120.7480 Y108.7200 E2.1920
G1 X127.2800 Y108.7200 E2.4267
G1 X127.2800 Y116.0710 E2.6907
G1 X125.3400 Y116.0700 E2.7604
G1 X125.3390 Y119.1910 E2.8725
G1 X127.2800 Y119.1910 E2.9422
G1 X127.7600 Y118.7120 F6000
G92 E0.0000
G1 X127.7600 Y127.7600 E0.3250 F2160
G1 X108.2400 Y127.7600 E1.0262
G1 X108.2400 Y108.2400 E1.7274
G1 X114.8090 Y108.2400 E1.9634
G1 X114.8100 Y110.1340 E2.0314
G1 X117.0380 Y110.1340 E2.1114
G1 X117.0370 Y108.2400 E2.1795
G1 X118.0900 Y108.2400 E2.2173
G1 X118.0890 Y110.1340 E2.2854
G1 X120.2670 Y110.1340 E2.3636
G1 X120.2680 Y108.2400 E2.4316
G1 X127.7600 Y108.2400 E2.7007
G1 X127.7600 Y116.5510 E2.9993
G1 X125.8200 Y116.5500 E3.0690
G1 X125.8190 Y118.7110 E3.1466
G1 X127.7600 Y118.7120 E3.2163
G92 E0.0000
G1 E-5 F2400 ; custom retraction
;zhop1
G1 X125.8190 Y118.7110 F6000
G1 X125.8200 Y117.0790
G1 X117.7890 Y110.3220
G1 Z7.400 F1200
G1 E0 F2400 ; custom un-retraction/prime
G92 E0.0000
G1 X117.3260 Y109.8590 E0.0235 F3600
G1 X117.3260 Y109.1800 E0.0479
G1 X117.8020 Y109.6560 E0.0721
G1 X117.8020 Y108.9770 E0.0965
G1 X117.3530 Y108.5280 E0.1193
G1 X118.0900 Y108.6810 F6000
G1 X118.0890 Y110.1340
G1 X120.2670 Y110.1340
G1 X120.2680 Y109.1320
G1 X122.2760 Y109.5480
G92 E0.0000
G1 X126.4520 Y113.7240 E0.2652 F3600
G1 X126.4520 Y115.2420 E0.3334
G1 X124.5130 Y115.2420 E0.4204
G1 X124.5120 Y116.0270 E0.4557
G1 X119.9280 Y111.4420 E0.7468
G1 X115.6850 Y111.4420 E0.9373
G1 X126.4520 Y122.2090 E1.6210
G1 X126.4520 Y126.4520 E1.8115
G1 X109.5480 Y109.5480 E2.8849
G1 X109.5480 Y113.7910 E3.0754
G1 X122.2090 Y126.4520 E3.8794
G1 X117.9670 Y126.4520 E4.0699
G1 X109.5480 Y118.0330 E4.6045
G1 X109.5480 Y122.2760 E4.7950
G1 X113.7240 Y126.4520 E5.0602
G92 E0.0000
G1 E-5 F2400 ; custom retraction
;layer 38, Z = 7.600
;fan38;
G1 Z7.600 F1200
G1 X109.2000 Y126.8000 F6000
G1 E0 F2400 ; custom un-retraction/prime
G92 E0.0000
G1 X109.2000 Y109.2000 E0.6322 F2880
G1 X113.9610 Y109.2000 E0.8032
G1 X113.9620 Y111.0950 E0.8713
G1 X121.1000 Y111.0950 E1.1277
G1 X121.1010 Y109.2000 E1.1958
G1 X126.8000 Y109.2000 E1.4005
G1 X126.8000 Y115.5880 E1.6299
G1 X124.8610 Y115.5870 E1.6996
G1 X124.8590 Y119.6680 E1.8462
G1 X126.8000 Y119.6690 E1.9159
G1 X126.8000 Y126.8000 E2.1720
G1 X109.2000 Y126.8000 E2.8042
G1 X108.7200 Y127.2800 F6000
G92 E0.0000
G1 X108.7200 Y108.7200 E0.6667 F2880
G1 X114.4410 Y108.7200 E0.8722
G1 X114.4420 Y110.6150 E0.9402
G1 X120.6210 Y110.6150 E1.1622
G1 X120.6220 Y108.7200 E1.2302
G1 X127.2800 Y108.7200 E1.4694
G1 X127.2800 Y116.0690 E1.7334
G1 X125.3410 Y116.0680 E1.8031
G1 X125.3390 Y119.1880 E1.9152
G1 X127.2800 Y119.1890 E1.9849
G1 X127.2800 Y127.2800 E2.2755
G1 X108.7200 Y127.2800 E2.9422
G1 X108.2400 Y127.7600 F6000
G92 E0.0000
G1 X108.2400 Y108.2400 E0.7012 F2160
G1 X114.9200 Y108.2400 E0.9411
G1 X114.9210 Y110.1350 E1.0092
G1 X117.1570 Y110.1350 E1.0895
G1 X117.1560 Y108.2400 E1.1575
G1 X117.9690 Y108.2400 E1.1867
G1 X117.9680 Y110.1350 E1.2548
G1 X120.1410 Y110.1350 E1.3329
G1 X120.1420 Y108.2400 E1.4009
G1 X127.7600 Y108.2400 E1.6746
G1 X127.7600 Y116.5490 E1.9730
G1 X125.8200 Y116.5480 E2.0427
G1 X125.8200 Y118.7090 E2.1203
G1 X127.7600 Y118.7100 E2.1900
G1 X127.7600 Y127.7600 E2.5151
G1 X108.2400 Y127.7600 E3.2163
G1 X117.6800 Y110.1750 F6000
G92 E0.0000
G1 X117.5320 Y110.3220 E0.0075 F3600
G1 X117.4450 Y110.3220 E0.0106
G1 X117.4440 Y109.7310 E0.0318
G1 X117.6800 Y109.4950 E0.0438
G1 X117.6800 Y108.8160 E0.0682
G1 X117.4440 Y109.0530 E0.0802
G1 X117.1560 Y109.2230 F6000
G1 X117.1570 Y110.1350
G1 X115.6150 Y110.1350
G1 X109.5480 Y113.7240
G92 E0.0000
G1 X113.6130 Y109.6590 E0.2581 F3600
G1 X113.6140 Y111.4430 E0.3382
G1 X116.0720 Y111.4430 E0.4486
G1 X109.5480 Y117.9670 E0.8629
G1 X109.5480 Y122.2090 E1.0534
G1 X120.3150 Y111.4430 E1.7371
G1 X121.4480 Y111.4430 E1.7880
G1 X121.4490 Y110.3090 E1.8389
G1 X122.2090 Y109.5480 E1.8872
G1 X126.4520 Y109.5480 E2.0777
G1 X109.5480 Y126.4520 E3.1511
G1 X113.7910 Y126.4520 E3.3416
G1 X124.5130 Y115.7300 E4.0224
G1 X124.5110 Y119.9740 E4.2130
G1 X118.0330 Y126.4520 E4.6243
G1 X122.2760 Y126.4520 E4.8148
G1 X126.4520 Y122.2760 E5.0800
G92 E0.0000
G1 E-5 F2400 ; custom retraction
;layer 39, Z = 7.800
;fan39;
G1 Z7.800 F1200
G1 X126.8000 Y119.6670 F6000
G1 E0 F2400 ; custom un-retraction/prime
G92 E0.0000
G1 X126.8000 Y126.8000 E0.2562 F2880
G1 X109.2000 Y126.8000 E0.8884
G1 X109.2000 Y109.2000 E1.5206
G1 X114.0720 Y109.2000 E1.6956
G1 X114.0730 Y111.0950 E1.7637
G1 X120.9740 Y111.0950 E2.0116
G1 X120.9750 Y109.2000 E2.0797
G1 X126.8000 Y109.2000 E2.2889
G1 X126.8000 Y115.5860 E2.5183
G1 X124.8610 Y115.5850 E2.5879
G1 X124.8590 Y119.6660 E2.7345
G1 X126.8000 Y119.6670 E2.8042
G1 X127.2800 Y119.1870 F6000
G92 E0.0000
G1 X127.2800 Y127.2800 E0.2907 F2880
G1 X108.7200 Y127.2800 E0.9574
G1 X108.7200 Y108.7200 E1.6241
G1 X114.5520 Y108.7200 E1.8336
G1 X114.5530 Y110.6150 E1.9016
G1 X120.4940 Y110.6150 E2.1151
G1 X120.4950 Y108.7200 E2.1831
G1 X127.2800 Y108.7200 E2.4268
G1 X127.2800 Y116.0660 E2.6907
G1 X125.3410 Y116.0660 E2.7604
G1 X125.3400 Y119.1860 E2.8725
G1 X127.2800 Y119.1870 E2.9422
G1 X127.7600 Y118.7070 F6000
G92 E0.0000
G1 X127.7600 Y127.7600 E0.3252 F2160
G1 X108.2400 Y127.7600 E1.0264
G1 X108.2400 Y108.2400 E1.7275
G1 X115.0320 Y108.2400 E1.9715
G1 X115.0320 Y110.1350 E2.0395
G1 X117.2750 Y110.1350 E2.1201
G1 X117.2740 Y108.2400 E2.1882
G1 X117.8470 Y108.2400 E2.2087
G1 X117.8460 Y110.1350 E2.2768
G1 X120.0140 Y110.1350 E2.3547
G1 X120.0150 Y108.2400 E2.4228
G1 X127.7600 Y108.2400 E2.7009
G1 X127.7600 Y116.5470 E2.9993
G1 X125.8210 Y116.5460 E3.0690
G1 X125.8200 Y118.7070 E3.1466
G1 X127.7600 Y118.7070 E3.2163
G92 E0.0000
G1 E-5 F2400 ; custom retraction
;zhop1
G1 X125.8200 Y118.7070 F6000
G1 X125.8210 Y116.5460
G1 X126.4660 Y116.5460
G1 X122.2760 Y109.5480
G1 Z7.800 F1200
G1 E0 F2400 ; custom un-retraction/prime
G92 E0.0000
G1 X126.4520 Y113.7240 E0.2652 F3600
G1 X126.4520 Y115.2380 E0.3332
G1 X124.5130 Y115.2370 E0.4202
G1 X124.5130 Y116.0280 E0.4557
G1 X119.9280 Y111.4430 E0.7468
G1 X115.6850 Y111.4430 E0.9373
G1 X126.4520 Y122.2090 E1.6210
G1 X126.4520 Y126.4520 E1.8115
G1 X109.5480 Y109.5480 E2.8849
G1 X109.5480 Y113.7910 E3.0754
G1 X122.2090 Y126.4520 E3.8794
G1 X117.9670 Y126.4520 E4.0699
G1 X109.5480 Y118.0330 E4.6045
G1 X109.5480 Y122.2760 E4.7950
G1 X113.7240 Y126.4520 E5.0602
G92 E0.0000
G1 E-5 F2400 ; custom retraction
;layer 40, Z = 8.000
;fan40;
G1 Z8.000 F1200
G1 X109.2000 Y126.8000 F6000
G1 E0 F2400 ; custom un-retraction/prime
G92 E0.0000
G1 X109.2000 Y109.2000 E0.6322 F2880
G1 X114.1830 Y109.2000 E0.8112
G1 X114.1840 Y111.0950 E0.8793
G1 X120.8470 Y111.0950 E1.1186
G1 X120.8480 Y109.2000 E1.1867
G1 X126.8000 Y109.2000 E1.4005
G1 X126.8000 Y115.5840 E1.6298
G1 X124.8620 Y115.5830 E1.6994
G1 X124.8600 Y119.6640 E1.8460
G1 X126.8000 Y119.6650 E1.9157
G1 X126.8000 Y126.8000 E2.1720
G1 X109.2000 Y126.8000 E2.8042
G1 X108.7200 Y127.2800 F6000
G92 E0.0000
G1 X108.7200 Y108.7200 E0.6667 F2880
G1 X114.6630 Y108.7200 E0.8802
G1 X114.6640 Y110.6150 E0.9482
G1 X120.3680 Y110.6150 E1.1531
G1 X120.3690 Y108.7200 E1.2212
G1 X127.2800 Y108.7200 E1.4694
G1 X127.2800 Y116.0640 E1.7333
G1 X125.3410 Y116.0630 E1.8029
G1 X125.3400 Y119.1840 E1.9150
G1 X127.2800 Y119.1850 E1.9847
G1 X127.2800 Y127.2800 E2.2755
G1 X108.7200 Y127.2800 E2.9422
G1 X108.2400 Y127.7600 F6000
G92 E0.0000
G1 X108.2400 Y108.2400 E0.7012 F2160
G1 X115.1430 Y108.2400 E0.9491
G1 X115.1430 Y110.1350 E1.0172
G1 X117.3940 Y110.1350 E1.0980
G1 X117.3930 Y108.2400 E1.1661
G1 X117.7250 Y108.2400 E1.1780
G1 X117.7240 Y110.1350 E1.2461
G1 X119.8880 Y110.1350 E1.3238
G1 X119.8890 Y108.2400 E1.3919
G1 X127.7600 Y108.2400 E1.6746
G1 X127.7600 Y116.5440 E1.9729
G1 X125.8210 Y116.5440 E2.0426
G1 X125.8200 Y118.7040 E2.1202
G1 X127.7600 Y118.7050 E2.1899
G1 X127.7600 Y127.7600 E2.5151
G1 X108.2400 Y127.7600 E3.2163
G1 X109.5480 Y113.7240 F6000
G92 E0.0000
G1 X113.7240 Y109.5480 E0.2652 F3600
G1 X113.8350 Y109.5480 E0.2702
G1 X113.8360 Y111.4430 E0.3552
G1 X116.0720 Y111.4430 E0.4556
G1 X109.5480 Y117.9670 E0.8699
G1 X109.5480 Y122.2090 E1.0604
G1 X120.3150 Y111.4430 E1.7441
G1 X121.1950 Y111.4430 E1.7836
G1 X121.1960 Y110.5620 E1.8232
G1 X122.2090 Y109.5480 E1.8876
G1 X126.4520 Y109.5480 E2.0781
G1 X109.5480 Y126.4520 E3.1515
G1 X113.7910 Y126.4520 E3.3420
G1 X124.5130 Y115.7290 E4.0229
G1 X124.5120 Y119.9740 E4.2134
G1 X118.0330 Y126.4520 E4.6248
G1 X122.2760 Y126.4520 E4.8153
G1 X126.4520 Y122.2760 E5.0805
G92 E0.0000
G1 E-5 F2400 ; custom retraction
;layer 41, Z = 8.200
;fan41;
G1 Z8.200 F1200
G1 X126.8000 Y119.6630 F6000
G1 E0 F2400 ; custom un-retraction/prime
G92 E0.0000
G1 X126.8000 Y126.8000 E0.2564 F2880
G1 X109.2000 Y126.8000 E0.8886
G1 X109.2000 Y109.2000 E1.5208
G1 X114.2940 Y109.2000 E1.7038
G1 X114.2950 Y111.0950 E1.7718
G1 X120.7210 Y111.0950 E2.0027
G1 X120.7220 Y109.2000 E2.0708
G1 X126.8000 Y109.2000 E2.2891
G1 X126.8000 Y115.5820 E2.5183
G1 X124.8620 Y115.5810 E2.5879
G1 X124.8600 Y119.6620 E2.7345
G1 X126.8000 Y119.6630 E2.8042
G1 X127.2800 Y119.1830 F6000
G92 E0.0000
G1 X127.2800 Y127.2800 E0.2909 F2880
G1 X108.7200 Y127.2800 E0.9576
G1 X108.7200 Y108.7200 E1.6242
G1 X114.7740 Y108.7200 E1.8417
G1 X114.7750 Y110.6150 E1.9098
G1 X120.2410 Y110.6150 E2.1061
G1 X120.2420 Y108.7200 E2.1742
G1 X127.2800 Y108.7200 E2.4270
G1 X127.2800 Y116.0620 E2.6907
G1 X125.3420 Y116.0610 E2.7604
G1 X125.3400 Y119.1820 E2.8725
G1 X127.2800 Y119.1830 E2.9422
G1 X127.7600 Y118.7030 F6000
G92 E0.0000
G1 X127.7600 Y127.7600 E0.3253 F2160
G1 X108.2400 Y127.7600 E1.0265
G1 X108.2400 Y108.2400 E1.7277
G1 X115.2540 Y108.2400 E1.9796
G1 X115.2540 Y110.1350 E2.0477
G1 X117.5120 Y110.1350 E2.1288
G1 X117.5110 Y108.2400 E2.1969
G1 X117.6030 Y108.2400 E2.2002
G1 X117.6020 Y110.1350 E2.2682
G1 X119.7620 Y110.1350 E2.3458
G1 X119.7630 Y108.2400 E2.4139
G1 X127.7600 Y108.2400 E2.7011
G1 X127.7600 Y116.5420 E2.9994
G1 X125.8210 Y116.5410 E3.0690
G1 X125.8200 Y118.7020 E3.1466
G1 X127.7600 Y118.7030 E3.2163
G92 E0.0000
G1 E-5 F2400 ; custom retraction
;zhop1
G1 X125.8200 Y118.7020 F6000
G1 X125.8210 Y116.5410
G1 X126.4650 Y116.5420
G1 X122.2760 Y109.5480
G1 Z8.200 F1200
G1 E0 F2400 ; custom un-retraction/prime
G92 E0.0000
G1 X126.4520 Y113.7240 E0.2652 F3600
G1 X126.4520 Y115.2340 E0.3330
G1 X124.5140 Y115.2330 E0.4200
G1 X124.5140 Y116.0280 E0.4557
G1 X119.9280 Y111.4430 E0.7469
G1 X115.6860 Y111.4430 E0.9374
G1 X126.4520 Y122.2090 E1.6210
G1 X126.4520 Y126.4520 E1.8115
G1 X109.5480 Y109.5480 E2.8849
G1 X113.7910 Y109.5480 E3.0754
G1 X113.9460 Y109.7040 E3.0853
G1 X109.5480 Y113.7910 F6000
G92 E0.0000
G1 X122.2090 Y126.4520 E0.8040 F3600
G1 X117.9670 Y126.4520 E0.9945
G1 X109.5480 Y118.0330 E1.5291
G1 X109.5480 Y122.2760 E1.7196
G1 X113.7240 Y126.4520 E1.9848
G92 E0.0000
G1 E-5 F2400 ; custom retraction
;layer 42, Z = 8.400
;fan42;
G1 Z8.400 F1200
G1 X109.2000 Y126.8000 F6000
G1 E0 F2400 ; custom un-retraction/prime
G92 E0.0000
G1 X109.2000 Y109.2000 E0.6322 F2880
G1 X114.4050 Y109.2000 E0.8192
G1 X114.4060 Y111.0950 E0.8873
G1 X120.5950 Y111.0950 E1.1096
G1 X120.5960 Y109.2000 E1.1776
G1 X126.8000 Y109.2000 E1.4005
G1 X126.8000 Y115.5800 E1.6297
G1 X124.8620 Y115.5790 E1.6993
G1 X124.8600 Y119.6600 E1.8459
G1 X126.8000 Y119.6600 E1.9155
G1 X126.8000 Y126.8000 E2.1720
G1 X109.2000 Y126.8000 E2.8042
G1 X108.7200 Y127.2800 F6000
G92 E0.0000
G1 X108.7200 Y108.7200 E0.6667 F2880
G1 X114.8850 Y108.7200 E0.8881
G1 X114.8860 Y110.6150 E0.9562
G1 X120.1150 Y110.6150 E1.1441
G1 X120.1160 Y108.7200 E1.2121
G1 X127.2800 Y108.7200 E1.4695
G1 X127.2800 Y116.0600 E1.7331
G1 X125.3420 Y116.0590 E1.8027
G1 X125.3410 Y119.1800 E1.9148
G1 X127.2800 Y119.1810 E1.9845
G1 X127.2800 Y127.2800 E2.2754
G1 X108.7200 Y127.2800 E2.9421
G1 X108.2400 Y127.7600 F6000
G92 E0.0000
G1 X108.2400 Y108.2400 E0.7012 F2160
G1 X115.3650 Y108.2400 E0.9571
G1 X115.3650 Y110.1350 E1.0252
G1 X119.6350 Y110.1350 E1.1785
G1 X119.6360 Y108.2400 E1.2466
G1 X127.7600 Y108.2400 E1.5384
G1 X127.7600 Y116.5400 E1.8366
G1 X125.8220 Y116.5390 E1.9062
G1 X125.8210 Y118.7000 E1.9838
G1 X127.7600 Y118.7010 E2.0535
G1 X127.7600 Y127.7600 E2.3789
G1 X108.2400 Y127.7600 E3.0801
G1 X109.5480 Y113.7240 F6000
G92 E0.0000
G1 X113.7240 Y109.5480 E0.2652 F3600
G1 X114.0570 Y109.5480 E0.2801
G1 X114.0580 Y111.4430 E0.3652
G1 X116.0720 Y111.4430 E0.4556
G1 X109.5480 Y117.9670 E0.8699
G1 X109.5480 Y122.2090 E1.0604
G1 X120.3140 Y111.4430 E1.7440
G1 X120.9420 Y111.4430 E1.7722
G1 X120.9430 Y110.8150 E1.8005
G1 X122.2090 Y109.5480 E1.8809
G1 X126.4520 Y109.5480 E2.0714
G1 X109.5480 Y126.4520 E3.1448
G1 X113.7910 Y126.4520 E3.3353
G1 X124.5140 Y115.7290 E4.0162
G1 X124.5120 Y119.9730 E4.2068
G1 X118.0330 Y126.4520 E4.6182
G1 X122.2760 Y126.4520 E4.8087
G1 X126.4520 Y122.2760 E5.0739
G92 E0.0000
G1 E-5 F2400 ; custom retraction
;layer 43, Z = 8.600
;fan43;
G1 Z8.600 F1200
G1 X126.8000 Y119.6580 F6000
G1 E0 F2400 ; custom un-retraction/prime
G92 E0.0000
G1 X126.8000 Y126.8000 E0.2565 F2880
G1 X109.2000 Y126.8000 E0.8887
G1 X109.2000 Y109.2000 E1.5210
G1 X114.5160 Y109.2000 E1.7119
G1 X114.5170 Y111.0950 E1.7800
G1 X117.1420 Y111.0950 E1.8743
G1 X117.9650 Y111.0950 E1.9039
G1 X120.4680 Y111.0950 E1.9938
G1 X120.4690 Y109.2000 E2.0618
G1 X126.8000 Y109.2000 E2.2893
G1 X126.8000 Y115.5780 E2.5183
G1 X124.8620 Y115.5770 E2.5879
G1 X124.8610 Y119.6570 E2.7345
G1 X126.8000 Y119.6580 E2.8042
G1 X127.2800 Y119.1780 F6000
G92 E0.0000
G1 X127.2800 Y127.2800 E0.2910 F2880
G1 X108.7200 Y127.2800 E0.9577
G1 X108.7200 Y108.7200 E1.6244
G1 X114.9960 Y108.7200 E1.8498
G1 X114.9970 Y110.6150 E1.9179
G1 X117.1420 Y110.6150 E1.9950
G1 X117.9650 Y110.6150 E2.0245
G1 X119.9880 Y110.6150 E2.0972
G1 X119.9890 Y108.7200 E2.1653
G1 X127.2800 Y108.7200 E2.4272
G1 X127.2800 Y116.0580 E2.6908
G1 X125.3420 Y116.0570 E2.7604
G1 X125.3410 Y119.1780 E2.8725
G1 X127.2800 Y119.1780 E2.9421
G1 X127.7600 Y118.6990 F6000
G92 E0.0000
G1 X127.7600 Y127.7600 E0.3255 F2160
G1 X108.2400 Y127.7600 E1.0267
G1 X108.2400 Y108.2400 E1.7278
G1 X115.4760 Y108.2400 E1.9878
G1 X115.4760 Y110.1350 E2.0558
G1 X117.3580 Y110.1350 E2.1234
G1 X117.7490 Y110.1350 E2.1375
G1 X119.5090 Y110.1350 E2.2007
G1 X119.5100 Y108.2400 E2.2688
G1 X127.7600 Y108.2400 E2.5651
G1 X127.7600 Y116.5380 E2.8632
G1 X125.8220 Y116.5370 E2.9328
G1 X125.8210 Y118.6980 E3.0104
G1 X127.7600 Y118.6990 E3.0801
G92 E0.0000
G1 E-5 F2400 ; custom retraction
;zhop1
G1 X125.8210 Y118.6980 F6000
G1 X125.8220 Y116.5370
G1 X126.4650 Y116.5370
G1 X122.2760 Y109.5480
G1 Z8.600 F1200
G1 E0 F2400 ; custom un-retraction/prime
G92 E0.0000
G1 X126.4520 Y113.7240 E0.2652 F3600
G1 X126.4520 Y115.2290 E0.3328
G1 X124.5150 Y115.2290 E0.4198
G1 X124.5140 Y116.0290 E0.4557
G1 X119.9290 Y111.4430 E0.7469
G1 X119.0570 Y111.4430 E0.7860
G1 X117.5360 Y111.4430 E0.8543
G1 X116.0500 Y111.4430 E0.9210
G1 X115.6860 Y111.4430 E0.9374
G1 X126.4520 Y122.2090 E1.6210
G1 X126.4520 Y126.4520 E1.8115
G1 X109.5480 Y109.5480 E2.8849
G1 X113.7910 Y109.5480 E3.0754
G1 X114.1680 Y109.9260 E3.0994
G1 X109.5480 Y113.7910 F6000
G92 E0.0000
G1 X122.2090 Y126.4520 E0.8040 F3600
G1 X117.9670 Y126.4520 E0.9945
G1 X109.5480 Y118.0330 E1.5291
G1 X109.5480 Y122.2760 E1.7196
G1 X113.7240 Y126.4520 E1.9848
G92 E0.0000
G1 E-5 F2400 ; custom retraction
;layer 44, Z = 8.800
;fan44;
G1 Z8.800 F1200
G1 X109.2000 Y126.8000 F6000
G1 E0 F2400 ; custom un-retraction/prime
G92 E0.0000
G1 X109.2000 Y109.2000 E0.6322 F2880
G1 X114.6270 Y109.2000 E0.8272
G1 X114.6280 Y111.0960 E0.8952
G1 X120.3420 Y111.0960 E1.1005
G1 X120.3430 Y109.2000 E1.1686
G1 X126.8000 Y109.2000 E1.4005
G1 X126.8000 Y115.5750 E1.6295
G1 X124.8630 Y115.5750 E1.6991
G1 X124.8610 Y119.6550 E1.8457
G1 X126.8000 Y119.6560 E1.9154
G1 X126.8000 Y126.8000 E2.1720
G1 X109.2000 Y126.8000 E2.8042
G1 X108.7200 Y127.2800 F6000
G92 E0.0000
G1 X108.7200 Y108.7200 E0.6667 F2880
G1 X115.1070 Y108.7200 E0.8961
G1 X115.1080 Y110.6160 E0.9642
G1 X119.8620 Y110.6160 E1.1350
G1 X119.8630 Y108.7200 E1.2031
G1 X127.2800 Y108.7200 E1.4695
G1 X127.2800 Y116.0560 E1.7330
G1 X125.3430 Y116.0550 E1.8026
G1 X125.3410 Y119.1750 E1.9147
G1 X127.2800 Y119.1760 E1.9843
G1 X127.2800 Y127.2800 E2.2754
G1 X108.7200 Y127.2800 E2.9421
G1 X108.2400 Y127.7600 F6000
G92 E0.0000
G1 X108.2400 Y108.2400 E0.7012 F2160
G1 X115.5870 Y108.2400 E0.9651
G1 X115.5870 Y110.1360 E1.0332
G1 X119.3820 Y110.1360 E1.1695
G1 X119.3830 Y108.2400 E1.2376
