; generated by PrusaSlicer 2.6.0-alpha6+MacOS-x64 on 2023-04-27 at 17:39:32 UTC

; 

; external perimeters extrusion width = 0.40mm
; perimeters extrusion width = 0.40mm
; infill extrusion width = 0.40mm
; solid infill extrusion width = 0.40mm
; top infill extrusion width = 0.40mm
; first layer extrusion width = 0.40mm

;TYPE:Custom
; Ender 3 Custom Start G-code
G92 E0 ; Reset Extruder

M140 S50 ; set bed temp
M190 S50 ; wait for bed temp

G28 ; Home all axes
M104 S210 ; set extruder temp 
BED_MESH_CALIBRATE AREA_START=24.7942,24.2502 AREA_END=206.206,206.75

G1 Z2.0 F3000 ; Move Z Axis up little to prevent scratching of Heat Bed
M109 S210 ; wait for extruder temp
G1 X0.1 Y20 Z0.3 F5000.0 ; Move to start position

G1 X0.1 Y200.0 Z0.3 F1500.0 E15 ; Draw the first line
G1 X0.4 Y200.0 Z0.3 F5000.0 ; Move to side a little
G1 X0.4 Y20 Z0.3 F1500.0 E30 ; Draw the second line
G92 E0 ; Reset Extruder
G1 Z2.0 F3000 ; Move Z Axis up little to prevent scratching of Heat Bed
G1 X5 Y20 Z0.3 F5000.0 ; Move over to prevent blob squish
G21 ; set units to millimeters
G90 ; use absolute coordinates
M83 ; use relative distances for extrusion
; Filament gcode
M107
;LAYER_CHANGE
;Z:0.2
;HEIGHT:0.2
TIMELAPSE_TAKE_FRAME
;BEFORE_LAYER_CHANGE
G92 E0
;0.2


G1 E-5 F3600
G1 Z.2 F4800
;AFTER_LAYER_CHANGE
;0.2
G1 X26.476 Y25.34
G1 E5 F2400
M204 S500
;TYPE:Skirt/Brim
;WIDTH:0.4
G1 F1440
G1 X28.083 Y24.544 E.05325
G1 X29.044 Y24.429 E.02874
G1 X201.956 Y24.429 E5.13398
G1 X203.706 Y24.824 E.05327
G1 X205.116 Y25.932 E.05324
G1 X205.912 Y27.539 E.05325
G1 X206.027 Y28.5 E.02874
G1 X206.027 Y202.5 E5.16629
G1 X205.632 Y204.25 E.05327
G1 X204.524 Y205.66 E.05324
G1 X202.917 Y206.456 E.05325
G1 X201.956 Y206.571 E.02874
G1 X29.044 Y206.571 E5.13398
G1 X27.294 Y206.176 E.05327
G1 X25.884 Y205.068 E.05324
G1 X25.088 Y203.461 E.05325
G1 X24.973 Y202.5 E.02874
G1 X24.973 Y28.5 E5.16629
G1 X25.368 Y26.75 E.05327
G1 X26.439 Y25.388 E.05144
G1 X26.732 Y25.633 F4800
G1 F1440
G1 X26.824 Y25.522 E.00428
G1 X29.044 Y24.786 E.06944
G1 X201.956 Y24.786 E5.13398
G1 X203.622 Y25.18 E.05083
G1 X204.934 Y26.28 E.05083
G1 X205.67 Y28.5 E.06944
G1 X205.67 Y202.5 E5.16629
G1 X205.276 Y204.166 E.05083
G1 X204.176 Y205.478 E.05083
G1 X201.956 Y206.214 E.06944
G1 X29.044 Y206.214 E5.13398
G1 X27.378 Y205.82 E.05083
G1 X26.066 Y204.72 E.05083
G1 X25.33 Y202.5 E.06944
G1 X25.33 Y28.5 E5.16629
G1 X25.724 Y26.834 E.05083
G1 X26.693 Y25.679 E.04476
G1 X26.974 Y25.932 F4800
G1 F1440
G1 X27.171 Y25.714 E.00872
G1 X29.044 Y25.143 E.05814
G1 X201.956 Y25.143 E5.13398
G1 X203.534 Y25.537 E.04829
G1 X204.742 Y26.627 E.04831
G1 X205.313 Y28.5 E.05814
G1 X205.313 Y202.5 E5.16629
G1 X204.919 Y204.078 E.04829
G1 X203.829 Y205.286 E.04831
G1 X201.956 Y205.857 E.05814
G1 X29.044 Y205.857 E5.13398
G1 X27.466 Y205.463 E.04829
G1 X26.258 Y204.373 E.04831
G1 X25.687 Y202.5 E.05814
G1 X25.687 Y28.5 E5.16629
G1 X26.081 Y26.922 E.04829
G1 X26.934 Y25.977 E.0378
; printing object Bed_Level_test_Speed_Print_Test_1.stl id:0 copy 0
G1 E-3.5 F3600
;WIPE_START
G1 F3840
G1 X27.171 Y25.714 E-.31531
G1 X28.443 Y25.326 E-1.18469
;WIPE_END
G1 X140.927 Y70.929 F4800
G1 E5 F2400
;TYPE:External perimeter
;WIDTH:0.417183
G1 F1440
G1 X140.235 Y70.819 E.02181
G1 X139.597 Y70.533 E.02176
G1 X139.054 Y70.093 E.02175
G1 X138.643 Y69.526 E.02179
G1 X138.393 Y68.873 E.02176
;WIDTH:0.4188
G1 X138.315 Y68.274 E.01888
G1 X138.321 Y68.177 E.00304
;WIDTH:0.417183
G1 X138.431 Y67.485 E.02181
G1 X138.717 Y66.847 E.02176
G1 X139.157 Y66.304 E.02175
G1 X139.724 Y65.893 E.02179
G1 X140.377 Y65.643 E.02176
G1 X141.073 Y65.571 E.02178
G1 X141.765 Y65.681 E.02181
G1 X142.403 Y65.967 E.02176
G1 X142.946 Y66.407 E.02175
G1 X143.357 Y66.974 E.02179
G1 X143.607 Y67.627 E.02176
G1 X143.679 Y68.323 E.02178
G1 X143.569 Y69.015 E.02181
G1 X143.283 Y69.653 E.02176
G1 X142.843 Y70.196 E.02175
G1 X142.276 Y70.607 E.02179
G1 X141.623 Y70.857 E.02176
G1 X140.987 Y70.923 E.0199
G1 X140.736 Y70.577 F4800
G1 X141.024 Y70.558
;WIDTH:0.417196
G1 F1440
G1 X140.426 Y70.486 E.01874
G1 X139.867 Y70.261 E.01875
G1 X139.385 Y69.899 E.01876
G1 X139.014 Y69.425 E.01873
G1 X138.777 Y68.871 E.01875
G1 X138.692 Y68.274 E.01877
G1 X138.764 Y67.676 E.01874
G1 X138.989 Y67.117 E.01875
G1 X139.351 Y66.635 E.01876
G1 X139.825 Y66.264 E.01873
G1 X140.379 Y66.027 E.01875
G1 X140.976 Y65.942 E.01877
G1 X141.574 Y66.014 E.01874
G1 X142.133 Y66.239 E.01875
G1 X142.615 Y66.601 E.01876
G1 X142.986 Y67.075 E.01873
G1 X143.223 Y67.629 E.01875
G1 X143.308 Y68.226 E.01877
G1 X143.236 Y68.824 E.01874
G1 X143.011 Y69.383 E.01875
G1 X142.649 Y69.865 E.01876
G1 X142.175 Y70.236 E.01873
G1 X141.621 Y70.473 E.01875
G1 X141.084 Y70.55 E.01688
G1 X140.828 Y70.907 F4800
G1 E-3.5 F3600
;WIPE_START
G1 F3840
G1 X140.426 Y70.486 E-.5888
G1 X139.867 Y70.261 E-.53668
G1 X139.531 Y70.008 E-.37452
;WIPE_END
G1 X166.927 Y93.429 F4800
G1 E5 F2400
;WIDTH:0.417183
G1 F1440
G1 X166.235 Y93.319 E.02181
G1 X165.597 Y93.033 E.02176
G1 X165.054 Y92.593 E.02175
G1 X164.643 Y92.026 E.02179
G1 X164.393 Y91.373 E.02176
;WIDTH:0.4188
G1 X164.312 Y90.75 E.01964
G1 X164.321 Y90.677 E.0023
;WIDTH:0.417183
G1 X164.431 Y89.985 E.02181
G1 X164.717 Y89.347 E.02176
G1 X165.157 Y88.804 E.02175
G1 X165.724 Y88.393 E.02179
G1 X166.377 Y88.143 E.02176
G1 X167.073 Y88.071 E.02178
G1 X167.765 Y88.181 E.02181
G1 X168.403 Y88.467 E.02176
G1 X168.946 Y88.907 E.02175
G1 X169.357 Y89.474 E.02179
G1 X169.607 Y90.127 E.02176
G1 X169.679 Y90.823 E.02178
G1 X169.569 Y91.515 E.02181
G1 X169.283 Y92.153 E.02176
G1 X168.843 Y92.696 E.02175
G1 X168.276 Y93.107 E.02179
G1 X167.623 Y93.357 E.02176
G1 X166.987 Y93.423 E.0199
G1 X166.736 Y93.077 F4800
G1 X167.024 Y93.058
;WIDTH:0.417196
G1 F1440
G1 X166.426 Y92.986 E.01874
G1 X165.867 Y92.761 E.01875
G1 X165.385 Y92.399 E.01876
G1 X165.014 Y91.925 E.01873
G1 X164.777 Y91.371 E.01875
G1 X164.692 Y90.774 E.01877
G1 X164.764 Y90.176 E.01874
G1 X164.989 Y89.617 E.01875
G1 X165.351 Y89.135 E.01876
G1 X165.825 Y88.764 E.01873
G1 X166.379 Y88.527 E.01875
G1 X166.976 Y88.442 E.01877
G1 X167.574 Y88.514 E.01874
G1 X168.133 Y88.739 E.01875
G1 X168.615 Y89.101 E.01876
G1 X168.986 Y89.575 E.01873
G1 X169.223 Y90.129 E.01875
G1 X169.308 Y90.726 E.01877
G1 X169.236 Y91.324 E.01874
G1 X169.011 Y91.883 E.01875
G1 X168.649 Y92.365 E.01876
G1 X168.175 Y92.736 E.01873
G1 X167.621 Y92.973 E.01875
G1 X167.084 Y93.05 E.01688
G1 X166.828 Y93.407 F4800
G1 E-3.5 F3600
;WIPE_START
G1 F3840
G1 X166.426 Y92.986 E-.5888
G1 X165.867 Y92.761 E-.53668
G1 X165.531 Y92.508 E-.37452
;WIPE_END
G1 X165.927 Y146.179 F4800
G1 E5 F2400
;WIDTH:0.417183
G1 F1440
G1 X165.235 Y146.069 E.02181
G1 X164.597 Y145.783 E.02176
G1 X164.054 Y145.343 E.02175
G1 X163.643 Y144.776 E.02179
G1 X163.393 Y144.123 E.02176
;WIDTH:0.4188
G1 X163.312 Y143.5 E.01964
G1 X163.321 Y143.427 E.0023
;WIDTH:0.417183
G1 X163.431 Y142.735 E.02181
G1 X163.717 Y142.097 E.02176
G1 X164.157 Y141.554 E.02175
G1 X164.724 Y141.143 E.02179
G1 X165.377 Y140.893 E.02176
G1 X166.073 Y140.821 E.02178
G1 X166.765 Y140.931 E.02181
G1 X167.403 Y141.217 E.02176
G1 X167.946 Y141.657 E.02175
G1 X168.357 Y142.224 E.02179
G1 X168.607 Y142.877 E.02176
G1 X168.679 Y143.573 E.02178
G1 X168.569 Y144.265 E.02181
G1 X168.283 Y144.903 E.02176
G1 X167.843 Y145.446 E.02175
G1 X167.276 Y145.857 E.02179
G1 X166.623 Y146.107 E.02176
G1 X165.987 Y146.173 E.0199
G1 X165.736 Y145.827 F4800
G1 X166.024 Y145.808
;WIDTH:0.417196
G1 F1440
G1 X165.426 Y145.736 E.01874
G1 X164.867 Y145.511 E.01875
G1 X164.385 Y145.149 E.01876
G1 X164.014 Y144.675 E.01873
G1 X163.777 Y144.121 E.01875
G1 X163.692 Y143.524 E.01877
G1 X163.764 Y142.926 E.01874
G1 X163.989 Y142.367 E.01875
G1 X164.351 Y141.885 E.01876
G1 X164.825 Y141.514 E.01873
G1 X165.379 Y141.277 E.01875
G1 X165.976 Y141.192 E.01877
G1 X166.574 Y141.264 E.01874
G1 X167.133 Y141.489 E.01875
G1 X167.615 Y141.851 E.01876
G1 X167.986 Y142.325 E.01873
G1 X168.223 Y142.879 E.01875
G1 X168.308 Y143.476 E.01877
G1 X168.236 Y144.074 E.01874
G1 X168.011 Y144.633 E.01875
G1 X167.649 Y145.115 E.01876
G1 X167.175 Y145.486 E.01873
G1 X166.621 Y145.723 E.01875
G1 X166.084 Y145.8 E.01688
G1 X165.828 Y146.157 F4800
G1 E-3.5 F3600
;WIPE_START
G1 F3840
G1 X165.426 Y145.736 E-.5888
G1 X164.867 Y145.511 E-.53668
G1 X164.531 Y145.258 E-.37452
;WIPE_END
G1 X143.427 Y172.179 F4800
G1 E5 F2400
;WIDTH:0.417183
G1 F1440
G1 X142.735 Y172.069 E.02181
G1 X142.097 Y171.783 E.02176
G1 X141.554 Y171.343 E.02175
G1 X141.143 Y170.776 E.02179
G1 X140.893 Y170.123 E.02176
;WIDTH:0.4188
G1 X140.812 Y169.5 E.01964
G1 X140.821 Y169.427 E.0023
;WIDTH:0.417183
G1 X140.931 Y168.735 E.02181
G1 X141.217 Y168.097 E.02176
G1 X141.657 Y167.554 E.02175
G1 X142.224 Y167.143 E.02179
G1 X142.877 Y166.893 E.02176
G1 X143.573 Y166.821 E.02178
G1 X144.265 Y166.931 E.02181
G1 X144.903 Y167.217 E.02176
G1 X145.446 Y167.657 E.02175
G1 X145.857 Y168.224 E.02179
G1 X146.107 Y168.877 E.02176
G1 X146.179 Y169.573 E.02178
G1 X146.069 Y170.265 E.02181
G1 X145.783 Y170.903 E.02176
G1 X145.343 Y171.446 E.02175
G1 X144.776 Y171.857 E.02179
G1 X144.123 Y172.107 E.02176
G1 X143.487 Y172.173 E.0199
G1 X143.236 Y171.827 F4800
G1 X143.524 Y171.808
;WIDTH:0.417196
G1 F1440
G1 X142.926 Y171.736 E.01874
G1 X142.367 Y171.511 E.01875
G1 X141.885 Y171.149 E.01876
G1 X141.514 Y170.675 E.01873
G1 X141.277 Y170.121 E.01875
G1 X141.192 Y169.524 E.01877
G1 X141.264 Y168.926 E.01874
G1 X141.489 Y168.367 E.01875
G1 X141.851 Y167.885 E.01876
G1 X142.325 Y167.514 E.01873
G1 X142.879 Y167.277 E.01875
G1 X143.476 Y167.192 E.01877
G1 X144.074 Y167.264 E.01874
G1 X144.633 Y167.489 E.01875
G1 X145.115 Y167.851 E.01876
G1 X145.486 Y168.325 E.01873
G1 X145.723 Y168.879 E.01875
G1 X145.808 Y169.476 E.01877
G1 X145.736 Y170.074 E.01874
G1 X145.511 Y170.633 E.01875
G1 X145.149 Y171.115 E.01876
G1 X144.675 Y171.486 E.01873
G1 X144.121 Y171.723 E.01875
G1 X143.584 Y171.8 E.01688
G1 X143.328 Y172.157 F4800
G1 E-3.5 F3600
;WIPE_START
G1 F3840
G1 X142.926 Y171.736 E-.5888
G1 X142.367 Y171.511 E-.53668
G1 X142.031 Y171.258 E-.37452
;WIPE_END
G1 X91.677 Y170.429 F4800
G1 E5 F2400
;WIDTH:0.417182
G1 F1440
G1 X90.985 Y170.319 E.02181
G1 X90.347 Y170.033 E.02176
G1 X89.804 Y169.593 E.02175
G1 X89.393 Y169.026 E.02179
G1 X89.143 Y168.373 E.02176
;WIDTH:0.4188
G1 X89.062 Y167.75 E.01964
G1 X89.071 Y167.677 E.0023
;WIDTH:0.417182
G1 X89.181 Y166.985 E.02181
G1 X89.467 Y166.347 E.02176
G1 X89.907 Y165.804 E.02175
G1 X90.474 Y165.393 E.02179
G1 X91.127 Y165.143 E.02176
G1 X91.823 Y165.071 E.02178
G1 X92.515 Y165.181 E.02181
G1 X93.153 Y165.467 E.02176
G1 X93.696 Y165.907 E.02175
G1 X94.107 Y166.474 E.02179
G1 X94.357 Y167.127 E.02176
G1 X94.429 Y167.823 E.02178
G1 X94.319 Y168.515 E.02181
G1 X94.033 Y169.153 E.02176
G1 X93.593 Y169.696 E.02175
G1 X93.026 Y170.107 E.02179
G1 X92.373 Y170.357 E.02176
G1 X91.737 Y170.423 E.0199
G1 X91.486 Y170.077 F4800
G1 X91.774 Y170.058
;WIDTH:0.417197
G1 F1440
G1 X91.176 Y169.986 E.01874
G1 X90.617 Y169.761 E.01875
G1 X90.135 Y169.399 E.01876
G1 X89.764 Y168.925 E.01873
G1 X89.527 Y168.371 E.01875
G1 X89.442 Y167.774 E.01877
G1 X89.514 Y167.176 E.01874
G1 X89.739 Y166.617 E.01875
G1 X90.101 Y166.135 E.01876
G1 X90.575 Y165.764 E.01873
G1 X91.129 Y165.527 E.01875
G1 X91.726 Y165.442 E.01877
G1 X92.324 Y165.514 E.01874
G1 X92.883 Y165.739 E.01875
G1 X93.365 Y166.101 E.01876
G1 X93.736 Y166.575 E.01873
G1 X93.973 Y167.129 E.01875
G1 X94.058 Y167.726 E.01877
G1 X93.986 Y168.324 E.01874
G1 X93.761 Y168.883 E.01875
G1 X93.399 Y169.365 E.01876
G1 X92.925 Y169.736 E.01873
G1 X92.371 Y169.973 E.01875
G1 X91.834 Y170.05 E.01688
G1 X91.578 Y170.407 F4800
G1 E-3.5 F3600
;WIPE_START
G1 F3840
G1 X91.176 Y169.986 E-.5888
G1 X90.617 Y169.761 E-.53668
G1 X90.281 Y169.508 E-.37452
;WIPE_END
G1 X65.677 Y147.929 F4800
G1 E5 F2400
;WIDTH:0.417182
G1 F1440
G1 X64.985 Y147.819 E.02181
G1 X64.347 Y147.533 E.02176
G1 X63.804 Y147.093 E.02175
G1 X63.393 Y146.526 E.02179
G1 X63.143 Y145.873 E.02176
;WIDTH:0.4188
G1 X63.062 Y145.25 E.01964
G1 X63.071 Y145.177 E.0023
;WIDTH:0.417182
G1 X63.181 Y144.485 E.02181
G1 X63.467 Y143.847 E.02176
G1 X63.907 Y143.304 E.02175
G1 X64.474 Y142.893 E.02179
G1 X65.127 Y142.643 E.02176
G1 X65.823 Y142.571 E.02178
G1 X66.515 Y142.681 E.02181
G1 X67.153 Y142.967 E.02176
G1 X67.696 Y143.407 E.02175
G1 X68.107 Y143.974 E.02179
G1 X68.357 Y144.627 E.02176
G1 X68.429 Y145.323 E.02178
G1 X68.319 Y146.015 E.02181
G1 X68.033 Y146.653 E.02176
G1 X67.593 Y147.196 E.02175
G1 X67.026 Y147.607 E.02179
G1 X66.373 Y147.857 E.02176
G1 X65.737 Y147.923 E.0199
G1 X65.486 Y147.577 F4800
G1 X65.774 Y147.558
;WIDTH:0.417197
G1 F1440
G1 X65.176 Y147.486 E.01874
G1 X64.617 Y147.261 E.01875
G1 X64.135 Y146.899 E.01876
G1 X63.764 Y146.425 E.01873
G1 X63.527 Y145.871 E.01875
G1 X63.442 Y145.274 E.01877
G1 X63.514 Y144.676 E.01874
G1 X63.739 Y144.117 E.01875
G1 X64.101 Y143.635 E.01876
G1 X64.575 Y143.264 E.01873
G1 X65.129 Y143.027 E.01875
G1 X65.726 Y142.942 E.01877
G1 X66.324 Y143.014 E.01874
G1 X66.883 Y143.239 E.01875
G1 X67.365 Y143.601 E.01876
G1 X67.736 Y144.075 E.01873
G1 X67.973 Y144.629 E.01875
G1 X68.058 Y145.226 E.01877
G1 X67.986 Y145.824 E.01874
G1 X67.761 Y146.383 E.01875
G1 X67.399 Y146.865 E.01876
G1 X66.925 Y147.236 E.01873
G1 X66.371 Y147.473 E.01875
G1 X65.834 Y147.55 E.01688
G1 X65.578 Y147.907 F4800
G1 E-3.5 F3600
;WIPE_START
G1 F3840
G1 X65.176 Y147.486 E-.5888
G1 X64.617 Y147.261 E-.53668
G1 X64.281 Y147.008 E-.37452
;WIPE_END
G1 X66.677 Y95.179 F4800
G1 E5 F2400
;WIDTH:0.417182
G1 F1440
G1 X65.985 Y95.069 E.02181
G1 X65.347 Y94.783 E.02176
G1 X64.804 Y94.343 E.02175
G1 X64.393 Y93.776 E.02179
G1 X64.143 Y93.123 E.02176
;WIDTH:0.4188
G1 X64.062 Y92.5 E.01964
G1 X64.071 Y92.427 E.0023
;WIDTH:0.417182
G1 X64.181 Y91.735 E.02181
G1 X64.467 Y91.097 E.02176
G1 X64.907 Y90.554 E.02175
G1 X65.474 Y90.143 E.02179
G1 X66.127 Y89.893 E.02176
G1 X66.823 Y89.821 E.02178
G1 X67.515 Y89.931 E.02181
G1 X68.153 Y90.217 E.02176
G1 X68.696 Y90.657 E.02175
G1 X69.107 Y91.224 E.02179
G1 X69.357 Y91.877 E.02176
G1 X69.429 Y92.573 E.02178
G1 X69.319 Y93.265 E.02181
G1 X69.033 Y93.903 E.02176
G1 X68.593 Y94.446 E.02175
G1 X68.026 Y94.857 E.02179
G1 X67.373 Y95.107 E.02176
G1 X66.737 Y95.173 E.0199
G1 X66.486 Y94.827 F4800
G1 X66.774 Y94.808
;WIDTH:0.417197
G1 F1440
G1 X66.176 Y94.736 E.01874
G1 X65.617 Y94.511 E.01875
G1 X65.135 Y94.149 E.01876
G1 X64.764 Y93.675 E.01873
G1 X64.527 Y93.121 E.01875
G1 X64.442 Y92.524 E.01877
G1 X64.514 Y91.926 E.01874
G1 X64.739 Y91.367 E.01875
G1 X65.101 Y90.885 E.01876
G1 X65.575 Y90.514 E.01873
G1 X66.129 Y90.277 E.01875
G1 X66.726 Y90.192 E.01877
G1 X67.324 Y90.264 E.01874
G1 X67.883 Y90.489 E.01875
G1 X68.365 Y90.851 E.01876
G1 X68.736 Y91.325 E.01873
G1 X68.973 Y91.879 E.01875
G1 X69.058 Y92.476 E.01877
G1 X68.986 Y93.074 E.01874
G1 X68.761 Y93.633 E.01875
G1 X68.399 Y94.115 E.01876
G1 X67.925 Y94.486 E.01873
G1 X67.371 Y94.723 E.01875
G1 X66.834 Y94.8 E.01688
G1 X66.578 Y95.157 F4800
G1 E-3.5 F3600
;WIPE_START
G1 F3840
G1 X66.176 Y94.736 E-.5888
G1 X65.617 Y94.511 E-.53668
G1 X65.281 Y94.258 E-.37452
;WIPE_END
G1 X89.177 Y69.179 F4800
G1 E5 F2400
;WIDTH:0.417182
G1 F1440
G1 X88.485 Y69.069 E.02181
G1 X87.847 Y68.783 E.02176
G1 X87.304 Y68.343 E.02175
G1 X86.893 Y67.776 E.02179
G1 X86.643 Y67.123 E.02176
;WIDTH:0.4188
G1 X86.562 Y66.5 E.01964
G1 X86.571 Y66.427 E.0023
;WIDTH:0.417182
G1 X86.681 Y65.735 E.02181
G1 X86.967 Y65.097 E.02176
G1 X87.407 Y64.554 E.02175
G1 X87.974 Y64.143 E.02179
G1 X88.627 Y63.893 E.02176
G1 X89.323 Y63.821 E.02178
G1 X90.015 Y63.931 E.02181
G1 X90.653 Y64.217 E.02176
G1 X91.196 Y64.657 E.02175
G1 X91.607 Y65.224 E.02179
G1 X91.857 Y65.877 E.02176
G1 X91.929 Y66.573 E.02178
G1 X91.819 Y67.265 E.02181
G1 X91.533 Y67.903 E.02176
G1 X91.093 Y68.446 E.02175
G1 X90.526 Y68.857 E.02179
G1 X89.873 Y69.107 E.02176
G1 X89.237 Y69.173 E.0199
G1 X88.986 Y68.827 F4800
G1 X89.274 Y68.808
;WIDTH:0.417197
G1 F1440
G1 X88.676 Y68.736 E.01874
G1 X88.117 Y68.511 E.01875
G1 X87.635 Y68.149 E.01876
G1 X87.264 Y67.675 E.01873
G1 X87.027 Y67.121 E.01875
