; generated by PrusaSlicer 2.7.4+win64 on 2024-04-09 at 15:47:08 UTC

; 

; external perimeters extrusion width = 0.42mm
; perimeters extrusion width = 0.44mm
; infill extrusion width = 0.44mm
; solid infill extrusion width = 0.44mm
; top infill extrusion width = 0.40mm
; first layer extrusion width = 0.42mm


; printing object Shape-Box id:0 copy 0
; stop printing object Shape-Box id:0 copy 0

;TYPE:Custom
; Ender 3 Custom Start G-code
G92 E0 ; Reset Extruder

M140 S55 ; set bed temp
M104 S160 ; set extruder temp
M109 S160 ; wait for extruder temp
M190 S55 ; wait for bed temp

G28 ; Home all axes
M104 S210 ; set extruder temp 
BED_MESH_CALIBRATE AREA_START=83.7684,88.5669 AREA_END=143.763,126.207

G1 Z2.0 F3000 ; Move Z Axis up little to prevent scratching of Heat Bed
M109 S210 ; wait for extruder temp
G1 X0.1 Y20 Z0.3 F5000.0 ; Move to start position

G1 X0.1 Y200.0 Z0.3 F1500.0 E15 ; Draw the first line
G1 X0.4 Y200.0 Z0.3 F5000.0 ; Move to side a little
G1 X0.4 Y20 Z0.3 F1500.0 E30 ; Draw the second line
G92 E0 ; Reset Extruder
G1 Z2.0 F3000 ; Move Z Axis up little to prevent scratching of Heat Bed
G1 X5 Y20 Z0.3 F5000.0 ; Move over to prevent blob squish
G21 ; set units to millimeters
G90 ; use absolute coordinates
M83 ; use relative distances for extrusion
; Filament gcode
M107
;LAYER_CHANGE
;Z:0.2
;HEIGHT:0.2
G1 E-1.6 F2400
G1 Z.2 F6000
G1 X87.857 Y91.701
G1 Z.2
G1 E1.6 F2400
M204 S500
;TYPE:Skirt/Brim
;WIDTH:0.42
G1 F1200
G1 X88.725 Y90.996 E.03506
G1 X89.656 Y90.382 E.03497
G1 X91.322 Y89.564 E.05819
G1 X93.099 Y89.026 E.05821
G1 X94.721 Y88.79 E.05139
G1 X132.884 Y88.805 E1.19657
G1 X133.843 Y88.938 E.03036
G1 X135.87 Y89.494 E.0659
G1 X137.7 Y90.365 E.06355
G1 X139.14 Y91.376 E.05517
G1 X140.583 Y92.775 E.06302
G1 X141.374 Y93.79 E.04035
G1 X141.835 Y94.519 E.02704
G1 X142.681 Y96.304 E.06194
G1 X143.24 Y98.341 E.06623
G1 X143.425 Y100.341 E.06298
G1 X143.575 Y114.341 E.43899
G1 X143.503 Y115.668 E.04167
G1 X143.296 Y116.888 E.0388
G1 X142.676 Y118.864 E.06493
G1 X141.69 Y120.733 E.06626
G1 X140.467 Y122.296 E.06223
G1 X139.688 Y123.064 E.0343
G1 X138.815 Y123.771 E.03522
G1 X137.173 Y124.778 E.06039
G1 X136.08 Y125.257 E.03742
G1 X134.281 Y125.783 E.05877
G1 X132.523 Y126.003 E.05555
G1 X95.078 Y126.009 E1.17406
G1 X93.39 Y125.81 E.05329
G1 X92.295 Y125.542 E.03535
G1 X91.185 Y125.153 E.03688
G1 X89.854 Y124.506 E.0464
G1 X88.8 Y123.835 E.03918
G1 X87.851 Y123.075 E.03812
G1 X86.76 Y121.96 E.04891
G1 X86.154 Y121.19 E.03072
G1 X85.328 Y119.862 E.04904
G1 X84.772 Y118.665 E.04138
G1 X84.319 Y117.276 E.04581
G1 X84.013 Y115.506 E.05632
G1 X83.957 Y114.505 E.03143
G1 X83.987 Y99.578 E.46803
G1 X84.339 Y97.433 E.06815
G1 X84.956 Y95.673 E.05848
G1 X85.359 Y94.854 E.02862
G1 X86.242 Y93.468 E.05153
G1 X86.875 Y92.684 E.03159
G1 X87.814 Y91.744 E.04166
G1 X87.814 Y91.744 F6000
G1 X88.08 Y92.01
G1 F1200
G1 X88.109 Y91.982 E.00126
G1 X88.937 Y91.308 E.03348
G1 X89.836 Y90.714 E.03378
G1 X91.455 Y89.917 E.05658
G1 X92.992 Y89.437 E.05049
G1 X94.74 Y89.166 E.05546
G1 X131.692 Y89.133 E1.1586
G1 X133.767 Y89.308 E.06529
G1 X135.748 Y89.851 E.0644
G1 X137.509 Y90.69 E.06116
G1 X138.893 Y91.661 E.05301
G1 X140.304 Y93.029 E.06162
G1 X141.07 Y94.013 E.0391
G1 X141.565 Y94.802 E.0292
G1 X142.414 Y96.673 E.06442
G1 X142.882 Y98.473 E.05831
G1 X143.048 Y100.345 E.05893
G1 X143.198 Y114.345 E.43899
G1 X143.13 Y115.614 E.03985
G1 X142.924 Y116.824 E.03848
G1 X142.331 Y118.712 E.06205
G1 X141.369 Y120.534 E.0646
G1 X140.198 Y122.031 E.05959
G1 X139.594 Y122.642 E.02694
G1 X138.603 Y123.459 E.04027
G1 X136.981 Y124.453 E.05965
G1 X135.395 Y125.098 E.05368
G1 X134.218 Y125.411 E.03819
G1 X132.355 Y125.634 E.05883
G1 X95.105 Y125.633 E1.16795
G1 X93.449 Y125.437 E.05229
G1 X92.304 Y125.154 E.03698
G1 X91.337 Y124.807 E.03221
G1 X90.03 Y124.173 E.04555
G1 X89.019 Y123.528 E.0376
G1 X88.102 Y122.794 E.03683
G1 X87.039 Y121.706 E.04769
G1 X86.452 Y120.958 E.02981
G1 X85.657 Y119.676 E.0473
G1 X85.128 Y118.539 E.03932
G1 X84.684 Y117.182 E.04477
G1 X84.387 Y115.46 E.05479
G1 X84.334 Y114.505 E.02999
G1 X84.363 Y99.603 E.46724
G1 X84.7 Y97.541 E.06551
G1 X85.307 Y95.811 E.05748
G1 X85.705 Y95.004 E.02821
G1 X86.553 Y93.681 E.04927
G1 X87.156 Y92.934 E.0301
G1 X88.038 Y92.052 E.03911
G1 X88.038 Y92.052 F6000
G1 X88.304 Y92.318
G1 F1200
G1 X88.361 Y92.262 E.00251
G1 X89.149 Y91.62 E.03187
G1 X90.029 Y91.037 E.0331
G1 X91.588 Y90.27 E.05448
G1 X93.208 Y89.774 E.05312
G1 X94.758 Y89.543 E.04914
G1 X131.692 Y89.51 E1.15804
G1 X133.69 Y89.677 E.06286
G1 X135.628 Y90.208 E.063
G1 X137.318 Y91.015 E.05872
G1 X138.647 Y91.947 E.0509
G1 X140.013 Y93.269 E.0596
G1 X140.766 Y94.236 E.03843
G1 X141.237 Y94.988 E.02782
G1 X142.054 Y96.785 E.06189
G1 X142.512 Y98.545 E.05702
G1 X142.671 Y100.349 E.05678
G1 X142.821 Y114.349 E.43899
G1 X142.744 Y115.641 E.04058
G1 X142.521 Y116.917 E.04061
G1 X142.276 Y117.78 E.02813
G1 X141.409 Y119.75 E.06749
G1 X140.675 Y120.874 E.04209
G1 X140.018 Y121.672 E.03241
G1 X139.333 Y122.37 E.03066
G1 X138.39 Y123.147 E.03831
G1 X136.804 Y124.12 E.05834
G1 X135.27 Y124.742 E.0519
G1 X134.141 Y125.042 E.03663
G1 X132.345 Y125.257 E.05671
G1 X95.131 Y125.257 E1.16682
G1 X93.508 Y125.065 E.05124
G1 X92.409 Y124.792 E.03551
G1 X91.488 Y124.462 E.03068
G1 X90.206 Y123.839 E.04469
G1 X89.238 Y123.221 E.03601
G1 X88.306 Y122.47 E.03753
G1 X87.318 Y121.453 E.04446
G1 X86.76 Y120.741 E.02836
G1 X85.985 Y119.491 E.04611
G1 X85.483 Y118.413 E.03729
G1 X85.05 Y117.087 E.04374
G1 X84.761 Y115.415 E.0532
G1 X84.739 Y99.629 E.49496
G1 X85.061 Y97.651 E.06284
G1 X85.658 Y95.948 E.05658
G1 X86.04 Y95.178 E.02695
G1 X86.862 Y93.897 E.04772
G1 X87.438 Y93.185 E.02871
G1 X88.262 Y92.361 E.03654
G1 E-1.12 F2400
;WIPE_START
G1 F4800
G1 X88.304 Y92.318 E-.02855
G1 X88.361 Y92.262 E-.03796
G1 X89.036 Y91.712 E-.41349
;WIPE_END
; printing object Shape-Box id:0 copy 0
G1 X117.921 Y112.797 F6000
G1 E1.6 F2400
;TYPE:Perimeter
G1 F1200
G1 X117.947 Y112.865 E.00228
G1 X117.941 Y112.989 E.00389
G1 X117.9 Y113.046 E.0022
G1 X117.834 Y113.089 E.00247
G1 X117.726 Y113.107 E.00343
G1 X117.625 Y113.09 E.00321
G1 X117.557 Y113.044 E.00257
G1 X117.512 Y112.98 E.00245
G1 X117.498 Y112.896 E.00267
G1 X117.51 Y112.823 E.00232
G1 X117.549 Y112.768 E.00211
G1 X117.607 Y112.73 E.00217
G1 X117.784 Y112.718 E.00556
G1 X117.871 Y112.747 E.00288
G1 X117.878 Y112.755 E.00033
G1 X117.878 Y112.755 F6000
G1 X118.237 Y112.587
;TYPE:External perimeter
G1 F1200
G1 X118.32 Y112.798 E.00711
G1 X118.32 Y113.041 E.00762
G1 X118.238 Y113.231 E.00649
G1 X118.071 Y113.392 E.00727
G1 X117.857 Y113.474 E.00719
G1 X117.596 Y113.474 E.00818
G1 X117.384 Y113.389 E.00716
G1 X117.215 Y113.223 E.00743
G1 X117.13 Y113.019 E.00693
G1 X117.13 Y112.78 E.00749
G1 X117.211 Y112.584 E.00665
G1 X117.372 Y112.426 E.00707
G1 X117.585 Y112.345 E.00715
G1 X117.846 Y112.345 E.00818
G1 X117.976 Y112.378 E.00421
G1 X118.076 Y112.428 E.00351
G1 X118.194 Y112.545 E.00521
G1 E-1.12 F2400
;WIPE_START
G1 F4800
G1 X118.237 Y112.587 E-.02855
G1 X118.32 Y112.798 E-.1077
G1 X118.32 Y113.041 E-.11542
G1 X118.238 Y113.231 E-.0983
G1 X118.071 Y113.392 E-.11019
G1 X118.032 Y113.407 E-.01984
;WIPE_END
G1 X118.077 Y110.355 F6000
G1 E1.6 F2400
;TYPE:Perimeter
G1 F1200
G1 X118.086 Y110.364 E.0004
G1 X118.134 Y110.496 E.0044
G1 X118.15 Y110.626 E.00411
G1 X118.12 Y110.794 E.00535
G1 X118.038 Y110.918 E.00466
G1 X117.914 Y111.001 E.00468
G1 X117.735 Y111.032 E.0057
G1 X117.545 Y111 E.00604
G1 X117.41 Y110.91 E.00509
G1 X117.321 Y110.78 E.00494
G1 X117.289 Y110.595 E.00589
G1 X117.319 Y110.416 E.00569
G1 X117.401 Y110.294 E.00461
G1 X117.527 Y110.212 E.00471
G1 X117.592 Y110.194 E.00211
G1 X117.829 Y110.192 E.00743
G1 X117.985 Y110.256 E.00529
G1 X118.036 Y110.311 E.00235
G1 X118.036 Y110.311 F6000
G1 X118.379 Y110.12
;TYPE:External perimeter
G1 F1200
G1 X118.427 Y110.199 E.0029
G1 X118.504 Y110.407 E.00695
G1 X118.529 Y110.62 E.00672
G1 X118.515 Y110.785 E.00519
G1 X118.473 Y110.933 E.00482
G1 X118.404 Y111.066 E.0047
G1 X118.307 Y111.185 E.00481
G1 X118.187 Y111.284 E.00488
G1 X118.054 Y111.353 E.0047
G1 X117.905 Y111.396 E.00486
G1 X117.735 Y111.411 E.00535
G1 X117.56 Y111.396 E.00551
G1 X117.406 Y111.352 E.00502
G1 X117.269 Y111.281 E.00484
G1 X117.145 Y111.18 E.00501
G1 X117.042 Y111.058 E.00501
G1 X116.969 Y110.922 E.00484
G1 X116.926 Y110.77 E.00495
G1 X116.91 Y110.596 E.00548
G1 X116.925 Y110.425 E.00538
G1 X116.967 Y110.275 E.00488
G1 X117.037 Y110.143 E.00468
G1 X117.135 Y110.025 E.00481
G1 X117.255 Y109.927 E.00486
G1 X117.389 Y109.859 E.00471
G1 X117.535 Y109.818 E.00475
G1 X117.829 Y109.809 E.00922
G1 X117.932 Y109.827 E.00328
G1 X118.148 Y109.912 E.00728
G1 X118.226 Y109.963 E.00292
G1 X118.337 Y110.077 E.00499
G1 X118.337 Y110.077 F6000
G1 X118.007 Y110.743
;TYPE:Solid infill
;WIDTH:0.495415
G1 F1200
G1 X117.585 Y110.321 E.02245
G1 E-1.12 F2400
;WIPE_START
G1 F4800
G1 X118.007 Y110.743 E-.28348
;WIPE_END
G1 E-.19652 F2400
G1 X131.819 Y102.839 F6000
G1 E1.6 F2400
;TYPE:Perimeter
;WIDTH:0.42
G1 F1200
G1 X131.759 Y102.805 E.00216
G1 X131.664 Y102.676 E.00502
G1 X131.61 Y102.442 E.00753
G1 X131.611 Y102.269 E.00542
G1 X131.632 Y102.12 E.00472
G1 X131.714 Y101.929 E.00652
G1 X131.774 Y101.862 E.00282
G1 X131.882 Y101.794 E.004
G1 X132.026 Y101.784 E.00453
G1 X132.158 Y101.839 E.00448
G1 X132.261 Y101.929 E.00429
G1 X132.318 Y102.021 E.00339
G1 X132.386 Y102.223 E.00668
G1 X132.399 Y102.467 E.00766
G1 X132.349 Y102.664 E.00637
G1 X132.243 Y102.798 E.00536
G1 X132.115 Y102.87 E.0046
G1 X131.947 Y102.884 E.00529
G1 X131.873 Y102.87 E.00236
G1 X131.871 Y102.869 E.00007
G1 X131.871 Y102.869 F6000
G1 X131.894 Y101.405
;TYPE:External perimeter
G1 F1200
G1 X132.069 Y101.408 E.00549
G1 X132.164 Y101.428 E.00304
G1 X132.364 Y101.519 E.00689
G1 X132.539 Y101.671 E.00727
G1 X132.606 Y101.761 E.00352
G1 X132.665 Y101.869 E.00386
G1 X132.753 Y102.132 E.0087
G1 X132.776 Y102.495 E.0114
G1 X132.747 Y102.676 E.00575
G1 X132.689 Y102.832 E.00522
G1 X132.603 Y102.968 E.00505
G1 X132.489 Y103.086 E.00514
G1 X132.363 Y103.174 E.00482
G1 X132.226 Y103.232 E.00466
G1 X132.075 Y103.262 E.00483
G1 X131.911 Y103.262 E.00514
G1 X131.761 Y103.232 E.0048
G1 X131.628 Y103.175 E.00454
G1 X131.508 Y103.088 E.00465
G1 X131.401 Y102.972 E.00495
G1 X131.319 Y102.833 E.00506
G1 X131.263 Y102.667 E.00549
G1 X131.233 Y102.469 E.00628
G1 X131.233 Y102.242 E.00712
G1 X131.264 Y102.033 E.00662
G1 X131.322 Y101.857 E.00581
G1 X131.406 Y101.709 E.00534
G1 X131.515 Y101.585 E.00518
G1 X131.635 Y101.493 E.00474
G1 X131.76 Y101.434 E.00433
G1 X131.836 Y101.418 E.00244
G1 X131.836 Y101.418 F6000
G1 X132.272 Y102.357
;TYPE:Solid infill
;WIDTH:0.426751
G1 F1200
G1 X131.863 Y101.948 E.01846
G1 E-1.12 F2400
;WIPE_START
G1 F4800
G1 X132.272 Y102.357 E-.27475
;WIPE_END
G1 E-.20525 F2400
G1 X127.868 Y101.79 F6000
G1 E1.6 F2400
;TYPE:Perimeter
;WIDTH:0.42
G1 F1200
G1 X127.962 Y101.784 E.00295
G1 X128.094 Y101.839 E.00448
G1 X128.197 Y101.929 E.00429
G1 X128.254 Y102.021 E.00339
G1 X128.322 Y102.223 E.00668
G1 X128.335 Y102.467 E.00766
G1 X128.285 Y102.664 E.00637
G1 X128.179 Y102.798 E.00536
G1 X128.051 Y102.87 E.0046
G1 X127.883 Y102.884 E.00529
G1 X127.809 Y102.87 E.00236
G1 X127.695 Y102.805 E.00411
G1 X127.6 Y102.676 E.00502
G1 X127.547 Y102.442 E.00752
G1 X127.547 Y102.269 E.00542
G1 X127.568 Y102.12 E.00472
G1 X127.65 Y101.929 E.00652
G1 X127.71 Y101.862 E.00282
G1 X127.81 Y101.799 E.00371
G1 X127.81 Y101.799 F6000
G1 X127.83 Y101.405
;TYPE:External perimeter
G1 F1200
G1 X128.005 Y101.408 E.00549
G1 X128.1 Y101.428 E.00304
G1 X128.3 Y101.519 E.00689
G1 X128.476 Y101.671 E.00729
G1 X128.542 Y101.761 E.0035
G1 X128.601 Y101.869 E.00386
G1 X128.689 Y102.132 E.0087
G1 X128.713 Y102.495 E.01141
G1 X128.683 Y102.676 E.00575
G1 X128.625 Y102.832 E.00522
G1 X128.539 Y102.968 E.00505
G1 X128.425 Y103.086 E.00514
G1 X128.299 Y103.174 E.00482
G1 X128.162 Y103.232 E.00466
G1 X128.011 Y103.262 E.00483
G1 X127.847 Y103.262 E.00514
G1 X127.697 Y103.232 E.0048
G1 X127.564 Y103.175 E.00454
G1 X127.444 Y103.088 E.00465
G1 X127.337 Y102.972 E.00495
G1 X127.255 Y102.833 E.00506
G1 X127.199 Y102.667 E.00549
G1 X127.169 Y102.469 E.00628
G1 X127.169 Y102.242 E.00712
G1 X127.2 Y102.033 E.00662
G1 X127.258 Y101.857 E.00581
G1 X127.342 Y101.709 E.00534
G1 X127.451 Y101.585 E.00518
G1 X127.571 Y101.493 E.00474
G1 X127.696 Y101.434 E.00433
G1 X127.772 Y101.418 E.00244
G1 X127.772 Y101.418 F6000
G1 X128.208 Y102.357
;TYPE:Solid infill
;WIDTH:0.42675
G1 F1200
G1 X127.799 Y101.948 E.01846
G1 E-1.12 F2400
;WIPE_START
G1 F4800
G1 X128.208 Y102.357 E-.27475
;WIPE_END
G1 E-.20525 F2400
G1 X123.92 Y104.6 F6000
G1 E1.6 F2400
;TYPE:Perimeter
;WIDTH:0.42
G1 F1200
G1 X123.846 Y104.57 E.0025
G1 X123.768 Y104.488 E.00355
G1 X123.72 Y104.391 E.00339
G1 X123.656 Y104.138 E.00818
G1 X123.6 Y103.513 E.01967
G1 X123.6 Y102.976 E.01684
G1 X123.66 Y102.332 E.02028
G1 X123.72 Y102.094 E.0077
G1 X123.776 Y101.981 E.00395
G1 X123.864 Y101.893 E.0039
G1 X123.975 Y101.906 E.0035
G1 X124.047 Y101.979 E.00321
G1 X124.101 Y102.088 E.00381
G1 X124.162 Y102.335 E.00798
G1 X124.207 Y102.72 E.01215
G1 X124.219 Y103.508 E.02471
G1 X124.153 Y104.168 E.0208
G1 X124.126 Y104.288 E.00386
G1 X124.051 Y104.494 E.00687
G1 X123.996 Y104.572 E.00299
G1 X123.976 Y104.579 E.00066
G1 X123.976 Y104.579 F6000
G1 X123.918 Y104.98
;TYPE:External perimeter
G1 F1200
G1 X123.795 Y104.965 E.00389
G1 X123.62 Y104.88 E.0061
G1 X123.456 Y104.706 E.0075
G1 X123.364 Y104.522 E.00645
G1 X123.286 Y104.212 E.01002
G1 X123.257 Y104.017 E.00618
G1 X123.223 Y103.526 E.01543
G1 X123.223 Y102.959 E.01778
G1 X123.287 Y102.268 E.02176
G1 X123.364 Y101.963 E.00986
G1 X123.459 Y101.772 E.00669
G1 X123.565 Y101.646 E.00516
G1 X123.675 Y101.563 E.00432
G1 X123.78 Y101.52 E.00356
G1 X123.973 Y101.508 E.00606
G1 X124.152 Y101.567 E.00591
G1 X124.258 Y101.646 E.00415
G1 X124.364 Y101.769 E.00509
G1 X124.457 Y101.959 E.00663
G1 X124.534 Y102.268 E.00998
G1 X124.584 Y102.696 E.01351
G1 X124.596 Y103.524 E.02596
G1 X124.526 Y104.228 E.02218
G1 X124.488 Y104.395 E.00537
G1 X124.39 Y104.665 E.00901
G1 X124.292 Y104.813 E.00557
G1 X124.205 Y104.891 E.00366
G1 X124.039 Y104.966 E.00571
G1 X123.978 Y104.973 E.00193
G1 X123.978 Y104.973 F6000
G1 X123.92 Y104.288
;TYPE:Gap fill
;WIDTH:0.173813
G1 F1200
G1 X123.905 Y104.089 E.00217
;WIDTH:0.249899
G1 X123.913 Y102.56 E.02631
;WIDTH:0.175231
G1 X123.896 Y102.186 E.00412
G1 E-1.12 F2400
;WIPE_START
G1 F4800
G1 X123.913 Y102.56 E-.17783
G1 X123.91 Y103.196 E-.30217
;WIPE_END
G1 X117.796 Y101.906 F6000
G1 E1.6 F2400
;TYPE:Perimeter
;WIDTH:0.42
G1 F1200
G1 X117.867 Y101.979 E.00319
G1 X117.921 Y102.088 E.00381
G1 X117.982 Y102.335 E.00798
G1 X118.027 Y102.72 E.01215
G1 X118.039 Y103.508 E.02471
G1 X117.973 Y104.168 E.0208
G1 X117.946 Y104.288 E.00386
G1 X117.871 Y104.494 E.00687
G1 X117.816 Y104.572 E.00299
G1 X117.74 Y104.6 E.00254
G1 X117.667 Y104.57 E.00247
G1 X117.588 Y104.488 E.00357
G1 X117.54 Y104.391 E.00339
G1 X117.476 Y104.138 E.00818
G1 X117.42 Y103.513 E.01967
G1 X117.42 Y102.976 E.01684
G1 X117.48 Y102.332 E.02028
G1 X117.54 Y102.094 E.0077
G1 X117.596 Y101.981 E.00395
G1 X117.685 Y101.893 E.00392
G1 X117.736 Y101.899 E.00161
G1 X117.736 Y101.899 F6000
G1 X117.973 Y101.567
;TYPE:External perimeter
G1 F1200
G1 X118.078 Y101.646 E.00412
G1 X118.185 Y101.769 E.00511
G1 X118.277 Y101.959 E.00662
G1 X118.354 Y102.268 E.00998
G1 X118.404 Y102.696 E.01351
G1 X118.416 Y103.524 E.02596
G1 X118.346 Y104.228 E.02218
G1 X118.309 Y104.395 E.00536
G1 X118.21 Y104.665 E.00902
G1 X118.112 Y104.813 E.00557
G1 X118.025 Y104.891 E.00366
G1 X117.859 Y104.966 E.00571
G1 X117.738 Y104.98 E.00382
G1 X117.616 Y104.965 E.00385
G1 X117.44 Y104.88 E.00613
G1 X117.276 Y104.706 E.0075
G1 X117.184 Y104.522 E.00645
G1 X117.106 Y104.212 E.01002
G1 X117.078 Y104.017 E.00618
G1 X117.043 Y103.526 E.01543
G1 X117.043 Y102.959 E.01778
G1 X117.107 Y102.268 E.02176
G1 X117.184 Y101.963 E.00986
G1 X117.279 Y101.772 E.00669
G1 X117.386 Y101.646 E.00518
G1 X117.496 Y101.563 E.00432
G1 X117.6 Y101.52 E.00353
