; generated by PrusaSlicer 2.6.0-alpha4+MacOS-x64 on 2023-03-13 at 13:30:32 UTC

; 

; external perimeters extrusion width = 0.42mm
; perimeters extrusion width = 0.44mm
; infill extrusion width = 0.44mm
; solid infill extrusion width = 0.44mm
; top infill extrusion width = 0.40mm
; first layer extrusion width = 0.42mm

M201 X500 Y500 Z100 E5000 ; sets maximum accelerations, mm/sec^2
M203 X500 Y500 Z10 E60 ; sets maximum feedrates, mm / sec
M204 P500 R1000 T500 ; sets acceleration (P, T) and retract acceleration (R), mm/sec^2
M205 X8.00 Y8.00 Z0.40 E5.00 ; sets the jerk limits, mm/sec
M205 S0 T0 ; sets the minimum extruding and travel feed rate, mm/sec
M107
;TYPE:Custom
; Ender 3 Custom Start G-code
G92 E0 ; Reset Extruder

M140 S70 ; set bed temp
M190 S70 ; wait for bed temp

G28 ; Home all axes
M104 S240 ; set extruder temp 
BED_MESH_CALIBRATE AREA_START=84.8355,102.56 AREA_END=133.562,128.44

G1 Z2.0 F3000 ; Move Z Axis up little to prevent scratching of Heat Bed
M109 S240 ; wait for extruder temp
G1 X0.1 Y20 Z0.3 F5000.0 ; Move to start position

G1 X0.1 Y200.0 Z0.3 F1500.0 E15 ; Draw the first line
G1 X0.4 Y200.0 Z0.3 F5000.0 ; Move to side a little
G1 X0.4 Y20 Z0.3 F1500.0 E30 ; Draw the second line
G92 E0 ; Reset Extruder
G1 Z2.0 F3000 ; Move Z Axis up little to prevent scratching of Heat Bed
G1 X5 Y20 Z0.3 F5000.0 ; Move over to prevent blob squish
G21 ; set units to millimeters
G90 ; use absolute coordinates
M83 ; use relative distances for extrusion
; Filament gcode
M107
;LAYER_CHANGE
;Z:0.2
;HEIGHT:0.2
;BEFORE_LAYER_CHANGE
G92 E0
;0.2


G1 E-5 F3600
G1 Z.2 F9000
;AFTER_LAYER_CHANGE
;0.2
G1 X87.558 Y105.448
G1 E5 F2400
M204 S500
;TYPE:Skirt/Brim
;WIDTH:0.42
G1 F1200
G1 X88.283 Y104.988 E.02692
G1 X89.087 Y104.625 E.02766
G1 X89.903 Y104.385 E.02667
G1 X90.679 Y104.263 E.02463
G1 X115.611 Y102.749 E.78317
G1 X118.054 Y102.909 E.07676
G1 X120.673 Y103.429 E.08372
G1 X123.107 Y104.258 E.08062
G1 X125.471 Y105.433 E.08277
G1 X127.606 Y106.873 E.08074
G1 X129.573 Y108.619 E.08247
G1 X131.316 Y110.648 E.08387
G1 X132.684 Y112.753 E.07871
G1 X133.209 Y114.133 E.04629
G1 X133.373 Y115.425 E.04083
G1 X133.23 Y116.781 E.04275
G1 X132.804 Y118.009 E.04075
G1 X131.679 Y119.85 E.06765
G1 X130.402 Y121.484 E.06502
G1 X128.84 Y123.087 E.07018
G1 X127.162 Y124.461 E.068
G1 X125.915 Y125.3 E.04712
G1 X124.452 Y126.122 E.05262
G1 X123.052 Y126.765 E.0483
G1 X121.592 Y127.3 E.04875
G1 X120.094 Y127.718 E.04876
G1 X118.576 Y128.017 E.04851
G1 X116.938 Y128.202 E.05168
G1 X115.412 Y128.251 E.04787
G1 X90.349 Y126.698 E.78734
G1 X89.087 Y126.375 E.04084
G1 X87.9 Y125.786 E.04155
G1 X87.08 Y125.162 E.03231
G1 X86.216 Y124.197 E.04061
G1 X85.801 Y123.538 E.02442
G1 X85.435 Y122.736 E.02764
G1 X85.167 Y121.817 E.03001
G1 X85.048 Y121.002 E.02582
G1 X85.048 Y109.998 E.34502
G1 X85.304 Y108.651 E.04299
G1 X85.791 Y107.48 E.03976
G1 X86.538 Y106.394 E.04133
G1 X87.514 Y105.489 E.04173
G1 X87.769 Y105.764 F9000
G1 F1200
G1 X88.465 Y105.318 E.02592
G1 X89.22 Y104.978 E.02596
G1 X90.714 Y104.638 E.04804
G1 X115.609 Y103.126 E.782
G1 X118.004 Y103.282 E.07525
G1 X120.573 Y103.792 E.08212
G1 X122.964 Y104.606 E.07919
G1 X125.278 Y105.757 E.08103
G1 X127.377 Y107.172 E.07937
G1 X129.306 Y108.886 E.08091
G1 X131.015 Y110.875 E.08222
G1 X132.352 Y112.932 E.07692
G1 X132.843 Y114.22 E.04322
G1 X132.996 Y115.428 E.03818
G1 X132.862 Y116.695 E.03995
G1 X132.462 Y117.85 E.03832
G1 X131.368 Y119.636 E.06567
G1 X129.979 Y121.394 E.07025
G1 X128.473 Y122.911 E.06702
G1 X126.812 Y124.248 E.06686
G1 X125.609 Y125.046 E.04526
G1 X124.283 Y125.785 E.0476
G1 X122.907 Y126.417 E.04748
G1 X121.478 Y126.941 E.04772
G1 X120.006 Y127.352 E.04792
G1 X118.52 Y127.644 E.04748
G1 X116.91 Y127.826 E.0508
G1 X115.416 Y127.874 E.04687
G1 X90.408 Y126.325 E.78561
G1 X89.22 Y126.022 E.03844
G1 X88.105 Y125.47 E.03901
G1 X87.33 Y124.88 E.03054
G1 X86.519 Y123.973 E.03815
G1 X86.134 Y123.361 E.02267
G1 X85.789 Y122.608 E.02597
G1 X85.535 Y121.737 E.02845
G1 X85.423 Y120.967 E.0244
G1 X85.423 Y110.033 E.34283
G1 X85.666 Y108.757 E.04073
G1 X86.125 Y107.656 E.0374
G1 X86.827 Y106.637 E.0388
G1 X87.725 Y105.804 E.0384
G1 X87.979 Y106.08 F9000
G1 F1200
G1 X88.648 Y105.648 E.02497
G1 X89.354 Y105.33 E.02428
G1 X90.748 Y105.014 E.04482
G1 X115.607 Y103.503 E.78087
G1 X117.953 Y103.656 E.07371
G1 X120.473 Y104.156 E.08055
G1 X122.821 Y104.955 E.07777
G1 X125.086 Y106.081 E.07931
G1 X127.148 Y107.472 E.07799
G1 X129.039 Y109.152 E.07931
G1 X130.714 Y111.102 E.0806
G1 X132.02 Y113.11 E.0751
G1 X132.476 Y114.307 E.04016
G1 X132.619 Y115.515 E.03814
G1 X132.482 Y116.665 E.03631
G1 X132.004 Y117.919 E.04208
G1 X130.867 Y119.689 E.06596
G1 X129.595 Y121.257 E.06331
G1 X128.182 Y122.666 E.06257
G1 X126.456 Y124.039 E.06915
G1 X125.172 Y124.868 E.04792
G1 X123.875 Y125.567 E.0462
G1 X122.524 Y126.165 E.04632
G1 X121.178 Y126.64 E.04475
G1 X119.739 Y127.027 E.04672
G1 X118.308 Y127.294 E.04564
G1 X116.881 Y127.45 E.04501
G1 X115.421 Y127.497 E.0458
G1 X90.467 Y125.953 E.78391
G1 X89.354 Y125.67 E.03601
G1 X88.311 Y125.154 E.03649
G1 X87.581 Y124.598 E.02877
G1 X86.823 Y123.749 E.03569
G1 X86.144 Y122.479 E.04515
G1 X85.904 Y121.658 E.02682
G1 X85.798 Y120.932 E.023
G1 X85.798 Y110.068 E.34063
G1 X86.027 Y108.863 E.03846
G1 X86.459 Y107.831 E.03508
G1 X87.116 Y106.879 E.03627
G1 X87.935 Y106.12 E.03501
G1 X88.187 Y106.42 F9000
G1 F1200
G1 X88.416 Y106.227 E.00939
G1 X89.488 Y105.683 E.03769
G1 X90.87 Y105.381 E.04435
G1 X115.605 Y103.88 E.77698
G1 X117.903 Y104.03 E.07221
G1 X120.373 Y104.519 E.07895
G1 X122.678 Y105.304 E.07635
G1 X124.893 Y106.405 E.07756
G1 X126.918 Y107.771 E.07659
G1 X128.772 Y109.419 E.07778
G1 X130.413 Y111.329 E.07895
G1 X131.688 Y113.288 E.07329
G1 X132.109 Y114.394 E.03711
G1 X132.242 Y115.518 E.03549
G1 X132.104 Y116.624 E.03495
G1 X131.674 Y117.737 E.03741
G1 X130.541 Y119.497 E.06563
G1 X129.188 Y121.144 E.06683
G1 X127.706 Y122.582 E.06475
G1 X126.105 Y123.824 E.06353
G1 X124.935 Y124.57 E.04351
G1 X123.671 Y125.247 E.04496
G1 X122.358 Y125.825 E.04498
G1 X121.045 Y126.287 E.04364
G1 X119.654 Y126.659 E.04515
G1 X118.252 Y126.921 E.04472
G1 X116.853 Y127.074 E.04413
G1 X115.426 Y127.12 E.04477
G1 X90.525 Y125.58 E.78225
G1 X89.495 Y125.32 E.03331
G1 X88.517 Y124.838 E.03419
G1 X87.831 Y124.316 E.02703
G1 X87.126 Y123.525 E.03322
G1 X86.733 Y122.881 E.02366
G1 X86.456 Y122.234 E.02207
G1 X86.174 Y120.897 E.04284
G1 X86.174 Y110.103 E.33844
G1 X86.389 Y108.969 E.03619
G1 X86.909 Y107.804 E.04
G1 X87.575 Y106.934 E.03435
G1 X88.141 Y106.459 E.02317
; printing object 3DBenchy id:0 copy 0
G1 E-3.5 F3600
;WIPE_START
G1 F7200
G1 X88.416 Y106.227 E-.1709
G1 X89.488 Y105.683 E-.57101
G1 X90.87 Y105.381 E-.67194
G1 X91.051 Y105.37 E-.08615
;WIPE_END
G1 X121.649 Y118.206 F9000
G1 E5 F2400
;TYPE:Perimeter
;WIDTH:0.419999
G1 F1200
G1 X121.746 Y118.651 E.01428
G1 X121.947 Y119.025 E.01331
G1 X122.315 Y119.411 E.01672
G1 X122.617 Y119.554 E.01048
G1 X123.2 Y119.665 E.01861
G1 X124.01 Y119.639 E.02541
G1 X123.352 Y120.111 E.02539
G1 X122.743 Y120.507 E.02278
G1 X121.818 Y121.026 E.03326
G1 X120.986 Y121.415 E.0288
G1 X120.233 Y121.714 E.0254
;WIDTH:0.460972
G1 X119.934 Y121.794 E.01076
;WIDTH:0.501944
G1 X119.636 Y121.874 E.01178
G1 X119.742 Y121.794 E.00507
;WIDTH:0.473742
G1 X119.849 Y121.713 E.00481
;WIDTH:0.44554
G1 X120.291 Y121.291 E.02046
;WIDTH:0.419999
G1 X120.662 Y120.721 E.02132
G1 X121.064 Y119.783 E.032
G1 X121.629 Y118.263 E.05084
G1 E-3.5 F3600
;WIPE_START
G1 F7200
G1 X121.746 Y118.651 E-.1925
G1 X121.947 Y119.025 E-.20168
G1 X122.315 Y119.411 E-.25332
G1 X122.617 Y119.554 E-.15872
G1 X123.2 Y119.665 E-.2819
G1 X124.01 Y119.639 E-.38495
G1 X123.964 Y119.672 E-.02693
;WIPE_END
G1 X117.886 Y116.792 F9000
G1 E5 F2400
;WIDTH:0.47428
G1 F1200
G1 X117.984 Y117.115 E.01211
G1 X117.793 Y116.837 E.0121
;WIDTH:0.433916
G1 X117.602 Y116.558 E.01099
;WIDTH:0.393552
G1 X117.411 Y116.28 E.00983
;WIDTH:0.353188
G1 X117.363 Y116.201 E.00238
G1 X117.571 Y115.85 E.01053
G1 X117.69 Y116.146 E.00823
;WIDTH:0.393552
G1 X117.788 Y116.469 E.00984
;WIDTH:0.433916
G1 X117.868 Y116.735 E.00903
G1 E-3.5 F3600
;WIPE_START
G1 F7200
G1 X117.984 Y117.115 E-.18872
G1 X117.793 Y116.837 E-.16021
G1 X117.602 Y116.558 E-.1606
G1 X117.411 Y116.28 E-.16021
G1 X117.363 Y116.201 E-.04391
G1 X117.571 Y115.85 E-.1938
G1 X117.69 Y116.146 E-.15154
G1 X117.788 Y116.469 E-.16033
G1 X117.868 Y116.735 E-.13194
;WIPE_END
G1 E-.14874 F3600
G1 X124.577 Y112.919 F9000
G1 E5 F2400
;WIDTH:0.419999
G1 F1200
G1 X123.357 Y112.923 E.03825
G1 X122.737 Y113.017 E.01966
G1 X122.26 Y113.267 E.01689
G1 X121.979 Y113.07 E.01076
G1 X121.589 Y112.938 E.01291
G1 X121.224 Y112.935 E.01144
G1 X120.859 Y113.032 E.01184
G1 X120.426 Y113.308 E.0161
G1 X120.079 Y113.737 E.0173
G1 X119.872 Y113.487 E.01018
G1 X119.597 Y113.24 E.01159
G1 X119.096 Y112.995 E.01749
G1 X118.642 Y112.922 E.01442
G1 X118.296 Y112.957 E.0109
G1 X117.996 Y113.053 E.00988
G1 X117.638 Y113.277 E.01324
G1 X117.414 Y113.102 E.00891
G1 X116.909 Y112.933 E.0167
G1 X116.632 Y112.93 E.00869
G1 X116.094 Y113.075 E.01747
G1 X115.688 Y113.4 E.01631
G1 X115.637 Y113.341 E.00245
G1 X115.291 Y113.084 E.01351
G1 X114.95 Y112.981 E.01117
G1 X114.546 Y112.922 E.0128
G1 X113.932 Y113.084 E.01991
G1 X113.519 Y113.387 E.01606
G1 X113.28 Y113.711 E.01262
G1 X113.118 Y114.171 E.01529
G1 X113.123 Y114.594 E.01326
G1 X113.215 Y114.96 E.01183
G1 X113.413 Y115.426 E.01588
G1 X113.874 Y116.235 E.02919
G1 X113.766 Y116.432 E.00704
G1 X113.652 Y116.337 E.00465
G1 X113.178 Y116.022 E.01784
G1 X112.829 Y115.892 E.01168
G1 X112.167 Y115.819 E.02088
G1 X112.174 Y115.295 E.01643
G1 X112.139 Y114.783 E.01609
G1 X112.06 Y114.253 E.0168
G1 X111.803 Y113.456 E.02626
G1 X111.481 Y112.877 E.02077
G1 X111.077 Y112.393 E.01977
G1 X110.632 Y112.036 E.01789
G1 X110.101 Y111.762 E.01873
G1 X109.536 Y111.6 E.01843
G1 X108.852 Y111.506 E.02165
G1 X107.255 Y111.47 E.05009
G1 X106.854 Y111.505 E.01262
G1 X106.537 Y111.596 E.01034
G1 X106 Y111.893 E.01924
G1 X105.673 Y112.35 E.01762
G1 X105.633 Y112.351 E.00125
G1 X105.161 Y111.87 E.02113
G1 X104.908 Y111.7 E.00956
G1 X104.226 Y111.422 E.02309
G1 X103.637 Y111.325 E.01872
G1 X102.993 Y111.318 E.02019
G1 X102.195 Y111.461 E.02542
G1 X101.634 Y111.698 E.01909
G1 X101.304 Y111.927 E.01259
G1 X101.102 Y111.737 E.0087
G1 X100.855 Y111.616 E.00862
G1 X100.285 Y111.481 E.01837
G1 X97.011 Y111.492 E.10265
G1 X96.43 Y111.452 E.01826
G1 X96.14 Y111.477 E.00913
G1 X95.618 Y111.638 E.01713
G1 X95.432 Y111.772 E.00719
G1 X95.192 Y112.022 E.01087
G1 X94.94 Y111.827 E.00999
G1 X94.423 Y111.548 E.01842
G1 X93.915 Y111.396 E.01663
G1 X93.02 Y111.312 E.02819
G1 X92.271 Y111.398 E.02364
G1 X91.562 Y111.637 E.02346
G1 X91.059 Y111.927 E.0182
G1 X90.693 Y112.24 E.0151
G1 X90.695 Y110.757 E.0465
G1 X90.753 Y110.376 E.01208
G1 X90.852 Y110.155 E.00759
G1 X91.044 Y110.013 E.00749
G1 X91.389 Y109.908 E.01131
G1 X114.711 Y108.491 E.73259
G1 X115.567 Y108.466 E.02685
G1 X116.567 Y108.502 E.03137
G1 X117.33 Y108.58 E.02405
G1 X118.092 Y108.701 E.02419
G1 X119.121 Y108.935 E.03309
G1 X119.865 Y109.156 E.02433
G1 X120.865 Y109.527 E.03344
G1 X121.66 Y109.888 E.02738
G1 X122.519 Y110.35 E.03058
G1 X123.471 Y110.969 E.0356
G1 X124.077 Y111.409 E.02348
G1 X124.815 Y112.029 E.03022
G1 X125.735 Y112.951 E.04084
G1 X125.537 Y112.921 E.00628
G1 X124.637 Y112.919 E.02822
G1 E-3.5 F3600
;WIPE_START
G1 F7200
G1 X123.357 Y112.923 E-.608
G1 X122.737 Y113.017 E-.29787
G1 X122.26 Y113.267 E-.25581
G1 X121.979 Y113.07 E-.16301
G1 X121.629 Y112.952 E-.17531
;WIPE_END
G1 X126.122 Y116.592 F9000
G1 E5 F2400
;WIDTH:0.593514
G1 F1200
G1 X126.569 Y115.955 E.03563
;WIDTH:0.594305
G1 X126.937 Y115.332 E.03317
G1 X127.08 Y114.829 E.02398
G1 X127.459 Y115.493 E.03505
G1 X127.304 Y115.809 E.01614
;WIDTH:0.593707
G1 X126.943 Y116.385 E.03113
G1 X126.594 Y116.878 E.02766
;WIDTH:0.593514
G1 X126.392 Y116.718 E.0118
G1 X126.176 Y116.617 E.01092
G1 X125.332 Y116.905 F9000
;WIDTH:0.419999
G1 F1200
G1 X126.177 Y115.71 E.04589
G1 X126.45 Y115.275 E.0161
G1 X126.614 Y114.82 E.01516
G1 X126.629 Y114.364 E.01431
;WIDTH:0.425444
G1 X126.485 Y113.847 E.01707
;WIDTH:0.427597
G1 X126.253 Y113.569 E.01158
G1 X126.009 Y113.416 E.00921
;WIDTH:0.419999
G1 X125.536 Y113.298 E.01529
G1 X123.464 Y113.294 E.06497
G1 X122.91 Y113.358 E.01749
G1 X122.542 Y113.529 E.01272
G1 X122.257 Y113.81 E.01255
G1 X121.947 Y113.49 E.01397
G1 X121.677 Y113.355 E.00946
G1 X121.401 Y113.303 E.00881
G1 X121.052 Y113.358 E.01108
G1 X120.668 Y113.597 E.01418
G1 X120.384 Y113.959 E.01443
G1 X120.207 Y114.356 E.01363
G1 X120.031 Y114.864 E.01686
G1 X119.895 Y114.334 E.01716
G1 X119.728 Y113.92 E.014
G1 X119.469 Y113.609 E.01269
G1 X118.965 Y113.349 E.01778
G1 X118.57 Y113.296 E.0125
G1 X118.134 Y113.405 E.01409
G1 X117.872 Y113.564 E.00961
G1 X117.655 Y113.865 E.01163
G1 X117.625 Y113.816 E.0018
G1 X117.238 Y113.435 E.01703
G1 X116.942 Y113.328 E.00987
G1 X116.721 Y113.3 E.00698
G1 X116.252 Y113.417 E.01516
G1 X116.011 Y113.61 E.00968
G1 X115.677 Y113.987 E.01579
G1 X115.35 Y113.584 E.01627
G1 X115.142 Y113.43 E.00811
G1 X114.64 Y113.299 E.01627
G1 X114.177 Y113.394 E.01482
G1 X113.992 Y113.484 E.00645
G1 X113.677 Y113.772 E.01338
G1 X113.532 Y114.079 E.01065
G1 X113.487 Y114.32 E.00769
G1 X113.54 Y114.759 E.01386
G1 X113.741 Y115.24 E.01635
G1 X114.337 Y116.269 E.03728
G1 X114.098 Y116.61 E.01306
G1 X113.784 Y117.196 E.02085
G1 X113.702 Y117.018 E.00614
G1 X113.401 Y116.619 E.01567
G1 X112.978 Y116.342 E.01585
G1 X112.769 Y116.264 E.00699
G1 X112.19 Y116.193 E.01829
G1 X111.705 Y116.326 E.01577
G1 X111.79 Y115.832 E.01572
G1 X111.795 Y115.072 E.02383
G1 X111.699 Y114.361 E.0225
G1 X111.469 Y113.631 E.024
G1 X111.206 Y113.138 E.01752
G1 X110.888 Y112.737 E.01605
G1 X110.449 Y112.365 E.01804
G1 X109.989 Y112.123 E.0163
G1 X109.482 Y111.973 E.01658
G1 X108.843 Y111.883 E.02023
G1 X107.247 Y111.847 E.05005
G1 X106.822 Y111.892 E.0134
G1 X106.31 Y112.132 E.01773
G1 X106.121 Y112.327 E.00851
G1 X105.934 Y112.712 E.01342
G1 X105.927 Y112.868 E.0049
;WIDTH:0.415698
G1 X105.964 Y113.557 E.02139
;WIDTH:0.39523
G1 X105.959 Y114.087 E.01553
;WIDTH:0.432896
G1 X105.94 Y114.305 E.0071
;WIDTH:0.470562
G1 X105.921 Y114.523 E.00778
;WIDTH:0.508228
G1 X105.902 Y114.741 E.00847
;WIDTH:0.545894
G1 X105.883 Y114.958 E.00911
G1 X105.882 Y115.947 E.04136
G1 X105.898 Y116.228 E.01177
;WIDTH:0.513607
G1 X105.913 Y116.508 E.01097
G1 X105.852 Y116.167 E.01356
;WIDTH:0.545894
G1 X105.791 Y115.826 E.01449
G1 X105.446 Y115.128 E.03256
G1 X105.267 Y114.974 E.00988
G1 X105.407 Y114.831 E.00837
G1 X105.466 Y114.679 E.00682
;WIDTH:0.499554
G1 X105.525 Y114.527 E.00619
;WIDTH:0.453213
G1 X105.574 Y114.22 E.01061
;WIDTH:0.419153
G1 X105.622 Y113.913 E.00972
;WIDTH:0.394991
G1 X105.603 Y113.251 E.01939
;WIDTH:0.419999
G1 X105.463 Y112.796 E.01493
G1 X105.233 Y112.456 E.01287
G1 X104.751 Y112.042 E.01992
G1 X104.164 Y111.794 E.01998
G1 X103.575 Y111.697 E.01872
G1 X103.044 Y111.692 E.01665
G1 X102.43 Y111.779 E.01944
G1 X101.961 Y111.969 E.01587
G1 X101.616 Y112.152 E.01224
G1 X101.244 Y112.515 E.0163
G1 X100.982 Y112.129 E.01463
G1 X100.772 Y111.986 E.00797
G1 X100.286 Y111.858 E.01576
G1 X96.999 Y111.869 E.10306
G1 X96.404 Y111.828 E.0187
G1 X95.938 Y111.915 E.01486
G1 X95.688 Y112.049 E.00889
G1 X95.39 Y112.371 E.01376
G1 X95.274 Y112.688 E.01058
G1 X95.2 Y112.574 E.00426
G1 X94.836 Y112.214 E.01605
G1 X94.397 Y111.949 E.01608
G1 X93.872 Y111.77 E.01739
G1 X93.053 Y111.688 E.02581
G1 X92.38 Y111.759 E.02122
G1 X91.75 Y111.964 E.02077
G1 X91.136 Y112.336 E.02251
G1 X90.632 Y112.845 E.02246
G1 X90.314 Y113.346 E.01861
G1 X90.318 Y110.757 E.08118
G1 X90.385 Y110.296 E.01461
G1 X90.491 Y110.027 E.00907
G1 X90.747 Y109.735 E.01218
G1 X91.1 Y109.572 E.01219
G1 X91.347 Y109.533 E.00784
G1 X114.694 Y108.114 E.73338
G1 X115.568 Y108.089 E.02741
G1 X116.593 Y108.126 E.03216
G1 X117.379 Y108.206 E.02477
G1 X118.164 Y108.33 E.02492
G1 X119.216 Y108.57 E.03383
G1 X119.985 Y108.798 E.02515
G1 X121.009 Y109.178 E.03425
G1 X121.827 Y109.55 E.02818
G1 X122.708 Y110.023 E.03135
