; generated by PrusaSlicer 2.6.1+win64 on 2023-10-13 at 21:34:33 UTC

; 

; external perimeters extrusion width = 0.42mm
; perimeters extrusion width = 0.44mm
; infill extrusion width = 0.44mm
; solid infill extrusion width = 0.44mm
; top infill extrusion width = 0.40mm
; first layer extrusion width = 0.42mm

;TYPE:Custom
; Ender 3 Custom Start G-code
G92 E0 ; Reset Extruder

M140 S55 ; set bed temp
M104 S160 ; set extruder temp
M109 S160 ; wait for extruder temp
M190 S55 ; wait for bed temp

G28 ; Home all axes
M104 S210 ; set extruder temp 
BED_MESH_CALIBRATE AREA_START=83.7684,88.5669 AREA_END=143.763,126.207

G1 Z2.0 F3000 ; Move Z Axis up little to prevent scratching of Heat Bed
M109 S210 ; wait for extruder temp
G1 X0.1 Y20 Z0.3 F5000.0 ; Move to start position

G1 X0.1 Y200.0 Z0.3 F1500.0 E15 ; Draw the first line
G1 X0.4 Y200.0 Z0.3 F5000.0 ; Move to side a little
G1 X0.4 Y20 Z0.3 F1500.0 E30 ; Draw the second line
G92 E0 ; Reset Extruder
G1 Z2.0 F3000 ; Move Z Axis up little to prevent scratching of Heat Bed
G1 X5 Y20 Z0.3 F5000.0 ; Move over to prevent blob squish
G21 ; set units to millimeters
G90 ; use absolute coordinates
M83 ; use relative distances for extrusion
; Filament gcode
M107
;LAYER_CHANGE
;Z:0.2
;HEIGHT:0.2
;BEFORE_LAYER_CHANGE
G92 E0
;0.2


G1 E-1.6 F2400
G1 Z.2 F6000
;AFTER_LAYER_CHANGE
;0.2
G1 X87.857 Y91.701
G1 E1.6 F2400
M204 S500
;TYPE:Skirt/Brim
;WIDTH:0.42
G1 F1200
G1 X88.725 Y90.996 E.03296
G1 X89.656 Y90.382 E.03287
G1 X91.322 Y89.564 E.0547
G1 X93.099 Y89.026 E.05472
G1 X94.721 Y88.79 E.04831
G1 X131.692 Y88.755 E1.08965
G1 X132.884 Y88.805 E.03516
G1 X133.843 Y88.938 E.02854
G1 X135.87 Y89.494 E.06195
G1 X137.7 Y90.365 E.05973
G1 X139.14 Y91.376 E.05186
G1 X140.583 Y92.775 E.05924
G1 X141.374 Y93.79 E.03793
G1 X141.835 Y94.519 E.02542
G1 X142.681 Y96.304 E.05822
G1 X143.24 Y98.341 E.06226
G1 X143.425 Y100.341 E.0592
G1 X143.575 Y114.341 E.41265
G1 X143.503 Y115.668 E.03917
G1 X143.296 Y116.888 E.03647
G1 X142.676 Y118.864 E.06104
G1 X141.69 Y120.733 E.06228
G1 X140.467 Y122.296 E.05849
G1 X139.688 Y123.064 E.03224
G1 X138.815 Y123.771 E.03311
G1 X137.173 Y124.778 E.05677
G1 X136.08 Y125.257 E.03517
G1 X134.281 Y125.783 E.05524
G1 X132.523 Y126.003 E.05222
G1 X95.078 Y126.009 E1.10362
G1 X93.39 Y125.81 E.0501
G1 X92.295 Y125.542 E.03323
G1 X91.185 Y125.153 E.03467
G1 X89.854 Y124.506 E.04362
G1 X88.8 Y123.835 E.03683
G1 X87.851 Y123.075 E.03583
G1 X86.76 Y121.96 E.04598
G1 X86.154 Y121.19 E.02888
G1 X85.328 Y119.862 E.04609
G1 X84.772 Y118.665 E.0389
G1 X84.319 Y117.276 E.04306
G1 X84.013 Y115.506 E.05294
G1 X83.957 Y114.505 E.02955
G1 X83.987 Y99.578 E.43994
G1 X84.339 Y97.433 E.06407
G1 X84.956 Y95.673 E.05497
G1 X85.359 Y94.854 E.0269
G1 X86.242 Y93.468 E.04844
G1 X86.875 Y92.684 E.0297
G1 X87.814 Y91.744 E.03916
G1 X88.08 Y92.01 F6000
G1 F1200
G1 X88.937 Y91.308 E.03265
G1 X89.836 Y90.714 E.03176
G1 X91.455 Y89.917 E.05319
G1 X92.992 Y89.437 E.04746
G1 X94.74 Y89.166 E.05213
G1 X131.692 Y89.133 E1.08909
G1 X133.767 Y89.308 E.06137
G1 X135.748 Y89.851 E.06054
G1 X137.509 Y90.69 E.05749
G1 X138.893 Y91.661 E.04983
G1 X140.304 Y93.029 E.05792
G1 X141.07 Y94.013 E.03675
G1 X141.565 Y94.802 E.02745
G1 X142.414 Y96.673 E.06056
G1 X142.882 Y98.473 E.05482
G1 X143.048 Y100.345 E.05539
G1 X143.198 Y114.345 E.41265
G1 X143.13 Y115.614 E.03745
G1 X142.924 Y116.824 E.03618
G1 X142.331 Y118.712 E.05833
G1 X141.369 Y120.534 E.06073
G1 X140.198 Y122.031 E.05602
G1 X139.594 Y122.642 E.02532
G1 X138.603 Y123.459 E.03785
G1 X136.981 Y124.453 E.05607
G1 X135.395 Y125.098 E.05046
G1 X134.218 Y125.411 E.0359
G1 X132.355 Y125.634 E.0553
G1 X95.105 Y125.633 E1.09787
G1 X93.449 Y125.437 E.04915
G1 X92.304 Y125.154 E.03476
G1 X91.337 Y124.807 E.03028
G1 X90.03 Y124.173 E.04281
G1 X89.019 Y123.528 E.03534
G1 X88.102 Y122.794 E.03462
G1 X87.039 Y121.706 E.04483
G1 X86.452 Y120.958 E.02802
G1 X85.657 Y119.676 E.04446
G1 X85.128 Y118.539 E.03696
G1 X84.684 Y117.182 E.04208
G1 X84.387 Y115.46 E.0515
G1 X84.334 Y114.505 E.02819
G1 X84.363 Y99.603 E.43921
G1 X84.7 Y97.541 E.06158
G1 X85.307 Y95.811 E.05404
G1 X85.705 Y95.004 E.02652
G1 X86.553 Y93.681 E.04632
G1 X87.156 Y92.934 E.02829
G1 X88.038 Y92.052 E.03676
G1 X88.304 Y92.318 F6000
G1 F1200
G1 X89.149 Y91.62 E.0323
G1 X90.029 Y91.037 E.03111
G1 X91.588 Y90.27 E.05121
G1 X93.208 Y89.774 E.04993
G1 X94.758 Y89.543 E.04619
G1 X131.692 Y89.51 E1.08856
G1 X133.69 Y89.677 E.05909
G1 X135.628 Y90.208 E.05922
G1 X137.318 Y91.015 E.0552
G1 X138.647 Y91.947 E.04784
G1 X140.013 Y93.269 E.05603
G1 X140.766 Y94.236 E.03612
G1 X141.237 Y94.988 E.02615
G1 X142.054 Y96.785 E.05818
G1 X142.512 Y98.545 E.0536
G1 X142.671 Y100.349 E.05338
G1 X142.821 Y114.349 E.41265
G1 X142.744 Y115.641 E.03815
G1 X142.521 Y116.917 E.03818
G1 X142.276 Y117.78 E.02644
G1 X141.409 Y119.75 E.06344
G1 X140.675 Y120.874 E.03957
G1 X140.018 Y121.672 E.03047
G1 X139.333 Y122.37 E.02882
G1 X138.39 Y123.147 E.03601
G1 X136.804 Y124.12 E.05484
G1 X135.27 Y124.742 E.04879
G1 X134.141 Y125.042 E.03443
G1 X132.345 Y125.257 E.05331
G1 X95.131 Y125.257 E1.09681
G1 X93.508 Y125.065 E.04817
G1 X92.409 Y124.792 E.03338
G1 X91.488 Y124.462 E.02883
G1 X90.206 Y123.839 E.04201
G1 X89.238 Y123.221 E.03385
G1 X88.306 Y122.47 E.03528
G1 X87.318 Y121.453 E.04179
G1 X86.76 Y120.741 E.02666
G1 X85.985 Y119.491 E.04335
G1 X85.483 Y118.413 E.03505
G1 X85.05 Y117.087 E.04111
G1 X84.761 Y115.415 E.05001
G1 X84.739 Y99.629 E.46526
G1 X85.061 Y97.651 E.05907
G1 X85.658 Y95.948 E.05319
G1 X86.04 Y95.178 E.02533
G1 X86.862 Y93.897 E.04486
G1 X87.438 Y93.185 E.02699
G1 X88.262 Y92.361 E.03435
; printing object Shape-Box id:0 copy 0
G1 E-1.12 F2400
;WIPE_START
G1 F4800
G1 X89.038 Y91.713 E-.48
;WIPE_END
G1 X111.524 Y110.542 F6000
G1 E1.6 F2400
;TYPE:Perimeter
G1 F1200
G1 X111.503 Y110.685 E.00426
G1 X111.482 Y111.331 E.01905
G1 X111.517 Y111.743 E.01219
G1 X111.221 Y111.66 E.00906
G1 X110.41 Y111.559 E.02409
G1 X111.212 Y110.865 E.03126
G1 X111.482 Y110.585 E.01146
G1 X110.178 Y111.772 F6000
G1 F1200
G1 X110.086 Y112.453 E.02025
G1 X110.03 Y112.507 E.00229
G1 X109.972 Y112.525 E.00179
G1 X109.821 Y112.526 E.00445
G1 X109.76 Y112.504 E.00191
G1 X109.718 Y112.465 E.00169
G1 X109.706 Y112.417 E.00146
G1 X109.767 Y112.242 E.00546
G1 X109.953 Y111.993 E.00916
G1 X110.135 Y111.814 E.00752
G1 E-1.12 F2400
;WIPE_START
G1 F4800
G1 X110.086 Y112.453 E-.30442
G1 X110.03 Y112.507 E-.03695
G1 X109.972 Y112.525 E-.02885
G1 X109.821 Y112.526 E-.07173
G1 X109.76 Y112.504 E-.0308
G1 X109.749 Y112.494 E-.00725
;WIPE_END
G1 X117.689 Y103.993 F6000
G1 E1.6 F2400
G1 F1200
G1 X117.617 Y104.655 E.01963
G1 X117.563 Y104.706 E.00219
G1 X117.505 Y104.724 E.00179
G1 X117.355 Y104.724 E.00442
G1 X117.293 Y104.703 E.00193
G1 X117.251 Y104.664 E.00169
G1 X117.239 Y104.616 E.00146
G1 X117.3 Y104.44 E.00549
G1 X117.486 Y104.192 E.00914
G1 X117.646 Y104.035 E.00661
G1 E-1.12 F2400
;WIPE_START
G1 F4800
G1 X117.617 Y104.655 E-.29482
G1 X117.563 Y104.706 E-.03528
G1 X117.505 Y104.724 E-.02885
G1 X117.355 Y104.724 E-.07125
G1 X117.293 Y104.703 E-.03109
G1 X117.264 Y104.676 E-.01871
;WIPE_END
G1 X116.034 Y102.454 F6000
G1 E1.6 F2400
G1 F1200
G1 X116.572 Y102.441 E.01586
G1 X116.233 Y102.731 E.01315
G1 X115.875 Y103.124 E.01567
G1 X115.866 Y102.778 E.0102
G1 X115.821 Y102.456 E.00958
G1 X115.974 Y102.454 E.00451
G1 E-1.12 F2400
;WIPE_START
G1 F4800
G1 X116.572 Y102.441 E-.28412
G1 X116.259 Y102.709 E-.19588
;WIPE_END
G1 X100.796 Y102.91 F6000
G1 E1.6 F2400
G1 F1200
G1 X100.649 Y103.04 E.00578
G1 X100.487 Y103.108 E.00518
G1 X100.377 Y103.109 E.00324
G1 X100.253 Y103.081 E.00375
G1 X100.205 Y103.049 E.0017
G1 X100.144 Y102.962 E.00313
G1 X100.113 Y102.823 E.0042
G1 X100.121 Y102.613 E.00619
G1 X100.161 Y102.476 E.00421
G1 X100.219 Y102.388 E.00311
G1 X100.286 Y102.333 E.00255
G1 X100.361 Y102.305 E.00236
G1 X100.451 Y102.304 E.00265
G1 X100.517 Y102.33 E.00209
G1 X100.607 Y102.441 E.00421
G1 X100.774 Y102.855 E.01316
G1 E-1.12 F2400
;WIPE_START
G1 F4800
G1 X100.649 Y103.04 E-.10605
G1 X100.487 Y103.108 E-.08345
G1 X100.377 Y103.109 E-.05225
G1 X100.253 Y103.081 E-.06038
G1 X100.205 Y103.049 E-.0274
G1 X100.144 Y102.962 E-.05047
G1 X100.113 Y102.823 E-.06765
G1 X100.116 Y102.755 E-.03235
;WIPE_END
G1 X112.426 Y108.664 F6000
G1 E1.6 F2400
G1 F1200
G1 X112.697 Y108.482 E.00962
G1 X113.155 Y108.311 E.01441
G1 X113.524 Y108.259 E.01098
G1 X113.901 Y108.263 E.01111
G1 X114.153 Y108.3 E.00751
G1 X114.571 Y108.435 E.01295
G1 X114.959 Y108.674 E.01343
G1 X115.277 Y109 E.01342
G1 X115.493 Y109.376 E.01278
G1 X115.569 Y109.218 E.00517
G1 X115.713 Y109.01 E.00746
G1 X116.006 Y108.724 E.01207
G1 X116.196 Y108.588 E.00689
G1 X116.4 Y108.475 E.00687
G1 X116.793 Y108.331 E.01234
G1 X117.24 Y108.261 E.01334
G1 X117.67 Y108.262 E.01267
G1 X118.099 Y108.332 E.01281
G1 X118.505 Y108.48 E.01274
G1 X118.871 Y108.708 E.01271
G1 X119.181 Y109.007 E.01269
G1 X119.42 Y109.354 E.01242
G1 X119.581 Y109.742 E.01238
G1 X119.66 Y110.164 E.01265
G1 X119.643 Y110.673 E.01501
G1 X119.563 Y111.028 E.01073
G1 X119.23 Y111.6 E.01951
G1 X119.203 Y111.615 E.00091
G1 X119.237 Y111.64 E.00124
G1 X119.376 Y111.989 E.01107
G1 X119.479 Y112.453 E.01401
G1 X119.443 Y112.865 E.01219
G1 X119.337 Y113.229 E.01117
G1 X119.157 Y113.549 E.01082
G1 X119.022 Y113.721 E.00644
G1 X118.762 Y113.966 E.01053
G1 X118.575 Y114.095 E.0067
G1 X118.247 Y114.25 E.01069
G1 X118.032 Y114.315 E.00662
G1 X117.657 Y114.375 E.01119
G1 X117.251 Y114.375 E.01197
G1 X116.858 Y114.311 E.01174
G1 X116.486 Y114.176 E.01166
G1 X116.15 Y113.968 E.01165
G1 X115.867 Y113.7 E.01149
G1 X115.646 Y113.39 E.01122
G1 X115.551 Y113.167 E.00714
G1 X115.396 Y113.468 E.00998
G1 X115.083 Y113.85 E.01456
G1 X114.687 Y114.141 E.01448
G1 X114.349 Y114.285 E.01083
G1 X113.863 Y114.377 E.01458
G1 X113.435 Y114.37 E.01262
G1 X113.154 Y114.322 E.0084
G1 X112.699 Y114.152 E.01432
G1 X112.293 Y113.862 E.01471
G1 X111.988 Y113.488 E.01422
G1 X111.848 Y113.227 E.00873
G1 X111.681 Y113.54 E.01046
G1 X111.527 Y113.73 E.00721
G1 X111.246 Y113.98 E.01109
G1 X111.048 Y114.106 E.00692
G1 X110.692 Y114.262 E.01146
G1 X110.285 Y114.356 E.01231
G1 X109.673 Y114.376 E.01805
G1 X109.249 Y114.31 E.01265
G1 X108.857 Y114.173 E.01224
G1 X108.503 Y113.958 E.01221
G1 X108.206 Y113.678 E.01203
G1 X107.978 Y113.354 E.01168
G1 X107.829 Y113.004 E.01121
G1 X107.774 Y112.782 E.00674
G1 X107.739 Y112.398 E.01136
G1 X107.781 Y111.985 E.01224
G1 X107.908 Y111.581 E.01248
G1 X108.121 Y111.195 E.01299
G1 X108.409 Y110.827 E.01377
G1 X108.82 Y110.421 E.01703
G1 X109.045 Y110.242 E.00847
G1 X107.736 Y110.263 E.03859
G1 X107.735 Y108.334 E.05685
G1 X112.218 Y108.334 E.13213
G1 X112.189 Y108.885 E.01626
G1 X112.38 Y108.702 E.0078
G1 X112.64 Y108.975 F6000
;TYPE:External perimeter
G1 F1200
G1 X112.871 Y108.82 E.0082
G1 X113.249 Y108.678 E.0119
G1 X113.548 Y108.636 E.0089
G1 X113.871 Y108.64 E.00952
G1 X114.067 Y108.669 E.00584
G1 X114.412 Y108.78 E.01068
G1 X114.722 Y108.971 E.01073
G1 X114.98 Y109.234 E.01086
G1 X115.107 Y109.436 E.00703
G1 X115.207 Y109.656 E.00712
G1 X115.277 Y109.903 E.00757
G1 X115.482 Y111.507 E.04766
G1 X115.478 Y111.913 E.01197
G1 X115.407 Y112.438 E.01561
G1 X115.273 Y112.882 E.01367
G1 X115.079 Y113.26 E.01252
G1 X114.822 Y113.574 E.01196
G1 X114.499 Y113.812 E.01183
G1 X114.238 Y113.922 E.00835
G1 X113.831 Y113.999 E.01221
G1 X113.47 Y113.993 E.01064
G1 X113.252 Y113.957 E.00651
G1 X112.878 Y113.816 E.01178
G1 X112.554 Y113.585 E.01173
G1 X112.303 Y113.276 E.01173
G1 X112.198 Y113.085 E.00642
G1 X112.056 Y112.683 E.01257
G1 X111.992 Y112.235 E.01334
G1 X111.903 Y111.831 E.01219
G1 X111.86 Y111.321 E.01508
G1 X111.879 Y110.719 E.01775
G1 X111.955 Y110.2 E.01546
G1 X112.039 Y109.893 E.00938
G1 X112.147 Y109.623 E.00857
G1 X112.282 Y109.378 E.00824
G1 X112.447 Y109.161 E.00803
G1 X112.597 Y109.016 E.00615
G1 X112.598 Y108.7 F6000
G1 E-1.12 F2400
;WIPE_START
G1 F4800
G1 X112.871 Y108.82 E-.16002
G1 X113.249 Y108.678 E-.1918
G1 X113.516 Y108.64 E-.12818
;WIPE_END
G1 X118.57 Y111.569 F6000
G1 E1.6 F2400
G1 F1200
G1 X118.764 Y111.761 E.00804
G1 X118.927 Y111.88 E.00595
G1 X119.014 Y112.1 E.00697
G1 X119.098 Y112.479 E.01144
G1 X119.071 Y112.795 E.00935
G1 X118.987 Y113.082 E.00881
G1 X118.843 Y113.339 E.00868
G1 X118.743 Y113.466 E.00476
G1 X118.524 Y113.672 E.00886
G1 X118.386 Y113.767 E.00494
G1 X118.111 Y113.898 E.00898
G1 X117.947 Y113.947 E.00504
G1 X117.627 Y113.998 E.00955
G1 X117.282 Y113.998 E.01017
G1 X116.954 Y113.944 E.0098
G1 X116.651 Y113.835 E.00949
G1 X116.381 Y113.668 E.00936
G1 X116.153 Y113.452 E.00926
G1 X115.977 Y113.204 E.00896
G1 X115.858 Y112.928 E.00886
G1 X115.802 Y112.627 E.00902
G1 X115.815 Y112.265 E.01068
G1 X115.951 Y111.916 E.01104
G1 X116.074 Y111.715 E.00695
G1 X116.34 Y111.564 E.00901
G1 X115.947 Y111.238 E.01505
G1 X115.834 Y111.011 E.00747
G1 X115.719 Y110.595 E.01272
G1 X115.696 Y110.044 E.01625
G1 X115.751 Y109.711 E.00995
G1 X115.896 Y109.408 E.0099
G1 X116.002 Y109.255 E.00549
G1 X116.249 Y109.014 E.01017
G1 X116.558 Y108.819 E.01077
G1 X116.888 Y108.698 E.01036
G1 X117.269 Y108.638 E.01137
G1 X117.639 Y108.639 E.01091
G1 X118.003 Y108.698 E.01087
G1 X118.339 Y108.821 E.01055
G1 X118.638 Y109.008 E.01039
G1 X118.893 Y109.252 E.0104
G1 X119.087 Y109.535 E.01011
G1 X119.218 Y109.85 E.01005
G1 X119.282 Y110.193 E.01028
G1 X119.267 Y110.625 E.01274
G1 X119.208 Y110.888 E.00794
G1 X118.956 Y111.321 E.01477
G1 X118.738 Y111.443 E.00736
G1 X118.619 Y111.534 E.00442
G1 X118.828 Y111.657 F6000
G1 E-1.12 F2400
;WIPE_START
G1 F4800
G1 X118.764 Y111.761 E-.12795
G1 X118.927 Y111.88 E-.09586
G1 X119.014 Y112.1 E-.11237
G1 X119.08 Y112.396 E-.14382
;WIPE_END
G1 X111.821 Y108.711 F6000
G1 E1.6 F2400
G1 F1200
G1 X111.792 Y109.274 E.01662
G1 X111.723 Y109.523 E.00762
G1 X111.641 Y109.715 E.00615
G1 X111.431 Y110.062 E.01195
G1 X111.292 Y110.24 E.00666
G1 X110.952 Y110.591 E.0144
G1 X110.018 Y111.4 E.03642
G1 X109.675 Y111.738 E.01419
G1 X109.437 Y112.057 E.01173
G1 X109.373 Y112.191 E.00438
G1 X109.327 Y112.415 E.00674
G1 X109.364 Y112.604 E.00568
G1 X109.475 Y112.76 E.00564
G1 X109.557 Y112.825 E.00308
G1 X109.758 Y112.899 E.00631
G1 X110.036 Y112.898 E.00819
G1 X110.244 Y112.822 E.00653
G1 X110.37 Y112.709 E.00499
G1 X110.425 Y112.622 E.00303
G1 X110.466 Y112.513 E.00343
G1 X110.535 Y111.955 E.01657
G1 X111.146 Y112.031 E.01815
G1 X111.631 Y112.167 E.01485
G1 X111.621 Y112.708 E.01595
G1 X111.52 Y113.042 E.01028
G1 X111.366 Y113.33 E.00963
G1 X111.254 Y113.469 E.00526
G1 X111.018 Y113.678 E.00929
G1 X110.87 Y113.772 E.00517
G1 X110.573 Y113.902 E.00956
G1 X110.236 Y113.98 E.01019
G1 X109.696 Y113.998 E.01592
G1 X109.341 Y113.943 E.01059
G1 X109.019 Y113.83 E.01006
G1 X108.732 Y113.657 E.00988
G1 X108.492 Y113.43 E.00974
G1 X108.309 Y113.17 E.00937
G1 X108.188 Y112.884 E.00915
G1 X108.147 Y112.719 E.00501
G1 X108.118 Y112.4 E.00944
G1 X108.153 Y112.062 E.01002
G1 X108.257 Y111.73 E.01025
G1 X108.436 Y111.404 E.01096
G1 X108.692 Y111.079 E.01219
G1 X109.07 Y110.703 E.01571
G1 X109.486 Y110.373 E.01565
G1 X109.669 Y110.246 E.00657
G1 X109.811 Y110.183 E.00458
G1 X110.258 Y109.782 E.0177
G1 X109.806 Y109.781 E.01332
G1 X109.357 Y109.844 E.01336
G1 X108.887 Y109.874 E.01388
G1 X108.113 Y109.882 E.02281
G1 X108.112 Y108.711 E.03451
G1 X111.761 Y108.711 E.10755
G1 X112.22 Y108.684 F6000
G1 E-1.12 F2400
;WIPE_START
G1 F4800
G1 X111.792 Y109.274 E-.26783
G1 X111.723 Y109.523 E-.12273
G1 X111.649 Y109.696 E-.08944
;WIPE_END
G1 X111.829 Y119.152 F6000
G1 E1.6 F2400
;TYPE:Perimeter
G1 F1200
G1 X111.749 Y118.734 E.01254
G1 X111.767 Y118.22 E.01516
G1 X111.858 Y117.85 E.01123
G1 X112.021 Y117.482 E.01186
G1 X112.281 Y117.113 E.0133
G1 X112.616 Y116.801 E.01349
G1 X112.955 Y116.592 E.01174
G1 X113.31 Y116.452 E.01125
G1 X113.745 Y116.37 E.01305
G1 X114.117 Y116.369 E.01096
G1 X114.581 Y116.459 E.01393
G1 X115.032 Y116.658 E.01453
G1 X115.309 Y116.85 E.00993
G1 X115.582 Y117.111 E.01113
G1 X115.847 Y117.486 E.01353
G1 X116.046 Y117.975 E.01556
G1 X116.116 Y118.385 E.01226
G1 X116.108 Y118.807 E.01244
G1 X116.009 Y119.249 E.01335
