; generated by PrusaSlicer 2.7.2+win64 on 2024-03-19 at 00:09:21 UTC

; 

; external perimeters extrusion width = 0.42mm
; perimeters extrusion width = 0.44mm
; infill extrusion width = 0.44mm
; solid infill extrusion width = 0.44mm
; top infill extrusion width = 0.40mm
; first layer extrusion width = 0.42mm


; printing object Shape-Box id:0 copy 0
; stop printing object Shape-Box id:0 copy 0

;TYPE:Custom
; Ender 3 Custom Start G-code
G92 E0 ; Reset Extruder

M140 S55 ; set bed temp
M104 S160 ; set extruder temp
M109 S160 ; wait for extruder temp
M190 S55 ; wait for bed temp

G28 ; Home all axes
M104 S210 ; set extruder temp 
BED_MESH_CALIBRATE AREA_START=83.7685,88.5669 AREA_END=143.763,126.207

G1 Z2.0 F3000 ; Move Z Axis up little to prevent scratching of Heat Bed
M109 S210 ; wait for extruder temp
G1 X0.1 Y20 Z0.3 F5000.0 ; Move to start position

G1 X0.1 Y200.0 Z0.3 F1500.0 E15 ; Draw the first line
G1 X0.4 Y200.0 Z0.3 F5000.0 ; Move to side a little
G1 X0.4 Y20 Z0.3 F1500.0 E30 ; Draw the second line
G92 E0 ; Reset Extruder
G1 Z2.0 F3000 ; Move Z Axis up little to prevent scratching of Heat Bed
G1 X5 Y20 Z0.3 F5000.0 ; Move over to prevent blob squish
G21 ; set units to millimeters
G90 ; use absolute coordinates
M83 ; use relative distances for extrusion
; Filament gcode
M107
;LAYER_CHANGE
;Z:0.2
;HEIGHT:0.2
G1 E-1.6 F2400
G1 Z.2 F9000
G1 X87.852 Y91.705
G1 Z.2
G1 E1.6 F2400
M204 S500
;TYPE:Skirt/Brim
;WIDTH:0.42
G1 F1800
G1 X88.738 Y90.987 E.03576
G1 X89.673 Y90.372 E.03509
G1 X91.328 Y89.562 E.05777
G1 X93.053 Y89.035 E.05655
G1 X94.727 Y88.789 E.05305
G1 X132.884 Y88.805 E1.19639
G1 X133.842 Y88.938 E.03033
G1 X135.869 Y89.494 E.0659
G1 X137.695 Y90.363 E.06341
G1 X139.106 Y91.347 E.05394
G1 X139.837 Y91.984 E.0304
G1 X140.597 Y92.791 E.03476
G1 X141.378 Y93.795 E.03988
G1 X141.89 Y94.613 E.03026
G1 X142.774 Y96.56 E.06704
G1 X143.251 Y98.395 E.05945
G1 X143.425 Y100.341 E.06126
G1 X143.575 Y114.341 E.43899
G1 X143.503 Y115.668 E.04167
G1 X143.297 Y116.884 E.03867
G1 X142.676 Y118.864 E.06506
G1 X142.128 Y120.006 E.03972
G1 X141.652 Y120.792 E.02881
G1 X140.465 Y122.298 E.06012
G1 X139.687 Y123.065 E.03425
G1 X138.814 Y123.772 E.03522
G1 X137.18 Y124.774 E.0601
G1 X136.063 Y125.264 E.03824
G1 X134.38 Y125.764 E.05505
G1 X132.526 Y126.003 E.05861
G1 X95.079 Y126.009 E1.17412
G1 X93.393 Y125.81 E.05323
G1 X92.204 Y125.517 E.0384
G1 X91.183 Y125.152 E.034
G1 X89.857 Y124.508 E.04622
G1 X88.797 Y123.833 E.0394
G1 X87.788 Y123.017 E.04069
G1 X86.761 Y121.961 E.04619
G1 X86.156 Y121.192 E.03068
G1 X85.332 Y119.869 E.04887
G1 X84.772 Y118.665 E.04163
G1 X84.318 Y117.271 E.04597
G1 X84.013 Y115.506 E.05616
G1 X83.957 Y114.501 E.03156
G1 X83.987 Y99.573 E.46806
G1 X84.338 Y97.434 E.06796
G1 X84.955 Y95.676 E.05842
G1 X85.371 Y94.83 E.02956
G1 X86.241 Y93.469 E.05065
G1 X86.872 Y92.687 E.03151
G1 X87.81 Y91.748 E.04161
G1 X87.81 Y91.748 F9000
G1 X88.076 Y92.014
G1 F1800
G1 X88.104 Y91.986 E.00124
G1 X88.95 Y91.299 E.03417
G1 X89.854 Y90.704 E.03393
G1 X91.461 Y89.915 E.05613
G1 X93.13 Y89.405 E.05472
G1 X94.745 Y89.166 E.05119
G1 X131.69 Y89.133 E1.15838
G1 X133.766 Y89.308 E.06532
G1 X135.746 Y89.85 E.06437
G1 X137.504 Y90.688 E.06106
G1 X138.864 Y91.636 E.05198
G1 X140.306 Y93.031 E.06291
G1 X141.073 Y94.018 E.03919
G1 X141.563 Y94.799 E.02891
G1 X142.414 Y96.673 E.06453
G1 X142.881 Y98.467 E.05812
G1 X143.048 Y100.345 E.05912
G1 X143.198 Y114.345 E.43899
G1 X143.13 Y115.614 E.03985
G1 X142.925 Y116.82 E.03836
G1 X142.331 Y118.712 E.06218
G1 X141.793 Y119.833 E.03899
G1 X141.336 Y120.586 E.02762
G1 X140.196 Y122.033 E.05776
G1 X139.593 Y122.644 E.02692
G1 X138.601 Y123.46 E.04027
G1 X136.98 Y124.453 E.0596
G1 X135.395 Y125.098 E.05365
G1 X134.198 Y125.415 E.03882
G1 X132.358 Y125.634 E.0581
G1 X95.105 Y125.633 E1.16804
G1 X93.452 Y125.438 E.05219
G1 X92.309 Y125.155 E.03692
G1 X91.334 Y124.806 E.03247
G1 X90.033 Y124.174 E.04535
G1 X89.016 Y123.526 E.03781
G1 X88.047 Y122.744 E.03904
G1 X87.04 Y121.708 E.0453
G1 X86.449 Y120.953 E.03006
G1 X85.661 Y119.683 E.04686
G1 X85.128 Y118.539 E.03957
G1 X84.683 Y117.177 E.04493
G1 X84.387 Y115.461 E.0546
G1 X84.334 Y114.501 E.03015
G1 X84.363 Y99.599 E.46724
G1 X84.7 Y97.542 E.06536
G1 X85.305 Y95.814 E.0574
G1 X85.706 Y95.003 E.02837
G1 X86.55 Y93.685 E.04907
G1 X87.153 Y92.938 E.0301
G1 X88.034 Y92.056 E.03909
G1 X88.034 Y92.056 F9000
G1 X88.3 Y92.322
G1 F1800
G1 X88.356 Y92.266 E.00248
G1 X89.161 Y91.611 E.03254
G1 X90.734 Y90.656 E.0577
G1 X92.337 Y90.007 E.05422
G1 X93.937 Y89.635 E.0515
G1 X95.373 Y89.513 E.04519
G1 X131.69 Y89.51 E1.13869
G1 X133.689 Y89.677 E.0629
G1 X135.623 Y90.207 E.06287
G1 X137.313 Y91.013 E.05871
G1 X138.621 Y91.925 E.05
G1 X140.015 Y93.271 E.06076
G1 X140.769 Y94.241 E.03852
G1 X141.235 Y94.985 E.02753
G1 X142.054 Y96.786 E.06203
G1 X142.511 Y98.539 E.0568
G1 X142.671 Y100.349 E.05697
G1 X142.821 Y114.349 E.43899
G1 X142.743 Y115.65 E.04087
G1 X142.521 Y116.913 E.04021
G1 X142.264 Y117.819 E.02953
G1 X141.407 Y119.753 E.06633
G1 X140.673 Y120.876 E.04206
G1 X140.016 Y121.674 E.03241
G1 X139.332 Y122.372 E.03064
G1 X138.389 Y123.148 E.03829
G1 X136.803 Y124.12 E.05832
G1 X135.27 Y124.742 E.05187
G1 X134.136 Y125.043 E.03679
G1 X132.348 Y125.257 E.05646
G1 X95.132 Y125.257 E1.16688
G1 X93.511 Y125.065 E.05118
G1 X92.415 Y124.793 E.03541
G1 X91.486 Y124.461 E.03093
G1 X90.209 Y123.841 E.04451
G1 X89.235 Y123.219 E.03624
G1 X88.306 Y122.47 E.03742
G1 X87.319 Y121.454 E.04441
G1 X86.757 Y120.736 E.02859
G1 X85.989 Y119.498 E.04568
G1 X85.483 Y118.413 E.03754
G1 X85.049 Y117.083 E.04387
G1 X84.761 Y115.415 E.05307
G1 X84.739 Y99.625 E.49508
G1 X85.061 Y97.649 E.06277
G1 X85.656 Y95.952 E.05638
G1 X86.041 Y95.176 E.02716
G1 X86.859 Y93.901 E.0475
G1 X87.435 Y93.189 E.02871
G1 X88.258 Y92.365 E.03652
; printing object Shape-Box id:0 copy 0
G1 E-1.12 F2400
;WIPE_START
G1 F7200
G1 X88.3 Y92.322 E-.01903
G1 X88.356 Y92.266 E-.02508
G1 X89.161 Y91.611 E-.32864
G1 X89.45 Y91.435 E-.10725
;WIPE_END
G1 X114.001 Y110.726 F9000
G1 E1.6 F2400
;TYPE:Perimeter
G1 F1800
G1 X114.035 Y110.851 E.00406
G1 X113.75 Y110.911 E.00913
G1 X113.602 Y110.917 E.00464
G1 X113.51 Y110.896 E.00296
G1 X113.397 Y110.804 E.00457
G1 X113.363 Y110.729 E.00258
G1 X113.354 Y110.605 E.0039
G1 X113.382 Y110.489 E.00374
G1 X113.437 Y110.396 E.00339
G1 X113.52 Y110.325 E.00342
G1 X113.631 Y110.286 E.00369
G1 X113.755 Y110.285 E.00389
G1 X113.85 Y110.329 E.00328
G1 X113.933 Y110.476 E.00529
G1 X113.985 Y110.668 E.00624
G1 E-1.12 F2400
;WIPE_START
G1 F7200
G1 X114.001 Y110.726 E-.01905
G1 X114.035 Y110.851 E-.04102
G1 X113.75 Y110.911 E-.09223
G1 X113.602 Y110.917 E-.04691
G1 X113.51 Y110.896 E-.02988
G1 X113.397 Y110.804 E-.04614
G1 X113.363 Y110.729 E-.02608
G1 X113.354 Y110.605 E-.03937
G1 X113.382 Y110.489 E-.03779
G1 X113.437 Y110.396 E-.03421
G1 X113.52 Y110.325 E-.03459
G1 X113.617 Y110.291 E-.03273
;WIPE_END
G1 X111.619 Y111.615 F9000
G1 E1.6 F2400
G1 F1800
G1 X111.855 Y112.001 E.01419
G1 X111.679 Y112.343 E.01206
G1 X111.639 Y112.47 E.00417
G1 X111.488 Y112.037 E.01438
G1 X111.373 Y111.948 E.00456
G1 X111.444 Y111.913 E.00248
G1 X111.589 Y111.666 E.00898
G1 E-1.12 F2400
;WIPE_START
G1 F7200
G1 X111.619 Y111.615 E-.01874
G1 X111.855 Y112.001 E-.14327
G1 X111.679 Y112.343 E-.1218
G1 X111.639 Y112.47 E-.04216
G1 X111.488 Y112.037 E-.14522
G1 X111.466 Y112.02 E-.00881
;WIPE_END
G1 X113.93 Y112.756 F9000
G1 E1.6 F2400
G1 F1800
G1 X113.887 Y112.891 E.00444
G1 X113.847 Y112.951 E.00226
G1 X113.762 Y113.002 E.00311
G1 X113.653 Y113.002 E.00342
G1 X113.586 Y112.962 E.00245
G1 X113.591 Y112.857 E.0033
G1 X113.65 Y112.821 E.00217
G1 X113.841 Y112.762 E.00627
G1 X113.871 Y112.76 E.00094
G1 E-1.12 F2400
;WIPE_START
G1 F7200
G1 X113.93 Y112.756 E-.01873
G1 X113.887 Y112.891 E-.04487
G1 X113.847 Y112.951 E-.02284
G1 X113.762 Y113.002 E-.03139
G1 X113.653 Y113.002 E-.03452
G1 X113.586 Y112.962 E-.02471
G1 X113.591 Y112.857 E-.03329
G1 X113.65 Y112.821 E-.02189
G1 X113.841 Y112.762 E-.0633
G1 X113.871 Y112.76 E-.00952
;WIPE_END
G1 E-.17494 F2400
G1 X117.526 Y104.354 F9000
G1 E1.6 F2400
G1 F1800
G1 X117.483 Y104.49 E.00447
G1 X117.443 Y104.55 E.00226
G1 X117.358 Y104.601 E.00311
G1 X117.249 Y104.601 E.00342
G1 X117.181 Y104.56 E.00249
G1 X117.187 Y104.455 E.0033
G1 X117.246 Y104.419 E.00217
G1 X117.436 Y104.361 E.00623
G1 X117.466 Y104.359 E.00094
G1 E-1.12 F2400
;WIPE_START
G1 F7200
G1 X117.526 Y104.354 E-.01907
G1 X117.483 Y104.49 E-.04517
G1 X117.443 Y104.55 E-.02284
G1 X117.358 Y104.601 E-.03139
G1 X117.249 Y104.601 E-.03452
G1 X117.181 Y104.56 E-.02514
G1 X117.187 Y104.455 E-.0333
G1 X117.246 Y104.419 E-.02189
G1 X117.436 Y104.361 E-.06291
G1 X117.466 Y104.359 E-.00952
;WIPE_END
G1 E-.17425 F2400
G1 X117.597 Y102.324 F9000
G1 E1.6 F2400
G1 F1800
G1 X117.631 Y102.449 E.00406
G1 X117.346 Y102.51 E.00914
G1 X117.197 Y102.516 E.00468
G1 X117.105 Y102.495 E.00296
G1 X116.993 Y102.403 E.00454
G1 X116.959 Y102.328 E.00258
G1 X116.95 Y102.204 E.0039
G1 X116.977 Y102.088 E.00373
G1 X117.033 Y101.995 E.0034
G1 X117.116 Y101.924 E.00342
G1 X117.227 Y101.885 E.00369
G1 X117.35 Y101.884 E.00386
G1 X117.446 Y101.928 E.00331
G1 X117.529 Y102.075 E.00529
G1 X117.581 Y102.266 E.00621
G1 E-1.12 F2400
;WIPE_START
G1 F7200
G1 X117.597 Y102.324 E-.01905
G1 X117.631 Y102.449 E-.04102
G1 X117.346 Y102.51 E-.09229
G1 X117.197 Y102.516 E-.04722
G1 X117.105 Y102.495 E-.02988
G1 X116.993 Y102.403 E-.0459
G1 X116.959 Y102.328 E-.02608
G1 X116.95 Y102.204 E-.03937
G1 X116.977 Y102.088 E-.03772
G1 X117.033 Y101.995 E-.03438
G1 X117.116 Y101.924 E-.03459
G1 X117.212 Y101.89 E-.0325
;WIPE_END
G1 X123.224 Y102.459 F9000
G1 E1.6 F2400
G1 F1800
G1 X123.144 Y102.341 E.00447
G1 X123.131 Y102.237 E.00329
G1 X123.147 Y102.117 E.0038
G1 X123.185 Y102.034 E.00286
G1 X123.258 Y101.954 E.0034
G1 X123.335 Y101.907 E.00283
G1 X123.433 Y101.884 E.00316
G1 X123.543 Y101.887 E.00345
G1 X123.626 Y101.928 E.0029
G1 X123.691 Y102.026 E.00369
G1 X123.823 Y102.447 E.01383
G1 X123.526 Y102.51 E.00952
G1 X123.377 Y102.516 E.00468
G1 X123.285 Y102.495 E.00296
G1 X123.276 Y102.489 E.00034
G1 E-1.12 F2400
;WIPE_START
G1 F7200
G1 X123.224 Y102.459 E-.01901
G1 X123.144 Y102.341 E-.04514
G1 X123.131 Y102.237 E-.03319
G1 X123.147 Y102.117 E-.03834
G1 X123.185 Y102.034 E-.02891
G1 X123.258 Y101.954 E-.0343
G1 X123.335 Y101.907 E-.02857
G1 X123.433 Y101.884 E-.03188
G1 X123.543 Y101.887 E-.03485
G1 X123.626 Y101.928 E-.02932
G1 X123.691 Y102.026 E-.03724
G1 X123.804 Y102.385 E-.11925
;WIPE_END
G1 X125.157 Y103.858 F9000
G1 E1.6 F2400
G1 F1800
G1 X124.815 Y103.778 E.01101
G1 X124.45 Y103.736 E.01152
G1 X124.498 Y103.521 E.00691
G1 X124.577 Y102.833 E.02171
G1 X124.921 Y102.773 E.01095
G1 X125.22 Y102.664 E.00998
G1 X125.223 Y102.818 E.00483
G1 X125.317 Y103.255 E.01402
G1 X125.422 Y103.503 E.00844
G1 X125.561 Y103.72 E.00808
G1 X125.723 Y103.903 E.00766
G1 X125.216 Y103.87 E.01593
G1 X123.706 Y104.354 F9000
G1 F1800
G1 X123.663 Y104.49 E.00447
G1 X123.622 Y104.55 E.00228
G1 X123.538 Y104.601 E.00308
G1 X123.428 Y104.601 E.00345
G1 X123.361 Y104.56 E.00246
G1 X123.367 Y104.455 E.0033
G1 X123.426 Y104.419 E.00217
G1 X123.616 Y104.361 E.00623
G1 X123.646 Y104.359 E.00094
G1 E-1.12 F2400
;WIPE_START
G1 F7200
G1 X123.706 Y104.354 E-.01907
G1 X123.663 Y104.49 E-.04517
G1 X123.622 Y104.55 E-.02301
G1 X123.538 Y104.601 E-.03112
G1 X123.428 Y104.601 E-.03483
G1 X123.361 Y104.56 E-.02487
G1 X123.367 Y104.455 E-.0333
G1 X123.426 Y104.419 E-.02189
G1 X123.616 Y104.361 E-.06291
G1 X123.646 Y104.359 E-.00952
;WIPE_END
G1 E-.17431 F2400
G1 X123.699 Y110.852 F9000
G1 E1.6 F2400
G1 F1800
G1 X123.641 Y110.804 E.00236
G1 X123.607 Y110.729 E.00258
G1 X123.598 Y110.605 E.0039
G1 X123.625 Y110.489 E.00373
G1 X123.674 Y110.408 E.00297
G1 X123.753 Y110.336 E.00335
G1 X123.831 Y110.299 E.00271
G1 X123.998 Y110.285 E.00525
G1 X124.055 Y110.304 E.00188
G1 X124.136 Y110.385 E.00359
G1 X124.177 Y110.47 E.00296
G1 X124.286 Y110.849 E.01236
G1 X123.994 Y110.911 E.00936
G1 X123.845 Y110.917 E.00468
G1 X123.753 Y110.896 E.00296
G1 X123.745 Y110.89 E.00031
G1 X123.745 Y110.89 F9000
G1 X125.682 Y111.114
G1 F1800
G1 X125.655 Y111.396 E.00888
G1 X125.656 Y112.025 E.01972
G1 X125.676 Y112.256 E.00727
G1 X125.272 Y112.174 E.01293
G1 X124.919 Y112.136 E.01113
G1 X124.966 Y111.923 E.00684
G1 X125.044 Y111.243 E.02146
G1 X125.354 Y111.196 E.00983
G1 X125.624 Y111.129 E.00872
G1 E-1.12 F2400
;WIPE_START
G1 F7200
G1 X125.682 Y111.114 E-.01897
G1 X125.655 Y111.396 E-.08971
G1 X125.656 Y112.025 E-.19918
G1 X125.676 Y112.256 E-.07342
G1 X125.371 Y112.194 E-.09872
;WIPE_END
G1 X123.835 Y112.857 F9000
G1 E1.6 F2400
G1 F1800
G1 X123.894 Y112.821 E.00217
G1 X124.084 Y112.762 E.00624
G1 X124.174 Y112.756 E.00283
G1 X124.131 Y112.891 E.00444
G1 X124.091 Y112.951 E.00226
G1 X124.006 Y113.002 E.00311
G1 X123.897 Y113.002 E.00342
G1 X123.829 Y112.962 E.00247
G1 X123.832 Y112.917 E.00141
G1 E-1.12 F2400
;WIPE_START
G1 F7200
G1 X123.835 Y112.857 E-.01902
G1 X123.894 Y112.821 E-.02189
G1 X124.084 Y112.762 E-.063
G1 X124.174 Y112.756 E-.02856
G1 X124.131 Y112.891 E-.04487
G1 X124.091 Y112.951 E-.02284
G1 X124.006 Y113.002 E-.03139
G1 X123.897 Y113.002 E-.03452
G1 X123.829 Y112.962 E-.02498
G1 X123.832 Y112.917 E-.01428
;WIPE_END
G1 E-.17465 F2400
G1 X130.179 Y112.837 F9000
G1 E1.6 F2400
G1 F1800
G1 X130.24 Y112.425 E.01306
G1 X130.284 Y112.485 E.00233
G1 X130.474 Y112.673 E.00838
G1 X130.714 Y112.839 E.00915
G1 X130.239 Y112.837 E.01489
G1 E-1.12 F2400
;WIPE_START
G1 F7200
G1 X130.179 Y112.837 E-.019
G1 X130.24 Y112.425 E-.13189
G1 X130.284 Y112.485 E-.02356
G1 X130.474 Y112.673 E-.08464
G1 X130.714 Y112.839 E-.09241
G1 X130.308 Y112.837 E-.1285
;WIPE_END
G1 X131.694 Y110.801 F9000
G1 E1.6 F2400
G1 F1800
G1 X131.699 Y110.662 E.00436
G1 X131.746 Y110.501 E.00526
G1 X131.818 Y110.392 E.0041
G1 X131.903 Y110.323 E.00343
G1 X131.998 Y110.287 E.00319
G1 X132.116 Y110.285 E.0037
G1 X132.205 Y110.322 E.00302
G1 X132.292 Y110.44 E.0046
G1 X132.487 Y111.025 E.01933
G1 X132.332 Y111.174 E.00674
G1 X132.153 Y111.254 E.00615
G1 X132.02 Y111.257 E.00417
G1 X131.837 Y111.205 E.00596
G1 X131.73 Y111.071 E.00538
G1 X131.69 Y110.9 E.00551
G1 X131.692 Y110.861 E.00122
G1 E-1.12 F2400
;WIPE_START
G1 F7200
G1 X131.694 Y110.801 E-.01901
G1 X131.699 Y110.662 E-.04405
G1 X131.746 Y110.501 E-.05311
G1 X131.818 Y110.392 E-.04137
G1 X131.903 Y110.323 E-.03467
G1 X131.998 Y110.287 E-.03217
G1 X132.116 Y110.285 E-.03737
G1 X132.205 Y110.322 E-.03052
G1 X132.292 Y110.44 E-.04642
G1 X132.433 Y110.863 E-.14131
;WIPE_END
G1 X116.086 Y111.081 F9000
G1 E1.6 F2400
G1 F1800
G1 X114.799 Y111.252 E.04071
G1 X114.723 Y111.923 E.02117
G1 X114.675 Y112.136 E.00685
G1 X115.02 Y112.171 E.01087
G1 X116.042 Y112.354 E.03255
G1 X115.983 Y112.642 E.00922
G1 X116.315 Y112.138 E.01892
G1 X116.628 Y111.556 E.02072
G1 X116.957 Y110.769 E.02675
G1 X117.162 Y110.071 E.02281
G1 X117.269 Y109.449 E.01979
G1 X117.358 Y108.484 E.03039
G1 X119.351 Y108.484 E.06249
G1 X119.262 Y109.734 E.03929
G1 X119.154 Y110.345 E.01945
G1 X118.917 Y111.222 E.02848
G1 X118.754 Y111.674 E.01507
G1 X118.563 Y112.116 E.0151
G1 X118.332 Y112.555 E.01555
G1 X118.102 Y112.898 E.01295
G1 X118.808 Y112.844 E.0222
G1 X120.004 Y112.833 E.0375
G1 X120.005 Y114.803 E.06177
G1 X115.387 Y114.803 E.14479
G1 X115.387 Y114.153 E.02038
G1 X115.307 Y114.252 E.00399
G1 X115.011 Y114.505 E.01221
G1 X114.674 Y114.697 E.01216
G1 X114.307 Y114.823 E.01217
G1 X113.917 Y114.884 E.01238
G1 X113.455 Y114.877 E.01449
G1 X113.171 Y114.827 E.00904
G1 X112.906 Y114.748 E.00867
G1 X112.654 Y114.637 E.00863
G1 X112.417 Y114.498 E.00861
G1 X112.199 Y114.327 E.00869
G1 X112.008 Y114.126 E.00869
G1 X111.841 Y113.887 E.00914
G1 X111.649 Y113.451 E.01494
G1 X111.565 Y113.698 E.00818
G1 X111.379 Y114.03 E.01193
G1 X111.126 Y114.321 E.01209
G1 X110.776 Y114.588 E.0138
G1 X110.431 Y114.752 E.01198
G1 X110.206 Y114.82 E.00737
G1 X109.81 Y114.883 E.01257
G1 X109.394 Y114.883 E.01304
G1 X109.161 Y114.855 E.00736
G1 X108.783 Y114.758 E.01224
G1 X108.578 Y114.672 E.00697
G1 X108.381 Y114.564 E.00704
