; generated by PrusaSlicer 2.7.3+win64 on 2024-04-03 at 12:58:45 UTC


;
;

;
;
; 

; external perimeters extrusion width = 0.42mm
; perimeters extrusion width = 0.44mm
; infill extrusion width = 0.44mm
; solid infill extrusion width = 0.44mm
; top infill extrusion width = 0.40mm
; first layer extrusion width = 0.42mm


; printing object biqu_microprobe_v2_mount_ender_3_pro.stl id:0 copy 0
; stop printing object biqu_microprobe_v2_mount_ender_3_pro.stl id:0 copy 0

;TYPE:Custom
; Ender 3 Custom Start G-code
G92 E0 ; Reset Extruder

M140 S50 ; set bed temp
M104 S200 ; set extruder temp
M109 S200 ; wait for extruder temp
M190 S50 ; wait for bed temp

G28 ; Home all axes
M104 S210 ; set extruder temp 
BED_MESH_CALIBRATE AREA_START=100.687,105.187 AREA_END=130.308,125.813

G1 Z2.0 F3000 ; Move Z Axis up little to prevent scratching of Heat Bed
M109 S210 ; wait for extruder temp
G1 X0.1 Y20 Z0.3 F5000.0 ; Move to start position

G1 X0.1 Y200.0 Z0.3 F1500.0 E15 ; Draw the first line
G1 X0.4 Y200.0 Z0.3 F5000.0 ; Move to side a little
G1 X0.4 Y20 Z0.3 F1500.0 E30 ; Draw the second line
G92 E0 ; Reset Extruder
G1 Z2.0 F3000 ; Move Z Axis up little to prevent scratching of Heat Bed
G1 X5 Y20 Z0.3 F5000.0 ; Move over to prevent blob squish
G21 ; set units to millimeters
G90 ; use absolute coordinates
M83 ; use relative distances for extrusion
; Filament gcode
M107
;LAYER_CHANGE
;Z:0.08
;HEIGHT:0.08
G1 E-1.6 F2400
G1 Z.08 F6000
G1 X102.38 Y106.076
G1 Z.08
G1 E1.6 F2400
M204 S500
;TYPE:Skirt/Brim
;WIDTH:0.42
G1 F1200
G1 X104.5 Y105.389 E.02926
G1 X123.672 Y105.393 E.25173
G1 X124.622 Y105.487 E.01253
G1 X125.586 Y105.728 E.01305
G1 X126.46 Y106.09 E.01242
G1 X127.318 Y106.605 E.01314
G1 X128.047 Y107.204 E.01239
G1 X128.717 Y107.942 E.01309
G1 X129.242 Y108.726 E.01239
G1 X129.673 Y109.637 E.01323
G1 X129.947 Y110.545 E.01245
G1 X130.093 Y111.534 E.01313
G1 X130.093 Y112.466 E.01224
G1 X129.876 Y113.741 E.01698
G1 X129.536 Y114.694 E.01329
G1 X129.09 Y115.527 E.01241
G1 X128.492 Y116.331 E.01316
G1 X127.831 Y116.992 E.01227
G1 X127.027 Y117.59 E.01316
G1 X126.194 Y118.036 E.01241
G1 X109.975 Y125.296 E.23332
G1 X108.5 Y125.611 E.0198
G1 X104.5 Y125.611 E.05252
G1 X102.859 Y125.217 E.02216
G1 X101.576 Y124.12 E.02216
G1 X100.889 Y122 E.02926
G1 X100.889 Y109 E.17069
G1 X101.283 Y107.359 E.02216
G1 X102.341 Y106.122 E.02137
G1 X102.341 Y106.122 F6000
G1 X102.658 Y106.418
G1 F1200
G1 X102.77 Y106.298 E.00216
G1 X104.5 Y105.792 E.02367
G1 X123.653 Y105.795 E.25148
G1 X124.562 Y105.885 E.01199
G1 X125.451 Y106.108 E.01203
G1 X126.287 Y106.454 E.01188
G1 X127.078 Y106.929 E.01211
G1 X127.993 Y107.718 E.01586
G1 X128.57 Y108.42 E.01193
G1 X129.046 Y109.212 E.01213
G1 X129.392 Y110.049 E.01189
G1 X129.614 Y110.935 E.01199
G1 X129.705 Y111.847 E.01203
G1 X129.658 Y112.774 E.01219
G1 X129.392 Y113.951 E.01584
G1 X129.046 Y114.788 E.01189
G1 X128.571 Y115.578 E.0121
G1 X127.996 Y116.278 E.01189
G1 X127.314 Y116.896 E.01208
G1 X125.959 Y117.701 E.02069
G1 X109.811 Y124.929 E.2323
G1 X108.5 Y125.208 E.0176
G1 X104.5 Y125.208 E.05252
G1 X102.96 Y124.815 E.02087
G1 X101.798 Y123.73 E.02087
G1 X101.292 Y122 E.02367
G1 X101.292 Y109 E.17069
G1 X101.685 Y107.46 E.02087
G1 X102.617 Y106.461 E.01794
G1 X102.617 Y106.461 F6000
G1 X102.915 Y106.77
G1 F1200
G1 X103.156 Y106.537 E.0044
G1 X104.5 Y106.194 E.01821
G1 X123.633 Y106.198 E.25122
G1 X124.502 Y106.284 E.01147
G1 X125.315 Y106.487 E.011
G1 X126.115 Y106.818 E.01137
G1 X126.838 Y107.252 E.01107
G1 X127.695 Y107.989 E.01484
G1 X128.246 Y108.66 E.0114
G1 X128.682 Y109.385 E.01111
G1 X129.013 Y110.185 E.01137
G1 X129.216 Y110.996 E.01098
G1 X129.302 Y111.867 E.01149
G1 X129.26 Y112.713 E.01112
G1 X129.013 Y113.815 E.01483
G1 X128.682 Y114.615 E.01137
G1 X128.248 Y115.338 E.01107
G1 X127.698 Y116.007 E.01137
G1 X127.074 Y116.573 E.01106
G1 X125.794 Y117.333 E.01955
G1 X109.646 Y124.561 E.2323
G1 X108.5 Y124.806 E.01539
G1 X104.5 Y124.806 E.05252
G1 X103.068 Y124.413 E.0195
G1 X102.037 Y123.344 E.0195
G1 X101.694 Y122 E.01821
G1 X101.694 Y109 E.17069
G1 X102.087 Y107.568 E.0195
G1 X102.872 Y106.811 E.01432
G1 X102.872 Y106.811 F6000
G1 X103.143 Y107.132
G1 F1200
G1 X103.536 Y106.799 E.00676
G1 X104.5 Y106.597 E.01293
G1 X123.614 Y106.6 E.25097
G1 X124.442 Y106.682 E.01093
G1 X125.18 Y106.866 E.00999
G1 X125.943 Y107.182 E.01084
G1 X126.598 Y107.576 E.01004
G1 X127.397 Y108.261 E.01382
G1 X127.923 Y108.9 E.01087
G1 X128.318 Y109.557 E.01007
G1 X128.634 Y110.32 E.01084
G1 X128.818 Y111.056 E.00996
G1 X128.9 Y111.886 E.01095
G1 X128.862 Y112.653 E.01008
G1 X128.634 Y113.68 E.01381
G1 X128.318 Y114.443 E.01084
G1 X127.924 Y115.098 E.01004
G1 X127.4 Y115.736 E.01084
G1 X126.834 Y116.249 E.01003
G1 X125.63 Y116.965 E.01839
G1 X109.482 Y124.193 E.2323
G1 X108.5 Y124.403 E.01319
G1 X104.5 Y124.403 E.05252
G1 X103.185 Y124.011 E.01802
G1 X102.299 Y122.964 E.01801
G1 X102.097 Y122 E.01293
G1 X102.097 Y109 E.17069
G1 X102.489 Y107.685 E.01802
G1 X103.097 Y107.171 E.01045
G1 E-1.12 F2400
;WIPE_START
G1 F4800
G1 X103.143 Y107.132 E-.02865
G1 X103.536 Y106.799 E-.24468
G1 X103.962 Y106.71 E-.20667
;WIPE_END
; printing object biqu_microprobe_v2_mount_ender_3_pro.stl id:0 copy 0
G1 X124.773 Y110.503 F6000
G1 E1.6 F2400
;TYPE:Perimeter
G1 F1200
G1 X125.022 Y110.751 E.00461
G1 X125.236 Y111.072 E.00507
G1 X125.384 Y111.429 E.00507
G1 X125.458 Y111.808 E.00507
G1 X125.458 Y112.192 E.00504
G1 X125.384 Y112.571 E.00507
G1 X125.236 Y112.928 E.00507
G1 X125.022 Y113.249 E.00507
G1 X124.749 Y113.522 E.00507
G1 X124.428 Y113.736 E.00507
G1 X124.071 Y113.884 E.00507
G1 X123.692 Y113.958 E.00507
G1 X123.308 Y113.958 E.00504
G1 X122.929 Y113.884 E.00507
G1 X122.572 Y113.736 E.00507
G1 X122.251 Y113.522 E.00507
G1 X121.978 Y113.249 E.00507
G1 X121.764 Y112.928 E.00507
G1 X121.616 Y112.571 E.00507
G1 X121.542 Y112.192 E.00507
G1 X121.542 Y111.808 E.00504
G1 X121.616 Y111.429 E.00507
G1 X121.764 Y111.072 E.00507
G1 X121.978 Y110.751 E.00507
G1 X122.251 Y110.478 E.00507
G1 X122.572 Y110.264 E.00507
G1 X122.929 Y110.115 E.00508
G1 X123.308 Y110.042 E.00507
G1 X123.692 Y110.042 E.00504
G1 X124.071 Y110.115 E.00507
G1 X124.428 Y110.264 E.00508
G1 X124.727 Y110.464 E.00472
G1 X124.727 Y110.464 F6000
G1 X124.492 Y110.791
;TYPE:External perimeter
G1 F1200
G1 X124.709 Y111.008 E.00403
G1 X124.879 Y111.263 E.00402
G1 X124.997 Y111.546 E.00403
G1 X125.056 Y111.846 E.00401
G1 X125.056 Y112.154 E.00404
G1 X124.997 Y112.454 E.00401
G1 X124.879 Y112.737 E.00403
G1 X124.709 Y112.992 E.00402
G1 X124.492 Y113.209 E.00403
G1 X124.237 Y113.379 E.00402
G1 X123.954 Y113.497 E.00403
G1 X123.654 Y113.556 E.00401
G1 X123.346 Y113.556 E.00404
G1 X123.046 Y113.497 E.00401
G1 X122.763 Y113.379 E.00403
G1 X122.508 Y113.209 E.00402
G1 X122.291 Y112.992 E.00403
G1 X122.121 Y112.737 E.00402
G1 X122.003 Y112.454 E.00403
G1 X121.944 Y112.153 E.00403
G1 X121.944 Y111.847 E.00402
G1 X122.003 Y111.546 E.00403
G1 X122.121 Y111.263 E.00403
G1 X122.291 Y111.008 E.00402
G1 X122.508 Y110.791 E.00403
G1 X122.763 Y110.621 E.00402
G1 X123.046 Y110.503 E.00403
G1 X123.347 Y110.444 E.00403
G1 X123.653 Y110.444 E.00402
G1 X123.954 Y110.503 E.00403
G1 X124.237 Y110.621 E.00403
G1 X124.442 Y110.758 E.00324
G1 E-1.12 F2400
;WIPE_START
G1 F4800
G1 X124.492 Y110.791 E-.02846
G1 X124.709 Y111.008 E-.14577
G1 X124.879 Y111.263 E-.14557
G1 X124.997 Y111.546 E-.14564
G1 X125.003 Y111.576 E-.01456
;WIPE_END
G1 X107.787 Y114.287 F6000
G1 E1.6 F2400
;TYPE:Perimeter
G1 F1200
G1 X107.787 Y121.287 E.09191
G1 X105.213 Y121.287 E.0338
G1 X105.212 Y113.988 E.09584
G1 X105.19 Y113.438 E.00723
G1 X105.236 Y113.49 E.00091
G1 X105.56 Y113.726 E.00526
G1 X105.925 Y113.882 E.00521
G1 X106.306 Y113.958 E.0051
G1 X106.692 Y113.958 E.00507
G1 X107.071 Y113.885 E.00507
G1 X107.428 Y113.736 E.00508
G1 X107.749 Y113.522 E.00507
G1 X108.022 Y113.249 E.00507
G1 X108.236 Y112.928 E.00507
G1 X108.385 Y112.571 E.00508
G1 X108.458 Y112.192 E.00507
G1 X108.458 Y111.808 E.00504
G1 X108.385 Y111.429 E.00507
G1 X108.236 Y111.072 E.00508
G1 X108.022 Y110.751 E.00507
G1 X107.749 Y110.478 E.00507
G1 X107.428 Y110.264 E.00507
G1 X107.071 Y110.115 E.00508
G1 X106.692 Y110.042 E.00507
G1 X106.307 Y110.042 E.00506
G1 X105.925 Y110.118 E.00511
G1 X105.56 Y110.274 E.00521
G1 X105.201 Y110.55 E.00595
G1 X105.209 Y109.713 E.01099
G1 X123.724 Y109.724 E.24311
G1 X124.165 Y109.812 E.0059
G1 X124.375 Y109.887 E.00293
G1 X124.77 Y110.099 E.00589
G1 X125.116 Y110.384 E.00589
G1 X125.401 Y110.73 E.00589
G1 X125.613 Y111.125 E.00589
G1 X125.688 Y111.335 E.00293
G1 X125.776 Y111.776 E.0059
G1 X125.776 Y112.224 E.00588
G1 X125.688 Y112.665 E.0059
G1 X125.517 Y113.077 E.00586
G1 X125.401 Y113.27 E.00296
G1 X125.268 Y113.45 E.00294
G1 X124.95 Y113.768 E.0059
G1 X124.577 Y114.017 E.00589
G1 X124.165 Y114.188 E.00586
G1 X123.724 Y114.276 E.0059
G1 X123.483 Y114.287 E.00317
G1 X107.847 Y114.287 E.20531
G1 E-1.12 F2400
;WIPE_START
G1 F4800
G1 X107.787 Y114.287 E-.0285
G1 X107.787 Y115.238 E-.4515
;WIPE_END
G1 X105.307 Y112.962 F6000
G1 E1.6 F2400
;TYPE:External perimeter
G1 F1200
G1 X105.225 Y112.82 E.00215
G1 X105.162 Y112.672 E.00211
G1 X105.045 Y112.152 E.007
G1 X105.036 Y111.995 E.00206
G1 X105.065 Y111.72 E.00363
G1 X105.165 Y111.32 E.00541
G1 X105.303 Y111.043 E.00406
G1 X105.509 Y110.81 E.00408
G1 X105.76 Y110.627 E.00408
G1 X106.045 Y110.505 E.00407
G1 X106.346 Y110.445 E.00403
G1 X106.653 Y110.444 E.00403
G1 X106.954 Y110.503 E.00403
G1 X107.237 Y110.621 E.00403
G1 X107.492 Y110.791 E.00402
G1 X107.709 Y111.008 E.00403
G1 X107.879 Y111.263 E.00402
G1 X107.997 Y111.546 E.00403
G1 X108.056 Y111.847 E.00403
G1 X108.056 Y112.153 E.00402
G1 X107.997 Y112.454 E.00403
G1 X107.879 Y112.737 E.00403
G1 X107.709 Y112.992 E.00402
G1 X107.492 Y113.209 E.00403
G1 X107.237 Y113.379 E.00402
G1 X106.954 Y113.497 E.00403
G1 X106.653 Y113.556 E.00403
G1 X106.346 Y113.555 E.00403
G1 X106.045 Y113.495 E.00403
G1 X105.76 Y113.373 E.00407
G1 X105.509 Y113.19 E.00408
G1 X105.347 Y113.007 E.00321
G1 E-1.12 F2400
;WIPE_START
G1 F4800
G1 X105.307 Y112.962 E-.0286
G1 X105.225 Y112.82 E-.07789
G1 X105.162 Y112.672 E-.0764
G1 X105.045 Y112.152 E-.25317
G1 X105.04 Y112.06 E-.04394
;WIPE_END
G1 X108.19 Y114.69 F6000
G1 E1.6 F2400
G1 F1200
G1 X108.19 Y121.69 E.09191
G1 X104.81 Y121.69 E.04438
G1 X104.809 Y113.996 E.10102
G1 X104.769 Y112.983 E.01331
G1 X104.71 Y112.488 E.00655
G1 X104.71 Y111.512 E.01282
G1 X104.769 Y111.019 E.00652
G1 X104.8 Y110.507 E.00674
G1 X104.809 Y109.31 E.01572
G1 X123.493 Y109.31 E.24533
G1 X123.763 Y109.323 E.00355
G1 X124.281 Y109.426 E.00693
G1 X124.529 Y109.515 E.00346
G1 X124.767 Y109.628 E.00346
G1 X124.994 Y109.764 E.00347
G1 X125.206 Y109.921 E.00346
G1 X125.402 Y110.098 E.00347
G1 X125.579 Y110.294 E.00347
G1 X125.736 Y110.506 E.00346
G1 X125.872 Y110.733 E.00347
G1 X125.985 Y110.971 E.00346
G1 X126.074 Y111.219 E.00346
G1 X126.177 Y111.737 E.00693
G1 X126.19 Y112 E.00346
G1 X126.177 Y112.263 E.00346
G1 X126.074 Y112.781 E.00693
G1 X125.985 Y113.029 E.00346
G1 X125.872 Y113.267 E.00346
G1 X125.736 Y113.494 E.00347
G1 X125.579 Y113.706 E.00346
G1 X125.402 Y113.902 E.00347
G1 X125.206 Y114.079 E.00347
G1 X124.994 Y114.236 E.00346
G1 X124.767 Y114.372 E.00347
G1 X124.529 Y114.485 E.00346
G1 X124.281 Y114.574 E.00346
G1 X123.763 Y114.677 E.00693
G1 X123.493 Y114.69 E.00355
G1 X108.25 Y114.69 E.20014
G1 E-1.12 F2400
;WIPE_START
G1 F4800
G1 X108.19 Y114.69 E-.0285
G1 X108.19 Y115.641 E-.4515
;WIPE_END
G1 X105.023 Y112.913 F6000
G1 E1.6 F2400
;TYPE:Gap fill
;WIDTH:0.0802117
G1 F1200
G1 X104.971 Y112.79 E.00027
G1 X104.971 Y112.79 F6000
G1 X104.969 Y111.214
;WIDTH:0.121125
G1 F1200
G1 X105.109 Y110.73 E.00171
G1 X105.109 Y110.73 F6000
G1 X105.124 Y110.736
;WIDTH:0.222363
G1 F1200
G1 X104.953 Y111.209 E.00336
G1 X104.953 Y111.209 F6000
G1 X105.407 Y110.128
;WIDTH:0.0915073
G1 F1200
G1 X105.533 Y109.914 E.0006
G1 X105.533 Y109.914 F6000
G1 X107.217 Y109.918
;WIDTH:0.204096
G1 F1200
G1 X107.741 Y110.049 E.00329
G1 E-1.12 F2400
;WIPE_START
G1 F4800
G1 X107.217 Y109.918 E-.25656
;WIPE_END
G1 E-.22344 F2400
G1 X121.251 Y109.852 F6000
G1 E1.6 F2400
;TYPE:Solid infill
;WIDTH:0.422921
G1 F1200
G1 X121.845 Y110.446 E.01111
G1 X121.737 Y110.553 E.00201
G1 X121.594 Y110.768 E.00341
G1 X120.858 Y110.033 E.01376
G1 X120.284 Y110.032 E.00759
G1 X121.397 Y111.145 E.02082
G1 X121.317 Y111.339 E.00278
G1 X121.268 Y111.59 E.00338
G1 X119.71 Y110.032 E.02914
G1 X119.136 Y110.032 E.00759
G1 X121.231 Y112.127 E.03918
G1 X121.231 Y112.222 E.00126
G1 X121.317 Y112.661 E.00592
G1 X121.406 Y112.876 E.00308
G1 X118.562 Y110.031 E.0532
G1 X117.988 Y110.031 E.00759
G1 X121.933 Y113.977 E.0738
G1 X121.36 Y113.977 E.00758
G1 X117.413 Y110.031 E.07381
G1 X116.839 Y110.03 E.00759
G1 X120.786 Y113.977 E.07382
G1 X120.212 Y113.977 E.00759
G1 X116.265 Y110.03 E.07382
G1 X115.691 Y110.029 E.00759
G1 X119.638 Y113.977 E.07383
G1 X119.065 Y113.977 E.00758
G1 X115.117 Y110.029 E.07384
G1 X114.543 Y110.029 E.00759
G1 X118.491 Y113.977 E.07384
G1 X117.917 Y113.977 E.00759
G1 X113.968 Y110.028 E.07386
G1 X113.394 Y110.028 E.00759
G1 X117.343 Y113.977 E.07386
G1 X116.769 Y113.977 E.00759
G1 X112.82 Y110.028 E.07386
G1 X112.246 Y110.027 E.00759
G1 X116.195 Y113.977 E.07387
G1 X115.622 Y113.977 E.00758
G1 X111.672 Y110.027 E.07388
G1 X111.097 Y110.027 E.0076
G1 X115.048 Y113.977 E.07389
G1 X114.474 Y113.977 E.00759
G1 X110.523 Y110.026 E.0739
G1 X109.949 Y110.026 E.00759
G1 X113.9 Y113.977 E.0739
G1 X113.326 Y113.977 E.00759
G1 X109.375 Y110.026 E.0739
G1 X108.801 Y110.025 E.00759
G1 X112.753 Y113.977 E.07392
G1 X112.179 Y113.977 E.00759
G1 X108.227 Y110.025 E.07392
G1 X108.067 Y110.025 E.00212
G1 X108 Y110.291 E.00363
G1 X108.263 Y110.553 E.00491
G1 X108.426 Y110.798 E.00389
G1 X111.605 Y113.977 E.05946
G1 X111.031 Y113.977 E.00759
G1 X108.753 Y111.699 E.04261
G1 X108.769 Y111.778 E.00107
G1 X108.758 Y112.278 E.00661
G1 X110.457 Y113.977 E.03178
G1 X109.883 Y113.977 E.00759
G1 X108.649 Y112.743 E.02308
G1 X108.47 Y113.137 E.00572
G1 X109.31 Y113.977 E.01571
G1 X108.736 Y113.977 E.00759
G1 X108.234 Y113.475 E.00939
G1 X107.947 Y113.762 E.00537
G1 X108.343 Y114.158 E.00741
G1 X108.343 Y114.158 F6000
G1 X107.658 Y114.621
G1 F1200
G1 X107.203 Y114.166 E.00851
G1 X106.73 Y114.267 E.0064
G1 X107.477 Y115.014 E.01397
G1 X107.477 Y115.587 E.00758
G1 X106.129 Y114.239 E.02521
G1 X105.832 Y114.18 E.004
G1 X105.522 Y114.047 E.00446
G1 X105.522 Y114.206 E.0021
G1 X107.477 Y116.161 E.03657
G1 X107.477 Y116.735 E.00759
G1 X105.522 Y114.78 E.03657
G1 X105.522 Y115.354 E.00759
G1 X107.477 Y117.309 E.03657
G1 X107.477 Y117.883 E.00759
G1 X105.522 Y115.928 E.03657
G1 X105.522 Y116.502 E.00759
G1 X107.477 Y118.456 E.03656
G1 X107.477 Y119.03 E.00759
G1 X105.522 Y117.076 E.03656
G1 X105.522 Y117.649 E.00758
G1 X107.477 Y119.604 E.03657
G1 X107.477 Y120.178 E.00759
G1 X105.522 Y118.223 E.03657
G1 X105.523 Y118.797 E.00759
G1 X107.477 Y120.752 E.03656
G1 X107.477 Y120.977 E.00298
G1 X107.128 Y120.977 E.00462
G1 X105.523 Y119.371 E.03003
G1 X105.523 Y119.945 E.00759
G1 X106.555 Y120.977 E.0193
G1 X105.981 Y120.977 E.00759
G1 X105.341 Y120.338 E.01196
G1 E-1.12 F2400
;WIPE_START
G1 F4800
G1 X105.981 Y120.977 E-.42959
G1 X106.087 Y120.977 E-.05041
;WIPE_END
G1 X122.259 Y113.951 F6000
G1 E1.6 F2400
;TYPE:Gap fill
;WIDTH:0.204101
G1 F1200
G1 X122.783 Y114.082 E.00329
G1 E-1.12 F2400
;WIPE_START
G1 F4800
G1 X122.259 Y113.951 E-.25656
;WIPE_END
G1 E-.22344 F2400
G1 X122.259 Y110.049 F6000
G1 E1.6 F2400
;WIDTH:0.204096
G1 F1200
G1 X122.783 Y109.918 E.00329
M106 S255
;LAYER_CHANGE
;Z:0.16
;HEIGHT:0.08
;BEFORE_LAYER_CHANGE
G92 E0
;0.16


G1 E-1.12 F2400
;WIPE_START
G1 F4800
G1 X122.259 Y110.049 E-.25656
;WIPE_END
G1 E-.22344 F2400
G1 Z.16 F6000
;AFTER_LAYER_CHANGE
;0.16
G1 Z.16
G1 X122.43 Y110.46
G1 E1.6 F2400
;TYPE:Perimeter
;WIDTH:0.44
G1 F1500
G1 X122.457 Y110.438 E.00048
G1 X122.782 Y110.265 E.00507
G1 X123.134 Y110.158 E.00507
G1 X123.495 Y110.122 E.005
G1 X123.865 Y110.158 E.00512
G1 X124.218 Y110.265 E.00508
G1 X124.543 Y110.438 E.00507
G1 X124.829 Y110.671 E.00508
