; generated by PrusaSlicer 2.6.0-alpha4+MacOS-x64 on 2023-02-27 at 23:02:01 UTC

; 

; external perimeters extrusion width = 0.42mm
; perimeters extrusion width = 0.44mm
; infill extrusion width = 0.44mm
; solid infill extrusion width = 0.44mm
; top infill extrusion width = 0.40mm
; first layer extrusion width = 0.42mm

M201 X500 Y500 Z100 E5000 ; sets maximum accelerations, mm/sec^2
M203 X500 Y500 Z10 E60 ; sets maximum feedrates, mm / sec
M204 P500 R1000 T500 ; sets acceleration (P, T) and retract acceleration (R), mm/sec^2
M205 X8.00 Y8.00 Z0.40 E5.00 ; sets the jerk limits, mm/sec
M205 S0 T0 ; sets the minimum extruding and travel feed rate, mm/sec
M107
;TYPE:Custom
G90 ; use absolute coordinates 
M83 ; extruder relative mode 
M104 S170 ; set extruder temp for bed leveling 
M140 S60 ; set bed temp 
M109 R170 ; wait for bed leveling temp 
M190 S60 ; wait for bed temp 
G28 ; home all axis 
M420 S1 ; Eneble mesh stored in EEPROM 
M104 S210; set extruder temp 
G1 Z50 F240 
G1 X2 Y10 F3000 
M109 S210 ; wait for extruder temp 
G1 Z0.28 F240 
G92 E0 
G1 Y140 E10 F1500 ; prime the nozzle 
G1 X2.3 F5000 
G92 E0 
G1 Y10 E10 F1200 ; prime the nozzle 
G92 E0
G21 ; set units to millimeters
G90 ; use absolute coordinates
M83 ; use relative distances for extrusion
; Filament gcode
M107
;LAYER_CHANGE
;Z:0.2
;HEIGHT:0.2
;BEFORE_LAYER_CHANGE
G92 E0
;0.2


G1 E-5 F3600
G1 Z.2 F9000
;AFTER_LAYER_CHANGE
;0.2
G1 X20.874 Y21.23
G1 E5 F2400
M204 S500
;TYPE:Skirt/Brim
;WIDTH:0.42
G1 F1200
G1 X21.615 Y20.501 E.03259
G1 X22.666 Y19.658 E.04224
G1 X23.797 Y18.925 E.04226
G1 X24.995 Y18.309 E.04224
G1 X26.25 Y17.817 E.04227
G1 X27.548 Y17.453 E.04227
G1 X28.876 Y17.222 E.04226
G1 X30.22 Y17.126 E.04225
G1 X200.67 Y17.124 E5.34434
G1 X201.902 Y17.197 E.0387
G1 X203.234 Y17.405 E.04227
G1 X204.538 Y17.747 E.04227
G1 X205.8 Y18.218 E.04224
G1 X207.009 Y18.814 E.04226
G1 X207.874 Y19.339 E.03173
G1 X208.96 Y20.138 E.04227
G1 X209.879 Y20.962 E.0387
G1 X210.574 Y21.698 E.03174
G1 X211.408 Y22.756 E.04224
G1 X212.132 Y23.893 E.04226
G1 X212.692 Y24.994 E.03873
G1 X213.073 Y25.931 E.03171
G1 X213.469 Y27.22 E.04228
G1 X213.733 Y28.541 E.04224
G1 X213.863 Y29.883 E.04227
G1 X213.874 Y200.781 E5.35839
G1 X213.639 Y203.014 E.0704
G1 X213.319 Y204.323 E.04225
G1 X212.912 Y205.489 E.03872
G1 X212.348 Y206.712 E.04223
G1 X211.844 Y207.59 E.03174
G1 X211.073 Y208.696 E.04227
G1 X210.272 Y209.635 E.0387
G1 X209.303 Y210.572 E.04226
G1 X208.245 Y211.407 E.04226
G1 X207.108 Y212.131 E.04226
G1 X205.904 Y212.737 E.04226
G1 X204.646 Y213.218 E.04223
G1 X203.345 Y213.571 E.04227
G1 X202.015 Y213.791 E.04227
G1 X200.585 Y213.877 E.04492
G1 X30.22 Y213.874 E5.34167
G1 X29.21 Y213.814 E.03172
G1 X27.877 Y213.617 E.04225
G1 X26.57 Y213.286 E.04227
G1 X25.408 Y212.869 E.03871
G1 X24.189 Y212.294 E.04226
G1 X23.315 Y211.783 E.03174
G1 X22.217 Y211.003 E.04223
G1 X21.284 Y210.194 E.03872
G1 X20.355 Y209.218 E.04225
G1 X19.529 Y208.153 E.04226
G1 X18.815 Y207.01 E.04226
G1 X18.219 Y205.801 E.04226
G1 X17.748 Y204.538 E.04226
G1 X17.406 Y203.234 E.04227
G1 X17.198 Y201.902 E.04227
G1 X17.124 Y200.5 E.04402
G1 X17.13 Y30.107 E5.34255
G1 X17.384 Y27.877 E.07037
G1 X17.714 Y26.57 E.04227
G1 X18.048 Y25.615 E.03172
G1 X18.551 Y24.488 E.0387
G1 X19.217 Y23.316 E.04227
G1 X19.997 Y22.217 E.04226
G1 X20.654 Y21.446 E.03176
G1 X20.831 Y21.272 E.00778
; printing object BosZx_Bed_Level_Full.stl id:0 copy 0
G1 E-3.5 F3600
;WIPE_START
G1 F7200
G1 X21.615 Y20.501 E-.5223
G1 X22.666 Y19.658 E-.63997
G1 X23.263 Y19.271 E-.33773
;WIPE_END
G1 X192.028 Y203.3 F9000
G1 E5 F2400
;TYPE:Perimeter
;WIDTH:0.419999
G1 F1200
G1 X191.789 Y202.433 E.0282
G1 X191.639 Y201.547 E.02818
G1 X191.579 Y200.65 E.02819
G1 X191.571 Y200.2 E.01411
G1 X191.647 Y199.303 E.02823
G1 X191.812 Y198.418 E.02823
G1 X192.066 Y197.554 E.02824
G1 X192.405 Y196.72 E.02823
G1 X192.826 Y195.925 E.02821
G1 X193.326 Y195.176 E.02824
G1 X193.898 Y194.481 E.02822
G1 X194.537 Y193.847 E.02822
G1 X195.243 Y193.275 E.02849
G1 X195.727 Y192.947 E.01833
G1 X196.518 Y192.502 E.02846
G1 X197.343 Y192.142 E.02822
G1 X198.2 Y191.867 E.02822
G1 X199.081 Y191.679 E.02825
G1 X199.976 Y191.581 E.02823
G1 X200.876 Y191.573 E.02822
G1 X201.772 Y191.656 E.02821
G1 X202.656 Y191.829 E.02824
G1 X203.517 Y192.09 E.02821
G1 X204.348 Y192.436 E.02822
G1 X205.14 Y192.864 E.02823
G1 X205.892 Y193.375 E.02851
G1 X206.346 Y193.742 E.0183
G1 X207.001 Y194.371 E.02847
G1 X207.585 Y195.056 E.02822
G1 X208.097 Y195.797 E.02824
G1 X208.532 Y196.585 E.02822
G1 X208.885 Y197.413 E.02822
G1 X209.153 Y198.272 E.02821
G1 X209.333 Y199.154 E.02822
G1 X209.424 Y200.05 E.02824
G1 X209.424 Y200.95 E.02822
G1 X209.333 Y201.846 E.02824
G1 X209.153 Y202.728 E.02822
G1 X208.885 Y203.587 E.02821
G1 X208.532 Y204.415 E.02822
G1 X208.097 Y205.203 E.02822
G1 X207.585 Y205.944 E.02824
G1 X207.001 Y206.629 E.02822
G1 X206.346 Y207.258 E.02847
G1 X205.892 Y207.625 E.0183
G1 X205.14 Y208.136 E.02851
G1 X204.348 Y208.564 E.02823
G1 X203.517 Y208.91 E.02822
G1 X202.656 Y209.171 E.02821
G1 X201.772 Y209.344 E.02824
G1 X200.876 Y209.427 E.02821
G1 X199.976 Y209.419 E.02822
G1 X199.081 Y209.321 E.02823
G1 X198.2 Y209.133 E.02825
G1 X197.343 Y208.858 E.02822
G1 X196.518 Y208.498 E.02822
G1 X195.727 Y208.053 E.02846
G1 X195.243 Y207.725 E.01833
G1 X194.537 Y207.153 E.02849
G1 X194.1 Y206.719 E.01931
G1 X193.703 Y206.291 E.0183
G1 X193.247 Y205.696 E.0235
G1 X192.76 Y204.94 E.0282
G1 X192.353 Y204.139 E.02817
G1 X192.05 Y203.356 E.02632
G1 X191.67 Y203.418 F9000
G1 F1200
G1 X191.421 Y202.515 E.02937
G1 X191.265 Y201.591 E.02938
G1 X191.202 Y200.656 E.02938
G1 X191.194 Y200.187 E.01471
G1 X191.273 Y199.252 E.02942
G1 X191.445 Y198.33 E.02941
G1 X191.709 Y197.43 E.02941
G1 X192.063 Y196.561 E.02942
G1 X192.502 Y195.731 E.02944
G1 X193.023 Y194.951 E.02941
G1 X193.619 Y194.226 E.02943
G1 X194.285 Y193.566 E.0294
G1 X195.018 Y192.972 E.02958
G1 X195.528 Y192.627 E.01931
G1 X196.35 Y192.164 E.02958
G1 X197.21 Y191.789 E.02942
G1 X198.103 Y191.502 E.02941
G1 X199.021 Y191.306 E.02943
G1 X199.953 Y191.204 E.0294
G1 X200.892 Y191.196 E.02944
G1 X201.826 Y191.283 E.02941
G1 X202.747 Y191.463 E.02942
G1 X203.645 Y191.735 E.02942
G1 X204.511 Y192.096 E.02942
G1 X205.336 Y192.542 E.02941
G1 X206.117 Y193.072 E.02959
G1 X206.595 Y193.459 E.01928
G1 X207.276 Y194.112 E.02958
G1 X207.885 Y194.826 E.02942
G1 X208.418 Y195.598 E.02941
G1 X208.871 Y196.419 E.0294
G1 X209.239 Y197.282 E.02942
G1 X209.519 Y198.178 E.02943
G1 X209.707 Y199.097 E.02941
G1 X209.801 Y200.031 E.02943
G1 X209.801 Y200.969 E.02941
G1 X209.707 Y201.903 E.02943
G1 X209.519 Y202.822 E.02941
G1 X209.239 Y203.718 E.02943
G1 X208.871 Y204.581 E.02942
G1 X208.418 Y205.402 E.0294
G1 X207.885 Y206.174 E.02941
G1 X207.276 Y206.888 E.02942
G1 X206.595 Y207.541 E.02958
G1 X206.117 Y207.928 E.01928
G1 X205.336 Y208.458 E.02959
G1 X204.511 Y208.904 E.02941
G1 X203.645 Y209.265 E.02942
G1 X202.747 Y209.537 E.02942
G1 X201.826 Y209.717 E.02942
G1 X200.892 Y209.804 E.02941
G1 X199.953 Y209.796 E.02944
G1 X199.021 Y209.694 E.0294
G1 X198.103 Y209.498 E.02943
G1 X197.21 Y209.211 E.02941
G1 X196.35 Y208.836 E.02942
G1 X195.528 Y208.373 E.02958
G1 X195.018 Y208.028 E.01931
G1 X194.285 Y207.434 E.02958
G1 X193.834 Y206.987 E.01991
G1 X193.416 Y206.536 E.01928
G1 X192.94 Y205.916 E.02451
G1 X192.433 Y205.128 E.02938
G1 X192.009 Y204.292 E.02939
G1 X191.692 Y203.474 E.02751
G1 X191.312 Y203.537 F9000
;TYPE:External perimeter
G1 F1200
G1 X191.053 Y202.597 E.03057
G1 X190.89 Y201.635 E.03059
G1 X190.825 Y200.663 E.03054
G1 X190.816 Y200.174 E.01533
G1 X190.898 Y199.202 E.03058
G1 X191.078 Y198.242 E.03062
G1 X191.353 Y197.305 E.03062
G1 X191.721 Y196.401 E.0306
G1 X192.178 Y195.538 E.03062
G1 X192.719 Y194.726 E.03059
G1 X193.34 Y193.972 E.03063
G1 X194.033 Y193.285 E.0306
G1 X194.793 Y192.669 E.03067
G1 X195.329 Y192.306 E.0203
G1 X196.182 Y191.826 E.03069
G1 X197.076 Y191.436 E.03058
G1 X198.006 Y191.137 E.03063
G1 X198.961 Y190.933 E.03062
G1 X199.931 Y190.827 E.03059
G1 X200.908 Y190.819 E.03063
G1 X201.88 Y190.909 E.03061
G1 X202.838 Y191.096 E.0306
G1 X203.772 Y191.379 E.0306
G1 X204.673 Y191.755 E.03061
G1 X205.532 Y192.219 E.03061
G1 X206.342 Y192.768 E.03068
G1 X206.845 Y193.176 E.02031
G1 X207.551 Y193.853 E.03067
G1 X208.184 Y194.596 E.0306
G1 X208.739 Y195.399 E.03061
G1 X209.211 Y196.254 E.03062
G1 X209.594 Y197.152 E.03061
G1 X209.884 Y198.084 E.0306
G1 X210.08 Y199.04 E.0306
G1 X210.178 Y200.012 E.03063
G1 X210.178 Y200.988 E.0306
G1 X210.08 Y201.96 E.03063
G1 X209.884 Y202.916 E.0306
G1 X209.594 Y203.848 E.0306
G1 X209.211 Y204.746 E.03061
G1 X208.739 Y205.601 E.03062
G1 X208.184 Y206.404 E.03061
G1 X207.551 Y207.147 E.0306
G1 X206.845 Y207.824 E.03067
G1 X206.342 Y208.232 E.02031
G1 X205.532 Y208.781 E.03068
G1 X204.673 Y209.245 E.03061
G1 X203.772 Y209.621 E.03061
G1 X202.838 Y209.904 E.0306
G1 X201.88 Y210.091 E.0306
G1 X200.908 Y210.181 E.03061
G1 X199.931 Y210.173 E.03063
G1 X198.961 Y210.067 E.03059
G1 X198.006 Y209.863 E.03062
G1 X197.076 Y209.564 E.03063
G1 X196.182 Y209.174 E.03058
G1 X195.329 Y208.694 E.03069
G1 X194.793 Y208.331 E.0203
G1 X194.033 Y207.715 E.03067
G1 X193.569 Y207.255 E.02049
G1 X193.129 Y206.78 E.0203
G1 X192.633 Y206.135 E.02551
G1 X192.106 Y205.315 E.03056
G1 X191.664 Y204.446 E.03057
G1 X191.334 Y203.593 E.02868
G1 X191.578 Y203.238 F9000
G1 E-3.5 F3600
;WIPE_START
G1 F7200
G1 X191.053 Y202.597 E-.49157
G1 X190.89 Y201.635 E-.46346
G1 X190.825 Y200.663 E-.46273
G1 X190.822 Y200.49 E-.08224
;WIPE_END
G1 X205.406 Y193.19 F9000
G1 E5 F2400
;TYPE:Solid infill
;WIDTH:0.426662
G1 F1200
G1 X206.816 Y194.601 E.06365
G1 X207.355 Y195.233 E.0265
G1 X207.85 Y195.95 E.0278
G1 X208.13 Y196.458 E.01851
G1 X204.545 Y192.873 E.16177
G1 X204.223 Y192.699 E.01168
G1 X203.547 Y192.417 E.02337
G1 X208.589 Y197.459 E.22752
G1 X208.844 Y198.257 E.02673
G1 X202.747 Y192.16 E.27513
G1 X202.586 Y192.111 E.00537
G1 X202.051 Y192.007 E.01739
G1 X208.996 Y198.951 E.31337
G1 X209.046 Y199.198 E.00804
G1 X209.085 Y199.583 E.01235
G1 X201.417 Y191.915 E.34602
G1 X200.823 Y191.864 E.01902
G1 X209.134 Y200.175 E.37503
G1 X209.134 Y200.717 E.01729
G1 X200.285 Y191.869 E.39929
G1 X199.993 Y191.871 E.00932
G1 X199.769 Y191.896 E.00719
G1 X209.104 Y201.23 E.42122
G1 X209.054 Y201.723 E.01581
G1 X199.28 Y191.949 E.44105
G1 X198.82 Y192.031 E.01491
G1 X208.969 Y202.18 E.45797
G1 X208.877 Y202.631 E.01469
G1 X198.372 Y192.127 E.47402
G1 X197.954 Y192.251 E.01391
G1 X208.75 Y203.047 E.48717
G1 X208.62 Y203.46 E.01382
G1 X197.543 Y192.383 E.49985
G1 X197.157 Y192.54 E.0133
G1 X208.46 Y203.843 E.51005
G1 X208.298 Y204.223 E.01318
G1 X196.78 Y192.705 E.51975
G1 X196.422 Y192.89 E.01286
G1 X208.11 Y204.578 E.52742
G1 X207.917 Y204.928 E.01275
G1 X196.074 Y193.085 E.53442
G1 X195.738 Y193.291 E.01258
G1 X207.706 Y205.259 E.54006
G1 X207.484 Y205.58 E.01245
G1 X195.414 Y193.51 E.54466
G1 X195.115 Y193.753 E.01229
G1 X207.251 Y205.889 E.54764
G1 X207.001 Y206.182 E.01229
G1 X194.815 Y193.996 E.54989
G1 X194.534 Y194.259 E.01228
G1 X206.747 Y206.471 E.55109
G1 X206.47 Y206.737 E.01225
G1 X194.262 Y194.529 E.55089
G1 X194.002 Y194.811 E.01224
G1 X206.193 Y207.002 E.55012
G1 X205.896 Y207.248 E.01231
G1 X193.757 Y195.109 E.54777
G1 X193.517 Y195.412 E.01233
G1 X205.587 Y207.482 E.54466
G1 X205.263 Y207.701 E.01248
G1 X193.3 Y195.738 E.53983
G1 X193.083 Y196.063 E.01247
G1 X204.936 Y207.916 E.53487
G1 X204.584 Y208.106 E.01276
G1 X192.894 Y196.417 E.52749
G1 X192.706 Y196.772 E.01282
G1 X204.231 Y208.297 E.52007
G1 X203.849 Y208.457 E.01321
G1 X192.543 Y197.151 E.51018
G1 X192.386 Y197.537 E.0133
G1 X203.466 Y208.617 E.49999
G1 X203.053 Y208.747 E.01382
G1 X192.253 Y197.947 E.48735
G1 X192.13 Y198.366 E.01393
G1 X202.637 Y208.873 E.47413
G1 X202.188 Y208.967 E.01464
G1 X192.034 Y198.813 E.4582
G1 X191.948 Y199.27 E.01484
G1 X201.734 Y209.055 E.44157
G1 X201.237 Y209.102 E.01593
G1 X191.899 Y199.764 E.42138
G1 X191.863 Y200.27 E.01619
G1 X200.728 Y209.135 E.40003
G1 X200.181 Y209.131 E.01745
G1 X191.872 Y200.822 E.37494
G1 X191.876 Y201.08 E.00823
G1 X191.915 Y201.407 E.01051
G1 X199.593 Y209.085 E.34647
G1 X198.964 Y208.999 E.02026
G1 X191.998 Y202.033 E.31434
G1 X192.153 Y202.731 E.02281
G1 X198.274 Y208.852 E.27621
G1 X197.475 Y208.595 E.02678
G1 X192.41 Y203.531 E.22854
G1 X192.851 Y204.514 E.03438
G1 X196.48 Y208.143 E.16376
G1 X195.879 Y207.806 E.02199
G1 X195.416 Y207.491 E.01787
G1 X194.731 Y206.937 E.02811
G1 X193.154 Y205.36 E.07116
G1 E-3.5 F3600
;WIPE_START
G1 F7200
G1 X194.731 Y206.937 E-1.05935
G1 X195.416 Y207.491 E-.41847
G1 X195.455 Y207.517 E-.02218
;WIPE_END
G1 X163.385 Y165.13 F9000
G1 E5 F2400
;TYPE:Perimeter
;WIDTH:0.419999
G1 F1200
G1 X162.634 Y165.64 E.02846
G1 X162.124 Y165.927 E.01835
G1 X161.298 Y166.304 E.02847
G1 X160.446 Y166.594 E.02822
G1 X159.569 Y166.796 E.02822
G1 X158.676 Y166.909 E.02822
G1 X157.776 Y166.932 E.02823
G1 X156.878 Y166.864 E.02824
G1 X155.992 Y166.706 E.02822
G1 X155.126 Y166.459 E.02824
G1 X154.289 Y166.127 E.02823
G1 X153.49 Y165.712 E.02823
G1 X152.737 Y165.219 E.02822
G1 X152.037 Y164.653 E.02823
G1 X151.398 Y164.019 E.02822
G1 X150.826 Y163.324 E.02822
G1 X150.326 Y162.575 E.02824
G1 X149.905 Y161.78 E.02821
G1 X149.566 Y160.946 E.02823
G1 X149.312 Y160.082 E.02824
G1 X149.145 Y159.189 E.02848
G1 X149.086 Y158.608 E.01831
G1 X149.071 Y157.7 E.02847
G1 X149.147 Y156.803 E.02823
G1 X149.312 Y155.918 E.02823
G1 X149.568 Y155.046 E.02849
G1 X149.779 Y154.502 E.01829
G1 X150.177 Y153.685 E.02849
G1 X150.651 Y152.92 E.02822
G1 X151.199 Y152.206 E.02822
G1 X151.817 Y151.551 E.02824
G1 X152.497 Y150.962 E.02821
G1 X153.234 Y150.443 E.02826
G1 X154.018 Y150.002 E.0282
G1 X154.843 Y149.642 E.02822
G1 X155.7 Y149.367 E.02822
G1 X156.581 Y149.179 E.02825
G1 X157.476 Y149.081 E.02823
G1 X158.376 Y149.073 E.02822
G1 X159.272 Y149.156 E.02821
G1 X160.156 Y149.329 E.02824
G1 X161.017 Y149.59 E.02821
G1 X161.848 Y149.936 E.02822
G1 X162.647 Y150.368 E.02848
G1 X163.136 Y150.688 E.01832
G1 X163.852 Y151.248 E.0285
G1 X164.501 Y151.871 E.02821
G1 X165.09 Y152.562 E.02847
G1 X165.431 Y153.037 E.01833
G1 X165.896 Y153.817 E.02847
G1 X166.277 Y154.633 E.02824
G1 X166.573 Y155.483 E.02822
G1 X166.783 Y156.358 E.02821
G1 X166.904 Y157.25 E.02822
G1 X166.934 Y158.15 E.02823
G1 X166.874 Y159.048 E.02822
G1 X166.723 Y159.936 E.02824
G1 X166.484 Y160.804 E.02823
G1 X166.159 Y161.643 E.02821
G1 X165.751 Y162.446 E.02824
G1 X165.264 Y163.203 E.02822
G1 X164.704 Y163.907 E.02821
G1 X164.075 Y164.552 E.02825
G1 X163.431 Y165.091 E.02633
G1 X163.613 Y165.431 F9000
G1 F1200
G1 X162.832 Y165.961 E.02959
G1 X162.295 Y166.263 E.01932
G1 X161.437 Y166.655 E.02958
G1 X160.549 Y166.957 E.02941
G1 X159.635 Y167.168 E.02941
G1 X158.704 Y167.286 E.02942
G1 X157.766 Y167.309 E.02942
G1 X156.83 Y167.238 E.02943
G1 X155.907 Y167.074 E.02939
G1 X155.004 Y166.817 E.02944
G1 X154.132 Y166.471 E.02941
G1 X153.3 Y166.038 E.02941
G1 X152.515 Y165.525 E.0294
G1 X151.785 Y164.934 E.02945
G1 X151.119 Y164.274 E.0294
G1 X150.523 Y163.549 E.02943
G1 X150.002 Y162.769 E.02941
G1 X149.563 Y161.939 E.02944
G1 X149.209 Y161.07 E.02942
G1 X148.945 Y160.17 E.02941
G1 X148.772 Y159.243 E.02957
G1 X148.71 Y158.63 E.01932
G1 X148.694 Y157.687 E.02957
G1 X148.773 Y156.752 E.02942
G1 X148.945 Y155.83 E.02941
G1 X149.211 Y154.925 E.02958
G1 X149.433 Y154.351 E.0193
G1 X149.846 Y153.503 E.02957
G1 X150.34 Y152.705 E.02943
G1 X150.912 Y151.961 E.02942
G1 X151.556 Y151.278 E.02943
G1 X152.265 Y150.664 E.02941
G1 X153.032 Y150.124 E.02941
G1 X153.85 Y149.664 E.02942
G1 X154.71 Y149.289 E.02942
G1 X155.603 Y149.002 E.02941
G1 X156.521 Y148.806 E.02943
G1 X157.453 Y148.704 E.0294
G1 X158.392 Y148.696 E.02944
G1 X159.326 Y148.783 E.02941
G1 X160.247 Y148.963 E.02942
G1 X161.145 Y149.235 E.02942
G1 X162.011 Y149.596 E.02942
G1 X162.841 Y150.044 E.02957
G1 X163.356 Y150.381 E.0193
G1 X164.099 Y150.962 E.02957
G1 X164.776 Y151.612 E.02943
G1 X165.388 Y152.33 E.02958
G1 X165.746 Y152.83 E.01928
G1 X166.229 Y153.64 E.02957
G1 X166.626 Y154.491 E.02944
