; generated by PrusaSlicer 2.7.4+win64 on 2024-04-14 at 16:18:21 UTC

; 

; external perimeters extrusion width = 0.42mm
; perimeters extrusion width = 0.44mm
; infill extrusion width = 0.44mm
; solid infill extrusion width = 0.44mm
; top infill extrusion width = 0.40mm
; first layer extrusion width = 0.42mm


; printing object Shape-Box id:0 copy 0
; stop printing object Shape-Box id:0 copy 0

;TYPE:Custom
; Ender 3 Custom Start G-code
G92 E0 ; Reset Extruder

M140 S55 ; set bed temp
M104 S160 ; set extruder temp
M109 S160 ; wait for extruder temp
M190 S55 ; wait for bed temp

G28 ; Home all axes
M104 S210 ; set extruder temp 
BED_MESH_CALIBRATE AREA_START=83.7684,88.5669 AREA_END=143.763,126.207

G1 Z2.0 F3000 ; Move Z Axis up little to prevent scratching of Heat Bed
M109 S210 ; wait for extruder temp
G1 X0.1 Y20 Z0.3 F5000.0 ; Move to start position

G1 X0.1 Y200.0 Z0.3 F1500.0 E15 ; Draw the first line
G1 X0.4 Y200.0 Z0.3 F5000.0 ; Move to side a little
G1 X0.4 Y20 Z0.3 F1500.0 E30 ; Draw the second line
G92 E0 ; Reset Extruder
G1 Z2.0 F3000 ; Move Z Axis up little to prevent scratching of Heat Bed
G1 X5 Y20 Z0.3 F5000.0 ; Move over to prevent blob squish
G21 ; set units to millimeters
G90 ; use absolute coordinates
M83 ; use relative distances for extrusion
; Filament gcode
M107
;LAYER_CHANGE
;Z:0.2
;HEIGHT:0.2
G1 E-1.6 F2400
G1 Z.2 F6000
G1 X87.857 Y91.701
G1 Z.2
G1 E1.6 F2400
M204 S500
;TYPE:Skirt/Brim
;WIDTH:0.42
G1 F1200
G1 X88.725 Y90.996 E.03506
G1 X89.656 Y90.382 E.03497
G1 X91.322 Y89.564 E.05819
G1 X93.099 Y89.026 E.05821
G1 X94.721 Y88.79 E.05139
G1 X132.884 Y88.805 E1.19657
G1 X133.843 Y88.938 E.03036
G1 X135.87 Y89.494 E.0659
G1 X137.7 Y90.365 E.06355
G1 X139.14 Y91.376 E.05517
G1 X140.583 Y92.775 E.06302
G1 X141.374 Y93.79 E.04035
G1 X141.835 Y94.519 E.02704
G1 X142.681 Y96.304 E.06194
G1 X143.24 Y98.341 E.06623
G1 X143.425 Y100.341 E.06298
G1 X143.575 Y114.341 E.43899
G1 X143.503 Y115.668 E.04167
G1 X143.296 Y116.888 E.0388
G1 X142.676 Y118.864 E.06493
G1 X141.69 Y120.733 E.06626
G1 X140.467 Y122.296 E.06223
G1 X139.688 Y123.064 E.0343
G1 X138.815 Y123.771 E.03522
G1 X137.173 Y124.778 E.06039
G1 X136.08 Y125.257 E.03742
G1 X134.281 Y125.783 E.05877
G1 X132.523 Y126.003 E.05555
G1 X95.078 Y126.009 E1.17406
G1 X93.39 Y125.81 E.05329
G1 X92.295 Y125.542 E.03535
G1 X91.185 Y125.153 E.03688
G1 X89.854 Y124.506 E.0464
G1 X88.8 Y123.835 E.03918
G1 X87.851 Y123.075 E.03812
G1 X86.76 Y121.96 E.04891
G1 X86.154 Y121.19 E.03072
G1 X85.328 Y119.862 E.04904
G1 X84.772 Y118.665 E.04138
G1 X84.319 Y117.276 E.04581
G1 X84.013 Y115.506 E.05632
G1 X83.957 Y114.505 E.03143
G1 X83.987 Y99.578 E.46803
G1 X84.339 Y97.433 E.06815
G1 X84.956 Y95.673 E.05848
G1 X85.359 Y94.854 E.02862
G1 X86.242 Y93.468 E.05153
G1 X86.875 Y92.684 E.03159
G1 X87.814 Y91.744 E.04166
G1 X87.814 Y91.744 F6000
G1 X88.08 Y92.01
G1 F1200
G1 X88.109 Y91.982 E.00126
G1 X88.937 Y91.308 E.03348
G1 X89.836 Y90.714 E.03378
G1 X91.455 Y89.917 E.05658
G1 X92.992 Y89.437 E.05049
G1 X94.74 Y89.166 E.05546
G1 X131.692 Y89.133 E1.1586
G1 X133.767 Y89.308 E.06529
G1 X135.748 Y89.851 E.0644
G1 X137.509 Y90.69 E.06116
G1 X138.893 Y91.661 E.05301
G1 X140.304 Y93.029 E.06162
G1 X141.07 Y94.013 E.0391
G1 X141.565 Y94.802 E.0292
G1 X142.414 Y96.673 E.06442
G1 X142.882 Y98.473 E.05831
G1 X143.048 Y100.345 E.05893
G1 X143.198 Y114.345 E.43899
G1 X143.13 Y115.614 E.03985
G1 X142.924 Y116.824 E.03848
G1 X142.331 Y118.712 E.06205
G1 X141.369 Y120.534 E.0646
G1 X140.198 Y122.031 E.05959
G1 X139.594 Y122.642 E.02694
G1 X138.603 Y123.459 E.04027
G1 X136.981 Y124.453 E.05965
G1 X135.395 Y125.098 E.05368
G1 X134.218 Y125.411 E.03819
G1 X132.355 Y125.634 E.05883
G1 X95.105 Y125.633 E1.16795
G1 X93.449 Y125.437 E.05229
G1 X92.304 Y125.154 E.03698
G1 X91.337 Y124.807 E.03221
G1 X90.03 Y124.173 E.04555
G1 X89.019 Y123.528 E.0376
G1 X88.102 Y122.794 E.03683
G1 X87.039 Y121.706 E.04769
G1 X86.452 Y120.958 E.02981
G1 X85.657 Y119.676 E.0473
G1 X85.128 Y118.539 E.03932
G1 X84.684 Y117.182 E.04477
G1 X84.387 Y115.46 E.05479
G1 X84.334 Y114.505 E.02999
G1 X84.363 Y99.603 E.46724
G1 X84.7 Y97.541 E.06551
G1 X85.307 Y95.811 E.05748
G1 X85.705 Y95.004 E.02821
G1 X86.553 Y93.681 E.04927
G1 X87.156 Y92.934 E.0301
G1 X88.038 Y92.052 E.03911
G1 X88.038 Y92.052 F6000
G1 X88.304 Y92.318
G1 F1200
G1 X88.361 Y92.262 E.00251
G1 X89.149 Y91.62 E.03187
G1 X90.029 Y91.037 E.0331
G1 X91.588 Y90.27 E.05448
G1 X93.208 Y89.774 E.05312
G1 X94.758 Y89.543 E.04914
G1 X131.692 Y89.51 E1.15804
G1 X133.69 Y89.677 E.06286
G1 X135.628 Y90.208 E.063
G1 X137.318 Y91.015 E.05872
G1 X138.647 Y91.947 E.0509
G1 X140.013 Y93.269 E.0596
G1 X140.766 Y94.236 E.03843
G1 X141.237 Y94.988 E.02782
G1 X142.054 Y96.785 E.06189
G1 X142.512 Y98.545 E.05702
G1 X142.671 Y100.349 E.05678
G1 X142.821 Y114.349 E.43899
G1 X142.744 Y115.641 E.04058
G1 X142.521 Y116.917 E.04061
G1 X142.276 Y117.78 E.02813
G1 X141.409 Y119.75 E.06749
G1 X140.675 Y120.874 E.04209
G1 X140.018 Y121.672 E.03241
G1 X139.333 Y122.37 E.03066
G1 X138.39 Y123.147 E.03831
G1 X136.804 Y124.12 E.05834
G1 X135.27 Y124.742 E.0519
G1 X134.141 Y125.042 E.03663
G1 X132.345 Y125.257 E.05671
G1 X95.131 Y125.257 E1.16682
G1 X93.508 Y125.065 E.05124
G1 X92.409 Y124.792 E.03551
G1 X91.488 Y124.462 E.03068
G1 X90.206 Y123.839 E.04469
G1 X89.238 Y123.221 E.03601
G1 X88.306 Y122.47 E.03753
G1 X87.318 Y121.453 E.04446
G1 X86.76 Y120.741 E.02836
G1 X85.985 Y119.491 E.04611
G1 X85.483 Y118.413 E.03729
G1 X85.05 Y117.087 E.04374
G1 X84.761 Y115.415 E.0532
G1 X84.739 Y99.629 E.49496
G1 X85.061 Y97.651 E.06284
G1 X85.658 Y95.949 E.05655
G1 X86.04 Y95.178 E.02698
G1 X86.862 Y93.897 E.04772
G1 X87.438 Y93.185 E.02871
G1 X88.262 Y92.361 E.03654
G1 E-1.12 F2400
;WIPE_START
G1 F4800
G1 X88.304 Y92.318 E-.02855
G1 X88.361 Y92.262 E-.03796
G1 X89.036 Y91.712 E-.41349
;WIPE_END
; printing object Shape-Box id:0 copy 0
G1 X111.533 Y103.727 F6000
G1 E1.6 F2400
;TYPE:Perimeter
G1 F1200
G1 X111.502 Y103.636 E.00301
G1 X111.383 Y103.544 E.00472
G1 X111.456 Y103.505 E.0026
G1 X111.553 Y103.347 E.00581
G1 X111.715 Y103.685 E.01175
G1 X111.895 Y103.894 E.00865
G1 X111.582 Y103.867 E.00985
G1 X111.553 Y103.783 E.00279
G1 E-1.12 F2400
;WIPE_START
G1 F4800
G1 X111.533 Y103.727 E-.02825
G1 X111.502 Y103.636 E-.04566
G1 X111.383 Y103.544 E-.07145
G1 X111.456 Y103.505 E-.03931
G1 X111.553 Y103.347 E-.08806
G1 X111.715 Y103.685 E-.17804
G1 X111.755 Y103.732 E-.02923
;WIPE_END
G1 X103.766 Y103.613 F6000
G1 E1.6 F2400
G1 F1200
G1 X103.682 Y104.454 E.0265
G1 X103.656 Y104.51 E.00194
G1 X103.57 Y104.579 E.00346
G1 X103.414 Y104.602 E.00494
G1 X103.329 Y104.596 E.00267
G1 X103.255 Y104.571 E.00245
G1 X103.186 Y104.511 E.00287
G1 X103.164 Y104.39 E.00386
G1 X103.263 Y104.161 E.00782
G1 X103.447 Y103.929 E.00928
G1 X103.723 Y103.656 E.01217
G1 X103.723 Y103.656 F6000
G1 X102.66 Y102.015
G1 F1200
G1 X102.43 Y102.192 E.0091
G1 X102.047 Y102.549 E.01642
G1 X101.883 Y102.731 E.00768
G1 X101.872 Y102.204 E.01653
G1 X101.843 Y101.991 E.00674
G1 X102.31 Y102.022 E.01467
G1 X102.6 Y102.016 E.00909
G1 E-1.12 F2400
;WIPE_START
G1 F4800
G1 X102.66 Y102.015 E-.0285
G1 X102.43 Y102.192 E-.13786
G1 X102.047 Y102.549 E-.2487
G1 X101.956 Y102.651 E-.06494
;WIPE_END
G1 X95.679 Y110.851 F6000
G1 E1.6 F2400
G1 F1200
G1 X95.394 Y110.911 E.00913
G1 X95.246 Y110.917 E.00464
G1 X95.153 Y110.896 E.00299
G1 X95.041 Y110.804 E.00454
G1 X95.007 Y110.729 E.00258
G1 X94.998 Y110.605 E.0039
G1 X95.025 Y110.489 E.00373
G1 X95.081 Y110.396 E.0034
G1 X95.164 Y110.325 E.00342
G1 X95.275 Y110.286 E.00369
G1 X95.398 Y110.285 E.00386
G1 X95.494 Y110.329 E.00331
G1 X95.577 Y110.476 E.00529
G1 X95.663 Y110.793 E.0103
G1 X95.663 Y110.793 F6000
G1 X95.574 Y112.756
G1 F1200
G1 X95.531 Y112.891 E.00444
G1 X95.491 Y112.951 E.00226
G1 X95.406 Y113.002 E.00311
G1 X95.297 Y113.002 E.00342
G1 X95.229 Y112.962 E.00247
G1 X95.235 Y112.857 E.0033
G1 X95.294 Y112.821 E.00217
G1 X95.485 Y112.762 E.00627
G1 X95.514 Y112.76 E.00091
G1 E-1.12 F2400
;WIPE_START
G1 F4800
G1 X95.574 Y112.756 E-.02856
G1 X95.531 Y112.891 E-.0673
G1 X95.491 Y112.951 E-.03425
G1 X95.406 Y113.002 E-.04708
G1 X95.297 Y113.002 E-.05178
G1 X95.229 Y112.962 E-.03747
G1 X95.235 Y112.857 E-.04996
G1 X95.294 Y112.821 E-.03283
G1 X95.485 Y112.762 E-.09495
G1 X95.514 Y112.76 E-.01381
;WIPE_END
G1 E-.02201 F2400
G1 X103.768 Y112.015 F6000
G1 E1.6 F2400
G1 F1200
G1 X103.683 Y112.855 E.02647
G1 X103.658 Y112.912 E.00195
G1 X103.572 Y112.98 E.00344
G1 X103.416 Y113.004 E.00495
G1 X103.33 Y112.997 E.00271
G1 X103.257 Y112.973 E.00241
G1 X103.187 Y112.913 E.00289
G1 X103.164 Y112.813 E.00322
G1 X103.187 Y112.711 E.00328
G1 X103.313 Y112.491 E.00795
G1 X103.443 Y112.335 E.00637
G1 X103.725 Y112.057 E.01242
G1 E-1.12 F2400
;WIPE_START
G1 F4800
G1 X103.768 Y112.015 E-.02855
G1 X103.683 Y112.855 E-.40104
G1 X103.658 Y112.912 E-.02956
G1 X103.623 Y112.939 E-.02085
;WIPE_END
G1 X118.01 Y112.756 F6000
G1 E1.6 F2400
G1 F1200
G1 X117.967 Y112.891 E.00444
G1 X117.926 Y112.951 E.00228
G1 X117.842 Y113.002 E.00308
G1 X117.732 Y113.002 E.00345
G1 X117.665 Y112.962 E.00245
G1 X117.671 Y112.857 E.0033
G1 X117.73 Y112.821 E.00217
G1 X117.92 Y112.762 E.00624
G1 X117.95 Y112.76 E.00094
G1 E-1.12 F2400
;WIPE_START
G1 F4800
G1 X118.01 Y112.756 E-.02856
G1 X117.967 Y112.891 E-.0673
G1 X117.926 Y112.951 E-.03452
G1 X117.842 Y113.002 E-.04668
G1 X117.732 Y113.002 E-.05225
G1 X117.665 Y112.962 E-.03707
G1 X117.671 Y112.857 E-.04996
G1 X117.73 Y112.821 E-.03283
G1 X117.92 Y112.762 E-.0945
G1 X117.95 Y112.76 E-.01428
;WIPE_END
G1 E-.02205 F2400
G1 X118.08 Y110.726 F6000
G1 E1.6 F2400
G1 F1200
G1 X118.114 Y110.851 E.00406
G1 X117.83 Y110.911 E.0091
G1 X117.681 Y110.917 E.00468
G1 X117.589 Y110.896 E.00296
G1 X117.477 Y110.804 E.00454
G1 X117.442 Y110.729 E.0026
G1 X117.434 Y110.605 E.0039
G1 X117.461 Y110.489 E.00373
G1 X117.517 Y110.396 E.0034
G1 X117.6 Y110.325 E.00342
G1 X117.71 Y110.286 E.00366
G1 X117.834 Y110.285 E.00389
G1 X117.929 Y110.329 E.00328
G1 X118.012 Y110.476 E.00529
G1 X118.065 Y110.668 E.00625
G1 E-1.12 F2400
;WIPE_START
G1 F4800
G1 X118.08 Y110.726 E-.02846
G1 X118.114 Y110.851 E-.06153
G1 X117.83 Y110.911 E-.13788
G1 X117.681 Y110.917 E-.07083
G1 X117.589 Y110.896 E-.04482
G1 X117.477 Y110.804 E-.06885
G1 X117.442 Y110.729 E-.03931
G1 X117.438 Y110.67 E-.02832
;WIPE_END
G1 X123.706 Y102.459 F6000
G1 E1.6 F2400
G1 F1200
G1 X123.626 Y102.341 E.00447
G1 X123.613 Y102.237 E.00329
G1 X123.629 Y102.117 E.0038
G1 X123.667 Y102.034 E.00286
G1 X123.74 Y101.954 E.0034
G1 X123.817 Y101.907 E.00283
G1 X123.914 Y101.884 E.00313
G1 X124.025 Y101.887 E.00348
G1 X124.108 Y101.928 E.0029
G1 X124.173 Y102.026 E.00369
G1 X124.305 Y102.447 E.01383
G1 X124.008 Y102.51 E.00952
G1 X123.859 Y102.516 E.00468
G1 X123.767 Y102.495 E.00296
G1 X123.758 Y102.489 E.00034
G1 E-1.12 F2400
;WIPE_START
G1 F4800
G1 X123.706 Y102.459 E-.02852
G1 X123.626 Y102.341 E-.06772
G1 X123.613 Y102.237 E-.04978
G1 X123.629 Y102.117 E-.0575
G1 X123.667 Y102.034 E-.04336
G1 X123.74 Y101.954 E-.05144
G1 X123.817 Y101.907 E-.04285
G1 X123.914 Y101.884 E-.04735
G1 X124.025 Y101.887 E-.05274
G1 X124.098 Y101.923 E-.03874
;WIPE_END
G1 X125.639 Y103.858 F6000
G1 E1.6 F2400
G1 F1200
G1 X125.297 Y103.778 E.01101
G1 X124.932 Y103.736 E.01152
G1 X124.98 Y103.521 E.00691
G1 X125.059 Y102.833 E.02171
G1 X125.403 Y102.773 E.01095
G1 X125.702 Y102.664 E.00998
G1 X125.705 Y102.818 E.00483
G1 X125.799 Y103.255 E.01402
G1 X125.903 Y103.503 E.00843
G1 X126.043 Y103.72 E.0081
G1 X126.205 Y103.903 E.00766
G1 X125.698 Y103.87 E.01593
G1 X123.849 Y104.455 F6000
G1 F1200
G1 X123.907 Y104.419 E.00214
G1 X124.098 Y104.361 E.00626
G1 X124.188 Y104.354 E.00283
G1 X124.145 Y104.49 E.00447
G1 X124.104 Y104.55 E.00228
G1 X124.02 Y104.601 E.00308
G1 X123.91 Y104.601 E.00345
G1 X123.843 Y104.56 E.00246
G1 X123.845 Y104.515 E.00141
G1 E-1.12 F2400
;WIPE_START
G1 F4800
G1 X123.849 Y104.455 E-.02856
G1 X123.907 Y104.419 E-.03243
G1 X124.098 Y104.361 E-.09482
G1 X124.188 Y104.354 E-.04288
G1 X124.145 Y104.49 E-.06775
G1 X124.104 Y104.55 E-.03452
G1 X124.02 Y104.601 E-.04668
G1 X123.91 Y104.601 E-.05225
G1 X123.843 Y104.56 E-.03731
G1 X123.845 Y104.515 E-.0214
;WIPE_END
G1 E-.0214 F2400
G1 X119.098 Y111.223 F6000
G1 E1.6 F2400
G1 F1200
G1 X118.879 Y111.252 E.00693
G1 X118.802 Y111.923 E.02118
G1 X118.754 Y112.136 E.00685
G1 X119.1 Y112.171 E.0109
G1 X120.122 Y112.354 E.03255
G1 X119.941 Y113.231 E.02808
G1 X119.817 Y113.601 E.01224
G1 X119.632 Y113.947 E.0123
G1 X119.387 Y114.252 E.01227
G1 X119.09 Y114.505 E.01223
G1 X118.754 Y114.697 E.01213
G1 X118.386 Y114.823 E.0122
G1 X117.996 Y114.884 E.01238
G1 X117.534 Y114.877 E.01449
G1 X117.25 Y114.827 E.00904
G1 X116.985 Y114.748 E.00867
G1 X116.733 Y114.637 E.00863
G1 X116.496 Y114.498 E.00861
G1 X116.278 Y114.327 E.00869
G1 X116.074 Y114.112 E.00929
G1 X115.816 Y113.686 E.01562
G1 X115.722 Y113.428 E.00861
G1 X115.568 Y113.781 E.01208
G1 X115.27 Y114.206 E.01627
G1 X114.875 Y114.554 E.01651
G1 X114.393 Y114.786 E.01677
G1 X113.867 Y114.885 E.01678
G1 X113.398 Y114.877 E.01471
G1 X112.884 Y114.758 E.01654
G1 X112.422 Y114.512 E.01641
G1 X112.043 Y114.159 E.01624
G1 X111.763 Y113.731 E.01604
G1 X111.565 Y113.258 E.01608
G1 X111.455 Y112.847 E.01334
G1 X111.388 Y112.357 E.01551
G1 X111.389 Y112.183 E.00546
G1 X109.518 Y114.868 E.10261
G1 X107.972 Y114.868 E.04847
G1 X107.972 Y111.621 E.10181
G1 X107.295 Y111.621 E.02123
G1 X107.295 Y109.683 E.06076
G1 X107.972 Y109.683 E.02123
G1 X107.972 Y108.484 E.03759
G1 X109.961 Y108.484 E.06236
G1 X109.961 Y109.686 E.03769
G1 X110.598 Y109.689 E.01997
G1 X111.076 Y109.719 E.01502
G1 X111.702 Y109.815 E.01986
G1 X111.788 Y109.575 E.00799
G1 X111.954 Y109.264 E.01105
G1 X112.093 Y109.082 E.00718
G1 X112.472 Y108.737 E.01607
G1 X112.959 Y108.5 E.01698
G1 X113.498 Y108.402 E.01718
G1 X113.909 Y108.407 E.01289
G1 X114.172 Y108.446 E.00834
G1 X114.611 Y108.586 E.01445
G1 X115.018 Y108.836 E.01498
G1 X115.348 Y109.169 E.0147
G1 X115.524 Y109.43 E.00987
G1 X115.641 Y109.672 E.00843
G1 X115.672 Y109.591 E.00272
G1 X115.93 Y109.209 E.01445
G1 X116.266 Y108.886 E.01461
G1 X116.655 Y108.641 E.01441
G1 X117.087 Y108.479 E.01447
G1 X117.547 Y108.403 E.01462
G1 X117.789 Y108.394 E.00759
G1 X118.206 Y108.426 E.01311
G1 X118.616 Y108.531 E.01327
G1 X118.996 Y108.711 E.01318
G1 X119.336 Y108.962 E.01325
G1 X119.62 Y109.27 E.01314
G1 X119.836 Y109.624 E.013
G1 X119.982 Y110.015 E.01309
G1 X120.165 Y111.081 E.03391
G1 X119.158 Y111.215 E.03185
G1 E-1.12 F2400
;WIPE_START
G1 F4800
G1 X119.098 Y111.223 E-.02875
G1 X118.879 Y111.252 E-.10493
G1 X118.802 Y111.923 E-.32082
G1 X118.79 Y111.975 E-.0255
;WIPE_END
G1 X112.272 Y109.468 F6000
G1 E1.6 F2400
;TYPE:External perimeter
G1 F1200
G1 X112.372 Y109.338 E.00514
G1 X112.685 Y109.052 E.01329
G1 X113.077 Y108.862 E.01366
G1 X113.53 Y108.779 E.01444
G1 X113.879 Y108.784 E.01094
G1 X114.087 Y108.814 E.00659
G1 X114.453 Y108.932 E.01206
G1 X114.782 Y109.133 E.01209
G1 X115.055 Y109.41 E.01219
G1 X115.197 Y109.618 E.0079
G1 X115.308 Y109.849 E.00804
G1 X115.396 Y110.104 E.00846
G1 X115.45 Y110.381 E.00885
G1 X115.595 Y111.627 E.03933
G1 X115.604 Y112.078 E.01414
G1 X115.545 Y112.668 E.01859
G1 X115.424 Y113.17 E.01619
G1 X115.237 Y113.595 E.01456
G1 X114.987 Y113.953 E.01369
G1 X114.665 Y114.237 E.01346
G1 X114.274 Y114.425 E.0136
G1 X113.835 Y114.507 E.014
G1 X113.444 Y114.501 E.01226
G1 X113.018 Y114.402 E.01371
G1 X112.642 Y114.202 E.01335
G1 X112.333 Y113.914 E.01324
G1 X112.098 Y113.554 E.01348
G1 X111.923 Y113.136 E.01421
G1 X111.825 Y112.772 E.01182
G1 X111.765 Y112.333 E.01389
G1 X111.768 Y111.814 E.01627
G1 X111.788 Y111.608 E.00649
G1 X111.837 Y111.395 E.00685
G1 X111.879 Y110.819 E.01811
G1 X111.939 Y110.464 E.01129
G1 X112.016 Y110.179 E.00926
G1 X112.032 Y110.015 E.00517
G1 X112.134 Y109.728 E.00955
G1 X112.244 Y109.521 E.00735
G1 E-1.12 F2400
;WIPE_START
G1 F4800
G1 X112.272 Y109.468 E-.02847
G1 X112.372 Y109.338 E-.07791
G1 X112.685 Y109.052 E-.20139
G1 X113.011 Y108.894 E-.17223
;WIPE_END
G1 X118.511 Y111.152 F6000
G1 E1.6 F2400
G1 F1200
