; generated by PrusaSlicer 2.7.2+win64 on 2024-03-11 at 11:03:33 UTC

; 

; external perimeters extrusion width = 0.42mm
; perimeters extrusion width = 0.44mm
; infill extrusion width = 0.44mm
; solid infill extrusion width = 0.44mm
; top infill extrusion width = 0.40mm
; first layer extrusion width = 0.42mm


; printing object Shape-Box id:0 copy 0
; stop printing object Shape-Box id:0 copy 0

;TYPE:Custom
; Ender 3 Custom Start G-code
G92 E0 ; Reset Extruder

M140 S55 ; set bed temp
M104 S160 ; set extruder temp
M109 S160 ; wait for extruder temp
M190 S55 ; wait for bed temp

G28 ; Home all axes
M104 S210 ; set extruder temp 
BED_MESH_CALIBRATE AREA_START=83.7684,88.5669 AREA_END=143.763,126.207

G1 Z2.0 F3000 ; Move Z Axis up little to prevent scratching of Heat Bed
M109 S210 ; wait for extruder temp
G1 X0.1 Y20 Z0.3 F5000.0 ; Move to start position

G1 X0.1 Y200.0 Z0.3 F1500.0 E15 ; Draw the first line
G1 X0.4 Y200.0 Z0.3 F5000.0 ; Move to side a little
G1 X0.4 Y20 Z0.3 F1500.0 E30 ; Draw the second line
G92 E0 ; Reset Extruder
G1 Z2.0 F3000 ; Move Z Axis up little to prevent scratching of Heat Bed
G1 X5 Y20 Z0.3 F5000.0 ; Move over to prevent blob squish
G21 ; set units to millimeters
G90 ; use absolute coordinates
M83 ; use relative distances for extrusion
; Filament gcode
M107
;LAYER_CHANGE
;Z:0.2
;HEIGHT:0.2
G1 E-1.6 F2400
G1 Z.2 F6000
G1 X87.857 Y91.701
G1 Z.2
G1 E1.6 F2400
M204 S500
;TYPE:Skirt/Brim
;WIDTH:0.42
G1 F1200
G1 X88.725 Y90.996 E.03296
G1 X89.656 Y90.382 E.03287
G1 X91.322 Y89.564 E.0547
G1 X93.099 Y89.026 E.05472
G1 X94.721 Y88.79 E.04831
G1 X132.884 Y88.805 E1.12478
G1 X133.843 Y88.938 E.02854
G1 X135.87 Y89.494 E.06195
G1 X137.7 Y90.365 E.05973
G1 X139.14 Y91.376 E.05186
G1 X140.583 Y92.775 E.05924
G1 X141.374 Y93.79 E.03793
G1 X141.835 Y94.519 E.02542
G1 X142.681 Y96.304 E.05822
G1 X143.24 Y98.341 E.06226
G1 X143.425 Y100.341 E.0592
G1 X143.575 Y114.341 E.41265
G1 X143.503 Y115.668 E.03917
G1 X143.296 Y116.888 E.03647
G1 X142.676 Y118.864 E.06104
G1 X141.69 Y120.733 E.06228
G1 X140.467 Y122.296 E.05849
G1 X139.688 Y123.064 E.03224
G1 X138.815 Y123.771 E.03311
G1 X137.173 Y124.778 E.05677
G1 X136.08 Y125.257 E.03517
G1 X134.281 Y125.783 E.05524
G1 X132.523 Y126.003 E.05222
G1 X95.078 Y126.009 E1.10362
G1 X93.39 Y125.81 E.0501
G1 X92.295 Y125.542 E.03323
G1 X91.185 Y125.153 E.03467
G1 X89.854 Y124.506 E.04362
G1 X88.8 Y123.835 E.03683
G1 X87.851 Y123.075 E.03583
G1 X86.76 Y121.96 E.04598
G1 X86.154 Y121.19 E.02888
G1 X85.328 Y119.862 E.04609
G1 X84.772 Y118.665 E.0389
G1 X84.319 Y117.276 E.04306
G1 X84.013 Y115.506 E.05294
G1 X83.957 Y114.505 E.02955
G1 X83.987 Y99.578 E.43994
G1 X84.339 Y97.433 E.06407
G1 X84.956 Y95.673 E.05497
G1 X85.359 Y94.854 E.0269
G1 X86.242 Y93.468 E.04844
G1 X86.875 Y92.684 E.0297
G1 X87.814 Y91.744 E.03916
G1 X87.814 Y91.744 F6000
G1 X88.08 Y92.01
G1 F1200
G1 X88.109 Y91.982 E.00119
G1 X88.937 Y91.308 E.03147
G1 X89.836 Y90.714 E.03176
G1 X91.455 Y89.917 E.05319
G1 X92.992 Y89.437 E.04746
G1 X94.74 Y89.166 E.05213
G1 X131.692 Y89.133 E1.08909
G1 X133.767 Y89.308 E.06137
G1 X135.748 Y89.851 E.06054
G1 X137.509 Y90.69 E.05749
G1 X138.893 Y91.661 E.04983
G1 X140.304 Y93.029 E.05792
G1 X141.07 Y94.013 E.03675
G1 X141.565 Y94.802 E.02745
G1 X142.414 Y96.673 E.06056
G1 X142.882 Y98.473 E.05482
G1 X143.048 Y100.345 E.05539
G1 X143.198 Y114.345 E.41265
G1 X143.13 Y115.614 E.03745
G1 X142.924 Y116.824 E.03618
G1 X142.331 Y118.712 E.05833
G1 X141.369 Y120.534 E.06073
G1 X140.198 Y122.031 E.05602
G1 X139.594 Y122.642 E.02532
G1 X138.603 Y123.459 E.03785
G1 X136.981 Y124.453 E.05607
G1 X135.395 Y125.098 E.05046
G1 X134.218 Y125.411 E.0359
G1 X132.355 Y125.634 E.0553
G1 X95.105 Y125.633 E1.09787
G1 X93.449 Y125.437 E.04915
G1 X92.304 Y125.154 E.03476
G1 X91.337 Y124.807 E.03028
G1 X90.03 Y124.173 E.04281
G1 X89.019 Y123.528 E.03534
G1 X88.102 Y122.794 E.03462
G1 X87.039 Y121.706 E.04483
G1 X86.452 Y120.958 E.02802
G1 X85.657 Y119.676 E.04446
G1 X85.128 Y118.539 E.03696
G1 X84.684 Y117.182 E.04208
G1 X84.387 Y115.46 E.0515
G1 X84.334 Y114.505 E.02819
G1 X84.363 Y99.603 E.43921
G1 X84.7 Y97.541 E.06158
G1 X85.307 Y95.811 E.05404
G1 X85.705 Y95.004 E.02652
G1 X86.553 Y93.681 E.04632
G1 X87.156 Y92.934 E.02829
G1 X88.038 Y92.052 E.03676
G1 X88.038 Y92.052 F6000
G1 X88.304 Y92.318
G1 F1200
G1 X88.361 Y92.262 E.00236
G1 X89.149 Y91.62 E.02996
G1 X90.029 Y91.037 E.03111
G1 X91.588 Y90.27 E.05121
G1 X93.208 Y89.774 E.04993
G1 X94.758 Y89.543 E.04619
G1 X131.692 Y89.51 E1.08856
G1 X133.69 Y89.677 E.05909
G1 X135.628 Y90.208 E.05922
G1 X137.318 Y91.015 E.0552
G1 X138.647 Y91.947 E.04784
G1 X140.013 Y93.269 E.05603
G1 X140.766 Y94.236 E.03612
G1 X141.237 Y94.988 E.02615
G1 X142.054 Y96.785 E.05818
G1 X142.512 Y98.545 E.0536
G1 X142.671 Y100.349 E.05338
G1 X142.821 Y114.349 E.41265
G1 X142.744 Y115.641 E.03815
G1 X142.521 Y116.917 E.03818
G1 X142.276 Y117.78 E.02644
G1 X141.409 Y119.75 E.06344
G1 X140.675 Y120.874 E.03957
G1 X140.018 Y121.672 E.03047
G1 X139.333 Y122.37 E.02882
G1 X138.39 Y123.147 E.03601
G1 X136.804 Y124.12 E.05484
G1 X135.27 Y124.742 E.04879
G1 X134.141 Y125.042 E.03443
G1 X132.345 Y125.257 E.05331
G1 X95.131 Y125.257 E1.09681
G1 X93.508 Y125.065 E.04817
G1 X92.409 Y124.792 E.03338
G1 X91.488 Y124.462 E.02883
G1 X90.206 Y123.839 E.04201
G1 X89.238 Y123.221 E.03385
G1 X88.306 Y122.47 E.03528
G1 X87.318 Y121.453 E.04179
G1 X86.76 Y120.741 E.02666
G1 X85.985 Y119.491 E.04335
G1 X85.483 Y118.413 E.03505
G1 X85.05 Y117.087 E.04111
G1 X84.761 Y115.415 E.05001
G1 X84.739 Y99.629 E.46526
G1 X85.061 Y97.651 E.05907
G1 X85.658 Y95.949 E.05316
G1 X86.04 Y95.178 E.02536
G1 X86.862 Y93.897 E.04486
G1 X87.438 Y93.185 E.02699
G1 X88.262 Y92.361 E.03435
; printing object Shape-Box id:0 copy 0
G1 E-1.12 F2400
;WIPE_START
G1 F4800
G1 X88.304 Y92.318 E-.02855
G1 X88.361 Y92.262 E-.03796
G1 X89.036 Y91.712 E-.41349
;WIPE_END
G1 X116.974 Y110.416 F6000
G1 E1.6 F2400
;TYPE:Perimeter
G1 F1200
G1 X116.745 Y110.594 E.00855
G1 X116.361 Y110.95 E.01543
G1 X116.198 Y111.133 E.00722
G1 X116.186 Y110.606 E.01554
G1 X116.157 Y110.393 E.00634
G1 X116.624 Y110.424 E.01379
G1 X116.915 Y110.417 E.00858
G1 X116.915 Y110.417 F6000
G1 X118.08 Y112.015
G1 F1200
G1 X117.996 Y112.855 E.02488
G1 X117.97 Y112.912 E.00185
G1 X117.885 Y112.98 E.00321
G1 X117.728 Y113.004 E.00468
G1 X117.643 Y112.997 E.00251
G1 X117.569 Y112.973 E.00229
G1 X117.5 Y112.913 E.00269
G1 X117.479 Y112.791 E.00365
G1 X117.578 Y112.562 E.00735
G1 X117.761 Y112.33 E.00871
G1 X118.038 Y112.057 E.01146
G1 E-1.12 F2400
;WIPE_START
G1 F4800
G1 X118.08 Y112.015 E-.02821
G1 X117.996 Y112.855 E-.40099
G1 X117.97 Y112.912 E-.02976
G1 X117.935 Y112.94 E-.02104
;WIPE_END
G1 X118.075 Y103.613 F6000
G1 E1.6 F2400
G1 F1200
G1 X117.991 Y104.454 E.02491
G1 X117.965 Y104.51 E.00182
G1 X117.879 Y104.579 E.00325
G1 X117.723 Y104.602 E.00465
G1 X117.638 Y104.596 E.00251
G1 X117.564 Y104.571 E.0023
G1 X117.495 Y104.511 E.00269
G1 X117.474 Y104.39 E.00362
G1 X117.573 Y104.161 E.00735
G1 X117.756 Y103.929 E.00871
G1 X118.033 Y103.656 E.01146
G1 E-1.12 F2400
;WIPE_START
G1 F4800
G1 X118.075 Y103.613 E-.02855
G1 X117.991 Y104.454 E-.40146
G1 X117.965 Y104.51 E-.02933
G1 X117.931 Y104.537 E-.02066
;WIPE_END
G1 X116.21 Y101.995 F6000
G1 E1.6 F2400
G1 F1200
G1 X116.619 Y102.022 E.01208
G1 X116.969 Y102.015 E.01032
G1 X116.739 Y102.192 E.00855
G1 X116.356 Y102.549 E.01543
G1 X116.193 Y102.731 E.0072
G1 X116.181 Y102.204 E.01554
G1 X116.152 Y101.993 E.00628
G1 E-1.12 F2400
;WIPE_START
G1 F4800
G1 X116.21 Y101.995 E-.02757
G1 X116.619 Y102.022 E-.1947
G1 X116.969 Y102.015 E-.16628
G1 X116.817 Y102.133 E-.09145
;WIPE_END
G1 X103.702 Y104.354 F6000
G1 E1.6 F2400
G1 F1200
G1 X103.659 Y104.49 E.0042
G1 X103.619 Y104.55 E.00213
G1 X103.534 Y104.601 E.00292
G1 X103.425 Y104.601 E.00321
G1 X103.357 Y104.56 E.00234
G1 X103.363 Y104.455 E.0031
G1 X103.422 Y104.419 E.00204
G1 X103.612 Y104.361 E.00585
G1 X103.642 Y104.359 E.00089
G1 X103.642 Y104.359 F6000
G1 X103.807 Y102.449
G1 F1200
G1 X103.522 Y102.51 E.00859
G1 X103.373 Y102.516 E.0044
G1 X103.281 Y102.495 E.00278
G1 X103.169 Y102.403 E.00427
G1 X103.135 Y102.328 E.00243
G1 X103.126 Y102.204 E.00366
G1 X103.153 Y102.088 E.00351
G1 X103.209 Y101.995 E.0032
G1 X103.292 Y101.924 E.00322
G1 X103.403 Y101.885 E.00347
G1 X103.526 Y101.884 E.00363
G1 X103.622 Y101.928 E.00311
G1 X103.705 Y102.075 E.00498
G1 X103.791 Y102.391 E.00965
G1 E-1.12 F2400
;WIPE_START
G1 F4800
G1 X103.807 Y102.449 E-.02858
G1 X103.522 Y102.51 E-.13844
G1 X103.373 Y102.516 E-.07083
G1 X103.281 Y102.495 E-.04482
G1 X103.169 Y102.403 E-.06885
G1 X103.135 Y102.328 E-.03911
G1 X103.126 Y102.204 E-.05905
G1 X103.141 Y102.142 E-.03032
;WIPE_END
G1 X99.722 Y102.339 F6000
G1 E1.6 F2400
G1 F1200
G1 X99.756 Y102.446 E.00331
G1 X99.458 Y102.51 E.00898
G1 X99.31 Y102.516 E.00437
G1 X99.217 Y102.495 E.00281
G1 X99.156 Y102.459 E.00209
G1 X99.077 Y102.341 E.00419
G1 X99.063 Y102.237 E.00309
G1 X99.079 Y102.117 E.00357
G1 X99.118 Y102.034 E.0027
G1 X99.19 Y101.954 E.00317
G1 X99.267 Y101.907 E.00266
G1 X99.365 Y101.884 E.00297
G1 X99.476 Y101.887 E.00327
G1 X99.558 Y101.928 E.0027
G1 X99.623 Y102.026 E.00347
G1 X99.704 Y102.282 E.00791
G1 X99.704 Y102.282 F6000
G1 X101.175 Y102.653
G1 F1200
G1 X101.262 Y103.049 E.01195
G1 X101.624 Y103.604 E.01953
G1 X101.471 Y103.902 E.00987
G1 X100.728 Y103.769 E.02225
G1 X100.383 Y103.735 E.01022
G1 X100.43 Y103.521 E.00646
G1 X100.509 Y102.832 E.02044
G1 X100.855 Y102.77 E.01036
G1 X101.119 Y102.673 E.00829
G1 E-1.12 F2400
;WIPE_START
G1 F4800
G1 X101.175 Y102.653 E-.02825
G1 X101.262 Y103.049 E-.19259
G1 X101.56 Y103.506 E-.25916
;WIPE_END
G1 X99.638 Y104.354 F6000
G1 E1.6 F2400
G1 F1200
G1 X99.595 Y104.49 E.0042
G1 X99.555 Y104.55 E.00213
G1 X99.47 Y104.601 E.00292
G1 X99.361 Y104.601 E.00321
G1 X99.293 Y104.56 E.00234
G1 X99.299 Y104.455 E.0031
G1 X99.358 Y104.419 E.00204
G1 X99.548 Y104.361 E.00585
G1 X99.578 Y104.359 E.00089
G1 E-1.12 F2400
;WIPE_START
G1 F4800
G1 X99.638 Y104.354 E-.0286
G1 X99.595 Y104.49 E-.06775
G1 X99.555 Y104.55 E-.03425
G1 X99.47 Y104.601 E-.04708
G1 X99.361 Y104.601 E-.05177
G1 X99.293 Y104.56 E-.03772
G1 X99.299 Y104.455 E-.04996
G1 X99.358 Y104.419 E-.03283
G1 X99.548 Y104.361 E-.09436
G1 X99.578 Y104.359 E-.01428
;WIPE_END
G1 E-.0214 F2400
G1 X95.574 Y104.354 F6000
G1 E1.6 F2400
G1 F1200
G1 X95.531 Y104.49 E.0042
G1 X95.491 Y104.55 E.00213
G1 X95.406 Y104.601 E.00292
G1 X95.297 Y104.601 E.00321
G1 X95.229 Y104.56 E.00234
G1 X95.235 Y104.455 E.0031
G1 X95.294 Y104.419 E.00204
G1 X95.484 Y104.361 E.00585
G1 X95.514 Y104.359 E.00089
G1 E-1.12 F2400
;WIPE_START
G1 F4800
G1 X95.574 Y104.354 E-.0286
G1 X95.531 Y104.49 E-.06775
G1 X95.491 Y104.55 E-.03425
G1 X95.406 Y104.601 E-.04708
G1 X95.297 Y104.601 E-.05178
G1 X95.229 Y104.56 E-.03772
G1 X95.235 Y104.455 E-.04996
G1 X95.294 Y104.419 E-.03283
G1 X95.484 Y104.361 E-.09436
G1 X95.514 Y104.359 E-.01428
;WIPE_END
G1 E-.02139 F2400
G1 X97.115 Y102.651 F6000
G1 E1.6 F2400
G1 F1200
G1 X97.117 Y102.685 E.001
G1 X97.199 Y103.05 E.01103
G1 X97.56 Y103.604 E.01949
G1 X97.407 Y103.902 E.00987
G1 X96.664 Y103.769 E.02225
G1 X96.319 Y103.735 E.01022
G1 X96.366 Y103.521 E.00646
G1 X96.445 Y102.832 E.02044
G1 X96.791 Y102.77 E.01036
G1 X97.058 Y102.672 E.00838
G1 X97.058 Y102.672 F6000
G1 X95.658 Y102.339
G1 F1200
G1 X95.692 Y102.446 E.00331
G1 X95.394 Y102.51 E.00898
G1 X95.246 Y102.516 E.00437
G1 X95.153 Y102.495 E.00281
G1 X95.092 Y102.459 E.00209
G1 X95.013 Y102.341 E.00419
G1 X94.999 Y102.237 E.00309
G1 X95.015 Y102.117 E.00357
G1 X95.054 Y102.034 E.0027
G1 X95.126 Y101.954 E.00317
G1 X95.204 Y101.907 E.00268
G1 X95.301 Y101.884 E.00294
G1 X95.412 Y101.887 E.00327
G1 X95.494 Y101.928 E.0027
G1 X95.559 Y102.026 E.00347
G1 X95.64 Y102.282 E.00791
G1 E-1.12 F2400
;WIPE_START
G1 F4800
G1 X95.658 Y102.339 E-.02839
G1 X95.692 Y102.446 E-.05333
G1 X95.394 Y102.51 E-.14478
G1 X95.246 Y102.516 E-.07036
G1 X95.153 Y102.495 E-.04529
G1 X95.092 Y102.459 E-.03364
G1 X95.013 Y102.341 E-.06745
G1 X95.003 Y102.264 E-.03676
;WIPE_END
G1 X95.764 Y111.025 F6000
G1 E1.6 F2400
G1 F1200
G1 X95.609 Y111.174 E.00634
G1 X95.43 Y111.254 E.00578
G1 X95.297 Y111.257 E.00392
G1 X95.115 Y111.205 E.00558
G1 X95.007 Y111.071 E.00507
G1 X94.967 Y110.9 E.00518
G1 X94.976 Y110.662 E.00702
G1 X95.024 Y110.501 E.00495
G1 X95.096 Y110.392 E.00385
G1 X95.18 Y110.323 E.0032
G1 X95.276 Y110.287 E.00302
G1 X95.394 Y110.285 E.00348
G1 X95.483 Y110.322 E.00284
G1 X95.57 Y110.44 E.00432
G1 X95.745 Y110.968 E.01639
G1 E-1.12 F2400
;WIPE_START
G1 F4800
G1 X95.764 Y111.025 E-.02854
G1 X95.609 Y111.174 E-.10213
G1 X95.43 Y111.254 E-.09313
G1 X95.297 Y111.257 E-.06319
G1 X95.115 Y111.205 E-.08991
G1 X95.007 Y111.071 E-.08175
G1 X94.997 Y111.027 E-.02135
;WIPE_END
G1 X128.259 Y112.756 F6000
G1 E1.6 F2400
G1 F1200
G1 X128.216 Y112.891 E.00418
G1 X128.175 Y112.951 E.00214
G1 X128.091 Y113.002 E.0029
G1 X127.981 Y113.002 E.00324
G1 X127.914 Y112.962 E.0023
G1 X127.92 Y112.857 E.0031
G1 X127.978 Y112.821 E.00201
G1 X128.169 Y112.762 E.00589
G1 X128.199 Y112.76 E.00089
G1 E-1.12 F2400
;WIPE_START
G1 F4800
G1 X128.259 Y112.756 E-.02856
G1 X128.216 Y112.891 E-.0673
G1 X128.175 Y112.951 E-.03452
G1 X128.091 Y113.002 E-.04668
G1 X127.981 Y113.002 E-.05225
G1 X127.914 Y112.962 E-.03707
G1 X127.92 Y112.857 E-.04996
G1 X127.978 Y112.821 E-.03243
G1 X128.169 Y112.762 E-.09495
G1 X128.199 Y112.76 E-.01428
;WIPE_END
G1 E-.022 F2400
G1 X130.271 Y112.837 F6000
G1 E1.6 F2400
G1 F1200
G1 X130.336 Y112.532 E.00919
G1 X130.724 Y112.839 E.01458
G1 X130.331 Y112.837 E.01158
G1 X130.331 Y112.837 F6000
G1 X129.398 Y112.179
G1 F1200
G1 X129.348 Y112.171 E.00149
G1 X129.003 Y112.136 E.01022
G1 X129.051 Y111.923 E.00644
G1 X129.13 Y111.233 E.02047
G1 X129.475 Y111.171 E.01033
G1 X129.731 Y111.077 E.00804
G1 X129.771 Y111.512 E.01287
G1 X129.922 Y111.96 E.01393
G1 X130.147 Y112.314 E.01236
G1 X129.457 Y112.19 E.02066
G1 X129.457 Y112.19 F6000
G1 X128.343 Y110.741
G1 F1200
G1 X128.377 Y110.848 E.00331
G1 X128.078 Y110.911 E.00901
G1 X127.93 Y110.917 E.00437
G1 X127.838 Y110.896 E.00278
G1 X127.777 Y110.86 E.00209
G1 X127.697 Y110.742 E.0042
G1 X127.683 Y110.638 E.00309
G1 X127.699 Y110.518 E.00357
G1 X127.738 Y110.435 E.0027
G1 X127.81 Y110.355 E.00317
G1 X127.888 Y110.308 E.00268
G1 X127.985 Y110.285 E.00294
G1 X128.096 Y110.289 E.00327
G1 X128.179 Y110.329 E.00272
G1 X128.244 Y110.427 E.00347
G1 X128.325 Y110.683 E.00791
G1 E-1.12 F2400
;WIPE_START
G1 F4800
G1 X128.343 Y110.741 E-.02885
G1 X128.377 Y110.848 E-.05333
G1 X128.078 Y110.911 E-.14514
G1 X127.93 Y110.917 E-.07036
G1 X127.838 Y110.896 E-.04482
G1 X127.777 Y110.86 E-.03364
G1 X127.697 Y110.742 E-.06772
G1 X127.687 Y110.667 E-.03614
;WIPE_END
G1 X131.714 Y110.801 F6000
G1 E1.6 F2400
G1 F1200
G1 X131.719 Y110.662 E.0041
G1 X131.767 Y110.501 E.00495
G1 X131.839 Y110.392 E.00385
G1 X131.923 Y110.323 E.0032
G1 X132.019 Y110.287 E.00302
G1 X132.137 Y110.285 E.00348
G1 X132.226 Y110.322 E.00284
G1 X132.313 Y110.44 E.00432
G1 X132.508 Y111.025 E.01817
G1 X132.353 Y111.174 E.00634
G1 X132.173 Y111.254 E.00581
G1 X132.04 Y111.257 E.00392
G1 X131.858 Y111.205 E.00558
G1 X131.75 Y111.071 E.00507
G1 X131.711 Y110.9 E.00517
G1 X131.712 Y110.861 E.00115
G1 E-1.12 F2400
;WIPE_START
G1 F4800
G1 X131.714 Y110.801 E-.02852
G1 X131.719 Y110.662 E-.06607
G1 X131.767 Y110.501 E-.0798
G1 X131.839 Y110.392 E-.06205
G1 X131.923 Y110.323 E-.05164
G1 X132.019 Y110.287 E-.0487
G1 X132.137 Y110.285 E-.05606
G1 X132.226 Y110.322 E-.04578
G1 X132.278 Y110.392 E-.04138
;WIPE_END
G1 X107.303 Y112.249 F6000
G1 E1.6 F2400
G1 F1200
G1 X107.831 Y112.295 E.01562
G1 X107.679 Y112.126 E.0067
G1 X107.532 Y111.902 E.0079
G1 X107.368 Y111.482 E.01329
G1 X107.289 Y111.027 E.01361
G1 X107.297 Y110.5 E.01553
G1 X107.351 Y110.185 E.00942
G1 X107.438 Y109.891 E.00904
G1 X107.561 Y109.609 E.00907
G1 X107.715 Y109.344 E.00903
G1 X107.904 Y109.101 E.00907
G1 X108.125 Y108.889 E.00903
G1 X108.375 Y108.712 E.00903
G1 X108.646 Y108.573 E.00898
G1 X108.937 Y108.473 E.00907
G1 X109.272 Y108.411 E.01004
