; generated by PrusaSlicer 2.6.0-alpha4+MacOS-x64 on 2023-03-09 at 09:26:14 UTC

; 

; external perimeters extrusion width = 0.42mm
; perimeters extrusion width = 0.44mm
; infill extrusion width = 0.44mm
; solid infill extrusion width = 0.44mm
; top infill extrusion width = 0.40mm
; first layer extrusion width = 0.42mm

M201 X500 Y500 Z100 E5000 ; sets maximum accelerations, mm/sec^2
M203 X500 Y500 Z10 E60 ; sets maximum feedrates, mm / sec
M204 P500 R1000 T500 ; sets acceleration (P, T) and retract acceleration (R), mm/sec^2
M205 X8.00 Y8.00 Z0.40 E5.00 ; sets the jerk limits, mm/sec
M205 S0 T0 ; sets the minimum extruding and travel feed rate, mm/sec
M107
;TYPE:Custom
; Ender 3 Custom Start G-code
G92 E0 ; Reset Extruder

M140 S60 ; set bed temp
M190 S60 ; wait for bed temp

G28 ; Home all axes
M104 S210 ; set extruder temp 
BED_MESH_CALIBRATE AREA_START=90.6,90.6 AREA_END=140.4,140.4

G1 Z2.0 F3000 ; Move Z Axis up little to prevent scratching of Heat Bed
M109 S210 ; wait for extruder temp
G1 X0.1 Y20 Z0.3 F5000.0 ; Move to start position

G1 X0.1 Y200.0 Z0.3 F1500.0 E15 ; Draw the first line
G1 X0.4 Y200.0 Z0.3 F5000.0 ; Move to side a little
G1 X0.4 Y20 Z0.3 F1500.0 E30 ; Draw the second line
G92 E0 ; Reset Extruder
G1 Z2.0 F3000 ; Move Z Axis up little to prevent scratching of Heat Bed
G1 X5 Y20 Z0.3 F5000.0 ; Move over to prevent blob squish
G21 ; set units to millimeters
G90 ; use absolute coordinates
M83 ; use relative distances for extrusion
; Filament gcode
M107
;LAYER_CHANGE
;Z:0.2
;HEIGHT:0.2
;BEFORE_LAYER_CHANGE
G92 E0
;0.2


G1 E-5 F3600
G1 Z.2 F9000
;AFTER_LAYER_CHANGE
;0.2
G1 X95.646 Y95.017
G1 E5 F2400
M204 S500
;TYPE:Skirt/Brim
;WIDTH:0.42
G1 F1200
G1 X97.691 Y93.336 E.083
G1 X103.876 Y91.145 E.20573
G1 X126.475 Y91.099 E.70858
G1 X129.338 Y91.592 E.09109
G1 X132.034 Y92.624 E.09051
G1 X135.548 Y95.194 E.1365
G1 X138.224 Y98.723 E.13886
G1 X139.697 Y102.933 E.13985
G1 X139.92 Y126.443 E.73717
G1 X139.081 Y130.363 E.12569
G1 X137.178 Y133.907 E.12613
G1 X135.354 Y135.983 E.08665
G1 X133.308 Y137.665 E.08305
G1 X126.75 Y139.918 E.21742
G1 X104.526 Y139.918 E.69682
G1 X100.631 Y139.079 E.12493
G1 X97.091 Y137.176 E.12602
G1 X95.017 Y135.354 E.08656
G1 X93.335 Y133.308 E.08305
G1 X91.082 Y126.75 E.21742
G1 X91.082 Y104.526 E.69682
G1 X91.921 Y100.631 E.12493
G1 X93.824 Y97.091 E.12602
G1 X95.606 Y95.062 E.08467
G1 X95.889 Y95.312 F9000
G1 F1200
G1 X97.905 Y93.648 E.08196
G1 X103.971 Y91.512 E.20164
G1 X126.427 Y91.474 E.70409
G1 X129.221 Y91.951 E.08887
G1 X131.875 Y92.967 E.0891
G1 X135.302 Y95.482 E.13328
G1 X137.905 Y98.926 E.13536
G1 X139.331 Y103.028 E.13617
G1 X139.542 Y126.426 E.73366
G1 X138.719 Y130.257 E.12286
G1 X136.856 Y133.709 E.12299
G1 X135.082 Y135.722 E.08413
G1 X133.095 Y137.352 E.08058
G1 X126.719 Y139.54 E.21136
G1 X104.546 Y139.54 E.69522
G1 X100.737 Y138.716 E.12219
G1 X97.289 Y136.855 E.12285
G1 X95.278 Y135.081 E.08408
G1 X93.648 Y133.095 E.08056
G1 X91.46 Y126.719 E.21136
G1 X91.46 Y104.546 E.69522
G1 X92.284 Y100.737 E.12219
G1 X94.145 Y97.289 E.12285
G1 X95.849 Y95.357 E.08077
G1 X96.132 Y95.606 F9000
G1 F1200
G1 X96.191 Y95.54 E.00278
G1 X98.118 Y93.961 E.07811
G1 X104.066 Y91.878 E.1976
G1 X126.38 Y91.848 E.69964
G1 X129.139 Y92.319 E.08776
G1 X131.716 Y93.31 E.08657
G1 X135.057 Y95.769 E.13007
G1 X137.586 Y99.129 E.13186
G1 X138.965 Y103.121 E.13242
G1 X139.165 Y126.408 E.73017
G1 X138.356 Y130.151 E.12007
G1 X136.535 Y133.51 E.1198
G1 X134.809 Y135.46 E.08165
G1 X132.882 Y137.039 E.07811
G1 X126.688 Y139.163 E.20531
G1 X104.566 Y139.163 E.69362
G1 X100.844 Y138.354 E.11943
G1 X97.488 Y136.534 E.1197
G1 X95.54 Y134.809 E.08158
G1 X93.961 Y132.882 E.07811
G1 X91.837 Y126.688 E.20531
G1 X91.837 Y104.566 E.69362
G1 X92.646 Y100.844 E.11943
G1 X94.466 Y97.488 E.1197
G1 X96.092 Y95.651 E.07692
G1 X96.374 Y95.902 F9000
G1 F1200
G1 X96.463 Y95.801 E.00422
G1 X98.331 Y94.274 E.07565
G1 X104.16 Y92.245 E.19352
G1 X126.333 Y92.223 E.69522
G1 X129.021 Y92.678 E.08548
G1 X131.557 Y93.653 E.08519
G1 X134.81 Y96.056 E.12681
G1 X137.267 Y99.331 E.12837
G1 X138.598 Y103.215 E.12873
G1 X138.788 Y126.39 E.72666
G1 X138.011 Y129.995 E.11563
G1 X136.214 Y133.311 E.11826
G1 X134.538 Y135.198 E.07913
G1 X132.67 Y136.726 E.07567
G1 X126.657 Y138.786 E.19929
G1 X104.587 Y138.786 E.69199
G1 X100.951 Y137.991 E.1167
G1 X97.688 Y136.213 E.11651
G1 X95.801 Y134.537 E.07913
G1 X94.274 Y132.67 E.07562
G1 X92.214 Y126.657 E.19929
G1 X92.214 Y104.587 E.69199
G1 X93.009 Y100.951 E.1167
G1 X94.787 Y97.688 E.11651
G1 X96.334 Y95.946 E.07305
G1 X96.615 Y96.197 F9000
G1 F1200
G1 X96.734 Y96.064 E.0056
G1 X98.543 Y94.587 E.07322
G1 X104.253 Y92.611 E.18945
G1 X126.286 Y92.597 E.69083
G1 X128.904 Y93.037 E.08324
G1 X131.397 Y93.996 E.08375
G1 X134.563 Y96.342 E.12355
G1 X136.947 Y99.533 E.12489
G1 X138.231 Y103.307 E.12499
G1 X138.411 Y126.372 E.72321
G1 X137.649 Y129.888 E.1128
G1 X135.893 Y133.111 E.11508
G1 X134.266 Y134.936 E.07666
G1 X132.457 Y136.412 E.0732
G1 X126.626 Y138.409 E.19325
G1 X104.607 Y138.409 E.69039
G1 X101.058 Y137.629 E.11393
G1 X97.888 Y135.893 E.11332
G1 X96.064 Y134.266 E.07664
G1 X94.588 Y132.457 E.0732
G1 X92.591 Y126.626 E.19325
G1 X92.591 Y104.607 E.69039
G1 X93.371 Y101.058 E.11393
G1 X95.107 Y97.888 E.11332
G1 X96.575 Y96.242 E.06915
G1 X96.855 Y96.493 F9000
G1 F1200
G1 X97.005 Y96.326 E.00704
G1 X98.755 Y94.901 E.07076
G1 X104.346 Y92.978 E.18538
G1 X126.239 Y92.972 E.68644
G1 X128.786 Y93.396 E.08096
G1 X131.238 Y94.338 E.08236
G1 X134.316 Y96.628 E.12029
G1 X136.626 Y99.734 E.12137
G1 X137.864 Y103.399 E.12129
G1 X138.033 Y126.354 E.71976
G1 X137.286 Y129.781 E.10997
G1 X135.573 Y132.911 E.11187
G1 X133.995 Y134.673 E.07416
G1 X132.245 Y136.099 E.07078
G1 X126.594 Y138.032 E.18726
G1 X104.628 Y138.032 E.68873
G1 X101.216 Y137.285 E.10951
G1 X98.088 Y135.573 E.1118
G1 X96.326 Y133.995 E.07416
G1 X94.901 Y132.245 E.07076
G1 X92.968 Y126.594 E.18726
G1 X92.968 Y104.628 E.68873
G1 X93.715 Y101.216 E.10951
G1 X95.427 Y98.088 E.1118
G1 X96.815 Y96.538 E.06524
G1 X97.095 Y96.789 F9000
G1 F1200
G1 X97.275 Y96.59 E.00841
G1 X98.967 Y95.215 E.06836
G1 X104.438 Y93.345 E.18128
G1 X126.223 Y93.349 E.68305
G1 X128.705 Y93.764 E.0789
G1 X131.078 Y94.681 E.07977
G1 X134.068 Y96.914 E.11701
G1 X136.305 Y99.934 E.11784
G1 X137.497 Y103.49 E.11759
G1 X137.656 Y126.335 E.71631
G1 X136.924 Y129.674 E.10718
G1 X135.254 Y132.71 E.10864
G1 X133.725 Y134.41 E.07169
G1 X132.033 Y135.785 E.06836
G1 X126.563 Y137.655 E.18125
G1 X104.648 Y137.655 E.68713
G1 X101.324 Y136.923 E.10672
G1 X98.289 Y135.253 E.10862
G1 X96.59 Y133.725 E.07165
G1 X95.215 Y132.033 E.06836
G1 X93.345 Y126.563 E.18125
G1 X93.345 Y104.648 E.68713
G1 X94.077 Y101.324 E.10672
G1 X95.747 Y98.289 E.10862
G1 X97.055 Y96.834 E.06134
G1 X97.335 Y97.086 F9000
G1 F1200
G1 X97.545 Y96.853 E.00983
G1 X99.178 Y95.529 E.06592
G1 X104.469 Y93.722 E.1753
G1 X126.208 Y93.726 E.68161
G1 X128.623 Y94.133 E.07679
G1 X130.917 Y95.023 E.07715
G1 X133.82 Y97.199 E.11375
G1 X135.957 Y100.082 E.11252
G1 X137.13 Y103.582 E.11574
G1 X137.279 Y126.316 E.71282
G1 X136.561 Y129.566 E.10436
G1 X134.934 Y132.508 E.10541
G1 X133.455 Y134.147 E.06922
G1 X131.822 Y135.471 E.06592
G1 X126.532 Y137.278 E.17527
G1 X104.669 Y137.278 E.6855
G1 X101.432 Y136.561 E.10395
G1 X98.491 Y134.934 E.10538
G1 X96.853 Y133.455 E.0692
G1 X95.529 Y131.822 E.06592
G1 X93.722 Y126.532 E.17527
G1 X93.722 Y104.669 E.6855
G1 X94.439 Y101.432 E.10395
G1 X96.066 Y98.491 E.10538
G1 X97.294 Y97.131 E.05745
G1 X97.573 Y97.384 F9000
G1 F1200
G1 X97.814 Y97.118 E.01125
G1 X99.39 Y95.843 E.06356
G1 X104.5 Y94.099 E.16929
G1 X126.192 Y94.103 E.68014
G1 X128.541 Y94.502 E.07471
G1 X130.756 Y95.365 E.07453
G1 X133.571 Y97.483 E.11046
G1 X135.636 Y100.282 E.10906
G1 X136.763 Y103.672 E.11201
G1 X136.902 Y126.297 E.7094
G1 X136.199 Y129.457 E.1015
G1 X134.615 Y132.306 E.10221
G1 X133.186 Y133.882 E.0667
G1 X131.611 Y135.157 E.06354
G1 X126.501 Y136.901 E.16929
G1 X104.69 Y136.901 E.68387
G1 X101.541 Y136.199 E.10116
G1 X98.694 Y134.615 E.10215
G1 X97.118 Y133.186 E.0667
G1 X95.843 Y131.611 E.06354
G1 X94.099 Y126.501 E.16929
G1 X94.099 Y104.69 E.68387
G1 X94.801 Y101.541 E.10116
G1 X96.385 Y98.694 E.10215
G1 X97.533 Y97.428 E.05358
G1 X97.811 Y97.681 F9000
G1 F1200
G1 X98.083 Y97.382 E.01267
G1 X99.601 Y96.157 E.06116
G1 X104.531 Y94.476 E.16332
G1 X126.176 Y94.48 E.67866
G1 X128.422 Y94.86 E.07142
G1 X130.594 Y95.706 E.07309
G1 X133.321 Y97.767 E.10718
G1 X135.314 Y100.481 E.10558
G1 X136.396 Y103.762 E.10832
G1 X136.525 Y126.278 E.70598
G1 X135.837 Y129.348 E.09865
G1 X134.297 Y132.102 E.09893
G1 X132.917 Y133.618 E.06428
G1 X131.4 Y134.843 E.06114
G1 X126.47 Y136.524 E.16332
G1 X104.711 Y136.524 E.68224
G1 X101.651 Y135.837 E.09833
G1 X98.897 Y134.297 E.09893
G1 X97.382 Y132.917 E.06425
G1 X96.157 Y131.4 E.06114
G1 X94.476 Y126.47 E.16332
G1 X94.476 Y104.711 E.68224
G1 X95.163 Y101.651 E.09833
G1 X96.703 Y98.897 E.09893
G1 X97.77 Y97.726 E.04967
G1 X98.048 Y97.979 F9000
G1 F1200
G1 X98.351 Y97.648 E.01407
G1 X99.811 Y96.471 E.0588
G1 X104.562 Y94.853 E.15737
G1 X126.16 Y94.857 E.67719
G1 X128.339 Y95.228 E.0693
G1 X130.432 Y96.048 E.07048
G1 X133.071 Y98.051 E.10388
G1 X134.992 Y100.679 E.10207
G1 X136.028 Y103.851 E.10463
G1 X136.147 Y126.258 E.70257
G1 X135.476 Y129.237 E.09574
G1 X133.979 Y131.898 E.09573
G1 X132.649 Y133.352 E.06178
G1 X131.189 Y134.528 E.05878
G1 X126.439 Y136.147 E.15735
G1 X104.732 Y136.147 E.68061
G1 X101.761 Y135.475 E.09551
G1 X99.101 Y133.979 E.09569
G1 X97.648 Y132.649 E.06176
G1 X96.472 Y131.189 E.05878
G1 X94.853 Y126.439 E.15735
G1 X94.853 Y104.732 E.68061
G1 X95.525 Y101.761 E.09551
G1 X97.021 Y99.101 E.09569
G1 X98.007 Y98.024 E.04578
G1 X98.284 Y98.278 F9000
G1 F1200
G1 X98.619 Y97.914 E.01551
G1 X100.022 Y96.786 E.05644
G1 X104.593 Y95.23 E.1514
G1 X126.143 Y95.234 E.67569
G1 X128.256 Y95.597 E.06722
G1 X130.27 Y96.389 E.06785
G1 X132.821 Y98.334 E.10058
G1 X134.669 Y100.876 E.09854
G1 X135.66 Y103.939 E.10094
G1 X135.77 Y126.238 E.69918
G1 X135.114 Y129.127 E.09289
G1 X133.662 Y131.693 E.09244
G1 X132.381 Y133.086 E.05934
G1 X130.978 Y134.214 E.05644
G1 X126.408 Y135.77 E.15137
G1 X104.753 Y135.77 E.67898
G1 X101.872 Y135.114 E.09264
G1 X99.306 Y133.662 E.09244
G1 X97.914 Y132.381 E.05931
G1 X96.786 Y130.978 E.05644
G1 X95.23 Y126.408 E.15137
G1 X95.23 Y104.753 E.67898
G1 X95.886 Y101.872 E.09264
G1 X97.338 Y99.306 E.09244
G1 X98.243 Y98.322 E.04192
G1 X98.519 Y98.577 F9000
G1 F1200
G1 X98.886 Y98.18 E.01695
G1 X100.232 Y97.101 E.05409
G1 X104.624 Y95.607 E.14546
G1 X126.127 Y95.611 E.67421
G1 X128.173 Y95.965 E.0651
G1 X130.106 Y96.73 E.06518
G1 X132.569 Y98.616 E.09727
G1 X134.346 Y101.072 E.09505
G1 X135.293 Y104.026 E.09726
G1 X135.393 Y126.219 E.69585
G1 X134.772 Y128.965 E.08827
G1 X133.345 Y131.489 E.09091
G1 X132.114 Y132.82 E.05684
G1 X130.768 Y133.899 E.05409
G1 X126.377 Y135.393 E.14543
G1 X104.774 Y135.393 E.67735
G1 X101.983 Y134.752 E.08979
G1 X99.512 Y133.345 E.08916
G1 X98.18 Y132.114 E.05687
G1 X97.101 Y130.768 E.05409
G1 X95.607 Y126.377 E.14543
G1 X95.607 Y104.774 E.67735
G1 X96.248 Y101.983 E.08979
G1 X97.655 Y99.512 E.08916
G1 X98.478 Y98.621 E.03803
G1 X98.753 Y98.877 F9000
G1 F1200
G1 X99.153 Y98.447 E.01841
G1 X100.442 Y97.416 E.05175
G1 X104.655 Y95.984 E.13952
G1 X126.111 Y95.988 E.67274
G1 X128.088 Y96.333 E.06292
G1 X129.942 Y97.07 E.06256
G1 X132.317 Y98.898 E.09397
G1 X134.022 Y101.268 E.09154
G1 X134.924 Y104.113 E.09358
G1 X135.016 Y126.199 E.6925
G1 X134.411 Y128.854 E.08538
G1 X133.028 Y131.283 E.08764
G1 X131.847 Y132.553 E.05438
G1 X130.558 Y133.584 E.05175
G1 X126.346 Y135.016 E.13949
G1 X104.796 Y135.016 E.67569
G1 X102.146 Y134.411 E.08523
G1 X99.717 Y133.028 E.08764
G1 X98.447 Y131.847 E.05438
G1 X97.416 Y130.558 E.05175
G1 X95.984 Y126.346 E.13949
G1 X95.984 Y104.796 E.67569
G1 X96.589 Y102.146 E.08523
G1 X97.972 Y99.717 E.08764
G1 X98.712 Y98.921 E.03408
G1 X98.986 Y99.177 F9000
G1 F1200
G1 X99.418 Y98.715 E.01983
G1 X100.651 Y97.731 E.04946
G1 X104.686 Y96.361 E.13361
G1 X126.095 Y96.365 E.67126
G1 X127.967 Y96.69 E.05957
G1 X129.778 Y97.411 E.06112
G1 X132.064 Y99.179 E.09061
G1 X133.698 Y101.462 E.08803
G1 X134.556 Y104.198 E.0899
G1 X134.639 Y126.178 E.68917
G1 X134.05 Y128.742 E.08249
G1 X132.712 Y131.076 E.08435
G1 X131.582 Y132.285 E.05189
G1 X130.349 Y133.269 E.04946
G1 X126.315 Y134.638 E.13357
G1 X104.817 Y134.638 E.67405
G1 X102.258 Y134.05 E.08233
G1 X99.924 Y132.712 E.08435
G1 X98.715 Y131.582 E.05189
G1 X97.731 Y130.349 E.04946
G1 X96.362 Y126.315 E.13357
G1 X96.362 Y104.817 E.67405
G1 X96.95 Y102.258 E.08233
G1 X98.288 Y99.924 E.08435
G1 X98.945 Y99.221 E.03017
G1 X99.219 Y99.478 F9000
G1 F1200
G1 X99.683 Y98.984 E.02125
G1 X100.86 Y98.046 E.04719
G1 X104.717 Y96.739 E.12769
G1 X126.078 Y96.742 E.66976
G1 X127.883 Y97.058 E.05746
G1 X129.613 Y97.751 E.05843
G1 X131.811 Y99.459 E.08728
G1 X133.373 Y101.656 E.08452
G1 X134.188 Y104.283 E.08624
G1 X134.262 Y126.157 E.68585
G1 X133.689 Y128.629 E.07956
G1 X132.397 Y130.868 E.08105
G1 X131.317 Y132.016 E.04942
G1 X130.14 Y132.954 E.04719
G1 X126.285 Y134.261 E.12763
G1 X104.839 Y134.261 E.67242
G1 X102.371 Y133.689 E.07943
G1 X100.132 Y132.397 E.08105
G1 X98.984 Y131.317 E.04942
G1 X98.046 Y130.14 E.04719
G1 X96.739 Y126.285 E.12763
G1 X96.739 Y104.839 E.67242
G1 X97.311 Y102.371 E.07943
G1 X98.603 Y100.132 E.08105
G1 X99.177 Y99.522 E.02626
G1 X99.45 Y99.779 F9000
G1 F1200
G1 X99.948 Y99.253 E.02271
G1 X101.069 Y98.362 E.0449
G1 X104.747 Y97.116 E.12176
G1 X126.061 Y97.119 E.66829
G1 X127.797 Y97.426 E.05528
G1 X129.447 Y98.091 E.05578
G1 X131.556 Y99.739 E.08392
G1 X133.047 Y101.848 E.08098
G1 X133.819 Y104.366 E.08258
G1 X133.884 Y126.136 E.68259
G1 X133.328 Y128.516 E.07663
G1 X132.082 Y130.659 E.07772
G1 X131.052 Y131.747 E.04698
G1 X129.931 Y132.638 E.0449
G1 X126.254 Y133.884 E.12173
G1 X104.861 Y133.884 E.67076
G1 X102.484 Y133.328 E.07654
G1 X100.341 Y132.082 E.07772
G1 X99.253 Y131.052 E.04698
G1 X98.362 Y129.931 E.0449
G1 X97.116 Y126.254 E.12173
G1 X97.116 Y104.861 E.67076
G1 X97.672 Y102.484 E.07654
G1 X98.918 Y100.341 E.07772
G1 X99.408 Y99.823 E.02236
G1 X99.68 Y100.081 F9000
G1 F1200
G1 X100.211 Y99.523 E.02415
G1 X101.278 Y98.678 E.04268
G1 X104.778 Y97.493 E.11586
G1 X126.044 Y97.496 E.66678
G1 X127.711 Y97.794 E.0531
G1 X129.28 Y98.43 E.05308
G1 X131.301 Y100.018 E.08059
G1 X132.721 Y102.04 E.07747
G1 X133.45 Y104.449 E.07892
G1 X133.507 Y126.115 E.67932
G1 X132.968 Y128.401 E.07364
G1 X131.768 Y130.449 E.07442
G1 X130.789 Y131.477 E.04451
G1 X129.722 Y132.322 E.04268
G1 X126.223 Y133.507 E.11583
G1 X104.883 Y133.507 E.6691
G1 X102.599 Y132.968 E.07358
G1 X100.551 Y131.768 E.07442
G1 X99.523 Y130.789 E.04451
G1 X98.678 Y129.722 E.04268
G1 X97.493 Y126.223 E.11583
G1 X97.493 Y104.883 E.6691
G1 X98.032 Y102.599 E.07358
G1 X99.232 Y100.551 E.07442
G1 X99.638 Y100.125 E.01845
G1 X99.908 Y100.384 F9000
G1 F1200
G1 X100.474 Y99.793 E.02566
G1 X101.486 Y98.994 E.04043
G1 X104.809 Y97.87 E.10999
G1 X126.027 Y97.874 E.66528
G1 X127.625 Y98.161 E.05091
G1 X129.113 Y98.769 E.0504
G1 X131.045 Y100.296 E.07721
G1 X132.394 Y102.23 E.07393
G1 X133.081 Y104.53 E.07526
G1 X133.13 Y126.093 E.67609
G1 X132.608 Y128.286 E.07068
G1 X131.455 Y130.238 E.07108
G1 X130.526 Y131.207 E.04209
G1 X129.514 Y132.006 E.04043
G1 X126.192 Y133.13 E.10996
G1 X104.905 Y133.13 E.66744
G1 X102.714 Y132.608 E.07062
G1 X100.762 Y131.455 E.07108
G1 X99.793 Y130.526 E.04209
G1 X98.994 Y129.514 E.04043
G1 X97.87 Y126.192 E.10996
G1 X97.87 Y104.905 E.66744
G1 X98.392 Y102.714 E.07062
G1 X99.545 Y100.762 E.07108
G1 X99.867 Y100.427 E.01457
G1 X100.135 Y100.687 F9000
G1 F1200
G1 X100.736 Y100.065 E.02712
G1 X101.694 Y99.31 E.03824
G1 X104.84 Y98.247 E.10412
G1 X126.011 Y98.251 E.6638
G1 X127.501 Y98.518 E.04746
G1 X128.945 Y99.108 E.04891
G1 X130.789 Y100.574 E.07386
G1 X132.067 Y102.42 E.0704
G1 X132.712 Y104.611 E.07161
G1 X132.753 Y126.071 E.67286
G1 X132.248 Y128.169 E.06766
G1 X131.143 Y130.026 E.06775
G1 X130.264 Y130.935 E.03965
