;FLAVOR:Marlin
;TIME:1583
;Filament used: 0.396708m
;Layer height: 0.12
;MINX:95.5
;MINY:100
;MINZ:0.12
;MAXX:139.488
;MAXY:135
;MAXZ:15.48
;TARGET_MACHINE.NAME:Creality Ender-3
;Generated with Cura_SteamEngine 5.6.0
M140 S50
M105
M190 S50
M104 S205
M105
M109 S205
M82 ;absolute extrusion mode
; Ender 3 Custom Start G-code
G92 E0 ; Reset Extruder
G28 ; Home all axes
G1 Z2.0 F3000 ; Move Z Axis up little to prevent scratching of Heat Bed
G1 X0.1 Y20 Z0.3 F5000.0 ; Move to start position
G1 X0.1 Y200.0 Z0.3 F1500.0 E15 ; Draw the first line
G1 X0.4 Y200.0 Z0.3 F5000.0 ; Move to side a little
G1 X0.4 Y20 Z0.3 F1500.0 E30 ; Draw the second line
G92 E0 ; Reset Extruder
G1 Z2.0 F3000 ; Move Z Axis up little to prevent scratching of Heat Bed
G1 X5 Y20 Z0.3 F5000.0 ; Move over to prevent blob squish
G92 E0
G92 E0
G1 F2700 E-5
;LAYER_COUNT:129
;LAYER:0
M107
G0 F6000 X98.956 Y103.013 Z0.12
;TYPE:SKIRT
G1 F2700 E0
G1 F1200 X99.692 Y102.376 E0.01942
G1 X100.424 Y101.846 E0.03746
G1 X101.321 Y101.311 E0.0583
G1 X102.199 Y100.89 E0.07773
G1 X103.112 Y100.548 E0.09719
G1 X104.049 Y100.289 E0.11659
G1 X105.016 Y100.111 E0.13621
G1 X106.155 Y100.015 E0.15902
G1 X106.812 Y100 E0.17214
G1 X124.804 Y100 E0.53119
G1 X125.896 Y100.016 E0.55298
G1 X127.077 Y100.1 E0.57661
G1 X127.376 Y100.138 E0.58262
G1 X128.237 Y100.282 E0.60004
G1 X129.082 Y100.478 E0.61736
G1 X129.4 Y100.567 E0.62395
G1 X130.508 Y100.943 E0.64729
G1 X130.925 Y101.111 E0.65627
G1 X131.799 Y101.507 E0.67542
G1 X132.32 Y101.79 E0.68725
G1 X132.713 Y102.019 E0.69632
G1 X133.702 Y102.67 E0.71995
G1 X134.018 Y102.905 E0.72781
G1 X134.772 Y103.52 E0.74723
G1 X135.436 Y104.163 E0.76567
G1 X135.854 Y104.606 E0.77783
G1 X136.49 Y105.346 E0.7973
G1 X137.087 Y106.18 E0.81777
G1 X137.425 Y106.703 E0.8302
G1 X137.88 Y107.483 E0.84822
G1 X138.264 Y108.281 E0.86589
G1 X138.624 Y109.162 E0.88488
G1 X138.763 Y109.554 E0.89318
G1 X139.037 Y110.451 E0.9119
G1 X139.232 Y111.361 E0.93047
G1 X139.338 Y111.981 E0.94302
G1 X139.457 Y112.952 E0.96255
G1 X139.488 Y114.033 E0.98413
G1 X139.476 Y114.555 E0.99455
G1 X139.363 Y115.895 E1.02138
G1 X139.17 Y116.942 E1.04263
G1 X139.054 Y117.441 E1.05285
G1 X138.783 Y118.401 E1.07276
G1 X138.372 Y119.462 E1.09547
G1 X138.185 Y119.875 E1.10451
G1 X137.722 Y120.781 E1.12482
G1 X137.533 Y121.11 E1.13239
G1 X136.965 Y121.998 E1.15343
G1 X136.725 Y122.334 E1.16167
G1 X136.123 Y123.102 E1.18114
G1 X135.452 Y123.817 E1.20071
G1 X134.987 Y124.266 E1.21361
G1 X134.251 Y124.914 E1.23318
G1 X133.327 Y125.582 E1.25593
G1 X132.899 Y125.858 E1.26609
G1 X131.895 Y126.429 E1.28914
G1 X131.475 Y126.638 E1.2985
G1 X130.401 Y127.099 E1.32183
G1 X128.043 Y127.955 E1.37189
G1 X125.655 Y128.887 E1.42304
G1 X123.389 Y129.848 E1.47216
G1 X121.074 Y130.907 E1.52297
G1 X118.817 Y132.019 E1.57318
G1 X115.644 Y133.711 E1.64494
G1 X114.764 Y134.128 E1.66437
G1 X113.851 Y134.466 E1.6838
G1 X112.912 Y134.722 E1.70322
G1 X111.946 Y134.894 E1.7228
G1 X110.827 Y134.985 E1.74521
G1 X110.17 Y135 E1.75832
G1 X107.064 Y134.999 E1.82031
G1 X106.331 Y134.988 E1.83494
G1 X105.359 Y134.931 E1.85437
G1 X104.396 Y134.785 E1.8738
G1 X103.45 Y134.556 E1.89323
G1 X102.526 Y134.244 E1.91269
G1 X101.636 Y133.852 E1.9321
G1 X100.813 Y133.401 E1.95083
G1 X99.974 Y132.84 E1.97097
G1 X99.27 Y132.274 E1.98899
G1 X98.517 Y131.549 E2.00985
G1 X97.88 Y130.813 E2.02928
G1 X97.35 Y130.082 E2.0473
G1 X96.814 Y129.185 E2.06815
G1 X96.392 Y128.307 E2.08759
G1 X96.05 Y127.395 E2.10703
G1 X95.79 Y126.457 E2.12645
G1 X95.612 Y125.488 E2.14611
G1 X95.514 Y124.309 E2.16972
G1 X95.5 Y123.658 E2.18272
G1 X95.501 Y111.525 E2.42484
G1 X95.512 Y110.825 E2.43881
G1 X95.57 Y109.852 E2.45827
G1 X95.716 Y108.889 E2.4777
G1 X95.946 Y107.943 E2.49713
G1 X96.259 Y107.02 E2.51658
G1 X96.651 Y106.13 E2.53599
G1 X97.121 Y105.277 E2.55542
G1 X97.664 Y104.469 E2.57485
G1 X98.231 Y103.765 E2.59289
G1 X98.956 Y103.013 E2.61374
G0 F6000 X99.218 Y103.315
G1 F1200 X99.927 Y102.7 E2.63247
G1 X100.659 Y102.17 E2.6505
G1 X101.495 Y101.671 E2.66993
G1 X102.34 Y101.264 E2.68865
G1 X103.219 Y100.933 E2.70739
G1 X104.122 Y100.682 E2.7261
G1 X105.05 Y100.51 E2.74493
G1 X106.189 Y100.414 E2.76774
G1 X106.821 Y100.4 E2.78036
G1 X124.798 Y100.4 E3.13911
G1 X125.868 Y100.415 E3.16046
G1 X127.027 Y100.497 E3.18365
G1 X127.31 Y100.533 E3.18934
G1 X128.147 Y100.672 E3.20627
G1 X128.992 Y100.868 E3.22358
G1 X129.272 Y100.946 E3.22938
G1 X130.359 Y101.314 E3.25229
G1 X130.76 Y101.475 E3.26091
G1 X131.608 Y101.859 E3.27949
G1 X132.119 Y102.136 E3.29109
G1 X132.493 Y102.353 E3.29971
G1 X133.464 Y102.991 E3.3229
G1 X133.766 Y103.215 E3.3304
G1 X134.494 Y103.807 E3.34913
G1 X135.145 Y104.438 E3.36722
G1 X135.551 Y104.867 E3.37901
G1 X136.165 Y105.579 E3.39777
G1 X136.751 Y106.397 E3.41785
G1 X137.079 Y106.905 E3.42992
G1 X137.534 Y107.685 E3.44794
G1 X137.894 Y108.432 E3.46449
G1 X138.247 Y109.295 E3.48309
G1 X138.38 Y109.671 E3.49105
G1 X138.654 Y110.568 E3.50977
G1 X138.838 Y111.428 E3.52732
G1 X138.941 Y112.03 E3.53951
G1 X139.057 Y112.964 E3.55829
G1 X139.088 Y114.024 E3.57945
G1 X139.077 Y114.521 E3.58938
G1 X138.964 Y115.861 E3.61621
G1 X138.78 Y116.852 E3.63633
G1 X138.669 Y117.333 E3.64618
G1 X138.41 Y118.257 E3.66533
G1 X138.008 Y119.297 E3.68758
G1 X137.829 Y119.693 E3.69625
G1 X137.375 Y120.582 E3.71617
G1 X137.196 Y120.895 E3.72337
G1 X136.64 Y121.766 E3.74399
G1 X136.41 Y122.088 E3.75188
G1 X135.831 Y122.828 E3.77063
G1 X135.174 Y123.529 E3.78981
G1 X134.722 Y123.966 E3.80235
G1 X134.016 Y124.59 E3.82116
G1 X133.11 Y125.246 E3.84348
G1 X132.701 Y125.51 E3.85319
G1 X131.716 Y126.071 E3.87582
G1 X131.317 Y126.27 E3.88471
G1 X130.243 Y126.731 E3.90804
G1 X127.897 Y127.582 E3.95784
G1 X125.509 Y128.515 E4.009
G1 X123.223 Y129.484 E4.05855
G1 X120.897 Y130.548 E4.1096
G1 X118.64 Y131.66 E4.15981
G1 X115.472 Y133.35 E4.23146
G1 X114.625 Y133.753 E4.25018
G1 X113.745 Y134.08 E4.26891
G1 X112.841 Y134.328 E4.28762
G1 X111.913 Y134.495 E4.30644
G1 X110.818 Y134.585 E4.32836
G1 X110.17 Y134.6 E4.3413
G1 X107.07 Y134.599 E4.40316
G1 X106.354 Y134.589 E4.41745
G1 X105.418 Y134.535 E4.43616
G1 X104.489 Y134.396 E4.45491
G1 X103.577 Y134.177 E4.47362
G1 X102.687 Y133.878 E4.49236
G1 X101.828 Y133.501 E4.51108
G1 X101.005 Y133.05 E4.52981
G1 X100.225 Y132.528 E4.54854
G1 X99.521 Y131.962 E4.56657
G1 X98.819 Y131.287 E4.586
G1 X98.204 Y130.578 E4.60473
G1 X97.674 Y129.847 E4.62275
G1 X97.174 Y129.011 E4.64219
G1 X96.766 Y128.166 E4.66091
G1 X96.435 Y127.288 E4.67964
G1 X96.183 Y126.384 E4.69837
G1 X96.011 Y125.455 E4.71722
G1 X95.913 Y124.276 E4.74083
G1 X95.9 Y123.658 E4.75317
G1 X95.901 Y111.531 E4.99517
G1 X95.911 Y110.848 E5.00881
G1 X95.966 Y109.911 E5.02754
G1 X96.105 Y108.983 E5.04626
G1 X96.325 Y108.071 E5.06498
G1 X96.625 Y107.181 E5.08373
G1 X97.002 Y106.322 E5.10245
G1 X97.453 Y105.5 E5.12116
G1 X97.976 Y104.72 E5.1399
G1 X98.543 Y104.016 E5.15794
G1 X99.218 Y103.315 E5.17736
G0 F6000 X99.481 Y103.617
G1 F1200 X100.162 Y103.024 E5.19538
G1 X100.894 Y102.494 E5.21341
G1 X101.669 Y102.031 E5.23143
G1 X102.482 Y101.638 E5.24945
G1 X103.327 Y101.318 E5.26748
G1 X104.196 Y101.075 E5.28549
G1 X105.084 Y100.909 E5.30352
G1 X106.223 Y100.813 E5.32633
G1 X106.83 Y100.8 E5.33844
G1 X124.793 Y100.8 E5.69691
G1 X125.84 Y100.814 E5.71781
G1 X126.977 Y100.894 E5.74056
G1 X127.245 Y100.928 E5.74595
G1 X128.057 Y101.062 E5.76237
G1 X128.902 Y101.258 E5.77968
G1 X129.144 Y101.325 E5.78469
G1 X130.21 Y101.685 E5.80715
G1 X130.595 Y101.839 E5.81542
G1 X131.418 Y102.211 E5.83345
G1 X131.919 Y102.482 E5.84481
G1 X132.273 Y102.687 E5.85298
G1 X133.226 Y103.313 E5.87573
G1 X133.514 Y103.526 E5.88288
G1 X134.216 Y104.095 E5.90091
G1 X134.855 Y104.713 E5.91865
G1 X135.249 Y105.129 E5.93009
G1 X135.84 Y105.812 E5.94811
G1 X136.415 Y106.614 E5.9678
G1 X136.733 Y107.107 E5.97951
G1 X137.188 Y107.887 E5.99753
G1 X137.524 Y108.583 E6.01295
G1 X137.87 Y109.429 E6.03119
G1 X137.998 Y109.788 E6.0388
G1 X138.263 Y110.652 E6.05684
G1 X138.444 Y111.495 E6.07404
G1 X138.544 Y112.08 E6.08589
G1 X138.657 Y112.976 E6.10391
G1 X138.688 Y114.016 E6.12467
G1 X138.678 Y114.487 E6.13407
G1 X138.565 Y115.827 E6.16091
G1 X138.39 Y116.762 E6.17989
G1 X138.279 Y117.243 E6.18974
G1 X138.037 Y118.113 E6.20776
G1 X137.643 Y119.133 E6.22959
G1 X137.473 Y119.511 E6.23786
G1 X137.028 Y120.384 E6.25741
G1 X136.859 Y120.68 E6.26421
G1 X136.314 Y121.534 E6.28443
G1 X136.095 Y121.842 E6.29197
G1 X135.539 Y122.554 E6.31
G1 X134.882 Y123.255 E6.32917
G1 X134.457 Y123.667 E6.34098
G1 X133.781 Y124.266 E6.35901
G1 X132.893 Y124.91 E6.3809
G1 X132.503 Y125.162 E6.39017
G1 X131.518 Y125.723 E6.41279
G1 X131.159 Y125.902 E6.42079
G1 X130.085 Y126.363 E6.44412
G1 X127.751 Y127.209 E6.49366
G1 X125.363 Y128.143 E6.54483
G1 X123.057 Y129.12 E6.59481
G1 X120.72 Y130.189 E6.64609
G1 X118.463 Y131.301 E6.6963
G1 X115.3 Y132.989 E6.76785
G1 X114.485 Y133.378 E6.78587
G1 X113.639 Y133.694 E6.8039
G1 X112.769 Y133.934 E6.82191
G1 X111.88 Y134.096 E6.83994
G1 X110.809 Y134.185 E6.86139
G1 X110.17 Y134.2 E6.87414
G1 X107.075 Y134.199 E6.93591
G1 X106.377 Y134.19 E6.94984
G1 X105.476 Y134.139 E6.96784
G1 X104.582 Y134.007 E6.98588
G1 X103.704 Y133.798 E7.00389
G1 X102.847 Y133.511 E7.02193
G1 X102.02 Y133.15 E7.03993
G1 X101.227 Y132.717 E7.05796
G1 X100.476 Y132.216 E7.07598
G1 X99.772 Y131.65 E7.09401
G1 X99.121 Y131.024 E7.11203
G1 X98.528 Y130.343 E7.13005
G1 X97.998 Y129.612 E7.14807
G1 X97.534 Y128.837 E7.16609
G1 X97.14 Y128.024 E7.18412
G1 X96.82 Y127.18 E7.20214
G1 X96.576 Y126.31 E7.22017
G1 X96.41 Y125.422 E7.2382
G1 X96.313 Y124.267 E7.26133
G1 X96.3 Y123.658 E7.27348
G1 X96.301 Y111.536 E7.51539
G1 X96.31 Y110.871 E7.52866
G1 X96.362 Y109.969 E7.54669
G1 X96.494 Y109.076 E7.56471
G1 X96.704 Y108.198 E7.58272
G1 X96.991 Y107.341 E7.60076
G1 X97.353 Y106.514 E7.61877
G1 X97.786 Y105.722 E7.63679
G1 X98.288 Y104.971 E7.65481
G1 X98.855 Y104.267 E7.67285
G1 X99.481 Y103.617 E7.69086
G1 F2700 E2.69086
;MESH:biqu_microprobe_v2_mount_ender_3_pro.stl
G0 F6000 X106.914 Y110.335
G0 X106.914 Y111.414
G0 X107.527 Y111.96
;TYPE:WALL-INNER
G1 F2700 E7.69086
G1 F1188.1 X107.453 Y112.003 E7.69259
G1 X107.527 Y112.046 E7.69431
G1 X107.553 Y112.003 E7.69533
G0 F6000 X108.335 Y111.908
G0 X109.111 Y111.982
G0 X109.8 Y112.351
G0 X110.149 Y112.7
G0 X110.507 Y113.369
G0 X110.6 Y114
G0 X110.514 Y114.586
G0 X110.333 Y115.025
G0 X109.839 Y115.627
G0 X108.375 Y116.411
G0 X107.678 Y116.27
G0 X107.672 Y122.828
G0 X109.63 Y123.13
G0 X109.9 Y123.4
G1 F1200 X109.9 Y116.894 E7.82516
G1 X110 Y116.667 E7.83011
G1 F1203 X110.129 Y116.528 E7.83388
G1 X110.28 Y116.441 E7.83735
G1 F1200 X110.5 Y116.4 E7.84182
G1 X124.535 Y116.4 E8.1219
G1 F1061.9 X125.003 Y116.347 E8.13252
G1 F981.6 X125.476 Y116.364 E8.14407
G1 F1010.5 X125.745 Y116.346 E8.15046
G1 F1012.7 X126.131 Y116.276 E8.15974
G1 F1010.5 X126.421 Y116.171 E8.16705
G1 F1000 X126.806 Y115.963 E8.17753
G1 F1002.1 X127.101 Y115.75 E8.18622
G1 F1006.3 X127.542 Y115.214 E8.20274
G1 F1012.7 X127.759 Y114.691 E8.21613
G1 F1010.5 X127.848 Y114.237 E8.22709
G1 F1004.2 X127.865 Y113.848 E8.23638
G1 F1012.7 X127.776 Y113.368 E8.24792
G1 F1010.5 X127.652 Y113.018 E8.25672
G1 F1008.4 X127.406 Y112.594 E8.26836
G1 X127.16 Y112.325 E8.27702
G1 F1002.1 X126.808 Y112.037 E8.28789
G1 F1010.5 X126.532 Y111.863 E8.29562
G1 F1021.3 X126.127 Y111.724 E8.30566
G1 F1012.7 X125.724 Y111.652 E8.31534
G1 F1008.4 X125.471 Y111.637 E8.32136
G1 F981.6 X125.001 Y111.653 E8.33283
G1 F1039 X124.68 Y111.61 E8.3403
G1 F1173.6 X124.191 Y111.601 E8.35028
G1 F1191.1 X109.316 Y111.603 E8.64935
G1 F1057.3 X108.95 Y111.651 E8.65771
G1 F981.6 X108.378 Y111.638 E8.67167
G1 F1095.9 X107.682 Y111.6 E8.6869
G1 F1200 X107.101 Y111.601 E8.6985
G1 X107.101 Y112.82 E8.72282
G1 X107.419 Y112.504 E8.73177
G1 F1179.4 X107.948 Y112.218 E8.74398
G1 F1057.3 X108.303 Y112.106 E8.75241
G1 F965.8 X108.926 Y112.151 E8.7679
G1 F1008.4 X109.675 Y112.555 E8.78811
G1 F1129.4 X109.997 Y112.92 E8.79843
G1 F1200 X110.279 Y113.448 E8.81037
G1 X110.352 Y114.002 E8.82153
G1 X110.293 Y114.45 E8.83054
G1 X110.133 Y114.895 E8.83998
G1 X109.681 Y115.443 E8.85416
G1 X109.05 Y115.781 E8.86844
G1 X108.5 Y115.854 E8.87951
G1 X108.048 Y115.794 E8.88861
G1 X107.852 Y115.729 E8.89273
G1 X107.339 Y115.454 E8.90435
G1 X107.1 Y115.21 E8.91117
G1 X107.1 Y123.4 E9.07461
G1 X109.9 Y123.4 E9.13048
G0 F6000 X109.5 Y123
G1 F1200 X109.5 Y116.987 E9.25048
G1 X109.528 Y116.759 E9.25506
G1 X109.667 Y116.445 E9.26192
G1 F1221.4 X109.886 Y116.219 E9.26809
G1 F1227.6 X110.135 Y116.07 E9.27375
G1 F1209.1 X110.375 Y116 E9.2787
G1 F1203 X124.477 Y116 E9.55941
G1 F1200 X124.275 Y115.88 E9.5641
G1 X123.898 Y115.572 E9.57382
G1 X123.652 Y115.271 E9.58158
G1 X123.419 Y114.839 E9.59137
G1 X123.319 Y114.56 E9.59729
G1 X123.253 Y114.081 E9.60694
G1 X123.304 Y113.541 E9.61776
G1 X123.407 Y113.13 E9.62622
G1 X123.62 Y112.775 E9.63448
G1 X123.928 Y112.398 E9.64419
G1 X124.228 Y112.151 E9.65195
G1 X124.509 Y112.001 E9.6583
G1 X109.488 Y112.001 E9.95806
G1 X109.771 Y112.151 E9.96446
G1 X110.104 Y112.4 E9.97275
G1 X110.349 Y112.731 E9.98097
G1 X110.58 Y113.162 E9.99073
G1 X110.688 Y113.489 E9.9976
G1 X110.764 Y114.002 E10.00795
G1 X110.689 Y114.508 E10.01816
G1 X110.53 Y114.971 E10.02793
G1 X110.379 Y115.225 E10.03383
G1 F1203 X109.966 Y115.729 E10.0468
G1 X109.19 Y116.164 E10.06451
G1 X108.495 Y116.265 E10.07849
G1 F1200 X107.989 Y116.19 E10.08869
G1 X107.663 Y116.082 E10.09555
G1 X107.501 Y115.994 E10.09923
G1 X107.5 Y123 E10.23904
G1 X109.5 Y123 E10.27895
G0 F6000 X109.672 Y116.172
G0 X125.454 Y116.154
G0 X125.492 Y115.896
G1 F965.8 X125.04 Y115.844 E10.29023
G1 F1004.2 X124.572 Y115.606 E10.30275
G1 F1126.8 X124.152 Y115.262 E10.31429
G1 F1200 X124.004 Y115.082 E10.31894
G1 X123.724 Y114.559 E10.33078
G1 X123.653 Y114.097 E10.34011
G1 X123.712 Y113.476 E10.35256
G1 X123.93 Y113.028 E10.3625
G1 X124.238 Y112.652 E10.3722
G1 X124.418 Y112.504 E10.37685
G1 F1061.9 X125.037 Y112.156 E10.39286
G1 F965.8 X125.494 Y112.105 E10.40426
G1 F1002.1 X126.015 Y112.181 E10.41685
G1 F1021.3 X126.396 Y112.331 E10.42645
G1 F1006.3 X126.684 Y112.55 E10.43506
G1 F1000 X126.967 Y112.797 E10.44405
G1 X127.16 Y113.133 E10.45333
G1 F1006.3 X127.313 Y113.448 E10.46167
G1 F1021.3 X127.395 Y114.001 E10.47478
G1 X127.315 Y114.544 E10.48765
G1 F1016.9 X127.139 Y114.949 E10.49804
G1 F1010.5 X126.707 Y115.476 E10.51419
G1 F1000 X126.063 Y115.819 E10.53167
G1 F989.7 X125.492 Y115.896 E10.54561
G0 F6000 X125.513 Y115.454
;TYPE:WALL-OUTER
G1 F1200 X125.062 Y115.385 E10.55471
G1 X124.808 Y115.281 E10.56019
G1 X124.374 Y114.926 E10.57138
G1 X124.109 Y114.431 E10.58258
G1 X124.053 Y114.102 E10.58924
G1 X124.1 Y113.618 E10.59895
G1 X124.22 Y113.307 E10.6056
G1 X124.574 Y112.874 E10.61676
G1 X125.071 Y112.607 E10.62802
G1 X125.511 Y112.548 E10.63688
G1 X125.911 Y112.605 E10.64494
G1 X126.193 Y112.722 E10.65103
G1 X126.616 Y113.067 E10.66193
G1 X126.895 Y113.587 E10.6737
G1 X126.955 Y114.009 E10.68221
G1 X126.895 Y114.411 E10.69032
G1 X126.788 Y114.674 E10.69599
G1 X126.433 Y115.116 E10.7073
G1 X125.932 Y115.39 E10.7187
G1 X125.513 Y115.454 E10.72716
G1 F2700 E5.72716
G0 F6000 X125.615 Y116.147
G0 X109.689 Y116.187
G0 X109.328 Y122.828
G0 X107.672 Y122.828
G0 X107.678 Y116.27
G0 X108.604 Y116.148
G0 X108.503 Y115.457
G1 F2700 E10.72716
G1 F1200 X108.071 Y115.393 E10.73587
G1 X107.608 Y115.144 E10.74636
G1 X107.371 Y114.92 E10.75287
G1 X107.104 Y114.425 E10.76409
G1 F1237.1 X107.06 Y113.974 E10.77286
G1 X107.102 Y113.608 E10.78
G1 F1197 X107.22 Y113.306 E10.78648
G1 F1200 X107.574 Y112.874 E10.79763
