;FLAVOR:Marlin
;TIME:1873
;Filament used: 1.344m
;Layer height: 0.2
;MINX:96.5
;MINY:96.5
;MINZ:0.2
;MAXX:138.5
;MAXY:138.5
;MAXZ:20
;POSTPROCESSED
;Generated with Cura_SteamEngine 5.3.0
M82 ;absolute extrusion mode
; Ender 3 Custom Start G-code
G92 E0 ; Reset Extruder

M140 S50 ; set bed temp
M190 S50 ; wait for bed temp

G28 ; Home all axes
BED_MESH_CALIBRATE  AREA_START=96.5,96.5 AREA_END=138.5,138.5
M104 S200 ; set extruder temp 

G1 Z2.0 F3000 ; Move Z Axis up little to prevent scratching of Heat Bed
M109 S200 ; wait for extruder temp
G1 X0.1 Y20 Z0.3 F5000.0 ; Move to start position

G1 X0.1 Y200.0 Z0.3 F1500.0 E15 ; Draw the first line
G1 X0.4 Y200.0 Z0.3 F5000.0 ; Move to side a little
G1 X0.4 Y20 Z0.3 F1500.0 E30 ; Draw the second line
G92 E0 ; Reset Extruder
G1 Z2.0 F3000 ; Move Z Axis up little to prevent scratching of Heat Bed
G1 X5 Y20 Z0.3 F5000.0 ; Move over to prevent blob squish
G92 E0
G92 E0
G1 F2700 E-5
;LAYER_COUNT:100
;LAYER:0
M107
G0 F6000 X100.481 Y100.117 Z0.2
;TYPE:SKIRT
G1 F2700 E0
G1 F1200 X101.162 Y99.524 E0.03003
G1 X101.894 Y98.994 E0.06009
G1 X102.669 Y98.531 E0.09012
G1 X103.482 Y98.138 E0.12015
G1 X104.327 Y97.818 E0.1502
G1 X105.196 Y97.575 E0.18022
G1 X106.084 Y97.409 E0.21026
G1 X107.223 Y97.313 E0.24828
G1 X107.83 Y97.3 E0.26847
G1 X126.793 Y97.3 E0.89919
G1 X127.637 Y97.311 E0.92726
G1 X128.539 Y97.364 E0.95731
G1 X129.432 Y97.496 E0.98734
G1 X130.31 Y97.707 E1.01737
G1 X131.166 Y97.995 E1.04741
G1 X131.993 Y98.357 E1.07744
G1 X132.785 Y98.792 E1.10749
G1 X133.536 Y99.294 E1.13753
G1 X134.239 Y99.861 E1.16757
G1 X134.889 Y100.488 E1.19761
G1 X135.481 Y101.17 E1.22765
G1 X136.011 Y101.901 E1.25768
G1 X136.473 Y102.677 E1.28772
G1 X136.866 Y103.49 E1.31775
G1 X137.184 Y104.335 E1.34778
G1 X137.427 Y105.205 E1.37782
G1 X137.592 Y106.093 E1.40786
G1 X137.687 Y107.223 E1.44558
G1 X137.7 Y107.83 E1.46578
G1 X137.699 Y126.89 E2.09971
G1 X137.69 Y127.617 E2.1239
G1 X137.639 Y128.519 E2.15394
G1 X137.508 Y129.413 E2.184
G1 X137.299 Y130.291 E2.21401
G1 X137.013 Y131.148 E2.24406
G1 X136.652 Y131.976 E2.27411
G1 X136.22 Y132.768 E2.30411
G1 X135.719 Y133.52 E2.33417
G1 X135.153 Y134.224 E2.36421
G1 X134.528 Y134.875 E2.39423
G1 X133.847 Y135.469 E2.42428
G1 X133.116 Y136 E2.45433
G1 X132.342 Y136.464 E2.48435
G1 X131.529 Y136.858 E2.5144
G1 X130.685 Y137.178 E2.54442
G1 X129.815 Y137.423 E2.57448
G1 X128.928 Y137.589 E2.60449
G1 X127.777 Y137.687 E2.64291
G1 X127.17 Y137.7 E2.66311
G1 X108.075 Y137.699 E3.29821
G1 X107.377 Y137.69 E3.32143
G1 X106.476 Y137.639 E3.35144
G1 X105.582 Y137.507 E3.3815
G1 X104.704 Y137.298 E3.41152
G1 X103.847 Y137.011 E3.44158
G1 X103.02 Y136.65 E3.47159
G1 X102.227 Y136.217 E3.50164
G1 X101.476 Y135.716 E3.53167
G1 X100.772 Y135.15 E3.56171
G1 X100.121 Y134.524 E3.59175
G1 X99.528 Y133.843 E3.62179
G1 X98.998 Y133.112 E3.65182
G1 X98.534 Y132.337 E3.68186
G1 X98.14 Y131.524 E3.71191
G1 X97.82 Y130.68 E3.74193
G1 X97.576 Y129.81 E3.77198
G1 X97.41 Y128.922 E3.80203
G1 X97.313 Y127.767 E3.84058
G1 X97.3 Y127.158 E3.86084
G1 X97.301 Y108.036 E4.49684
G1 X97.31 Y107.371 E4.51896
G1 X97.362 Y106.469 E4.54901
G1 X97.494 Y105.576 E4.57903
G1 X97.704 Y104.698 E4.60906
G1 X97.991 Y103.841 E4.63912
G1 X98.353 Y103.014 E4.66915
G1 X98.786 Y102.222 E4.69917
G1 X99.288 Y101.471 E4.72921
G1 X99.855 Y100.767 E4.75928
G1 X100.481 Y100.117 E4.78929
G0 F6000 X100.218 Y99.815
G1 F1200 X100.899 Y99.222 E4.81933
G1 X101.659 Y98.67 E4.85057
G1 X102.495 Y98.171 E4.88295
G1 X103.34 Y97.764 E4.91415
G1 X104.185 Y97.444 E4.9442
G1 X105.122 Y97.182 E4.97656
G1 X106.05 Y97.01 E5.00795
G1 X107.189 Y96.914 E5.04597
G1 X107.821 Y96.9 E5.06699
G1 X126.798 Y96.9 E5.69817
G1 X127.66 Y96.912 E5.72684
G1 X128.597 Y96.968 E5.75806
G1 X129.49 Y97.1 E5.78809
G1 X130.438 Y97.328 E5.82052
G1 X131.294 Y97.616 E5.85056
G1 X132.186 Y98.006 E5.88294
G1 X132.978 Y98.441 E5.91299
G1 X133.758 Y98.961 E5.94417
G1 X134.517 Y99.573 E5.9766
G1 X135.167 Y100.2 E6.00664
G1 X135.805 Y100.935 E6.03901
G1 X136.355 Y101.696 E6.07024
G1 X136.817 Y102.472 E6.10027
G1 X137.24 Y103.349 E6.13266
G1 X137.569 Y104.227 E6.16384
G1 X137.82 Y105.132 E6.19508
G1 X137.991 Y106.059 E6.22643
G1 X138.086 Y107.189 E6.26415
G1 X138.1 Y107.83 E6.28548
G1 X138.099 Y126.895 E6.91958
G1 X138.089 Y127.64 E6.94436
G1 X138.035 Y128.577 E6.97558
G1 X137.904 Y129.471 E7.00563
G1 X137.688 Y130.384 E7.03683
G1 X137.38 Y131.308 E7.06923
G1 X137.019 Y132.136 E7.09927
G1 X136.553 Y132.99 E7.13163
G1 X136.031 Y133.771 E7.16287
G1 X135.465 Y134.475 E7.19292
G1 X134.817 Y135.152 E7.22409
G1 X134.082 Y135.793 E7.25652
G1 X133.351 Y136.324 E7.28657
G1 X132.548 Y136.807 E7.31774
G1 X131.671 Y137.232 E7.35016
G1 X130.827 Y137.552 E7.38018
G1 X129.889 Y137.816 E7.41259
G1 X128.962 Y137.988 E7.44395
G1 X127.811 Y138.086 E7.48237
G1 X127.179 Y138.1 E7.50339
G1 X108.07 Y138.099 E8.13896
G1 X107.354 Y138.089 E8.16278
G1 X106.418 Y138.035 E8.19396
G1 X105.524 Y137.903 E8.22402
G1 X104.611 Y137.687 E8.25522
G1 X103.687 Y137.378 E8.28763
G1 X102.86 Y137.017 E8.31764
G1 X102.005 Y136.55 E8.35004
G1 X101.225 Y136.028 E8.38126
G1 X100.521 Y135.462 E8.4113
G1 X99.819 Y134.787 E8.44369
G1 X99.226 Y134.106 E8.47373
G1 X98.674 Y133.347 E8.50494
G1 X98.174 Y132.511 E8.53734
G1 X97.766 Y131.666 E8.56855
G1 X97.446 Y130.822 E8.59857
G1 X97.183 Y129.884 E8.63097
G1 X97.011 Y128.955 E8.6624
G1 X96.913 Y127.776 E8.70175
G1 X96.9 Y127.158 E8.72231
G1 X96.901 Y108.031 E9.35847
G1 X96.911 Y107.348 E9.38119
G1 X96.966 Y106.411 E9.41241
G1 X97.098 Y105.518 E9.44243
G1 X97.315 Y104.605 E9.47365
G1 X97.612 Y103.714 E9.50488
G1 X98.002 Y102.822 E9.53726
G1 X98.453 Y102 E9.56845
G1 X98.976 Y101.22 E9.59968
G1 X99.543 Y100.516 E9.62975
G1 X100.218 Y99.815 E9.66212
G0 F6000 X99.955 Y99.513
G1 F1200 X100.636 Y98.92 E9.69215
G1 X101.424 Y98.346 E9.72458
G1 X102.321 Y97.811 E9.75931
G1 X103.198 Y97.39 E9.79167
G1 X104.043 Y97.07 E9.82172
G1 X105.049 Y96.789 E9.85646
G1 X106.016 Y96.611 E9.88916
G1 X107.155 Y96.515 E9.92718
G1 X107.812 Y96.5 E9.94904
G1 X126.804 Y96.5 E10.58072
G1 X127.684 Y96.513 E10.60999
G1 X128.655 Y96.572 E10.64234
G1 X129.584 Y96.711 E10.67359
G1 X130.532 Y96.939 E10.70602
G1 X131.454 Y97.249 E10.73837
G1 X132.379 Y97.655 E10.77197
G1 X133.171 Y98.09 E10.80202
G1 X133.98 Y98.628 E10.83434
G1 X134.795 Y99.285 E10.86915
G1 X135.445 Y99.912 E10.89919
G1 X136.107 Y100.673 E10.93274
G1 X136.699 Y101.491 E10.96632
G1 X137.161 Y102.267 E10.99636
G1 X137.615 Y103.209 E11.03114
G1 X137.944 Y104.087 E11.06233
G1 X138.213 Y105.059 E11.09587
G1 X138.39 Y106.025 E11.12853
G1 X138.485 Y107.155 E11.16625
G1 X138.5 Y107.83 E11.18871
G1 X138.499 Y126.9 E11.82298
G1 X138.488 Y127.663 E11.84836
G1 X138.431 Y128.635 E11.88074
G1 X138.3 Y129.529 E11.91079
G1 X138.077 Y130.476 E11.94315
G1 X137.747 Y131.468 E11.97793
G1 X137.386 Y132.296 E12.00797
G1 X136.886 Y133.212 E12.04268
G1 X136.343 Y134.022 E12.07511
G1 X135.777 Y134.726 E12.10516
G1 X135.106 Y135.429 E12.13748
G1 X134.317 Y136.117 E12.1723
G1 X133.586 Y136.648 E12.20235
G1 X132.754 Y137.15 E12.23467
G1 X131.813 Y137.606 E12.26945
G1 X130.969 Y137.926 E12.29947
G1 X129.997 Y138.201 E12.33307
G1 X128.996 Y138.387 E12.36693
G1 X127.845 Y138.485 E12.40535
G1 X127.188 Y138.5 E12.42721
G1 X108.064 Y138.499 E13.06327
G1 X107.331 Y138.488 E13.08766
G1 X106.36 Y138.431 E13.12001
G1 X105.466 Y138.299 E13.15007
G1 X104.484 Y138.066 E13.18363
G1 X103.527 Y137.745 E13.21721
G1 X102.7 Y137.384 E13.24722
G1 X101.813 Y136.901 E13.28081
G1 X100.974 Y136.34 E13.31438
G1 X100.27 Y135.774 E13.34442
G1 X99.517 Y135.05 E13.37917
G1 X98.924 Y134.369 E13.4092
G1 X98.331 Y133.552 E13.44278
G1 X97.814 Y132.685 E13.47635
G1 X97.392 Y131.808 E13.50872
G1 X97.072 Y130.964 E13.53874
G1 X96.798 Y129.992 E13.57233
G1 X96.612 Y128.988 E13.60629
G1 X96.514 Y127.809 E13.64564
G1 X96.5 Y127.158 E13.6673
G1 X96.501 Y108.025 E14.30367
G1 X96.512 Y107.325 E14.32695
G1 X96.57 Y106.353 E14.35934
G1 X96.702 Y105.46 E14.38936
G1 X96.926 Y104.513 E14.42173
G1 X97.245 Y103.554 E14.45534
G1 X97.635 Y102.662 E14.48772
G1 X98.102 Y101.808 E14.5201
G1 X98.664 Y100.969 E14.55368
G1 X99.231 Y100.265 E14.58375
G1 X99.955 Y99.513 E14.61847
G1 F2700 E9.61847
;MESH:xyzCalibration_cube.stl
G0 F6000 X107.914 Y106.835
G0 X126.9 Y126.9
;TYPE:WALL-INNER
G1 F2700 E14.61847
G1 F1200 X126.9 Y108.1 E15.24376
G1 X108.1 Y108.1 E15.86905
G1 X108.1 Y126.9 E16.49434
G1 X126.9 Y126.9 E17.11963
G0 F6000 X127.3 Y127.3
;TYPE:WALL-OUTER
G1 F1200 X127.3 Y107.7 E17.77153
G1 X107.7 Y107.7 E18.42343
G1 X107.7 Y127.3 E19.07533
G1 X127.3 Y127.3 E19.72723
G0 F6000 X127.03 Y127.03
G0 X126.8 Y126.54
G0 X126.54 Y126.54
;TYPE:SKIN
G1 F1200 X108.46 Y126.54 E20.32857
G1 X108.46 Y108.46 E20.92991
G1 X126.54 Y108.46 E21.53126
G1 X126.54 Y126.54 E22.1326
G0 F6000 X126.8 Y126.54
G0 X126.8 Y108.803
G0 X126.339 Y108.803
G1 F1200 X126.196 Y108.66 E22.13932
G0 F6000 X125.63 Y108.66
G1 F1200 X126.339 Y109.368 E22.17265
G0 F6000 X126.339 Y109.934
G1 F1200 X125.065 Y108.66 E22.23258
G0 F6000 X124.499 Y108.66
G1 F1200 X126.339 Y110.5 E22.31912
G0 F6000 X126.339 Y111.065
G1 F1200 X123.933 Y108.66 E22.43227
G0 F6000 X123.368 Y108.66
G1 F1200 X126.339 Y111.631 E22.57202
G0 F6000 X126.339 Y112.197
G1 F1200 X122.802 Y108.66 E22.73839
G0 F6000 X122.236 Y108.66
G1 F1200 X126.339 Y112.763 E22.93138
G0 F6000 X126.339 Y113.328
G1 F1200 X121.671 Y108.66 E23.15095
G0 F6000 X121.105 Y108.66
G1 F1200 X126.339 Y113.894 E23.39714
G0 F6000 X126.339 Y114.46
G1 F1200 X120.539 Y108.66 E23.66995
G0 F6000 X119.974 Y108.66
G1 F1200 X126.339 Y115.025 E23.96934
G0 F6000 X126.339 Y115.591
G1 F1200 X119.408 Y108.66 E24.29536
G0 F6000 X118.842 Y108.66
G1 F1200 X126.339 Y116.157 E24.64799
G0 F6000 X126.339 Y116.722
G1 F1200 X118.277 Y108.66 E25.0272
G0 F6000 X117.711 Y108.66
G1 F1200 X126.339 Y117.288 E25.43304
G0 F6000 X126.339 Y117.854
G1 F1200 X117.145 Y108.66 E25.8655
G0 F6000 X116.579 Y108.66
G1 F1200 X126.339 Y118.419 E26.32455
G0 F6000 X126.339 Y118.985
G1 F1200 X116.014 Y108.66 E26.81021
G0 F6000 X115.448 Y108.66
G1 F1200 X126.339 Y119.551 E27.32249
G0 F6000 X126.339 Y120.116
G1 F1200 X114.882 Y108.66 E27.86137
G0 F6000 X114.317 Y108.66
G1 F1200 X126.339 Y120.682 E28.42685
G0 F6000 X126.339 Y121.248
G1 F1200 X113.751 Y108.66 E29.01895
G0 F6000 X113.185 Y108.66
G1 F1200 X126.339 Y121.813 E29.63765
G0 F6000 X126.339 Y122.379
G1 F1200 X112.62 Y108.66 E30.28295
G0 F6000 X112.054 Y108.66
G1 F1200 X126.339 Y122.945 E30.95487
G0 F6000 X126.339 Y123.511
G1 F1200 X111.488 Y108.66 E31.65341
G0 F6000 X110.923 Y108.66
G1 F1200 X126.339 Y124.076 E32.37854
G0 F6000 X126.339 Y124.642
G1 F1200 X110.357 Y108.66 E33.13028
G0 F6000 X109.791 Y108.66
G1 F1200 X126.339 Y125.208 E33.90865
G0 F6000 X126.339 Y125.773
G1 F1200 X109.226 Y108.66 E34.71359
G0 F6000 X108.659 Y108.659
G1 F1200 X126.339 Y126.339 E35.5452
G0 F6000 X125.773 Y126.339
G1 F1200 X108.659 Y109.225 E36.35019
G0 F6000 X108.659 Y109.791
G1 F1200 X125.208 Y126.339 E37.12858
G0 F6000 X124.642 Y126.339
G1 F1200 X108.659 Y110.356 E37.88038
G0 F6000 X108.659 Y110.922
G1 F1200 X124.076 Y126.339 E38.60554
G0 F6000 X123.511 Y126.339
G1 F1200 X108.659 Y111.488 E39.30411
G0 F6000 X108.659 Y112.053
G1 F1200 X122.945 Y126.339 E39.97608
G0 F6000 X122.379 Y126.339
G1 F1200 X108.659 Y112.619 E40.62143
G0 F6000 X108.659 Y113.185
G1 F1200 X121.813 Y126.339 E41.24015
G0 F6000 X121.248 Y126.339
G1 F1200 X108.659 Y113.75 E41.8323
G0 F6000 X108.659 Y114.316
G1 F1200 X120.682 Y126.339 E42.39783
G0 F6000 X120.116 Y126.339
G1 F1200 X108.659 Y114.882 E42.93673
G0 F6000 X108.659 Y115.447
G1 F1200 X119.551 Y126.339 E43.44905
G0 F6000 X118.985 Y126.339
G1 F1200 X108.659 Y116.013 E43.93476
G0 F6000 X108.659 Y116.579
G1 F1200 X118.419 Y126.339 E44.39384
G0 F6000 X117.854 Y126.339
G1 F1200 X108.659 Y117.144 E44.82634
G0 F6000 X108.659 Y117.71
G1 F1200 X117.288 Y126.339 E45.23223
G0 F6000 X116.722 Y126.339
G1 F1200 X108.659 Y118.276 E45.61148
G0 F6000 X108.659 Y118.842
G1 F1200 X116.157 Y126.339 E45.96414
G0 F6000 X115.591 Y126.339
G1 F1200 X108.659 Y119.407 E46.2902
G0 F6000 X108.659 Y119.973
G1 F1200 X115.025 Y126.339 E46.58964
G0 F6000 X114.46 Y126.339
G1 F1200 X108.659 Y120.539 E46.86248
G0 F6000 X108.659 Y121.104
G1 F1200 X113.894 Y126.339 E47.10872
G0 F6000 X113.328 Y126.339
G1 F1200 X108.659 Y121.67 E47.32833
G0 F6000 X108.659 Y122.236
G1 F1200 X112.763 Y126.339 E47.52135
G0 F6000 X112.197 Y126.339
G1 F1200 X108.659 Y122.801 E47.68776
G0 F6000 X108.659 Y123.367
G1 F1200 X111.631 Y126.339 E47.82756
G0 F6000 X111.065 Y126.339
G1 F1200 X108.659 Y123.933 E47.94073
G0 F6000 X108.659 Y124.498
G1 F1200 X110.5 Y126.339 E48.02732
G0 F6000 X109.934 Y126.339
G1 F1200 X108.659 Y125.064 E48.0873
G0 F6000 X108.659 Y125.63
G1 F1200 X109.368 Y126.339 E48.12065
G0 F6000 X108.803 Y126.339
M104 S200
G1 F1200 X108.659 Y126.195 E48.12742
;MESH:NOMESH
G0 F300 X108.659 Y126.195 Z0.4
G0 F6000 X108.2 Y126.195
G0 X108.272 Y126.728
G0 X126.9 Y126.9
;TIME_ELAPSED:83.479980
;LAYER:1
M106 S85
;TYPE:WALL-INNER
;MESH:xyzCalibration_cube.stl
G1 F1350 X126.9 Y108.1 E48.75271
G1 X108.1 Y108.1 E49.378
G1 X108.1 Y126.9 E50.00329
G1 X126.9 Y126.9 E50.62858
G0 F7500 X127.3 Y127.3
;TYPE:WALL-OUTER
G1 F1350 X127.3 Y107.7 E51.28048
G1 X107.7 Y107.7 E51.93238
G1 X107.7 Y127.3 E52.58428
G1 X127.3 Y127.3 E53.23618
G0 F7500 X127.03 Y127.03
G0 X126.8 Y126.54
G0 X126.54 Y126.54
;TYPE:SKIN
G1 F1350 X108.46 Y126.54 E53.83752
G1 X108.46 Y108.46 E54.43886
G1 X126.54 Y108.46 E55.04021
G1 X126.54 Y126.54 E55.64155
G0 F7500 X125.956 Y126.339
G1 F1350 X126.339 Y125.956 E55.65956
G0 F7500 X126.339 Y125.39
G1 F1350 X125.39 Y126.339 E55.7042
G0 F7500 X124.824 Y126.339
G1 F1350 X126.339 Y124.824 E55.77546
G0 F7500 X126.339 Y124.259
G1 F1350 X124.259 Y126.339 E55.8733
G0 F7500 X123.693 Y126.339
G1 F1350 X126.339 Y123.693 E55.99776
G0 F7500 X126.339 Y123.127
G1 F1350 X123.127 Y126.339 E56.14884
G0 F7500 X122.562 Y126.339
G1 F1350 X126.339 Y122.562 E56.3265
G0 F7500 X126.339 Y121.996
G1 F1350 X121.996 Y126.339 E56.53078
G0 F7500 X121.43 Y126.339
G1 F1350 X126.339 Y121.43 E56.76169
G0 F7500 X126.339 Y120.865
G1 F1350 X120.865 Y126.339 E57.01917
G0 F7500 X120.299 Y126.339
G1 F1350 X126.339 Y120.299 E57.30327
G0 F7500 X126.339 Y119.733
G1 F1350 X119.733 Y126.339 E57.614
G0 F7500 X119.167 Y126.339
G1 F1350 X126.339 Y119.167 E57.95134
G0 F7500 X126.339 Y118.602
G1 F1350 X118.602 Y126.339 E58.31527
G0 F7500 X118.036 Y126.339
G1 F1350 X126.339 Y118.036 E58.70582
G0 F7500 X126.339 Y117.47
G1 F1350 X117.47 Y126.339 E59.12299
G0 F7500 X116.905 Y126.339
G1 F1350 X126.339 Y116.905 E59.56673
G0 F7500 X126.339 Y116.339
G1 F1350 X116.339 Y126.339 E60.0371
G0 F7500 X115.773 Y126.339
G1 F1350 X126.339 Y115.773 E60.5341
G0 F7500 X126.339 Y115.208
G1 F1350 X115.208 Y126.339 E61.05766
G0 F7500 X114.642 Y126.339
G1 F1350 X126.339 Y114.642 E61.60785
G0 F7500 X126.339 Y114.076
G1 F1350 X114.076 Y126.339 E62.18467
G0 F7500 X113.511 Y126.339
G1 F1350 X126.339 Y113.511 E62.78806
G0 F7500 X126.339 Y112.945
G1 F1350 X112.945 Y126.339 E63.41807
G0 F7500 X112.379 Y126.339
G1 F1350 X126.339 Y112.379 E64.07471
G0 F7500 X126.339 Y111.814
G1 F1350 X111.814 Y126.339 E64.75792
G0 F7500 X111.248 Y126.339
G1 F1350 X126.339 Y111.248 E65.46775
G0 F7500 X126.339 Y110.682
G1 F1350 X110.682 Y126.339 E66.20421
G0 F7500 X110.117 Y126.339
G1 F1350 X126.339 Y110.117 E66.96724
G0 F7500 X126.339 Y109.551
G1 F1350 X109.551 Y126.339 E67.7569
G0 F7500 X108.985 Y126.339
G1 F1350 X126.339 Y108.985 E68.57318
G0 F7500 X126.099 Y108.659
G1 F1350 X108.66 Y126.099 E69.39348
G0 F7500 X108.66 Y125.533
G1 F1350 X125.534 Y108.659 E70.18718
G0 F7500 X124.968 Y108.659
G1 F1350 X108.66 Y124.967 E70.95426
G0 F7500 X108.66 Y124.402
G1 F1350 X124.402 Y108.659 E71.69474
G0 F7500 X123.837 Y108.659
G1 F1350 X108.66 Y123.836 E72.40862
G0 F7500 X108.66 Y123.27
G1 F1350 X123.271 Y108.659 E73.09587
G0 F7500 X122.705 Y108.659
G1 F1350 X108.66 Y122.704 E73.75651
G0 F7500 X108.66 Y122.139
G1 F1350 X122.139 Y108.659 E74.39054
G0 F7500 X121.574 Y108.659
G1 F1350 X108.66 Y121.573 E74.99798
G0 F7500 X108.66 Y121.007
