;FLAVOR:Marlin
;TIME:4185
;Filament used: 3.31041m
;Layer height: 0.2
;MINX:86.658
;MINY:76.674
;MINZ:0.2
;MAXX:148.34
;MAXY:158.327
;MAXZ:50
;POSTPROCESSED
;Generated with Cura_SteamEngine 5.3.0
M82 ;absolute extrusion mode
; Ender 3 Custom Start G-code
G92 E0 ; Reset Extruder

M140 S50 ; set bed temp
M190 S50 ; wait for bed temp

G28 ; Home all axes
BED_MESH_CALIBRATE  AREA_START=86.658,76.674 AREA_END=148.34,158.327
M104 S200 ; set extruder temp 

G1 Z2.0 F3000 ; Move Z Axis up little to prevent scratching of Heat Bed
M109 S200 ; wait for extruder temp
G1 X0.1 Y20 Z0.3 F5000.0 ; Move to start position

G1 X0.1 Y200.0 Z0.3 F1500.0 E15 ; Draw the first line
G1 X0.4 Y200.0 Z0.3 F5000.0 ; Move to side a little
G1 X0.4 Y20 Z0.3 F1500.0 E30 ; Draw the second line
G92 E0 ; Reset Extruder
G1 Z2.0 F3000 ; Move Z Axis up little to prevent scratching of Heat Bed
G1 X5 Y20 Z0.3 F5000.0 ; Move over to prevent blob squish
G92 E0
G92 E0
G1 F2700 E-5
;LAYER_COUNT:250
;LAYER:0
M107
G0 F6000 X95.429 Y87.127 Z0.2
;TYPE:SKIRT
G1 F2700 E0
G1 F1200 X95.986 Y86.539 E0.02694
G1 X96.543 Y85.997 E0.05279
G1 X97.244 Y85.335 E0.08486
G1 X97.763 Y84.857 E0.10832
G1 X98.365 Y84.344 E0.13463
G1 X98.825 Y83.982 E0.1541
G1 X99.773 Y83.262 E0.19369
G1 X100.318 Y82.861 E0.2162
G1 X100.951 Y82.431 E0.24165
G1 X101.459 Y82.113 E0.26158
G1 X102.48 Y81.499 E0.30121
G1 X103.099 Y81.139 E0.32503
G1 X103.784 Y80.774 E0.35084
G1 X104.249 Y80.549 E0.36802
G1 X105.231 Y80.094 E0.40402
G1 X106.025 Y79.74 E0.43294
G1 X106.72 Y79.461 E0.45784
G1 X107.376 Y79.227 E0.48101
G1 X108.264 Y78.928 E0.51217
G1 X109.09 Y78.662 E0.54104
G1 X109.852 Y78.449 E0.56735
G1 X110.627 Y78.268 E0.59382
G1 X112.166 Y77.94 E0.64616
G1 X113.01 Y77.797 E0.67463
G1 X113.768 Y77.702 E0.70004
G1 X114.598 Y77.612 E0.72781
G1 X115.477 Y77.529 E0.75717
G1 X116.245 Y77.486 E0.78276
G1 X116.978 Y77.474 E0.80714
G1 X117.867 Y77.474 E0.83671
G1 X118.711 Y77.485 E0.86478
G1 X119.481 Y77.525 E0.89043
G1 X120.331 Y77.605 E0.91882
G1 X121.868 Y77.782 E0.97028
G1 X122.72 Y77.917 E0.99897
G1 X123.499 Y78.075 E1.02541
G1 X124.334 Y78.258 E1.05384
G1 X125.144 Y78.448 E1.08151
G1 X125.886 Y78.653 E1.10712
G1 X126.419 Y78.822 E1.12571
G1 X127.599 Y79.22 E1.16713
G1 X128.289 Y79.464 E1.19147
G1 X129.137 Y79.807 E1.2219
G1 X130.598 Y80.478 E1.27537
G1 X131.195 Y80.764 E1.29739
G1 X131.987 Y81.188 E1.32727
G1 X133.434 Y82.047 E1.38324
G1 X134.033 Y82.42 E1.40671
G1 X134.694 Y82.869 E1.43328
G1 X135.185 Y83.231 E1.45357
G1 X136.551 Y84.281 E1.51088
G1 X137.208 Y84.832 E1.5394
G1 X137.765 Y85.342 E1.56452
G1 X138.389 Y85.932 E1.59308
G1 X139.016 Y86.543 E1.6222
G1 X139.547 Y87.102 E1.64784
G1 X139.936 Y87.544 E1.66742
G1 X140.677 Y88.416 E1.70548
G1 X141.158 Y88.999 E1.73062
G1 X141.62 Y89.603 E1.75592
G1 X142.081 Y90.261 E1.78264
G1 X142.959 Y91.571 E1.83509
G1 X143.423 Y92.334 E1.86479
G1 X143.805 Y93.03 E1.8912
G1 X144.182 Y93.739 E1.91791
G1 X144.578 Y94.511 E1.94676
G1 X144.911 Y95.231 E1.97315
G1 X145.214 Y95.96 E1.99941
G1 X145.5 Y96.679 E2.02514
G1 X145.854 Y97.611 E2.0583
G1 X146.132 Y98.449 E2.08767
G1 X146.492 Y99.721 E2.13164
G1 X146.773 Y100.809 E2.16901
G1 X146.949 Y101.641 E2.19729
G1 X147.162 Y102.907 E2.23999
G1 X147.301 Y103.829 E2.27101
G1 X147.386 Y104.579 E2.29611
G1 X147.437 Y105.29 E2.31982
G1 X147.493 Y106.332 E2.35453
G1 X147.526 Y107.151 E2.38179
G1 X147.539 Y107.892 E2.40644
G1 X147.531 Y108.788 E2.43624
G1 X147.507 Y109.379 E2.45591
G1 X147.452 Y110.147 E2.48152
G1 X147.328 Y111.626 E2.53089
G1 X147.19 Y114.123 E2.61406
G1 X147.121 Y116.662 E2.69854
G1 X147.125 Y119.197 E2.78286
G1 X147.2 Y121.756 E2.86801
G1 X147.348 Y124.31 E2.9531
G1 X147.498 Y126.136 E3.01403
G1 X147.53 Y126.778 E3.03541
G1 X147.54 Y127.596 E3.06262
G1 X147.531 Y128.224 E3.08351
G1 X147.506 Y128.801 E3.10272
G1 X147.436 Y129.782 E3.13543
G1 X147.347 Y130.834 E3.17055
G1 X147.203 Y133.383 E3.25546
G1 X147.132 Y135.909 E3.33951
G1 X147.132 Y138.444 E3.42382
G1 X147.205 Y140.984 E3.50834
G1 X147.35 Y143.546 E3.59369
G1 X147.499 Y145.385 E3.65505
G1 X147.53 Y146.005 E3.6757
G1 X147.54 Y146.8 E3.70215
G1 X147.531 Y147.458 E3.72403
G1 X147.479 Y148.359 E3.75405
G1 X147.347 Y149.253 E3.78411
G1 X147.137 Y150.131 E3.81413
G1 X146.849 Y150.987 E3.84417
G1 X146.487 Y151.814 E3.8742
G1 X146.054 Y152.607 E3.90425
G1 X145.552 Y153.357 E3.93427
G1 X144.985 Y154.061 E3.96433
G1 X144.359 Y154.711 E3.99435
G1 X143.678 Y155.304 E4.02438
G1 X142.946 Y155.834 E4.05444
G1 X142.171 Y156.297 E4.08446
G1 X141.358 Y156.69 E4.1145
G1 X140.513 Y157.009 E4.14454
G1 X139.643 Y157.253 E4.17459
G1 X138.756 Y157.418 E4.2046
G1 X137.619 Y157.514 E4.24255
G1 X137.012 Y157.527 E4.26274
G1 X136.107 Y157.526 E4.29284
G1 X135.325 Y157.515 E4.31886
G1 X132.515 Y157.517 E4.41232
G1 X131.827 Y157.526 E4.4352
G1 X127.867 Y157.526 E4.56691
G1 X125.081 Y157.516 E4.65958
G1 X123.268 Y157.527 E4.71988
G1 X122.281 Y157.515 E4.75271
G1 X121.798 Y157.497 E4.76878
G1 X121.294 Y157.466 E4.78558
G1 X120.151 Y157.33 E4.82386
G1 X119.708 Y157.252 E4.83882
G1 X118.818 Y157.054 E4.86915
G1 X118.281 Y156.909 E4.88765
G1 X117.119 Y156.519 E4.92842
G1 X116.718 Y156.357 E4.9428
G1 X115.922 Y155.995 E4.97189
G1 X115.465 Y155.763 E4.98893
G1 X114.511 Y155.212 E5.02557
G1 X114.08 Y154.931 E5.04269
G1 X113.212 Y154.297 E5.07844
G1 X112.771 Y153.938 E5.09735
G1 X111.893 Y153.134 E5.13695
G1 X111.302 Y152.513 E5.16546
G1 X109.633 Y150.645 E5.24878
G1 X107.88 Y148.789 E5.33369
G1 X106.082 Y146.99 E5.41829
G1 X104.243 Y145.252 E5.50244
G1 X102.34 Y143.552 E5.58732
G1 X100.404 Y141.918 E5.67158
G1 X98.436 Y140.351 E5.75525
G1 X96.381 Y138.808 E5.84072
G1 X94.281 Y137.321 E5.9263
G1 X92.676 Y136.245 E5.99057
G1 X92.082 Y135.856 E6.01419
G1 X91.349 Y135.328 E6.04423
G1 X90.666 Y134.738 E6.07425
G1 X90.037 Y134.089 E6.10431
G1 X89.469 Y133.388 E6.13432
G1 X88.964 Y132.638 E6.16439
G1 X88.528 Y131.847 E6.19444
G1 X88.164 Y131.021 E6.22446
G1 X87.874 Y130.166 E6.25449
G1 X87.661 Y129.288 E6.28454
G1 X87.527 Y128.395 E6.31457
G1 X87.477 Y127.691 E6.33804
G1 X87.458 Y126.991 E6.36133
G1 X87.459 Y108.044 E6.99151
G1 X87.481 Y106.932 E7.02851
G1 X87.561 Y105.343 E7.08142
G1 X87.61 Y104.635 E7.10503
G1 X87.709 Y103.759 E7.13435
G1 X87.931 Y102.343 E7.18202
G1 X88.099 Y101.392 E7.21414
G1 X88.301 Y100.493 E7.24479
G1 X88.728 Y98.936 E7.29849
G1 X88.912 Y98.308 E7.32025
G1 X89.151 Y97.593 E7.34533
G1 X89.36 Y97.036 E7.36511
G1 X89.758 Y96.03 E7.4011
G1 X90.096 Y95.217 E7.43038
G1 X90.425 Y94.506 E7.45644
G1 X90.803 Y93.771 E7.48393
G1 X91.513 Y92.449 E7.53384
G1 X92.014 Y91.614 E7.56622
G1 X92.802 Y90.433 E7.61345
G1 X93.365 Y89.625 E7.6462
G1 X93.813 Y89.033 E7.67089
G1 X94.258 Y88.49 E7.69424
G1 X94.984 Y87.636 E7.73152
G1 X95.429 Y87.127 E7.75401
G0 F6000 X95.139 Y86.852
G1 F1200 X95.707 Y86.252 E7.78149
G1 X96.268 Y85.706 E7.80753
G1 X96.973 Y85.041 E7.83976
G1 X97.504 Y84.553 E7.86375
G1 X98.118 Y84.03 E7.89058
G1 X98.583 Y83.663 E7.91028
G1 X99.536 Y82.94 E7.95006
G1 X100.093 Y82.53 E7.97307
G1 X100.739 Y82.092 E7.99903
G1 X101.253 Y81.77 E8.0192
G1 X102.279 Y81.153 E8.05902
G1 X102.911 Y80.786 E8.08333
G1 X103.61 Y80.414 E8.10966
G1 X104.081 Y80.186 E8.12707
G1 X105.068 Y79.729 E8.16324
G1 X105.876 Y79.369 E8.19267
G1 X106.586 Y79.084 E8.21811
G1 X107.248 Y78.848 E8.24149
G1 X108.141 Y78.547 E8.27283
G1 X108.982 Y78.277 E8.30221
G1 X109.761 Y78.059 E8.32911
G1 X110.544 Y77.877 E8.35585
G1 X112.099 Y77.546 E8.40873
G1 X112.96 Y77.4 E8.43777
G1 X113.725 Y77.304 E8.46342
G1 X114.56 Y77.214 E8.49135
G1 X115.455 Y77.13 E8.52125
G1 X116.238 Y77.086 E8.54733
G1 X116.971 Y77.074 E8.57172
G1 X117.872 Y77.074 E8.60168
G1 X118.732 Y77.086 E8.63029
G1 X119.518 Y77.127 E8.65647
G1 X120.377 Y77.208 E8.68517
G1 X121.931 Y77.387 E8.73719
G1 X122.8 Y77.525 E8.76646
G1 X123.585 Y77.684 E8.7931
G1 X124.425 Y77.869 E8.82171
G1 X125.251 Y78.062 E8.84992
G1 X125.993 Y78.267 E8.87552
G1 X126.547 Y78.443 E8.89486
G1 X127.732 Y78.843 E8.93645
G1 X128.439 Y79.093 E8.9614
G1 X129.287 Y79.436 E8.99182
G1 X130.771 Y80.117 E9.04613
G1 X131.384 Y80.411 E9.06874
G1 X132.191 Y80.844 E9.0992
G1 X133.645 Y81.707 E9.15544
G1 X134.258 Y82.089 E9.17946
G1 X134.931 Y82.547 E9.20654
G1 X135.429 Y82.914 E9.22711
G1 X136.808 Y83.975 E9.28498
G1 X137.478 Y84.537 E9.31407
G1 X138.04 Y85.051 E9.3394
G1 X138.668 Y85.646 E9.36817
G1 X139.306 Y86.268 E9.39781
G1 X139.847 Y86.838 E9.42395
G1 X140.241 Y87.285 E9.44376
G1 X140.986 Y88.161 E9.48201
G1 X141.476 Y88.756 E9.50765
G1 X141.948 Y89.373 E9.53349
G1 X142.413 Y90.038 E9.56048
G1 X143.301 Y91.363 E9.61353
G1 X143.774 Y92.142 E9.64384
G1 X144.158 Y92.842 E9.67039
G1 X144.538 Y93.556 E9.6973
G1 X144.941 Y94.343 E9.7267
G1 X145.28 Y95.077 E9.75359
G1 X145.586 Y95.812 E9.78007
G1 X145.874 Y96.537 E9.80602
G1 X146.234 Y97.485 E9.83975
G1 X146.517 Y98.34 E9.8697
G1 X146.879 Y99.621 E9.91398
G1 X147.164 Y100.726 E9.95193
G1 X147.343 Y101.575 E9.98079
G1 X147.558 Y102.847 E10.0237
G1 X147.697 Y103.769 E10.05471
G1 X147.785 Y104.55 E10.08085
G1 X147.836 Y105.269 E10.10483
G1 X147.893 Y106.316 E10.1397
G1 X147.926 Y107.144 E10.16726
G1 X147.939 Y107.896 E10.19228
G1 X147.931 Y108.804 E10.22248
G1 X147.906 Y109.408 E10.24258
G1 X147.851 Y110.18 E10.26833
G1 X147.726 Y111.659 E10.31769
G1 X147.59 Y114.134 E10.40014
G1 X147.521 Y116.673 E10.48462
G1 X147.525 Y119.185 E10.56817
G1 X147.6 Y121.744 E10.65331
G1 X147.747 Y124.277 E10.7377
G1 X147.898 Y126.116 E10.79908
G1 X147.93 Y126.773 E10.82095
G1 X147.94 Y127.602 E10.84853
G1 X147.931 Y128.241 E10.86978
G1 X147.905 Y128.829 E10.88936
G1 X147.835 Y129.816 E10.92227
G1 X147.745 Y130.868 E10.95739
G1 X147.603 Y133.394 E11.04153
G1 X147.532 Y135.92 E11.12558
G1 X147.532 Y138.444 E11.20953
G1 X147.605 Y140.973 E11.29368
G1 X147.749 Y143.514 E11.37833
G1 X147.899 Y145.365 E11.4401
G1 X147.93 Y146 E11.46124
G1 X147.94 Y146.805 E11.48802
G1 X147.93 Y147.481 E11.51051
G1 X147.875 Y148.417 E11.54169
G1 X147.743 Y149.311 E11.57175
G1 X147.516 Y150.259 E11.60417
G1 X147.228 Y151.115 E11.63421
G1 X146.838 Y152.006 E11.66656
G1 X146.405 Y152.799 E11.69661
G1 X145.864 Y153.608 E11.72898
G1 X145.297 Y154.312 E11.75904
G1 X144.622 Y155.013 E11.79141
G1 X143.941 Y155.606 E11.82144
G1 X143.181 Y156.158 E11.85269
G1 X142.345 Y156.657 E11.88507
G1 X141.532 Y157.05 E11.9151
G1 X140.621 Y157.394 E11.94749
G1 X139.751 Y157.638 E11.97754
G1 X138.79 Y157.817 E12.01006
G1 X137.653 Y157.913 E12.04801
G1 X137.012 Y157.927 E12.06933
G1 X136.101 Y157.926 E12.09963
G1 X135.319 Y157.915 E12.12564
G1 X132.52 Y157.917 E12.21874
G1 X131.832 Y157.926 E12.24162
G1 X127.866 Y157.926 E12.37353
G1 X125.082 Y157.916 E12.46613
G1 X123.263 Y157.927 E12.52663
G1 X122.266 Y157.915 E12.55979
G1 X121.773 Y157.896 E12.5762
G1 X121.247 Y157.863 E12.59373
G1 X120.082 Y157.724 E12.63276
G1 X119.621 Y157.642 E12.64833
G1 X118.714 Y157.44 E12.67924
G1 X118.154 Y157.288 E12.69854
G1 X116.969 Y156.89 E12.74011
G1 X116.552 Y156.721 E12.75508
G1 X115.741 Y156.352 E12.78471
G1 X115.284 Y156.12 E12.80176
G1 X114.293 Y155.547 E12.83983
G1 X113.844 Y155.254 E12.85766
G1 X112.959 Y154.607 E12.89413
G1 X112.501 Y154.233 E12.91379
G1 X111.603 Y153.41 E12.95431
G1 X111.004 Y152.78 E12.98322
G1 X109.342 Y150.92 E13.06618
G1 X107.589 Y149.064 E13.1511
G1 X105.799 Y147.273 E13.23532
G1 X103.969 Y145.542 E13.3191
G1 X102.082 Y143.858 E13.40322
G1 X100.146 Y142.224 E13.48748
G1 X98.187 Y140.664 E13.57077
G1 X96.141 Y139.128 E13.65586
G1 X94.058 Y137.653 E13.74076
G1 X92.457 Y136.58 E13.80486
G1 X91.848 Y136.181 E13.82907
G1 X91.115 Y135.653 E13.85912
G1 X90.405 Y135.041 E13.8903
G1 X89.726 Y134.341 E13.92273
G1 X89.158 Y133.64 E13.95274
G1 X88.632 Y132.861 E13.984
G1 X88.162 Y132.008 E14.0164
G1 X87.785 Y131.149 E14.0476
G1 X87.485 Y130.26 E14.0788
G1 X87.265 Y129.347 E14.11004
G1 X87.131 Y128.454 E14.14007
G1 X87.077 Y127.702 E14.16515
G1 X87.058 Y126.991 E14.18881
G1 X87.059 Y108.036 E14.81925
G1 X87.082 Y106.912 E14.85664
G1 X87.162 Y105.315 E14.90983
G1 X87.213 Y104.59 E14.934
G1 X87.314 Y103.697 E14.96389
G1 X87.537 Y102.273 E15.01183
G1 X87.709 Y101.304 E15.04456
G1 X87.915 Y100.387 E15.07582
G1 X88.344 Y98.824 E15.12973
G1 X88.533 Y98.181 E15.15202
G1 X88.776 Y97.452 E15.17758
G1 X88.988 Y96.889 E15.19759
G1 X89.389 Y95.876 E15.23383
G1 X89.733 Y95.049 E15.26362
G1 X90.069 Y94.323 E15.29022
G1 X90.451 Y93.582 E15.31795
G1 X91.17 Y92.243 E15.3685
G1 X91.681 Y91.392 E15.40152
G1 X92.474 Y90.204 E15.44902
G1 X93.046 Y89.384 E15.48228
G1 X93.504 Y88.779 E15.50751
G1 X93.953 Y88.231 E15.53108
G1 X94.683 Y87.373 E15.56855
G1 X95.139 Y86.852 E15.59157
G0 F6000 X94.849 Y86.577
G1 F1200 X95.428 Y85.965 E15.6196
G1 X95.994 Y85.415 E15.64585
G1 X96.702 Y84.746 E15.67824
G1 X97.245 Y84.248 E15.70275
G1 X97.87 Y83.716 E15.73005
G1 X98.341 Y83.344 E15.75001
G1 X99.299 Y82.618 E15.78999
G1 X99.869 Y82.199 E15.81352
G1 X100.527 Y81.753 E15.83996
G1 X101.047 Y81.427 E15.86037
G1 X102.078 Y80.807 E15.90038
G1 X102.723 Y80.433 E15.92518
G1 X103.436 Y80.054 E15.95204
G1 X103.913 Y79.823 E15.96967
G1 X104.905 Y79.364 E16.00602
G1 X105.727 Y78.998 E16.03595
G1 X106.452 Y78.707 E16.06193
G1 X107.12 Y78.469 E16.08552
G1 X108.019 Y78.166 E16.11707
G1 X108.874 Y77.892 E16.14693
G1 X109.67 Y77.669 E16.17443
G1 X110.461 Y77.486 E16.20143
G1 X112.032 Y77.152 E16.25485
G1 X112.91 Y77.003 E16.28447
G1 X113.682 Y76.906 E16.31035
G1 X114.523 Y76.816 E16.33848
G1 X115.433 Y76.731 E16.36888
G1 X116.231 Y76.686 E16.39546
G1 X116.964 Y76.674 E16.41985
G1 X117.878 Y76.674 E16.45025
G1 X118.753 Y76.687 E16.47935
G1 X119.556 Y76.729 E16.5061
G1 X120.423 Y76.811 E16.53506
G1 X121.994 Y76.992 E16.58766
G1 X122.879 Y77.133 E16.61747
G1 X123.671 Y77.293 E16.64434
G1 X124.516 Y77.479 E16.67312
G1 X125.358 Y77.676 E16.70188
G1 X126.1 Y77.881 E16.72748
G1 X126.675 Y78.064 E16.74755
G1 X127.865 Y78.466 E16.78933
G1 X128.589 Y78.722 E16.81487
G1 X129.454 Y79.072 E16.84591
G1 X130.944 Y79.756 E16.90044
G1 X131.557 Y80.05 E16.92305
G1 X132.395 Y80.5 E16.95468
G1 X133.857 Y81.368 E17.01124
G1 X134.483 Y81.758 E17.03577
G1 X135.168 Y82.225 E17.06334
G1 X135.673 Y82.597 E17.0842
G1 X137.065 Y83.669 E17.14264
G1 X137.748 Y84.242 E17.17229
G1 X138.315 Y84.761 E17.19786
G1 X138.947 Y85.36 E17.22682
G1 X139.596 Y85.993 E17.25697
G1 X140.147 Y86.574 E17.2836
G1 X140.546 Y87.026 E17.30366
G1 X141.295 Y87.907 E17.34212
G1 X141.794 Y88.513 E17.36823
G1 X142.276 Y89.144 E17.39464
G1 X142.745 Y89.815 E17.42186
G1 X143.643 Y91.155 E17.47552
G1 X144.125 Y91.95 E17.50644
G1 X144.511 Y92.654 E17.53314
G1 X144.894 Y93.374 E17.56027
G1 X145.304 Y94.175 E17.59019
G1 X145.649 Y94.923 E17.61759
G1 X145.958 Y95.664 E17.64429
G1 X146.248 Y96.395 E17.67045
G1 X146.614 Y97.359 E17.70475
G1 X146.902 Y98.231 E17.73529
G1 X147.266 Y99.521 E17.77987
G1 X147.555 Y100.643 E17.81841
G1 X147.737 Y101.508 E17.84781
G1 X147.954 Y102.787 E17.89096
G1 X148.093 Y103.709 E17.92197
G1 X148.184 Y104.522 E17.94918
G1 X148.235 Y105.247 E17.97335
G1 X148.293 Y106.3 E18.00843
G1 X148.326 Y107.137 E18.03629
G1 X148.339 Y107.9 E18.06167
G1 X148.331 Y108.821 E18.0923
G1 X148.305 Y109.436 E18.11278
G1 X148.25 Y110.214 E18.13872
G1 X148.124 Y111.693 E18.18809
G1 X147.99 Y114.145 E18.26976
G1 X147.921 Y116.684 E18.35424
G1 X147.925 Y119.173 E18.43702
G1 X148 Y121.732 E18.52217
G1 X148.146 Y124.244 E18.60586
G1 X148.298 Y126.097 E18.6677
G1 X148.33 Y126.768 E18.69005
G1 X148.34 Y127.608 E18.71799
G1 X148.331 Y128.259 E18.73964
G1 X148.304 Y128.857 E18.75955
G1 X148.234 Y129.85 E18.79266
G1 X148.143 Y130.902 E18.82778
G1 X148.003 Y133.405 E18.91116
G1 X147.932 Y135.931 E18.99521
G1 X147.932 Y138.444 E19.07879
G1 X148.005 Y140.961 E19.16254
G1 X148.148 Y143.482 E19.24653
G1 X148.299 Y145.345 E19.30869
G1 X148.33 Y145.995 E19.33034
G1 X148.34 Y146.811 E19.35748
G1 X148.329 Y147.504 E19.38053
G1 X148.271 Y148.475 E19.41288
G1 X148.139 Y149.369 E19.44294
G1 X147.895 Y150.387 E19.47776
G1 X147.607 Y151.243 E19.5078
G1 X147.189 Y152.198 E19.54247
G1 X146.738 Y153.021 E19.57368
G1 X146.176 Y153.859 E19.60724
G1 X145.609 Y154.563 E19.63731
G1 X144.885 Y155.315 E19.67203
