;FLAVOR:Marlin
;TIME:2677
;Filament used: 1.119m
;Layer height: 0.2
;MINX:87.964
;MINY:84.092
;MINZ:0.2
;MAXX:173.496
;MAXY:152.654
;MAXZ:22.2
;POSTPROCESSED
;Generated with Cura_SteamEngine 5.3.0
M82 ;absolute extrusion mode
; Ender 3 Custom Start G-code
G92 E0 ; Reset Extruder

M140 S50 ; set bed temp
M190 S50 ; wait for bed temp

G28 ; Home all axes
BED_MESH_CALIBRATE  AREA_START=87.964,84.092 AREA_END=173.496,152.654
M104 S200 ; set extruder temp 

G1 Z2.0 F3000 ; Move Z Axis up little to prevent scratching of Heat Bed
M109 S200 ; wait for extruder temp
G1 X0.1 Y20 Z0.3 F5000.0 ; Move to start position

G1 X0.1 Y200.0 Z0.3 F1500.0 E15 ; Draw the first line
G1 X0.4 Y200.0 Z0.3 F5000.0 ; Move to side a little
G1 X0.4 Y20 Z0.3 F1500.0 E30 ; Draw the second line
G92 E0 ; Reset Extruder
G1 Z2.0 F3000 ; Move Z Axis up little to prevent scratching of Heat Bed
G1 X5 Y20 Z0.3 F5000.0 ; Move over to prevent blob squish
G92 E0
G92 E0
G1 F2700 E-5
;LAYER_COUNT:111
;LAYER:0
M107
G0 F6000 X93.879 Y90.033 Z0.2
;TYPE:SKIRT
G1 F2700 E0
G1 F1200 X94.63 Y89.323 E0.03437
G1 X95.644 Y88.463 E0.0786
G1 X95.977 Y88.197 E0.09277
G1 X96.707 Y87.666 E0.1228
G1 X97.42 Y87.233 E0.15054
G1 X97.959 Y86.936 E0.17101
G1 X98.75 Y86.524 E0.20067
G1 X99.57 Y86.146 E0.2307
G1 X100.313 Y85.875 E0.25701
G1 X101.182 Y85.601 E0.28731
G1 X101.827 Y85.416 E0.30963
G1 X102.705 Y85.206 E0.33966
G1 X103.499 Y85.085 E0.36637
G1 X104.086 Y85.019 E0.38602
G1 X104.834 Y84.953 E0.41099
G1 X105.46 Y84.92 E0.43184
G1 X106.701 Y84.894 E0.47313
G1 X161.789 Y84.892 E2.30536
G1 X162.633 Y84.903 E2.33344
G1 X163.535 Y84.956 E2.36349
G1 X164.428 Y85.088 E2.39351
G1 X165.306 Y85.299 E2.42355
G1 X166.162 Y85.587 E2.45359
G1 X166.989 Y85.949 E2.48361
G1 X167.781 Y86.384 E2.51367
G1 X168.532 Y86.886 E2.54371
G1 X169.235 Y87.453 E2.57375
G1 X169.885 Y88.08 E2.60379
G1 X170.477 Y88.762 E2.63382
G1 X171.007 Y89.493 E2.66386
G1 X171.469 Y90.269 E2.69389
G1 X171.862 Y91.082 E2.72393
G1 X172.18 Y91.927 E2.75396
G1 X172.423 Y92.797 E2.784
G1 X172.588 Y93.685 E2.81404
G1 X172.683 Y94.811 E2.85163
G1 X172.696 Y95.417 E2.87179
G1 X172.695 Y104.025 E3.15809
G1 X172.685 Y104.753 E3.1823
G1 X172.633 Y105.655 E3.21236
G1 X172.501 Y106.548 E3.24238
G1 X172.29 Y107.426 E3.27241
G1 X172.003 Y108.283 E3.30247
G1 X171.641 Y109.11 E3.3325
G1 X171.208 Y109.902 E3.36252
G1 X170.705 Y110.653 E3.39258
G1 X170.139 Y111.356 E3.4226
G1 X169.513 Y112.007 E3.45264
G1 X168.831 Y112.599 E3.48268
G1 X168.1 Y113.129 E3.51271
G1 X167.324 Y113.592 E3.54276
G1 X166.511 Y113.985 E3.5728
G1 X165.309 Y114.415 E3.61526
G1 X163.685 Y114.883 E3.67147
G1 X161.266 Y115.629 E3.75567
G1 X158.837 Y116.454 E3.84099
G1 X156.468 Y117.334 E3.92504
G1 X154.113 Y118.285 E4.00951
G1 X151.77 Y119.31 E4.09457
G1 X149.486 Y120.386 E4.17855
G1 X147.225 Y121.531 E4.26284
G1 X145 Y122.738 E4.34703
G1 X142.782 Y124.025 E4.43232
G1 X140.618 Y125.362 E4.51693
G1 X138.528 Y126.736 E4.60012
G1 X136.426 Y128.207 E4.68545
G1 X134.376 Y129.729 E4.77037
G1 X132.395 Y131.287 E4.8542
G1 X130.437 Y132.92 E4.939
G1 X128.527 Y134.607 E5.02375
G1 X126.695 Y136.318 E5.10713
G1 X124.887 Y138.107 E5.19173
G1 X123.099 Y139.979 E5.27783
G1 X121.416 Y141.843 E5.36135
G1 X119.786 Y143.754 E5.44489
G1 X118.152 Y145.786 E5.53162
G1 X116.601 Y147.823 E5.61677
G1 X116.023 Y148.517 E5.64681
G1 X115.386 Y149.156 E5.67682
G1 X114.694 Y149.737 E5.70688
G1 X113.954 Y150.255 E5.73692
G1 X113.171 Y150.704 E5.76694
G1 X112.351 Y151.083 E5.79699
G1 X111.501 Y151.388 E5.82702
G1 X110.627 Y151.617 E5.85707
G1 X109.737 Y151.767 E5.88709
G1 X108.799 Y151.839 E5.91838
G1 X108.165 Y151.854 E5.93947
G1 X105.871 Y151.854 E6.01577
G1 X105.242 Y151.845 E6.0367
G1 X102.553 Y151.845 E6.12613
G1 X101.827 Y151.854 E6.15028
G1 X99.495 Y151.854 E6.22784
G1 X98.835 Y151.845 E6.2498
G1 X97.933 Y151.793 E6.27985
G1 X97.04 Y151.661 E6.30987
G1 X96.162 Y151.451 E6.3399
G1 X95.305 Y151.163 E6.36997
G1 X94.478 Y150.802 E6.39998
G1 X93.686 Y150.368 E6.43002
G1 X92.935 Y149.866 E6.46006
G1 X92.232 Y149.3 E6.49008
G1 X91.581 Y148.673 E6.52014
G1 X90.988 Y147.992 E6.55018
G1 X90.458 Y147.261 E6.58021
G1 X89.995 Y146.485 E6.61026
G1 X89.602 Y145.672 E6.6403
G1 X89.283 Y144.827 E6.67034
G1 X89.039 Y143.958 E6.70036
G1 X88.874 Y143.07 E6.7304
G1 X88.779 Y141.949 E6.76782
G1 X88.764 Y141.31 E6.78908
G1 X88.765 Y102.561 E8.07787
G1 X88.772 Y102.037 E8.0953
G1 X88.802 Y101.378 E8.11725
G1 X88.881 Y100.368 E8.15094
G1 X88.956 Y99.64 E8.17528
G1 X89.094 Y98.748 E8.2053
G1 X89.295 Y97.924 E8.23351
G1 X89.465 Y97.335 E8.2539
G1 X89.742 Y96.455 E8.28459
G1 X90.055 Y95.608 E8.31462
G1 X90.389 Y94.892 E8.3409
G1 X90.822 Y94.062 E8.37204
G1 X91.132 Y93.504 E8.39327
G1 X91.605 Y92.735 E8.42329
G1 X92.074 Y92.097 E8.44963
G1 X92.613 Y91.428 E8.47821
G1 X92.938 Y91.044 E8.49494
G1 X93.348 Y90.589 E8.51531
G1 X93.879 Y90.033 E8.54088
G0 F6000 X93.604 Y89.742
G1 F1200 X94.371 Y89.018 E8.57596
G1 X95.394 Y88.15 E8.62058
G1 X95.727 Y87.884 E8.63476
G1 X96.499 Y87.324 E8.66648
G1 X97.227 Y86.883 E8.69479
G1 X97.774 Y86.581 E8.71557
G1 X98.565 Y86.169 E8.74523
G1 X99.433 Y85.77 E8.77701
G1 X100.176 Y85.499 E8.80331
G1 X101.072 Y85.217 E8.83456
G1 X101.734 Y85.027 E8.85746
G1 X102.612 Y84.817 E8.88749
G1 X103.454 Y84.688 E8.91582
G1 X104.051 Y84.621 E8.9358
G1 X104.813 Y84.554 E8.96124
G1 X105.452 Y84.52 E8.98253
G1 X106.701 Y84.494 E9.02408
G1 X161.794 Y84.492 E10.85648
G1 X162.656 Y84.504 E10.88515
G1 X163.593 Y84.56 E10.91637
G1 X164.486 Y84.692 E10.9464
G1 X165.434 Y84.92 E10.97883
G1 X166.29 Y85.208 E11.00886
G1 X167.182 Y85.598 E11.04124
G1 X167.974 Y86.033 E11.0713
G1 X168.754 Y86.553 E11.10248
G1 X169.513 Y87.165 E11.13491
G1 X170.163 Y87.792 E11.16494
G1 X170.801 Y88.527 E11.19732
G1 X171.351 Y89.288 E11.22854
G1 X171.813 Y90.064 E11.25858
G1 X172.236 Y90.941 E11.29097
G1 X172.565 Y91.819 E11.32215
G1 X172.816 Y92.724 E11.35339
G1 X172.987 Y93.651 E11.38474
G1 X173.082 Y94.777 E11.42233
G1 X173.096 Y95.417 E11.44362
G1 X173.095 Y104.03 E11.73009
G1 X173.084 Y104.776 E11.7549
G1 X173.029 Y105.713 E11.78612
G1 X172.897 Y106.606 E11.81614
G1 X172.679 Y107.519 E11.84736
G1 X172.382 Y108.41 E11.8786
G1 X171.992 Y109.302 E11.91098
G1 X171.54 Y110.125 E11.94221
G1 X171.017 Y110.904 E11.97342
G1 X170.451 Y111.607 E12.00344
G1 X169.775 Y112.309 E12.03585
G1 X169.066 Y112.923 E12.06705
G1 X168.305 Y113.473 E12.09828
G1 X167.529 Y113.936 E12.12833
G1 X166.646 Y114.362 E12.16094
G1 X165.444 Y114.792 E12.2034
G1 X163.803 Y115.265 E12.2602
G1 X161.395 Y116.008 E12.34402
G1 X158.966 Y116.833 E12.42934
G1 X156.618 Y117.705 E12.51264
G1 X154.263 Y118.655 E12.59711
G1 X151.94 Y119.672 E12.68145
G1 X149.667 Y120.743 E12.76502
G1 X147.416 Y121.883 E12.84894
G1 X145.191 Y123.09 E12.93313
G1 X142.983 Y124.371 E13.01804
G1 X140.838 Y125.696 E13.10189
G1 X138.748 Y127.07 E13.18508
G1 X136.655 Y128.535 E13.27006
G1 X134.614 Y130.05 E13.3546
G1 X132.651 Y131.594 E13.43766
G1 X130.702 Y133.22 E13.52208
G1 X128.792 Y134.907 E13.60684
G1 X126.968 Y136.61 E13.68984
G1 X125.168 Y138.391 E13.77406
G1 X123.396 Y140.247 E13.85941
G1 X121.713 Y142.111 E13.94294
G1 X120.098 Y144.005 E14.02573
G1 X118.463 Y146.037 E14.11247
G1 X116.908 Y148.079 E14.19784
G1 X116.33 Y148.773 E14.22788
G1 X115.643 Y149.462 E14.26024
G1 X114.923 Y150.065 E14.29148
G1 X114.153 Y150.602 E14.3227
G1 X113.339 Y151.067 E14.35388
G1 X112.519 Y151.446 E14.38393
G1 X111.602 Y151.775 E14.41633
G1 X110.728 Y152.004 E14.44638
G1 X109.768 Y152.166 E14.47876
G1 X108.808 Y152.239 E14.51078
G1 X108.174 Y152.254 E14.53188
G1 X105.865 Y152.254 E14.60867
G1 X105.236 Y152.245 E14.6296
G1 X102.558 Y152.245 E14.71867
G1 X101.832 Y152.254 E14.74281
G1 X99.49 Y152.254 E14.82071
G1 X98.812 Y152.244 E14.84326
G1 X97.875 Y152.189 E14.87448
G1 X96.982 Y152.057 E14.90451
G1 X96.069 Y151.84 E14.93572
G1 X95.145 Y151.53 E14.96813
G1 X94.318 Y151.169 E14.99815
G1 X93.464 Y150.701 E15.03054
G1 X92.684 Y150.178 E15.06177
G1 X91.981 Y149.612 E15.09179
G1 X91.279 Y148.936 E15.1242
G1 X90.686 Y148.255 E15.15424
G1 X90.114 Y147.466 E15.18665
G1 X89.651 Y146.69 E15.2167
G1 X89.242 Y145.846 E15.2479
G1 X88.898 Y144.935 E15.28029
G1 X88.646 Y144.031 E15.3115
G1 X88.475 Y143.104 E15.34285
G1 X88.38 Y141.983 E15.38027
G1 X88.364 Y141.31 E15.40266
G1 X88.365 Y102.556 E16.69162
G1 X88.372 Y102.019 E16.70949
G1 X88.403 Y101.347 E16.73186
G1 X88.483 Y100.327 E16.76589
G1 X88.561 Y99.579 E16.7909
G1 X88.705 Y98.653 E16.82207
G1 X88.906 Y97.829 E16.85028
G1 X89.083 Y97.215 E16.87154
G1 X89.367 Y96.316 E16.90289
G1 X89.68 Y95.469 E16.93293
G1 X90.034 Y94.707 E16.96087
G1 X90.467 Y93.877 E16.99201
G1 X90.791 Y93.294 E17.01419
G1 X91.264 Y92.525 E17.04422
G1 X91.763 Y91.846 E17.07225
G1 X92.308 Y91.17 E17.10113
G1 X92.641 Y90.776 E17.11829
G1 X93.059 Y90.313 E17.13903
G1 X93.604 Y89.742 E17.16529
G0 F6000 X93.329 Y89.451
G1 F1200 X94.112 Y88.713 E17.20107
G1 X95.144 Y87.837 E17.2461
G1 X95.492 Y87.56 E17.26089
G1 X96.264 Y87 E17.29261
G1 X97.034 Y86.533 E17.32256
G1 X97.589 Y86.226 E17.34366
G1 X98.38 Y85.814 E17.37332
G1 X99.296 Y85.394 E17.40684
G1 X100.056 Y85.117 E17.43374
G1 X100.952 Y84.835 E17.46499
G1 X101.641 Y84.638 E17.48882
G1 X102.519 Y84.428 E17.51885
G1 X103.409 Y84.29 E17.5488
G1 X104.006 Y84.223 E17.56878
G1 X104.792 Y84.155 E17.59502
G1 X105.444 Y84.12 E17.61674
G1 X106.701 Y84.094 E17.65856
G1 X161.8 Y84.092 E19.49116
G1 X162.68 Y84.105 E19.52043
G1 X163.651 Y84.164 E19.55278
G1 X164.58 Y84.303 E19.58403
G1 X165.528 Y84.531 E19.61646
G1 X166.45 Y84.841 E19.64881
G1 X167.375 Y85.247 E19.68241
G1 X168.167 Y85.682 E19.71246
G1 X168.976 Y86.22 E19.74478
G1 X169.791 Y86.877 E19.77959
G1 X170.441 Y87.504 E19.80963
G1 X171.103 Y88.265 E19.84318
G1 X171.695 Y89.083 E19.87676
G1 X172.157 Y89.859 E19.9068
G1 X172.611 Y90.801 E19.94158
G1 X172.94 Y91.679 E19.97277
G1 X173.209 Y92.651 E20.00631
G1 X173.386 Y93.617 E20.03898
G1 X173.481 Y94.743 E20.07656
G1 X173.496 Y95.417 E20.09898
G1 X173.495 Y104.036 E20.38565
G1 X173.483 Y104.799 E20.41103
G1 X173.425 Y105.771 E20.44342
G1 X173.293 Y106.664 E20.47344
G1 X173.068 Y107.612 E20.50585
G1 X172.749 Y108.57 E20.53943
G1 X172.343 Y109.495 E20.57303
G1 X171.891 Y110.318 E20.60426
G1 X171.329 Y111.155 E20.63779
G1 X170.763 Y111.858 E20.66781
G1 X170.037 Y112.611 E20.7026
G1 X169.328 Y113.225 E20.7338
G1 X168.51 Y113.817 E20.76738
G1 X167.734 Y114.28 E20.79743
G1 X166.781 Y114.739 E20.83262
G1 X165.579 Y115.169 E20.87508
G1 X163.921 Y115.647 E20.93247
G1 X161.524 Y116.387 E21.0159
G1 X159.095 Y117.212 E21.10123
G1 X156.768 Y118.076 E21.18379
G1 X154.413 Y119.025 E21.26823
G1 X152.11 Y120.034 E21.35186
G1 X149.848 Y121.1 E21.43503
G1 X147.607 Y122.235 E21.51858
G1 X145.382 Y123.442 E21.60277
G1 X143.184 Y124.717 E21.68729
G1 X141.058 Y126.03 E21.7704
G1 X138.968 Y127.404 E21.85359
G1 X136.884 Y128.863 E21.9382
G1 X134.852 Y130.371 E22.02236
G1 X132.907 Y131.901 E22.10467
G1 X130.967 Y133.52 E22.18871
G1 X129.057 Y135.207 E22.27347
G1 X127.241 Y136.902 E22.35609
G1 X125.449 Y138.675 E22.43994
G1 X123.693 Y140.515 E22.52453
G1 X122.01 Y142.379 E22.60806
G1 X120.41 Y144.256 E22.69009
G1 X118.774 Y146.288 E22.77686
G1 X117.215 Y148.335 E22.86244
G1 X116.637 Y149.029 E22.89248
G1 X115.9 Y149.769 E22.92722
G1 X115.18 Y150.372 E22.95845
G1 X114.382 Y150.93 E22.99084
G1 X113.507 Y151.43 E23.02436
G1 X112.654 Y151.823 E23.0556
G1 X111.737 Y152.152 E23.088
G1 X110.829 Y152.391 E23.11923
G1 X109.798 Y152.565 E23.15401
G1 X108.817 Y152.639 E23.18673
G1 X108.183 Y152.654 E23.20782
G1 X105.859 Y152.654 E23.28512
G1 X105.23 Y152.645 E23.30604
G1 X102.563 Y152.645 E23.39474
G1 X101.837 Y152.654 E23.41889
G1 X99.484 Y152.654 E23.49715
G1 X98.789 Y152.643 E23.52027
G1 X97.817 Y152.585 E23.55266
G1 X96.924 Y152.453 E23.58268
G1 X95.942 Y152.219 E23.61626
G1 X94.985 Y151.897 E23.64984
G1 X94.158 Y151.536 E23.67985
G1 X93.272 Y151.052 E23.71343
G1 X92.433 Y150.49 E23.74702
G1 X91.73 Y149.924 E23.77704
G1 X90.977 Y149.199 E23.8118
G1 X90.384 Y148.518 E23.84184
G1 X89.77 Y147.671 E23.87663
G1 X89.307 Y146.895 E23.90669
G1 X88.882 Y146.02 E23.93904
G1 X88.524 Y145.076 E23.97262
G1 X88.253 Y144.104 E24.00618
G1 X88.076 Y143.138 E24.03885
G1 X87.981 Y142.017 E24.07627
G1 X87.964 Y141.31 E24.09979
G1 X87.965 Y102.551 E25.38892
G1 X87.972 Y102.001 E25.40721
G1 X88.004 Y101.316 E25.43002
G1 X88.085 Y100.286 E25.46438
G1 X88.166 Y99.518 E25.49007
G1 X88.316 Y98.558 E25.52239
G1 X88.517 Y97.734 E25.5506
G1 X88.702 Y97.095 E25.57272
G1 X88.992 Y96.177 E25.60474
G1 X89.317 Y95.3 E25.63585
G1 X89.679 Y94.522 E25.66439
G1 X90.117 Y93.683 E25.69587
G1 X90.45 Y93.084 E25.71866
G1 X90.923 Y92.315 E25.74869
G1 X91.452 Y91.595 E25.77841
G1 X92.002 Y90.912 E25.80757
G1 X92.344 Y90.508 E25.82518
G1 X92.77 Y90.037 E25.8463
G1 X93.329 Y89.451 E25.87324
G1 F2700 E20.87324
;MESH:Ender_3_Webcam_Arm_v2.stl
G0 F6000 X100.887 Y96.495
G0 X112.947 Y102.5
;TYPE:WALL-INNER
G1 F2700 E25.87324
G1 F1200 X112.651 Y102.352 E25.88425
G1 X107.559 Y97.263 E26.12369
G1 X107.436 Y96.97 E26.13426
G1 X107.475 Y96.653 E26.14488
G1 X107.561 Y96.449 E26.15224
G1 X108.011 Y96.088 E26.17143
G1 F1209.1 X118.002 Y96.083 E26.50124
G1 X118.556 Y96.449 E26.52316
G1 F1200 X118.681 Y96.79 E26.53524
G1 F1203 X118.675 Y97.001 E26.54224
G1 X118.579 Y97.229 E26.55045
G1 X113.483 Y102.335 E26.78978
G1 F1200 X113.242 Y102.482 E26.79917
G1 X112.947 Y102.5 E26.809
G0 F6000 X112.518 Y102.363
G0 X113.058 Y102.516
G0 X113.795 Y102.241
G0 X118.681 Y97.419
G0 X113.671 Y102.932
G0 X113.893 Y103.466
G0 X116.45 Y103.458
G0 X124.734 Y103.625
G1 F1209.1 X114.469 Y103.63 E27.14786
G1 X113.915 Y103.264 E27.16978
G1 F1200 X113.772 Y102.919 E27.1822
G1 X113.837 Y102.58 E27.19368
G1 X113.892 Y102.484 E27.19736
G1 X119.125 Y97.24 E27.44376
G1 F1203 X119.297 Y97.119 E27.45074
G1 F1200 X119.445 Y97.073 E27.45589
G1 X119.67 Y97.077 E27.46338
G1 X119.974 Y97.24 E27.47485
G1 F1212.1 X125.137 Y102.407 E27.71537
G1 F1215.2 X125.26 Y102.581 E27.72237
G1 F1203 X125.327 Y102.918 E27.73377
G1 F1200 X125.185 Y103.264 E27.74621
G1 X124.734 Y103.625 E27.76542
G1 F2700 E22.76542
G0 F6000 X125.206 Y103.466
G0 X125.385 Y103.034
G0 X125.448 Y102.636
G0 X126.224 Y102.482
G1 F2700 E27.76542
G1 F1200 X126.021 Y102.51 E27.77224
G1 X125.856 Y102.482 E27.7778
G1 F1203 X125.617 Y102.334 E27.78713
G1 F1215.2 X120.59 Y97.306 E28.02065
G1 F1212.1 X120.423 Y97.001 E28.0321
G1 F1200 X120.418 Y96.79 E28.03912
G1 X120.543 Y96.449 E28.0512
G1 X120.993 Y96.088 E28.07039
G1 F1209.1 X130.983 Y96.083 E28.40016
G1 X131.537 Y96.449 E28.42208
G1 F1200 X131.68 Y96.793 E28.43447
G1 X131.615 Y97.133 E28.44599
G1 X131.56 Y97.229 E28.44967
G1 X126.465 Y102.335 E28.68958
G1 X126.224 Y102.482 E28.69897
G1 F2700 E23.69897
G0 F6000 X126.594 Y102.462
G0 X127.45 Y103.63
G1 F2700 E28.69897
G1 F1209.1 X126.896 Y103.264 E28.72089
G1 F1200 X126.753 Y102.919 E28.73331
G1 X126.818 Y102.58 E28.74479
G1 X126.873 Y102.484 E28.74847
G1 X131.968 Y97.378 E28.98838
G1 X132.209 Y97.231 E28.99777
G1 X132.412 Y97.203 E29.00458
G1 X132.577 Y97.231 E29.01015
G1 F1203 X132.817 Y97.379 E29.01951
G1 F1215.2 X137.844 Y102.407 E29.25303
G1 X137.967 Y102.581 E29.26003
G1 F1203 X138.034 Y102.918 E29.27143
G1 F1200 X137.892 Y103.264 E29.28387
G1 X137.441 Y103.625 E29.30308
G1 F1209.1 X127.45 Y103.63 E29.63289
G1 F2700 E24.63289
G0 F6000 X137.913 Y103.466
G0 X138.135 Y102.932
G0 X137.743 Y102.541
G0 X138.148 Y102.499
G0 X138.931 Y102.482
G1 F2700 E29.63289
G1 F1200 X138.728 Y102.51 E29.63971
G1 X138.563 Y102.482 E29.64527
G1 F1203 X138.324 Y102.334 E29.6546
G1 F1215.2 X133.297 Y97.306 E29.88812
G1 X133.174 Y97.132 E29.89512
G1 F1203 X133.107 Y96.795 E29.90652
G1 F1200 X133.25 Y96.449 E29.91897
G1 X133.7 Y96.088 E29.93816
G1 F1209.1 X143.69 Y96.083 E30.26794
G1 X144.244 Y96.449 E30.28985
G1 F1200 X144.387 Y96.793 E30.30224
G1 X144.322 Y97.133 E30.31376
G1 X144.267 Y97.229 E30.31744
G1 X139.172 Y102.335 E30.55735
G1 X138.931 Y102.482 E30.56674
G1 F2700 E25.56674
G0 F6000 X139.301 Y102.462
G0 X140.157 Y103.63
G1 F2700 E30.56674
G1 F1209.1 X139.603 Y103.264 E30.58866
G1 F1200 X139.46 Y102.919 E30.60108
