;FLAVOR:Marlin
;TIME:1007
;Filament used: 0.472367m
;Layer height: 0.2
;MINX:96.5
;MINY:96.5
;MINZ:0.2
;MAXX:138.5
;MAXY:138.5
;MAXZ:12.4
;ZOFFSETPROCESSED
;Generated with Cura_SteamEngine 5.2.1
M140 S50
M105
M190 S50
M104 S200
M105
M109 S200
M82 ;absolute extrusion mode
; Ender 3 Custom Start G-code
G92 E0 ; Reset Extruder
G28 ; Home all axes
G1 Z2.0 F3000 ; Move Z Axis up little to prevent scratching of Heat Bed
G1 X0.1 Y20 Z0.3 F5000.0 ; Move to start position
G1 X0.1 Y200.0 Z0.3 F1500.0 E15 ; Draw the first line
G1 X0.4 Y200.0 Z0.3 F5000.0 ; Move to side a little
G1 X0.4 Y20 Z0.3 F1500.0 E30 ; Draw the second line
G92 E0 ; Reset Extruder
G1 Z2.0 F3000 ; Move Z Axis up little to prevent scratching of Heat Bed
G1 X5 Y20 Z0.3 F5000.0 ; Move over to prevent blob squish
G92 E0
G92 E0
G1 F2700 E-5
;LAYER_COUNT:62
;LAYER:0
M107
G0 F6000 X100.808 Y101.585 Z0.6 ;adjusted by z offset
;TYPE:SKIRT
G1 F2700 E0
G1 F1200 X101.37 Y101.027 E0.02634
G1 X101.937 Y100.502 E0.05204
G1 X102.651 Y99.894 E0.08323
G1 X103.251 Y99.459 E0.10788
G1 X103.766 Y99.111 E0.12856
G1 X104.638 Y98.579 E0.16253
G1 X104.908 Y98.431 E0.17277
G1 X105.782 Y98.001 E0.20517
G1 X106.492 Y97.69 E0.23095
G1 X107.366 Y97.351 E0.26213
G1 X108.166 Y97.112 E0.2899
G1 X108.87 Y96.931 E0.31407
G1 X109.787 Y96.737 E0.34525
G1 X110.363 Y96.656 E0.3646
G1 X110.828 Y96.603 E0.38016
G1 X111.833 Y96.535 E0.41366
G1 X113.302 Y96.505 E0.46253
G1 X121.793 Y96.5 E0.74495
G1 X122.807 Y96.513 E0.77867
G1 X123.407 Y96.538 E0.79865
G1 X123.843 Y96.568 E0.81318
G1 X124.681 Y96.652 E0.84119
G1 X125.88 Y96.876 E0.88176
G1 X126.58 Y97.044 E0.90571
G1 X127.482 Y97.301 E0.9369
G1 X128.035 Y97.502 E0.95647
G1 X128.511 Y97.689 E0.97348
G1 X129.476 Y98.122 E1.00866
G1 X130.058 Y98.418 E1.03038
G1 X131.124 Y99.038 E1.07139
G1 X131.388 Y99.212 E1.08191
G1 X132.136 Y99.751 E1.11257
G1 X132.703 Y100.197 E1.13657
G1 X133.415 Y100.808 E1.16777
G1 X133.973 Y101.37 E1.19411
G1 X134.498 Y101.937 E1.21982
G1 X135.106 Y102.651 E1.25101
G1 X135.541 Y103.251 E1.27566
G1 X135.889 Y103.766 E1.29633
G1 X136.409 Y104.616 E1.32947
G1 X136.56 Y104.89 E1.33988
G1 X137.003 Y105.788 E1.37318
G1 X137.309 Y106.487 E1.39856
G1 X137.648 Y107.361 E1.42974
G1 X137.857 Y108.049 E1.45365
G1 X137.979 Y108.504 E1.46932
G1 X138.2 Y109.519 E1.50387
G1 X138.314 Y110.193 E1.52661
G1 X138.44 Y111.241 E1.56172
G1 X138.485 Y111.998 E1.58694
G1 X138.5 Y112.661 E1.609
G1 X138.499 Y121.946 E1.91782
G1 X138.487 Y122.81 E1.94656
G1 X138.461 Y123.421 E1.9669
G1 X138.431 Y123.852 E1.98127
G1 X138.348 Y124.681 E2.00898
G1 X138.124 Y125.88 E2.04954
G1 X137.956 Y126.58 E2.07349
G1 X137.699 Y127.482 E2.10468
G1 X137.5 Y128.031 E2.1241
G1 X137.314 Y128.505 E2.14104
G1 X136.882 Y129.467 E2.17611
G1 X136.586 Y130.05 E2.19786
G1 X135.957 Y131.132 E2.23949
G1 X135.782 Y131.397 E2.25005
G1 X135.25 Y132.134 E2.28028
G1 X134.805 Y132.7 E2.30423
G1 X134.195 Y133.412 E2.33541
G1 X133.638 Y133.966 E2.36154
G1 X133.073 Y134.49 E2.38717
G1 X132.359 Y135.098 E2.41836
G1 X131.751 Y135.539 E2.44334
G1 X131.233 Y135.889 E2.46414
G1 X130.369 Y136.417 E2.49782
G1 X130.094 Y136.568 E2.50825
G1 X129.206 Y137.005 E2.54117
G1 X128.506 Y137.311 E2.56658
G1 X127.631 Y137.65 E2.59779
G1 X126.961 Y137.854 E2.62108
G1 X126.508 Y137.976 E2.63669
G1 X125.479 Y138.2 E2.67171
G1 X124.804 Y138.314 E2.69448
G1 X123.758 Y138.44 E2.72952
G1 X123.002 Y138.485 E2.75471
G1 X122.339 Y138.5 E2.77677
G1 X113.054 Y138.499 E3.08559
G1 X112.19 Y138.487 E3.11433
G1 X111.579 Y138.461 E3.13467
G1 X111.148 Y138.431 E3.14904
G1 X110.319 Y138.348 E3.17675
G1 X109.12 Y138.124 E3.21732
G1 X108.42 Y137.956 E3.24126
G1 X107.518 Y137.699 E3.27246
G1 X106.965 Y137.498 E3.29203
G1 X106.489 Y137.311 E3.30904
G1 X105.525 Y136.878 E3.34418
G1 X104.941 Y136.581 E3.36598
G1 X103.858 Y135.95 E3.40766
G1 X103.595 Y135.776 E3.41815
G1 X102.865 Y135.249 E3.4481
G1 X102.299 Y134.804 E3.47205
G1 X101.587 Y134.194 E3.50323
G1 X101.027 Y133.63 E3.52966
G1 X100.502 Y133.063 E3.55537
G1 X99.894 Y132.349 E3.58656
G1 X99.461 Y131.752 E3.61109
G1 X99.11 Y131.233 E3.63192
G1 X98.556 Y130.321 E3.66742
G1 X98.405 Y130.043 E3.67794
G1 X97.995 Y129.207 E3.70891
G1 X97.691 Y128.513 E3.73411
G1 X97.352 Y127.638 E3.76532
G1 X97.141 Y126.944 E3.78944
G1 X97.02 Y126.492 E3.80501
G1 X96.799 Y125.476 E3.83959
G1 X96.684 Y124.794 E3.86259
G1 X96.557 Y123.726 E3.89837
G1 X96.515 Y123.002 E3.92249
G1 X96.5 Y122.339 E3.94454
G1 X96.501 Y113.018 E4.25456
G1 X96.513 Y112.185 E4.28227
G1 X96.539 Y111.579 E4.30244
G1 X96.569 Y111.148 E4.31681
G1 X96.652 Y110.319 E4.34452
G1 X96.876 Y109.12 E4.38509
G1 X97.044 Y108.42 E4.40904
G1 X97.301 Y107.518 E4.44023
G1 X97.5 Y106.969 E4.45965
G1 X97.686 Y106.495 E4.47659
G1 X98.111 Y105.547 E4.51114
G1 X98.406 Y104.964 E4.53287
G1 X99.058 Y103.844 E4.57598
G1 X99.234 Y103.579 E4.58656
G1 X99.751 Y102.864 E4.61591
G1 X100.197 Y102.297 E4.6399
G1 X100.808 Y101.585 E4.6711
G0 F6000 X101.112 Y101.846
G1 F1200 X101.641 Y101.32 E4.69592
G1 X102.208 Y100.795 E4.72162
G1 X102.91 Y100.2 E4.75222
G1 X103.475 Y99.79 E4.77544
G1 X103.99 Y99.442 E4.79612
G1 X104.83 Y98.93 E4.82884
G1 X105.1 Y98.782 E4.83908
G1 X105.942 Y98.368 E4.87028
G1 X106.652 Y98.057 E4.89606
G1 X107.511 Y97.724 E4.92671
G1 X108.266 Y97.5 E4.9529
G1 X108.97 Y97.319 E4.97708
G1 X109.87 Y97.129 E5.00767
G1 X110.409 Y97.053 E5.02577
G1 X110.874 Y97 E5.04134
G1 X111.842 Y96.935 E5.07361
G1 X113.302 Y96.905 E5.12218
G1 X121.793 Y96.9 E5.40459
G1 X122.801 Y96.913 E5.43812
G1 X123.38 Y96.937 E5.45739
G1 X123.816 Y96.967 E5.47193
G1 X124.629 Y97.049 E5.49911
G1 X125.787 Y97.265 E5.53829
G1 X126.487 Y97.433 E5.56223
G1 X127.372 Y97.686 E5.59284
G1 X127.889 Y97.874 E5.61114
G1 X128.365 Y98.061 E5.62815
G1 X129.294 Y98.479 E5.66203
G1 X129.876 Y98.775 E5.68375
G1 X130.904 Y99.372 E5.72329
G1 X131.168 Y99.546 E5.73381
G1 X131.888 Y100.066 E5.76335
G1 X132.455 Y100.512 E5.78734
G1 X133.154 Y101.112 E5.81798
G1 X133.68 Y101.641 E5.84279
G1 X134.205 Y102.208 E5.86849
G1 X134.8 Y102.91 E5.8991
G1 X135.21 Y103.475 E5.92232
G1 X135.558 Y103.99 E5.94299
G1 X136.059 Y104.809 E5.97492
G1 X136.21 Y105.083 E5.98533
G1 X136.636 Y105.948 E6.0174
G1 X136.942 Y106.647 E6.04278
G1 X137.275 Y107.506 E6.07342
G1 X137.47 Y108.153 E6.09589
G1 X137.592 Y108.608 E6.11156
G1 X137.806 Y109.585 E6.14483
G1 X137.92 Y110.259 E6.16756
G1 X138.041 Y111.269 E6.2014
G1 X138.085 Y112.01 E6.22609
G1 X138.1 Y112.661 E6.24774
G1 X138.099 Y121.94 E6.55637
G1 X138.087 Y122.804 E6.5851
G1 X138.062 Y123.393 E6.60471
G1 X138.032 Y123.824 E6.61908
G1 X137.951 Y124.628 E6.64596
G1 X137.735 Y125.787 E6.68517
G1 X137.567 Y126.487 E6.70911
G1 X137.314 Y127.372 E6.73973
G1 X137.127 Y127.885 E6.75789
G1 X136.941 Y128.359 E6.77483
G1 X136.526 Y129.286 E6.80861
G1 X136.23 Y129.869 E6.83035
G1 X135.623 Y130.911 E6.87046
G1 X135.448 Y131.176 E6.88102
G1 X134.936 Y131.887 E6.91017
G1 X134.491 Y132.453 E6.93411
G1 X133.891 Y133.151 E6.96473
G1 X133.366 Y133.673 E6.98935
G1 X132.801 Y134.197 E7.01498
G1 X132.099 Y134.793 E7.04561
G1 X131.527 Y135.208 E7.06911
G1 X131.009 Y135.558 E7.08991
G1 X130.177 Y136.066 E7.12233
G1 X129.902 Y136.217 E7.13276
G1 X129.046 Y136.639 E7.16451
G1 X128.346 Y136.945 E7.18991
G1 X127.487 Y137.276 E7.22053
G1 X126.857 Y137.467 E7.24243
G1 X126.404 Y137.589 E7.25803
G1 X125.412 Y137.806 E7.29181
G1 X124.737 Y137.92 E7.31458
G1 X123.73 Y138.041 E7.34831
G1 X122.99 Y138.085 E7.37297
G1 X122.339 Y138.1 E7.39462
G1 X113.06 Y138.099 E7.70324
G1 X112.196 Y138.087 E7.73198
G1 X111.607 Y138.062 E7.75159
G1 X111.176 Y138.032 E7.76596
G1 X110.372 Y137.951 E7.79284
G1 X109.213 Y137.735 E7.83205
G1 X108.513 Y137.567 E7.85599
G1 X107.628 Y137.314 E7.88661
G1 X107.111 Y137.126 E7.9049
G1 X106.635 Y136.939 E7.92191
G1 X105.706 Y136.521 E7.9558
G1 X105.122 Y136.224 E7.97759
G1 X104.078 Y135.616 E8.01777
G1 X103.815 Y135.442 E8.02826
G1 X103.112 Y134.935 E8.05709
G1 X102.546 Y134.49 E8.08103
G1 X101.848 Y133.89 E8.11165
G1 X101.32 Y133.359 E8.13655
G1 X100.795 Y132.792 E8.16226
G1 X100.2 Y132.09 E8.19286
G1 X99.793 Y131.528 E8.21594
G1 X99.442 Y131.009 E8.23678
G1 X98.907 Y130.13 E8.27101
G1 X98.756 Y129.852 E8.28153
G1 X98.362 Y129.046 E8.31137
G1 X98.058 Y128.352 E8.33657
G1 X97.725 Y127.494 E8.36718
G1 X97.528 Y126.84 E8.3899
G1 X97.407 Y126.388 E8.40546
G1 X97.194 Y125.41 E8.43875
G1 X97.079 Y124.728 E8.46175
G1 X96.956 Y123.698 E8.49626
G1 X96.915 Y122.99 E8.51984
G1 X96.9 Y122.339 E8.5415
G1 X96.901 Y113.023 E8.85135
G1 X96.913 Y112.19 E8.87906
G1 X96.938 Y111.607 E8.89847
G1 X96.968 Y111.176 E8.91284
G1 X97.049 Y110.372 E8.93972
G1 X97.265 Y109.213 E8.97893
G1 X97.433 Y108.513 E9.00287
G1 X97.686 Y107.628 E9.03349
G1 X97.873 Y107.115 E9.05165
G1 X98.059 Y106.641 E9.06858
G1 X98.468 Y105.727 E9.10189
G1 X98.763 Y105.144 E9.12362
G1 X99.391 Y104.066 E9.16511
G1 X99.567 Y103.801 E9.17569
G1 X100.066 Y103.112 E9.20399
G1 X100.512 Y102.545 E9.22798
G1 X101.112 Y101.846 E9.25862
G0 F6000 X101.415 Y102.107
G1 F1200 X101.913 Y101.614 E9.28193
G1 X102.48 Y101.089 E9.30763
G1 X103.169 Y100.505 E9.33767
G1 X103.699 Y100.122 E9.35942
G1 X104.214 Y99.774 E9.38009
G1 X105.022 Y99.281 E9.41157
G1 X105.292 Y99.133 E9.42181
G1 X106.103 Y98.734 E9.45188
G1 X106.813 Y98.423 E9.47766
G1 X107.655 Y98.098 E9.50768
G1 X108.365 Y97.887 E9.53231
G1 X109.069 Y97.706 E9.55649
G1 X109.953 Y97.52 E9.58653
G1 X110.454 Y97.451 E9.60335
G1 X110.919 Y97.398 E9.61892
G1 X111.851 Y97.334 E9.64999
G1 X113.085 Y97.307 E9.69104
G1 X121.793 Y97.3 E9.98067
G1 X122.795 Y97.313 E10.014
G1 X123.352 Y97.336 E10.03255
G1 X123.788 Y97.366 E10.04708
G1 X124.575 Y97.445 E10.07339
G1 X125.693 Y97.654 E10.11122
G1 X126.393 Y97.822 E10.13516
G1 X127.261 Y98.071 E10.16519
G1 X127.743 Y98.246 E10.18225
G1 X128.219 Y98.433 E10.19926
G1 X129.113 Y98.835 E10.23186
G1 X129.695 Y99.131 E10.25358
G1 X130.684 Y99.706 E10.29163
G1 X130.948 Y99.88 E10.30215
G1 X131.641 Y100.38 E10.33057
G1 X132.208 Y100.826 E10.35456
G1 X132.893 Y101.415 E10.38461
G1 X133.386 Y101.913 E10.40792
G1 X133.911 Y102.48 E10.43362
G1 X134.495 Y103.169 E10.46366
G1 X134.878 Y103.699 E10.48541
G1 X135.226 Y104.214 E10.50608
G1 X135.708 Y105.002 E10.5368
G1 X135.859 Y105.276 E10.54721
G1 X136.27 Y106.109 E10.5781
G1 X136.576 Y106.808 E10.60348
G1 X136.901 Y107.65 E10.6335
G1 X137.084 Y108.256 E10.65456
G1 X137.206 Y108.711 E10.67022
G1 X137.411 Y109.652 E10.70226
G1 X137.525 Y110.326 E10.72499
G1 X137.642 Y111.298 E10.75755
G1 X137.685 Y112.022 E10.78168
G1 X137.7 Y112.661 E10.80293
G1 X137.699 Y121.935 E11.11139
G1 X137.687 Y122.799 E11.14013
G1 X137.663 Y123.365 E11.15897
G1 X137.633 Y123.796 E11.17334
G1 X137.555 Y124.575 E11.19938
G1 X137.346 Y125.693 E11.23721
G1 X137.178 Y126.393 E11.26115
G1 X136.929 Y127.261 E11.29119
G1 X136.755 Y127.739 E11.30811
G1 X136.569 Y128.213 E11.32504
G1 X136.169 Y129.105 E11.35756
G1 X135.873 Y129.688 E11.3793
G1 X135.29 Y130.691 E11.41789
G1 X135.115 Y130.956 E11.42845
G1 X134.621 Y131.639 E11.45649
G1 X134.176 Y132.205 E11.48043
G1 X133.587 Y132.89 E11.51048
G1 X133.094 Y133.38 E11.5336
G1 X132.529 Y133.904 E11.55923
G1 X131.84 Y134.488 E11.58927
G1 X131.304 Y134.877 E11.6113
G1 X130.786 Y135.227 E11.63209
G1 X129.984 Y135.716 E11.66333
G1 X129.709 Y135.867 E11.67377
G1 X128.886 Y136.272 E11.70428
G1 X128.186 Y136.578 E11.72968
G1 X127.343 Y136.903 E11.75973
G1 X126.753 Y137.081 E11.78023
G1 X126.3 Y137.203 E11.79584
G1 X125.346 Y137.412 E11.82832
G1 X124.671 Y137.526 E11.85109
G1 X123.701 Y137.642 E11.88358
G1 X122.978 Y137.685 E11.90767
G1 X122.339 Y137.7 E11.92893
G1 X113.065 Y137.699 E12.23738
G1 X112.201 Y137.687 E12.26612
G1 X111.635 Y137.663 E12.28496
G1 X111.204 Y137.633 E12.29933
G1 X110.425 Y137.555 E12.32537
G1 X109.307 Y137.346 E12.3632
G1 X108.607 Y137.178 E12.38714
G1 X107.739 Y136.929 E12.41718
G1 X107.257 Y136.754 E12.43423
G1 X106.781 Y136.567 E12.45124
G1 X105.887 Y136.165 E12.48385
G1 X105.303 Y135.868 E12.50564
G1 X104.299 Y135.283 E12.54429
G1 X104.036 Y135.109 E12.55477
G1 X103.36 Y134.62 E12.58252
G1 X102.794 Y134.175 E12.60647
G1 X102.109 Y133.586 E12.63652
G1 X101.614 Y133.087 E12.6599
G1 X101.089 Y132.52 E12.6856
G1 X100.505 Y131.831 E12.71564
G1 X100.124 Y131.304 E12.73727
G1 X99.773 Y130.785 E12.75811
G1 X99.259 Y129.939 E12.79103
G1 X99.108 Y129.661 E12.80155
G1 X98.728 Y128.886 E12.83026
G1 X98.424 Y128.192 E12.85546
G1 X98.099 Y127.349 E12.88551
G1 X97.914 Y126.737 E12.90678
G1 X97.793 Y126.285 E12.92234
G1 X97.588 Y125.343 E12.9544
G1 X97.473 Y124.661 E12.97741
G1 X97.355 Y123.67 E13.0106
G1 X97.315 Y122.978 E13.03365
G1 X97.3 Y122.339 E13.05491
G1 X97.301 Y113.029 E13.36457
G1 X97.313 Y112.196 E13.39227
G1 X97.337 Y111.635 E13.41095
G1 X97.367 Y111.204 E13.42532
G1 X97.445 Y110.425 E13.45136
G1 X97.654 Y109.307 E13.48919
G1 X97.822 Y108.607 E13.51313
G1 X98.071 Y107.739 E13.54317
G1 X98.245 Y107.261 E13.56008
G1 X98.431 Y106.787 E13.57702
G1 X98.825 Y105.908 E13.60906
G1 X99.12 Y105.325 E13.63079
G1 X99.724 Y104.287 E13.67073
G1 X99.9 Y104.022 E13.68131
G1 X100.38 Y103.359 E13.70854
G1 X100.826 Y102.792 E13.73253
G1 X101.415 Y102.107 E13.76258
G1 F2700 E8.76258
;MESH:Cabel_Holder.stl
G0 F6000 X106.835 Y112.47
G0 X112.087 Y126.88
;TYPE:WALL-INNER
G1 F2700 E13.76258
G1 F1200 X112.514 Y126.9 E13.7768
G1 X122.638 Y126.9 E14.11352
G1 X122.921 Y126.879 E14.12296
G1 X123.355 Y126.814 E14.13756
G1 X123.868 Y126.686 E14.15514
G1 X124.381 Y126.476 E14.17358
G1 X124.762 Y126.272 E14.18795
G1 X125.213 Y125.971 E14.20599
G1 X125.687 Y125.541 E14.22727
G1 X126.034 Y125.118 E14.24547
G1 X126.274 Y124.76 E14.25981
G1 X126.476 Y124.381 E14.27409
G1 X126.687 Y123.867 E14.29257
G1 X126.836 Y123.265 E14.3132
G1 X126.88 Y122.913 E14.325
G1 X126.9 Y122.486 E14.33921
G1 X126.9 Y112.359 E14.67604
G1 X126.879 Y112.079 E14.68538
G1 X126.814 Y111.643 E14.70004
G1 X126.686 Y111.132 E14.71756
G1 X126.476 Y110.619 E14.736
G1 X126.272 Y110.237 E14.7504
G1 X125.971 Y109.787 E14.76841
G1 X125.541 Y109.313 E14.78969
G1 X125.118 Y108.967 E14.80787
G1 X124.762 Y108.728 E14.82213
G1 X124.381 Y108.524 E14.83651
G1 X123.867 Y108.313 E14.85499
G1 X123.264 Y108.164 E14.87564
G1 X122.916 Y108.12 E14.88731
G1 X122.486 Y108.1 E14.90163
G1 X112.286 Y108.106 E15.24088
G1 X111.751 Y108.159 E15.25876
G1 X111.133 Y108.314 E15.27995
G1 X110.619 Y108.524 E15.29842
G1 X110.237 Y108.728 E15.31283
G1 X109.787 Y109.03 E15.33085
G1 X109.313 Y109.459 E15.35211
G1 X108.966 Y109.882 E15.37031
G1 X108.726 Y110.24 E15.38465
G1 X108.524 Y110.619 E15.39893
G1 X108.313 Y111.133 E15.41741
G1 X108.164 Y111.735 E15.43804
G1 X108.12 Y112.087 E15.44984
G1 X108.1 Y112.514 E15.46405
G1 X108.1 Y122.641 E15.80088
G1 X108.121 Y122.921 E15.81022
G1 X108.186 Y123.355 E15.82481
G1 X108.314 Y123.868 E15.8424
G1 X108.524 Y124.381 E15.86084
G1 X108.726 Y124.761 E15.87515
G1 X109.028 Y125.211 E15.89318
G1 X109.459 Y125.687 E15.91453
G1 X109.882 Y126.033 E15.93271
G1 X110.238 Y126.272 E15.94697
G1 X110.619 Y126.476 E15.96135
G1 X111.133 Y126.687 E15.97983
G1 X111.735 Y126.836 E16.00045
G1 X112.087 Y126.88 E16.01225
G0 F6000 X111.662 Y127.23
;TYPE:WALL-OUTER
G1 F1200 X112.053 Y127.279 E16.02536
G1 X112.505 Y127.3 E16.04041
G1 X122.652 Y127.3 E16.3779
G1 X122.965 Y127.277 E16.38834
G1 X123.433 Y127.207 E16.40407
G1 X123.993 Y127.067 E16.42327
G1 X124.551 Y126.838 E16.44334
G1 X124.968 Y126.616 E16.45905
G1 X125.46 Y126.287 E16.47873
G1 X125.977 Y125.817 E16.50197
G1 X126.355 Y125.357 E16.52177
G1 X126.618 Y124.966 E16.53745
G1 X126.838 Y124.551 E16.55307
G1 X127.068 Y123.992 E16.57317
G1 X127.23 Y123.338 E16.59558
G1 X127.279 Y122.947 E16.60869
G1 X127.3 Y122.495 E16.62374
G1 X127.3 Y112.344 E16.96136
G1 X127.277 Y112.035 E16.97167
G1 X127.207 Y111.565 E16.98747
G1 X127.067 Y111.007 E17.00661
G1 X126.838 Y110.449 E17.02667
G1 X126.616 Y110.031 E17.04241
G1 X126.287 Y109.54 E17.06207
G1 X125.817 Y109.023 E17.08531
G1 X125.357 Y108.645 E17.10511
G1 X124.968 Y108.384 E17.12069
G1 X124.551 Y108.162 E17.1364
G1 X123.992 Y107.932 E17.15651
G1 X123.338 Y107.77 E17.17892
G1 X122.95 Y107.721 E17.19193
G1 X122.495 Y107.7 E17.20708
G1 X112.266 Y107.706 E17.54729
