;FLAVOR:Marlin
;TIME:1727
;Filament used: 0.917207m
;Layer height: 0.2
;MINX:94.701
;MINY:94.701
;MINZ:0.2
;MAXX:140.299
;MAXY:140.299
;MAXZ:27.2
;POSTPROCESSED
;Generated with Cura_SteamEngine 5.3.0
M82 ;absolute extrusion mode
; Ender 3 Custom Start G-code
G92 E0 ; Reset Extruder

M140 S50 ; set bed temp
M190 S50 ; wait for bed temp

G28 ; Home all axes
BED_MESH_CALIBRATE  AREA_START=94.701,94.701 AREA_END=140.299,140.299
M104 S210 ; set extruder temp 

G1 Z2.0 F3000 ; Move Z Axis up little to prevent scratching of Heat Bed
M109 S210 ; wait for extruder temp
G1 X0.1 Y20 Z0.3 F5000.0 ; Move to start position

G1 X0.1 Y200.0 Z0.3 F1500.0 E15 ; Draw the first line
G1 X0.4 Y200.0 Z0.3 F5000.0 ; Move to side a little
G1 X0.4 Y20 Z0.3 F1500.0 E30 ; Draw the second line
G92 E0 ; Reset Extruder
G1 Z2.0 F3000 ; Move Z Axis up little to prevent scratching of Heat Bed
G1 X5 Y20 Z0.3 F5000.0 ; Move over to prevent blob squish
G92 E0
G92 E0
G1 F2700 E-5
;LAYER_COUNT:136
;LAYER:0
M107
G0 F6000 X96.22 Y97.725 Z0.2
;TYPE:SKIRT
G1 F2700 E0
G1 F1200 X97.795 Y96.251 E0.07175
G1 X99.667 Y95.139 E0.14417
G1 X101.854 Y94.701 E0.21835
G1 X133.352 Y94.701 E1.26598
G1 X135.248 Y95.167 E1.33092
G1 X137.275 Y96.22 E1.40689
G1 X138.749 Y97.795 E1.47864
G1 X139.861 Y99.667 E1.55106
G1 X140.299 Y101.854 E1.62524
G1 X140.299 Y133.352 E2.67287
G1 X139.833 Y135.248 E2.73781
G1 X138.78 Y137.275 E2.81378
G1 X137.205 Y138.749 E2.88553
G1 X135.333 Y139.861 E2.95795
G1 X133.146 Y140.299 E3.03213
G1 X101.648 Y140.299 E4.07976
G1 X99.752 Y139.833 E4.1447
G1 X97.725 Y138.78 E4.22067
G1 X96.251 Y137.205 E4.29242
G1 X95.139 Y135.333 E4.36483
G1 X94.701 Y133.146 E4.43902
G1 X94.701 Y101.648 E5.48665
G1 X95.167 Y99.752 E5.55158
G1 X96.22 Y97.725 E5.62756
G0 F6000 X96.543 Y97.97
G1 F1200 X98.036 Y96.573 E5.69556
G1 X99.813 Y95.517 E5.76431
G1 X101.892 Y95.101 E5.83483
G1 X133.306 Y95.101 E6.87967
G1 X135.105 Y95.543 E6.94128
G1 X137.03 Y96.543 E7.01343
G1 X138.427 Y98.036 E7.08144
G1 X139.483 Y99.813 E7.15019
G1 X139.899 Y101.892 E7.22071
G1 X139.899 Y133.306 E8.26554
G1 X139.457 Y135.105 E8.32716
G1 X138.457 Y137.03 E8.39931
G1 X136.964 Y138.427 E8.46731
G1 X135.187 Y139.483 E8.53606
G1 X133.108 Y139.899 E8.60658
G1 X101.694 Y139.899 E9.65142
G1 X99.895 Y139.457 E9.71303
G1 X97.97 Y138.457 E9.78518
G1 X96.573 Y136.964 E9.85318
G1 X95.517 Y135.187 E9.92194
G1 X95.101 Y133.108 E9.99245
G1 X95.101 Y101.694 E11.03729
G1 X95.543 Y99.895 E11.0989
G1 X96.543 Y97.97 E11.17105
G0 F6000 X96.866 Y98.215
G1 F1200 X98.277 Y96.895 E11.23532
G1 X99.959 Y95.896 E11.30038
G1 X101.931 Y95.501 E11.36728
G1 X133.259 Y95.501 E12.40925
G1 X134.963 Y95.92 E12.46761
G1 X136.785 Y96.866 E12.53589
G1 X138.105 Y98.277 E12.60016
G1 X139.104 Y99.959 E12.66523
G1 X139.499 Y101.931 E12.73212
G1 X139.499 Y133.259 E13.77409
G1 X139.08 Y134.963 E13.83245
G1 X138.134 Y136.785 E13.90074
G1 X136.723 Y138.105 E13.965
G1 X135.041 Y139.104 E14.03007
G1 X133.069 Y139.499 E14.09696
G1 X101.741 Y139.499 E15.13893
G1 X100.037 Y139.08 E15.1973
G1 X98.215 Y138.134 E15.26558
G1 X96.895 Y136.723 E15.32984
G1 X95.896 Y135.041 E15.39491
G1 X95.501 Y133.069 E15.4618
G1 X95.501 Y101.741 E16.50377
G1 X95.92 Y100.037 E16.56214
G1 X96.866 Y98.215 E16.63042
G0 F6000 X97.189 Y98.46
G1 F1200 X98.518 Y97.217 E16.69094
G1 X100.105 Y96.274 E16.75234
G1 X101.969 Y95.901 E16.81557
G1 X133.213 Y95.901 E17.85475
G1 X134.82 Y96.296 E17.90979
G1 X136.54 Y97.189 E17.97425
G1 X137.783 Y98.518 E18.03477
G1 X138.726 Y100.105 E18.09617
G1 X139.099 Y101.969 E18.15939
G1 X139.099 Y133.213 E19.19857
G1 X138.704 Y134.82 E19.25361
G1 X137.811 Y136.54 E19.31807
G1 X136.482 Y137.783 E19.3786
G1 X134.895 Y138.726 E19.43999
G1 X133.031 Y139.099 E19.50322
G1 X101.787 Y139.099 E20.5424
G1 X100.18 Y138.704 E20.59744
G1 X98.46 Y137.811 E20.6619
G1 X97.217 Y136.482 E20.72242
G1 X96.274 Y134.895 E20.78382
G1 X95.901 Y133.031 E20.84705
G1 X95.901 Y101.787 E21.88623
G1 X96.296 Y100.18 E21.94127
G1 X97.189 Y98.46 E22.00572
G0 F6000 X97.512 Y98.705
G1 F1200 X98.759 Y97.539 E22.06251
G1 X100.251 Y96.652 E22.12024
G1 X102.007 Y96.301 E22.1798
G1 X133.167 Y96.301 E23.21618
G1 X134.677 Y96.672 E23.2679
G1 X136.295 Y97.512 E23.32854
G1 X137.461 Y98.759 E23.38532
G1 X138.348 Y100.251 E23.44305
G1 X138.699 Y102.007 E23.50261
G1 X138.699 Y133.167 E24.53899
G1 X138.328 Y134.677 E24.59071
G1 X137.488 Y136.295 E24.65135
G1 X136.241 Y137.461 E24.70813
G1 X134.749 Y138.348 E24.76586
G1 X132.993 Y138.699 E24.82542
G1 X101.833 Y138.699 E25.86181
G1 X100.323 Y138.328 E25.91352
G1 X98.705 Y137.488 E25.97416
G1 X97.539 Y136.241 E26.03094
G1 X96.652 Y134.749 E26.08867
G1 X96.301 Y132.993 E26.14823
G1 X96.301 Y101.833 E27.18462
G1 X96.672 Y100.323 E27.23633
G1 X97.512 Y98.705 E27.29697
G0 F6000 X97.835 Y98.95
G1 F1200 X99 Y97.861 E27.35001
G1 X100.397 Y97.03 E27.40407
G1 X102.045 Y96.701 E27.45997
G1 X133.12 Y96.701 E28.49352
G1 X134.535 Y97.049 E28.54199
G1 X136.05 Y97.835 E28.59876
G1 X137.139 Y99 E28.6518
G1 X137.97 Y100.397 E28.70586
G1 X138.299 Y102.045 E28.76176
G1 X138.299 Y133.12 E29.79531
G1 X137.951 Y134.535 E29.84378
G1 X137.165 Y136.05 E29.90055
G1 X136 Y137.139 E29.95359
G1 X134.603 Y137.97 E30.00765
G1 X132.955 Y138.299 E30.06355
G1 X101.88 Y138.299 E31.0971
G1 X100.465 Y137.951 E31.14557
G1 X98.95 Y137.165 E31.20234
G1 X97.861 Y136 E31.25538
G1 X97.03 Y134.603 E31.30944
G1 X96.701 Y132.955 E31.36534
G1 X96.701 Y101.88 E32.39889
G1 X97.049 Y100.465 E32.44736
G1 X97.835 Y98.95 E32.50413
G0 F6000 X98.158 Y99.195
G1 F1200 X99.239 Y98.185 E32.55333
G1 X100.545 Y97.408 E32.60388
G1 X102.083 Y97.101 E32.65604
G1 X133.074 Y97.101 E33.6868
G1 X134.392 Y97.425 E33.73195
G1 X135.805 Y98.158 E33.78489
G1 X136.815 Y99.239 E33.8341
G1 X137.592 Y100.545 E33.88464
G1 X137.899 Y102.083 E33.9368
G1 X137.899 Y133.074 E34.96757
G1 X137.575 Y134.392 E35.01271
G1 X136.842 Y135.805 E35.06565
G1 X135.761 Y136.815 E35.11486
G1 X134.455 Y137.592 E35.1654
G1 X132.917 Y137.899 E35.21757
G1 X101.926 Y137.899 E36.24833
G1 X100.608 Y137.575 E36.29347
G1 X99.195 Y136.842 E36.34642
G1 X98.185 Y135.761 E36.39562
G1 X97.408 Y134.455 E36.44617
G1 X97.101 Y132.917 E36.49833
G1 X97.101 Y101.926 E37.52909
G1 X97.425 Y100.608 E37.57424
G1 X98.158 Y99.195 E37.62718
G0 F6000 X98.481 Y99.44
G1 F1200 X99.478 Y98.509 E37.67255
G1 X100.693 Y97.786 E37.71958
G1 X102.121 Y97.501 E37.76801
G1 X133.028 Y97.501 E38.79598
G1 X134.249 Y97.801 E38.8378
G1 X135.56 Y98.481 E38.88692
G1 X136.491 Y99.478 E38.93229
G1 X137.214 Y100.693 E38.97931
G1 X137.499 Y102.121 E39.02774
G1 X137.499 Y133.028 E40.05572
G1 X137.199 Y134.249 E40.09753
G1 X136.519 Y135.56 E40.14665
G1 X135.522 Y136.491 E40.19202
G1 X134.307 Y137.214 E40.23905
G1 X132.879 Y137.499 E40.28748
G1 X101.972 Y137.499 E41.31545
G1 X100.751 Y137.199 E41.35727
G1 X99.44 Y136.519 E41.40639
G1 X98.509 Y135.522 E41.45176
G1 X97.786 Y134.307 E41.49879
G1 X97.501 Y132.879 E41.54722
G1 X97.501 Y101.972 E42.57519
G1 X97.801 Y100.751 E42.61701
G1 X98.481 Y99.44 E42.66613
G0 F6000 X98.804 Y99.685
G1 F1200 X99.717 Y98.833 E42.70766
G1 X100.841 Y98.164 E42.75117
G1 X102.159 Y97.901 E42.79587
G1 X132.982 Y97.901 E43.82105
G1 X134.106 Y98.177 E43.85954
G1 X135.315 Y98.804 E43.90484
G1 X136.167 Y99.717 E43.94637
G1 X136.836 Y100.841 E43.98988
G1 X137.099 Y102.159 E44.03458
G1 X137.099 Y132.982 E45.05976
G1 X136.823 Y134.106 E45.09825
G1 X136.196 Y135.315 E45.14355
G1 X135.283 Y136.167 E45.18508
G1 X134.159 Y136.836 E45.22859
G1 X132.841 Y137.099 E45.27329
G1 X102.018 Y137.099 E46.29847
G1 X100.894 Y136.823 E46.33696
G1 X99.685 Y136.196 E46.38226
G1 X98.833 Y135.283 E46.4238
G1 X98.164 Y134.159 E46.4673
G1 X97.901 Y132.841 E46.512
G1 X97.901 Y102.018 E47.53718
G1 X98.177 Y100.894 E47.57567
G1 X98.804 Y99.685 E47.62097
G0 F6000 X99.126 Y99.932
G1 F1200 X99.959 Y99.155 E47.65886
G1 X100.989 Y98.542 E47.69872
G1 X102.197 Y98.301 E47.73969
G1 X132.935 Y98.301 E48.76204
G1 X133.964 Y98.554 E48.79729
G1 X135.068 Y99.126 E48.83864
G1 X135.845 Y99.959 E48.87653
G1 X136.458 Y100.989 E48.9164
G1 X136.699 Y102.197 E48.95737
G1 X136.699 Y132.935 E49.97972
G1 X136.446 Y133.964 E50.01496
G1 X135.874 Y135.068 E50.05632
G1 X135.041 Y135.845 E50.0942
G1 X134.011 Y136.458 E50.13407
G1 X132.803 Y136.699 E50.17504
G1 X102.065 Y136.699 E51.19739
G1 X101.036 Y136.446 E51.23263
G1 X99.932 Y135.874 E51.27399
G1 X99.155 Y135.041 E51.31188
G1 X98.542 Y134.011 E51.35174
G1 X98.301 Y132.803 E51.39271
G1 X98.301 Y102.065 E52.41506
G1 X98.554 Y101.036 E52.45031
G1 X99.126 Y99.932 E52.49166
G0 F6000 X99.448 Y100.179
G1 F1200 X100.201 Y99.477 E52.5259
G1 X101.137 Y98.92 E52.56213
G1 X102.235 Y98.701 E52.59937
G1 X132.889 Y98.701 E53.61892
G1 X133.821 Y98.93 E53.65084
G1 X134.821 Y99.448 E53.6883
G1 X135.523 Y100.201 E53.72254
G1 X136.08 Y101.137 E53.75877
G1 X136.299 Y102.235 E53.79601
G1 X136.299 Y132.889 E54.81556
G1 X136.07 Y133.821 E54.84748
G1 X135.552 Y134.821 E54.88494
G1 X134.799 Y135.523 E54.91918
G1 X133.863 Y136.08 E54.95541
G1 X132.765 Y136.299 E54.99265
G1 X102.111 Y136.299 E56.0122
G1 X101.179 Y136.07 E56.04413
G1 X100.179 Y135.552 E56.08158
G1 X99.477 Y134.799 E56.11582
G1 X98.92 Y133.863 E56.15205
G1 X98.701 Y132.765 E56.18929
G1 X98.701 Y102.111 E57.20885
G1 X98.93 Y101.179 E57.24077
G1 X99.448 Y100.179 E57.27822
G0 F6000 X99.77 Y100.426
G1 F1200 X100.443 Y99.799 E57.30882
G1 X101.285 Y99.298 E57.3414
G1 X102.273 Y99.101 E57.37491
G1 X132.843 Y99.101 E58.39167
G1 X133.678 Y99.306 E58.42027
G1 X134.574 Y99.77 E58.45383
G1 X135.201 Y100.443 E58.48442
G1 X135.702 Y101.285 E58.51701
G1 X135.899 Y102.273 E58.55052
G1 X135.899 Y132.843 E59.56728
G1 X135.694 Y133.678 E59.59588
G1 X135.23 Y134.574 E59.62944
G1 X134.557 Y135.201 E59.66003
G1 X133.715 Y135.702 E59.69262
G1 X132.727 Y135.899 E59.72613
G1 X102.157 Y135.899 E60.74289
G1 X101.322 Y135.694 E60.77149
G1 X100.426 Y135.23 E60.80505
G1 X99.799 Y134.557 E60.83564
G1 X99.298 Y133.715 E60.86823
G1 X99.101 Y132.727 E60.90174
G1 X99.101 Y102.157 E61.9185
G1 X99.306 Y101.322 E61.94709
G1 X99.77 Y100.426 E61.98065
G0 F6000 X100.092 Y100.673
G1 F1200 X100.685 Y100.121 E62.0076
G1 X101.433 Y99.676 E62.03655
G1 X102.311 Y99.501 E62.06633
G1 X132.797 Y99.501 E63.08029
G1 X133.535 Y99.682 E63.10557
G1 X134.327 Y100.092 E63.13523
G1 X134.879 Y100.685 E63.16218
G1 X135.324 Y101.433 E63.19112
G1 X135.499 Y102.311 E63.2209
G1 X135.499 Y132.797 E64.23487
G1 X135.318 Y133.535 E64.26014
G1 X134.908 Y134.327 E64.28981
G1 X134.315 Y134.879 E64.31675
G1 X133.567 Y135.324 E64.3457
G1 X132.689 Y135.499 E64.37548
G1 X102.203 Y135.499 E65.38944
G1 X101.465 Y135.318 E65.41472
G1 X100.673 Y134.908 E65.44438
G1 X100.121 Y134.315 E65.47133
G1 X99.676 Y133.567 E65.50027
G1 X99.501 Y132.689 E65.53005
G1 X99.501 Y102.203 E66.54402
G1 X99.682 Y101.465 E66.56929
G1 X100.092 Y100.673 E66.59896
G0 F6000 X100.415 Y100.918
G1 F1200 X100.924 Y100.445 E66.62207
G1 X101.581 Y100.054 E66.6475
G1 X102.349 Y99.901 E66.67354
G1 X132.747 Y99.901 E67.68458
G1 X133.396 Y100.06 E67.70681
G1 X134.082 Y100.415 E67.7325
G1 X134.555 Y100.924 E67.75561
G1 X134.946 Y101.581 E67.78104
G1 X135.099 Y102.349 E67.80708
G1 X135.099 Y132.747 E68.81812
G1 X134.94 Y133.396 E68.84035
G1 X134.585 Y134.082 E68.86604
G1 X134.076 Y134.555 E68.88915
G1 X133.419 Y134.946 E68.91458
G1 X132.651 Y135.099 E68.94062
G1 X102.253 Y135.099 E69.95167
G1 X101.604 Y134.94 E69.97389
G1 X100.918 Y134.585 E69.99958
G1 X100.445 Y134.076 E70.02269
G1 X100.054 Y133.419 E70.04812
G1 X99.901 Y132.651 E70.07417
G1 X99.901 Y102.253 E71.08521
G1 X100.06 Y101.604 E71.10743
G1 X100.415 Y100.918 E71.13312
G0 F6000 X100.738 Y101.163
G1 F1200 X101.163 Y100.769 E71.1524
G1 X101.729 Y100.432 E71.17431
G1 X102.387 Y100.301 E71.19662
G1 X132.697 Y100.301 E72.20474
G1 X133.257 Y100.438 E72.22391
G1 X133.837 Y100.738 E72.24563
G1 X134.231 Y101.163 E72.26491
G1 X134.568 Y101.729 E72.28682
G1 X134.699 Y102.387 E72.30913
G1 X134.699 Y132.697 E73.31724
G1 X134.562 Y133.257 E73.33642
G1 X134.262 Y133.837 E73.35814
G1 X133.837 Y134.231 E73.37741
G1 X133.271 Y134.568 E73.39932
G1 X132.613 Y134.699 E73.42164
G1 X102.303 Y134.699 E74.42975
G1 X101.743 Y134.562 E74.44893
G1 X101.163 Y134.262 E74.47065
G1 X100.769 Y133.837 E74.48992
G1 X100.432 Y133.271 E74.51183
G1 X100.301 Y132.613 E74.53415
G1 X100.301 Y102.303 E75.54226
G1 X100.438 Y101.743 E75.56144
G1 X100.738 Y101.163 E75.58315
G0 F6000 X101.061 Y101.409
G1 F1200 X101.402 Y101.093 E75.59862
G1 X101.877 Y100.81 E75.61701
G1 X102.425 Y100.701 E75.63559
G1 X132.647 Y100.701 E76.64078
G1 X133.118 Y100.816 E76.6569
G1 X133.591 Y101.061 E76.67462
G1 X133.907 Y101.402 E76.69008
G1 X134.19 Y101.877 E76.70847
G1 X134.299 Y102.425 E76.72706
G1 X134.299 Y132.647 E77.73225
G1 X134.184 Y133.118 E77.74837
G1 X133.939 Y133.591 E77.76609
G1 X133.598 Y133.907 E77.78155
G1 X133.123 Y134.19 E77.79994
G1 X132.575 Y134.299 E77.81852
G1 X102.353 Y134.299 E78.82371
G1 X101.882 Y134.184 E78.83984
G1 X101.409 Y133.939 E78.85756
G1 X101.093 Y133.598 E78.87302
G1 X100.81 Y133.123 E78.89141
G1 X100.701 Y132.575 E78.90999
G1 X100.701 Y102.353 E79.91518
G1 X100.816 Y101.882 E79.93131
G1 X101.061 Y101.409 E79.94902
G0 F6000 X101.384 Y101.655
G1 F1200 X101.641 Y101.417 E79.96067
G1 X102.025 Y101.188 E79.97554
G1 X102.463 Y101.101 E79.9904
G1 X132.597 Y101.101 E80.99266
G1 X132.979 Y101.194 E81.00573
G1 X133.345 Y101.384 E81.01945
G1 X133.583 Y101.641 E81.0311
G1 X133.812 Y102.025 E81.04597
G1 X133.899 Y102.463 E81.06082
G1 X133.899 Y132.597 E82.06308
G1 X133.806 Y132.979 E82.07616
G1 X133.616 Y133.345 E82.08988
G1 X133.359 Y133.583 E82.10153
G1 X132.975 Y133.812 E82.1164
G1 X132.537 Y133.899 E82.13125
G1 X102.403 Y133.899 E83.13351
G1 X102.021 Y133.806 E83.14659
G1 X101.655 Y133.616 E83.1603
G1 X101.417 Y133.359 E83.17195
G1 X101.188 Y132.975 E83.18682
G1 X101.101 Y132.537 E83.20167
G1 X101.101 Y102.403 E84.20394
G1 X101.194 Y102.021 E84.21701
G1 X101.384 Y101.655 E84.23073
G0 F6000 X101.846 Y101.761
G1 F1200 X102.173 Y101.566 E84.24339
G1 X102.501 Y101.501 E84.25451
G1 X132.548 Y101.501 E85.25388
G1 X132.837 Y101.571 E85.26377
G1 X133.1 Y101.708 E85.27363
G1 X133.239 Y101.846 E85.28015
G1 X133.434 Y102.173 E85.29281
G1 X133.499 Y102.501 E85.30393
G1 X133.499 Y132.548 E86.3033
G1 X133.429 Y132.837 E86.31319
G1 X133.292 Y133.1 E86.32305
G1 X133.154 Y133.239 E86.32957
G1 X132.827 Y133.434 E86.34223
G1 X132.499 Y133.499 E86.35335
G1 X102.452 Y133.499 E87.35272
G1 X102.163 Y133.429 E87.36261
G1 X101.9 Y133.292 E87.37247
G1 X101.761 Y133.154 E87.37899
G1 X101.566 Y132.827 E87.39165
G1 X101.501 Y132.499 E87.40277
G1 X101.501 Y102.452 E88.40214
G1 X101.571 Y102.163 E88.41203
G1 X101.708 Y101.9 E88.42189
G1 X101.846 Y101.761 E88.42841
G0 F6000 X102.051 Y102.105
G1 F1200 X102.321 Y101.944 E88.43886
G1 X102.501 Y101.901 E88.44502
G1 X132.499 Y101.901 E89.44276
G1 X132.743 Y101.96 E89.4511
G1 X132.895 Y102.051 E89.457
G1 X133.056 Y102.321 E89.46745
G1 X133.099 Y102.501 E89.47361
G1 X133.099 Y132.499 E90.47135
G1 X133.04 Y132.743 E90.47969
G1 X132.949 Y132.895 E90.48559
G1 X132.679 Y133.056 E90.49604
G1 X132.499 Y133.099 E90.5022
G1 X102.501 Y133.099 E91.49994
G1 X102.257 Y133.04 E91.50828
G1 X102.105 Y132.949 E91.51418
G1 X101.944 Y132.679 E91.52463
G1 X101.901 Y132.499 E91.53079
G1 X101.901 Y102.501 E92.52853
G1 X101.96 Y102.257 E92.53687
G1 X102.051 Y102.105 E92.54277
G0 F6000 X102.34 Y102.382
G1 F1200 X102.501 Y102.301 E92.54876
G1 X132.499 Y102.301 E93.5465
G1 X132.618 Y102.34 E93.55066
G1 X132.699 Y102.501 E93.55666
G1 X132.699 Y132.499 E94.5544
G1 X132.66 Y132.618 E94.55856
G1 X132.499 Y132.699 E94.56456
G1 X102.501 Y132.699 E95.56229
G1 X102.382 Y132.66 E95.56646
G1 X102.301 Y132.499 E95.57245
G1 X102.301 Y102.501 E96.57019
G1 X102.34 Y102.382 E96.57436
G1 F2700 E91.57436
;MESH:cube.stl
G0 F6000 X101.836 Y102.382
G0 X101.848 Y133.152
G0 X132.299 Y133.164
G0 X132.299 Y132.299
;TYPE:WALL-OUTER
G1 F2700 E96.57436
G1 F1200 X102.701 Y132.299 E97.55879
G1 X102.701 Y102.701 E98.54322
G1 X132.299 Y102.701 E99.52766
G1 X132.299 Y132.299 E100.51209
G0 F6000 X131.939 Y131.939
;TYPE:SKIN
