;FLAVOR:Marlin
;TIME:458
;Filament used: 1.00214m
;Layer height: 0.3
;MINX:94.701
;MINY:94.701
;MINZ:0.3
;MAXX:140.299
;MAXY:140.299
;MAXZ:27.3
;POSTPROCESSED
;Generated with Cura_SteamEngine 5.3.1
M82 ;absolute extrusion mode
; Ender 3 Custom Start G-code
G92 E0 ; Reset Extruder

M140 S50 ; set bed temp
M190 S50 ; wait for bed temp

G28 ; Home all axes
BED_MESH_CALIBRATE  AREA_START=94.701,94.701 AREA_END=140.299,140.299
M104 S205 ; set extruder temp 

G1 Z2.0 F3000 ; Move Z Axis up little to prevent scratching of Heat Bed
M109 S205 ; wait for extruder temp
G1 X0.1 Y20 Z0.3 F5000.0 ; Move to start position

G1 X0.1 Y200.0 Z0.3 F1500.0 E15 ; Draw the first line
G1 X0.4 Y200.0 Z0.3 F5000.0 ; Move to side a little
G1 X0.4 Y20 Z0.3 F1500.0 E30 ; Draw the second line
G92 E0 ; Reset Extruder
G1 Z2.0 F3000 ; Move Z Axis up little to prevent scratching of Heat Bed
G1 X5 Y20 Z0.3 F5000.0 ; Move over to prevent blob squish
G92 E0
G92 E0
G1 F1620 E-1
;LAYER_COUNT:91
;LAYER:0
M107
G0 F2400 X96.775 Y97.152 Z0.3
;TYPE:SKIRT
G1 F1620 E0
G1 F2400 X98.259 Y95.951 E0.09525
G1 X100.224 Y94.975 E0.20471
G1 X101.747 Y94.753 E0.28149
G1 X132.994 Y94.701 E1.84041
G1 X135.032 Y95.051 E1.94358
G1 X136.557 Y95.861 E2.02973
G1 X137.848 Y96.775 E2.10864
G1 X139.049 Y98.259 E2.20389
G1 X140.025 Y100.224 E2.31335
G1 X140.247 Y101.747 E2.39014
G1 X140.299 Y132.994 E3.94906
G1 X139.949 Y135.032 E4.05222
G1 X139.139 Y136.557 E4.13837
G1 X138.225 Y137.848 E4.21729
G1 X136.741 Y139.049 E4.31253
G1 X134.776 Y140.025 E4.42199
G1 X133.253 Y140.247 E4.49878
G1 X102.006 Y140.299 E6.0577
G1 X99.968 Y139.949 E6.16086
G1 X98.443 Y139.139 E6.24701
G1 X97.152 Y138.225 E6.32593
G1 X95.951 Y136.741 E6.42117
G1 X94.975 Y134.776 E6.53064
G1 X94.753 Y133.253 E6.60742
G1 X94.701 Y102.006 E8.16634
G1 X95.051 Y99.968 E8.26951
G1 X95.861 Y98.443 E8.35566
G1 X96.775 Y97.152 E8.43457
G0 X97.071 Y97.426
G1 X98.476 Y96.29 E8.52471
G1 X100.344 Y95.362 E8.62877
G1 X101.805 Y95.149 E8.70244
G1 X132.961 Y95.101 E10.25682
G1 X134.899 Y95.434 E10.35492
G1 X136.326 Y96.188 E10.43544
G1 X137.574 Y97.071 E10.51171
G1 X138.71 Y98.476 E10.60185
G1 X139.638 Y100.344 E10.70592
G1 X139.851 Y101.805 E10.77958
G1 X139.899 Y132.961 E12.33396
G1 X139.566 Y134.899 E12.43206
G1 X138.812 Y136.326 E12.51258
G1 X137.929 Y137.574 E12.58885
G1 X136.524 Y138.71 E12.67899
G1 X134.656 Y139.638 E12.78306
G1 X133.195 Y139.851 E12.85672
G1 X102.039 Y139.899 E14.4111
G1 X100.101 Y139.566 E14.5092
G1 X98.674 Y138.812 E14.58972
G1 X97.426 Y137.929 E14.66599
G1 X96.29 Y136.524 E14.75613
G1 X95.362 Y134.656 E14.8602
G1 X95.149 Y133.195 E14.93386
G1 X95.101 Y102.039 E16.48824
G1 X95.434 Y100.101 E16.58634
G1 X96.188 Y98.674 E16.66686
G1 X97.071 Y97.426 E16.74313
G0 X97.367 Y97.701
G1 X98.693 Y96.629 E16.8282
G1 X100.464 Y95.749 E16.92686
G1 X101.863 Y95.545 E16.9974
G1 X132.928 Y95.501 E18.54724
G1 X134.767 Y95.817 E18.64033
G1 X136.139 Y96.542 E18.71775
G1 X137.299 Y97.367 E18.78877
G1 X138.371 Y98.693 E18.87384
G1 X139.251 Y100.464 E18.9725
G1 X139.455 Y101.863 E19.04303
G1 X139.499 Y132.928 E20.59287
G1 X139.183 Y134.767 E20.68597
G1 X138.458 Y136.139 E20.76339
G1 X137.633 Y137.299 E20.8344
G1 X136.307 Y138.371 E20.91947
G1 X134.536 Y139.251 E21.01813
G1 X133.137 Y139.455 E21.08867
G1 X102.072 Y139.499 E22.63851
G1 X100.233 Y139.183 E22.7316
G1 X98.861 Y138.458 E22.80902
G1 X97.701 Y137.633 E22.88004
G1 X96.629 Y136.307 E22.9651
G1 X95.749 Y134.536 E23.06377
G1 X95.545 Y133.137 E23.1343
G1 X95.501 Y102.072 E24.68414
G1 X95.817 Y100.233 E24.77723
G1 X96.542 Y98.861 E24.85465
G1 X97.367 Y97.701 E24.92567
G0 X97.662 Y97.977
G1 X98.91 Y96.968 E25.00574
G1 X100.584 Y96.136 E25.099
G1 X101.921 Y95.941 E25.16641
G1 X132.895 Y95.901 E26.71171
G1 X134.635 Y96.2 E26.79979
G1 X135.952 Y96.896 E26.87411
G1 X137.023 Y97.662 E26.9398
G1 X138.032 Y98.91 E27.01987
G1 X138.864 Y100.584 E27.11313
G1 X139.059 Y101.921 E27.18054
G1 X139.099 Y132.895 E28.72584
G1 X138.8 Y134.635 E28.81392
G1 X138.104 Y135.952 E28.88824
G1 X137.338 Y137.023 E28.95393
G1 X136.09 Y138.032 E29.03399
G1 X134.416 Y138.864 E29.12726
G1 X133.079 Y139.059 E29.19467
G1 X102.105 Y139.099 E30.73997
G1 X100.365 Y138.8 E30.82805
G1 X99.048 Y138.104 E30.90236
G1 X97.977 Y137.338 E30.96806
G1 X96.968 Y136.09 E31.04812
G1 X96.136 Y134.416 E31.14139
G1 X95.941 Y133.079 E31.2088
G1 X95.901 Y102.105 E32.7541
G1 X96.2 Y100.365 E32.84218
G1 X96.896 Y99.048 E32.91649
G1 X97.662 Y97.977 E32.98219
G0 X97.956 Y98.253
G1 X99.127 Y97.307 E33.05729
G1 X100.704 Y96.523 E33.14515
G1 X101.979 Y96.337 E33.20944
G1 X132.862 Y96.301 E34.7502
G1 X134.503 Y96.583 E34.83327
G1 X135.765 Y97.25 E34.90448
G1 X136.747 Y97.956 E34.96482
G1 X137.693 Y99.127 E35.03992
G1 X138.477 Y100.704 E35.12779
G1 X138.663 Y101.979 E35.19207
G1 X138.699 Y132.862 E36.73283
G1 X138.417 Y134.503 E36.8159
G1 X137.75 Y135.765 E36.88711
G1 X137.044 Y136.747 E36.94745
G1 X135.873 Y137.693 E37.02256
G1 X134.296 Y138.477 E37.11042
G1 X133.021 Y138.663 E37.1747
G1 X102.138 Y138.699 E38.71546
G1 X100.497 Y138.417 E38.79853
G1 X99.235 Y137.75 E38.86975
G1 X98.253 Y137.044 E38.93009
G1 X97.307 Y135.873 E39.00519
G1 X96.523 Y134.296 E39.09305
G1 X96.337 Y133.021 E39.15734
G1 X96.301 Y102.138 E40.6981
G1 X96.583 Y100.497 E40.78117
G1 X97.25 Y99.235 E40.85238
G1 X97.956 Y98.253 E40.91272
G0 X98.251 Y98.529
G1 X99.344 Y97.646 E40.98282
G1 X100.824 Y96.91 E41.06529
G1 X102.037 Y96.733 E41.12644
G1 X132.829 Y96.701 E42.66266
G1 X134.371 Y96.966 E42.74072
G1 X135.578 Y97.604 E42.80883
G1 X136.471 Y98.251 E42.86385
G1 X137.354 Y99.344 E42.93395
G1 X138.09 Y100.824 E43.01642
G1 X138.267 Y102.037 E43.07757
G1 X138.299 Y132.829 E44.61379
G1 X138.034 Y134.371 E44.69185
G1 X137.396 Y135.578 E44.75996
G1 X136.749 Y136.471 E44.81498
G1 X135.656 Y137.354 E44.88508
G1 X134.176 Y138.09 E44.96755
G1 X132.963 Y138.267 E45.0287
G1 X102.171 Y138.299 E46.56492
G1 X100.629 Y138.034 E46.64298
G1 X99.422 Y137.396 E46.71109
G1 X98.529 Y136.749 E46.76611
G1 X97.646 Y135.656 E46.83621
G1 X96.91 Y134.176 E46.91868
G1 X96.733 Y132.963 E46.97983
G1 X96.701 Y102.171 E48.51605
G1 X96.966 Y100.629 E48.59411
G1 X97.604 Y99.422 E48.66222
G1 X98.251 Y98.529 E48.71724
G0 X98.545 Y98.806
G1 X99.561 Y97.985 E48.78241
G1 X100.944 Y97.297 E48.85947
G1 X102.095 Y97.129 E48.91751
G1 X132.796 Y97.101 E50.44919
G1 X134.239 Y97.349 E50.52223
G1 X135.391 Y97.958 E50.58724
G1 X136.194 Y98.545 E50.63687
G1 X137.015 Y99.561 E50.70204
G1 X137.703 Y100.944 E50.7791
G1 X137.871 Y102.095 E50.83713
G1 X137.899 Y132.796 E52.36881
G1 X137.651 Y134.239 E52.44186
G1 X137.042 Y135.391 E52.50687
G1 X136.455 Y136.194 E52.5565
G1 X135.439 Y137.015 E52.62166
G1 X134.056 Y137.703 E52.69873
G1 X132.905 Y137.871 E52.75676
G1 X102.204 Y137.899 E54.28844
G1 X100.761 Y137.651 E54.36149
G1 X99.609 Y137.042 E54.4265
G1 X98.806 Y136.455 E54.47612
G1 X97.985 Y135.439 E54.54129
G1 X97.297 Y134.056 E54.61836
G1 X97.129 Y132.905 E54.67639
G1 X97.101 Y102.204 E56.20807
G1 X97.349 Y100.761 E56.28112
G1 X97.958 Y99.609 E56.34613
G1 X98.545 Y98.806 E56.39575
G0 X98.837 Y99.084
G1 X99.778 Y98.324 E56.4561
G1 X101.064 Y97.684 E56.52776
G1 X102.153 Y97.525 E56.58267
G1 X132.763 Y97.501 E58.10981
G1 X134.107 Y97.732 E58.17784
G1 X135.204 Y98.312 E58.23975
G1 X135.916 Y98.837 E58.28389
G1 X136.676 Y99.778 E58.34423
G1 X137.316 Y101.064 E58.4159
G1 X137.475 Y102.153 E58.4708
G1 X137.499 Y132.763 E59.99794
G1 X137.268 Y134.107 E60.06598
G1 X136.688 Y135.204 E60.12789
G1 X136.163 Y135.916 E60.17202
G1 X135.222 Y136.676 E60.23237
G1 X133.936 Y137.316 E60.30403
G1 X132.847 Y137.475 E60.35894
G1 X102.237 Y137.499 E61.88608
G1 X100.893 Y137.268 E61.95411
G1 X99.796 Y136.688 E62.01602
G1 X99.084 Y136.163 E62.06016
G1 X98.324 Y135.222 E62.1205
G1 X97.684 Y133.936 E62.19217
G1 X97.525 Y132.847 E62.24707
G1 X97.501 Y102.237 E63.77421
G1 X97.732 Y100.893 E63.84225
G1 X98.312 Y99.796 E63.90416
G1 X98.837 Y99.084 E63.94829
G0 X99.13 Y99.361
G1 X99.995 Y98.663 E64.00374
G1 X101.184 Y98.071 E64.07001
G1 X102.211 Y97.921 E64.12179
G1 X132.73 Y97.901 E65.64439
G1 X133.975 Y98.115 E65.70741
G1 X135.017 Y98.666 E65.76622
G1 X135.639 Y99.13 E65.80494
G1 X136.337 Y99.995 E65.86039
G1 X136.929 Y101.184 E65.92665
G1 X137.079 Y102.211 E65.97843
G1 X137.099 Y132.73 E67.50103
G1 X136.885 Y133.975 E67.56406
G1 X136.334 Y135.017 E67.62286
G1 X135.87 Y135.639 E67.66158
G1 X135.005 Y136.337 E67.71703
G1 X133.816 Y136.929 E67.7833
G1 X132.789 Y137.079 E67.83508
G1 X102.27 Y137.099 E69.35768
G1 X101.025 Y136.885 E69.4207
G1 X99.983 Y136.334 E69.47951
G1 X99.361 Y135.87 E69.51822
G1 X98.663 Y135.005 E69.57368
G1 X98.071 Y133.816 E69.63994
G1 X97.921 Y132.789 E69.69172
G1 X97.901 Y102.27 E71.21432
G1 X98.115 Y101.025 E71.27735
G1 X98.666 Y99.983 E71.33615
G1 X99.13 Y99.361 E71.37487
G0 X99.421 Y99.64
G1 X100.212 Y99.002 E71.42557
G1 X101.304 Y98.458 E71.48643
G1 X102.269 Y98.317 E71.53509
G1 X132.697 Y98.301 E73.05315
G1 X133.843 Y98.498 E73.11116
G1 X134.83 Y99.02 E73.16687
G1 X135.36 Y99.421 E73.20002
G1 X135.998 Y100.212 E73.25072
G1 X136.542 Y101.304 E73.31159
G1 X136.683 Y102.269 E73.36024
G1 X136.699 Y132.697 E74.8783
G1 X136.502 Y133.843 E74.93632
G1 X135.98 Y134.83 E74.99202
G1 X135.579 Y135.36 E75.02518
G1 X134.788 Y135.998 E75.07588
G1 X133.696 Y136.542 E75.13674
G1 X132.731 Y136.683 E75.1854
G1 X102.303 Y136.699 E76.70346
G1 X101.157 Y136.502 E76.76147
G1 X100.17 Y135.98 E76.81717
G1 X99.64 Y135.579 E76.85033
G1 X99.002 Y134.788 E76.90103
G1 X98.458 Y133.696 E76.9619
G1 X98.317 Y132.731 E77.01055
G1 X98.301 Y102.303 E78.52861
G1 X98.498 Y101.157 E78.58663
G1 X99.02 Y100.17 E78.64233
G1 X99.421 Y99.64 E78.67549
G0 X99.707 Y99.923
G1 X100.432 Y99.339 E78.72193
G1 X101.424 Y98.845 E78.77722
G1 X102.327 Y98.713 E78.82275
G1 X132.664 Y98.701 E80.33627
G1 X133.711 Y98.881 E80.38927
G1 X134.643 Y99.374 E80.44187
G1 X135.077 Y99.707 E80.46916
G1 X135.661 Y100.432 E80.51561
G1 X136.155 Y101.424 E80.5709
G1 X136.287 Y102.327 E80.61643
G1 X136.299 Y132.664 E82.12995
G1 X136.119 Y133.711 E82.18295
G1 X135.626 Y134.643 E82.23555
G1 X135.293 Y135.077 E82.26284
G1 X134.568 Y135.661 E82.30929
G1 X133.576 Y136.155 E82.36458
G1 X132.673 Y136.287 E82.41011
G1 X102.336 Y136.299 E83.92363
G1 X101.289 Y136.119 E83.97663
G1 X100.357 Y135.626 E84.02923
G1 X99.923 Y135.293 E84.05652
G1 X99.339 Y134.568 E84.10297
G1 X98.845 Y133.576 E84.15825
G1 X98.713 Y132.673 E84.20378
G1 X98.701 Y102.336 E85.7173
G1 X98.881 Y101.289 E85.7703
G1 X99.374 Y100.357 E85.82291
G1 X99.707 Y99.923 E85.8502
G0 X99.958 Y100.235
G1 X100.652 Y99.676 E85.89466
G1 X101.544 Y99.232 E85.94437
G1 X102.385 Y99.109 E85.98677
G1 X132.631 Y99.101 E87.49575
G1 X133.579 Y99.264 E87.54374
G1 X134.456 Y99.728 E87.59324
G1 X134.765 Y99.958 E87.61246
G1 X135.324 Y100.652 E87.65692
G1 X135.768 Y101.544 E87.70663
G1 X135.891 Y102.385 E87.74903
G1 X135.899 Y132.631 E89.25801
G1 X135.736 Y133.579 E89.306
G1 X135.272 Y134.456 E89.3555
G1 X135.042 Y134.765 E89.37472
G1 X134.348 Y135.324 E89.41918
G1 X133.456 Y135.768 E89.46889
G1 X132.615 Y135.891 E89.51129
G1 X102.369 Y135.899 E91.02027
G1 X101.421 Y135.736 E91.06826
G1 X100.544 Y135.272 E91.11776
G1 X100.235 Y135.042 E91.13698
G1 X99.676 Y134.348 E91.18144
G1 X99.232 Y133.456 E91.23115
G1 X99.109 Y132.615 E91.27355
G1 X99.101 Y102.369 E92.78253
G1 X99.264 Y101.421 E92.83052
G1 X99.728 Y100.544 E92.88002
G1 X99.958 Y100.235 E92.89924
G0 X100.249 Y100.514
G1 X100.868 Y100.015 E92.93891
G1 X101.664 Y99.619 E92.98326
G1 X102.443 Y99.505 E93.02254
G1 X132.598 Y99.501 E94.52698
G1 X133.447 Y99.647 E94.56996
G1 X134.269 Y100.082 E94.61636
G1 X134.486 Y100.249 E94.63002
G1 X134.985 Y100.868 E94.66968
G1 X135.381 Y101.664 E94.71404
G1 X135.495 Y102.443 E94.75332
G1 X135.499 Y132.598 E96.25776
G1 X135.353 Y133.447 E96.30073
G1 X134.918 Y134.269 E96.34713
G1 X134.751 Y134.486 E96.36079
G1 X134.132 Y134.985 E96.40046
G1 X133.336 Y135.381 E96.44482
G1 X132.557 Y135.495 E96.48409
G1 X102.402 Y135.499 E97.98853
G1 X101.553 Y135.353 E98.03151
G1 X100.731 Y134.918 E98.07791
G1 X100.514 Y134.751 E98.09157
G1 X100.015 Y134.132 E98.13124
G1 X99.619 Y133.336 E98.17559
G1 X99.505 Y132.557 E98.21487
G1 X99.501 Y102.402 E99.71931
G1 X99.647 Y101.553 E99.76229
G1 X100.082 Y100.731 E99.80869
G1 X100.249 Y100.514 E99.82235
G0 X100.539 Y100.794
G1 X101.084 Y100.354 E99.85729
G1 X101.784 Y100.006 E99.8963
G1 X102.501 Y99.901 E99.93245
G1 X132.565 Y99.901 E101.43235
G1 X133.315 Y100.03 E101.47031
G1 X134.082 Y100.436 E101.51361
G1 X134.206 Y100.539 E101.52165
G1 X134.646 Y101.084 E101.5566
G1 X134.994 Y101.784 E101.5956
G1 X135.099 Y102.501 E101.63175
G1 X135.099 Y132.565 E103.13165
G1 X134.97 Y133.315 E103.16962
G1 X134.564 Y134.082 E103.21291
G1 X134.461 Y134.206 E103.22096
G1 X133.916 Y134.646 E103.2559
G1 X133.216 Y134.994 E103.2949
G1 X132.499 Y135.099 E103.33106
G1 X102.435 Y135.099 E104.83095
G1 X101.685 Y134.97 E104.86892
G1 X100.918 Y134.564 E104.91222
G1 X100.794 Y134.461 E104.92026
G1 X100.354 Y133.916 E104.9552
G1 X100.006 Y133.216 E104.99421
G1 X99.901 Y132.499 E105.03036
G1 X99.901 Y102.435 E106.53026
G1 X100.03 Y101.685 E106.56822
G1 X100.436 Y100.918 E106.61152
G1 X100.539 Y100.794 E106.61956
G0 X100.79 Y101.105
G1 X101.3 Y100.693 E106.65227
G1 X101.906 Y100.392 E106.68603
G1 X102.501 Y100.301 E106.71606
G1 X132.532 Y100.301 E108.21431
G1 X133.183 Y100.413 E108.24727
G1 X133.895 Y100.79 E108.28746
G1 X134.307 Y101.3 E108.32017
G1 X134.608 Y101.906 E108.35393
G1 X134.699 Y102.501 E108.38396
G1 X134.699 Y132.532 E109.88221
G1 X134.587 Y133.183 E109.91517
G1 X134.21 Y133.895 E109.95536
G1 X133.7 Y134.307 E109.98807
G1 X133.094 Y134.608 E110.02183
G1 X132.499 Y134.699 E110.05186
G1 X102.468 Y134.699 E111.55011
G1 X101.817 Y134.587 E111.58307
G1 X101.105 Y134.21 E111.62326
G1 X100.693 Y133.7 E111.65597
G1 X100.392 Y133.094 E111.68973
G1 X100.301 Y132.499 E111.71976
G1 X100.301 Y102.468 E113.21801
G1 X100.413 Y101.817 E113.25097
G1 X100.79 Y101.105 E113.29116
G0 X101.106 Y101.363
G1 X101.478 Y101.051 E113.31538
G1 X102.027 Y100.778 E113.34597
G1 X102.501 Y100.701 E113.36993
G1 X132.499 Y100.701 E114.86654
G1 X133.051 Y100.796 E114.89448
G1 X133.637 Y101.106 E114.92755
G1 X133.949 Y101.478 E114.95178
G1 X134.222 Y102.027 E114.98237
G1 X134.299 Y102.501 E115.00632
G1 X134.299 Y132.499 E116.50293
G1 X134.204 Y133.051 E116.53087
G1 X133.894 Y133.637 E116.56395
G1 X133.522 Y133.949 E116.58817
G1 X132.973 Y134.222 E116.61876
G1 X132.499 Y134.299 E116.64272
G1 X102.501 Y134.299 E118.13932
G1 X101.949 Y134.204 E118.16727
G1 X101.363 Y133.894 E118.20034
G1 X101.051 Y133.522 E118.22457
G1 X100.778 Y132.973 E118.25516
G1 X100.701 Y132.499 E118.27911
G1 X100.701 Y102.501 E119.77572
G1 X100.796 Y101.949 E119.80366
G1 X101.106 Y101.363 E119.83674
G0 X101.424 Y101.618
G1 X101.656 Y101.409 E119.85232
G1 X102.15 Y101.163 E119.87985
G1 X102.501 Y101.101 E119.89763
G1 X132.499 Y101.101 E121.39424
G1 X132.918 Y101.179 E121.4155
G1 X133.382 Y101.424 E121.44168
G1 X133.591 Y101.656 E121.45726
G1 X133.837 Y102.15 E121.48479
G1 X133.899 Y102.501 E121.50257
G1 X133.899 Y132.499 E122.99918
G1 X133.821 Y132.918 E123.02044
G1 X133.576 Y133.382 E123.04662
G1 X133.344 Y133.591 E123.0622
G1 X132.85 Y133.837 E123.08973
G1 X132.499 Y133.899 E123.10751
G1 X102.501 Y133.899 E124.60412
G1 X102.082 Y133.821 E124.62538
G1 X101.618 Y133.576 E124.65156
G1 X101.409 Y133.344 E124.66714
G1 X101.163 Y132.85 E124.69467
G1 X101.101 Y132.499 E124.71246
G1 X101.101 Y102.501 E126.20906
G1 X101.179 Y102.082 E126.23032
G1 X101.424 Y101.618 E126.2565
G0 X101.846 Y101.761
G1 X102.228 Y101.555 E126.27816
G1 X102.501 Y101.501 E126.29204
G1 X132.499 Y101.501 E127.78865
G1 X132.837 Y101.571 E127.80587
G1 X133.1 Y101.708 E127.82066
G1 X133.239 Y101.846 E127.83043
G1 X133.445 Y102.228 E127.85209
G1 X133.499 Y102.501 E127.86597
G1 X133.499 Y132.499 E129.36258
G1 X133.429 Y132.837 E129.3798
G1 X133.292 Y133.1 E129.39459
G1 X133.154 Y133.239 E129.40436
G1 X132.772 Y133.445 E129.42602
G1 X132.499 Y133.499 E129.4399
G1 X102.501 Y133.499 E130.93651
G1 X102.163 Y133.429 E130.95373
