;FLAVOR:Marlin
;TIME:1182
;Filament used: 1.34263m
;Layer height: 0.2
;MINX:103.5
;MINY:103.5
;MINZ:0.2
;MAXX:131.5
;MAXY:131.5
;MAXZ:20
;POSTPROCESSED
;Generated with Cura_SteamEngine 5.3.1
M82 ;absolute extrusion mode
; Ender 3 Custom Start G-code
G92 E0 ; Reset Extruder

M140 S50 ; set bed temp
M190 S50 ; wait for bed temp

G28 ; Home all axes
BED_MESH_CALIBRATE  AREA_START=103.5,103.5 AREA_END=131.5,131.5
M104 S200 ; set extruder temp 

G1 Z2.0 F3000 ; Move Z Axis up little to prevent scratching of Heat Bed
M109 S200 ; wait for extruder temp
G1 X0.1 Y20 Z0.3 F5000.0 ; Move to start position

G1 X0.1 Y200.0 Z0.3 F1500.0 E15 ; Draw the first line
G1 X0.4 Y200.0 Z0.3 F5000.0 ; Move to side a little
G1 X0.4 Y20 Z0.3 F1500.0 E30 ; Draw the second line
G92 E0 ; Reset Extruder
G1 Z2.0 F3000 ; Move Z Axis up little to prevent scratching of Heat Bed
G1 X5 Y20 Z0.3 F5000.0 ; Move over to prevent blob squish
G92 E0
G92 E0
G1 F1500 E-1
;LAYER_COUNT:100
;LAYER:0
M107
M204 S1000
G0 F3600 X105.289 Y105.204 Z0.2
;TYPE:SKIRT
G1 F1500 E0
G1 F1800 X105.68 Y104.883 E0.01514
G1 X106.117 Y104.628 E0.03029
G1 X106.588 Y104.444 E0.04543
G1 X107.082 Y104.338 E0.06055
G1 X107.527 Y104.301 E0.07392
G1 X126.839 Y104.3 E0.652
G1 X127.537 Y104.31 E0.6729
G1 X128.04 Y104.357 E0.68802
G1 X128.53 Y104.483 E0.70317
G1 X128.994 Y104.685 E0.71832
G1 X129.42 Y104.957 E0.73345
G1 X129.798 Y105.292 E0.74856
G1 X130.118 Y105.683 E0.76369
G1 X130.373 Y106.12 E0.77883
G1 X130.556 Y106.591 E0.79396
G1 X130.663 Y107.085 E0.80909
G1 X130.699 Y107.74 E0.82873
G1 X130.7 Y126.804 E1.39939
G1 X130.691 Y127.531 E1.42115
G1 X130.645 Y128.034 E1.43627
G1 X130.52 Y128.524 E1.45141
G1 X130.319 Y128.988 E1.46655
G1 X130.048 Y129.415 E1.48169
G1 X129.713 Y129.794 E1.49683
G1 X129.323 Y130.115 E1.51195
G1 X128.887 Y130.371 E1.52708
G1 X128.416 Y130.554 E1.54221
G1 X127.922 Y130.662 E1.55735
G1 X127.472 Y130.699 E1.57086
G1 X108.166 Y130.7 E2.14877
G1 X107.468 Y130.691 E2.16967
G1 X106.964 Y130.644 E2.18482
G1 X106.474 Y130.519 E2.19996
G1 X106.01 Y130.318 E2.21509
G1 X105.584 Y130.047 E2.23021
G1 X105.205 Y129.712 E2.24535
G1 X104.884 Y129.321 E2.26049
G1 X104.629 Y128.885 E2.27561
G1 X104.445 Y128.414 E2.29075
G1 X104.338 Y127.92 E2.30588
G1 X104.301 Y127.467 E2.31948
G1 X104.3 Y108.131 E2.89829
G1 X104.309 Y107.466 E2.9182
G1 X104.356 Y106.962 E2.93335
G1 X104.482 Y106.473 E2.94847
G1 X104.683 Y106.009 E2.9636
G1 X104.954 Y105.582 E2.97874
G1 X105.289 Y105.204 E2.99386
G0 F3600 X105.035 Y104.895
G1 F1800 X105.478 Y104.538 E3.01089
G1 X105.971 Y104.255 E3.02791
G1 X106.442 Y104.071 E3.04304
G1 X107.049 Y103.939 E3.06164
G1 X107.494 Y103.902 E3.075
G1 X126.845 Y103.9 E3.65426
G1 X127.543 Y103.91 E3.67516
G1 X128.14 Y103.97 E3.69312
G1 X128.69 Y104.116 E3.71015
G1 X129.154 Y104.318 E3.7253
G1 X129.635 Y104.62 E3.7423
G1 X130.108 Y105.039 E3.76122
G1 X130.428 Y105.43 E3.77634
G1 X130.746 Y105.975 E3.79523
G1 X130.929 Y106.446 E3.81035
G1 X131.054 Y107 E3.82735
G1 X131.099 Y107.74 E3.84955
G1 X131.1 Y126.809 E4.42036
G1 X131.091 Y127.536 E4.44212
G1 X131.033 Y128.133 E4.46008
G1 X130.908 Y128.623 E4.47522
G1 X130.657 Y129.202 E4.49411
G1 X130.348 Y129.68 E4.51114
G1 X129.967 Y130.103 E4.52819
G1 X129.526 Y130.46 E4.54517
G1 X129.032 Y130.744 E4.56223
G1 X128.501 Y130.945 E4.57922
G1 X127.955 Y131.061 E4.59593
G1 X127.505 Y131.098 E4.60945
G1 X108.161 Y131.1 E5.18849
G1 X107.463 Y131.091 E5.20939
G1 X106.865 Y131.032 E5.22738
G1 X106.375 Y130.907 E5.24251
G1 X105.851 Y130.685 E5.25955
G1 X105.319 Y130.347 E5.27842
G1 X104.94 Y130.012 E5.29356
G1 X104.575 Y129.575 E5.3106
G1 X104.256 Y129.031 E5.32948
G1 X104.072 Y128.56 E5.34462
G1 X103.939 Y127.953 E5.36322
G1 X103.902 Y127.5 E5.37682
G1 X103.9 Y108.126 E5.95677
G1 X103.909 Y107.461 E5.97667
G1 X103.969 Y106.862 E5.99469
G1 X104.115 Y106.314 E6.01167
G1 X104.345 Y105.795 E6.02866
G1 X104.616 Y105.368 E6.0438
G1 X105.035 Y104.895 E6.06272
G0 F3600 X104.759 Y104.604
G1 F1800 X105.279 Y104.191 E6.08259
G1 X105.825 Y103.882 E6.10137
G1 X106.296 Y103.698 E6.11651
G1 X107.016 Y103.54 E6.13858
G1 X107.461 Y103.503 E6.15194
G1 X126.851 Y103.5 E6.73237
G1 X127.549 Y103.51 E6.75326
G1 X128.243 Y103.583 E6.77415
G1 X128.793 Y103.729 E6.79119
G1 X129.314 Y103.951 E6.80814
G1 X129.848 Y104.281 E6.82693
G1 X130.418 Y104.786 E6.84972
G1 X130.738 Y105.177 E6.86485
G1 X131.119 Y105.83 E6.88748
G1 X131.302 Y106.301 E6.9026
G1 X131.444 Y106.912 E6.92138
G1 X131.499 Y107.74 E6.94622
G1 X131.5 Y126.814 E7.51719
G1 X131.491 Y127.541 E7.53895
G1 X131.421 Y128.232 E7.55974
G1 X131.296 Y128.722 E7.57488
G1 X131.011 Y129.392 E7.59667
G1 X130.645 Y129.948 E7.6166
G1 X130.219 Y130.414 E7.6355
G1 X129.778 Y130.771 E7.65248
G1 X129.231 Y131.091 E7.67145
G1 X128.643 Y131.319 E7.69033
G1 X127.988 Y131.46 E7.71039
G1 X127.538 Y131.497 E7.7239
G1 X108.156 Y131.5 E8.30408
G1 X107.458 Y131.491 E8.32498
G1 X106.766 Y131.42 E8.3458
G1 X106.276 Y131.295 E8.36094
G1 X105.636 Y131.023 E8.38176
G1 X105.104 Y130.685 E8.40062
G1 X104.675 Y130.312 E8.41764
G1 X104.247 Y129.806 E8.43748
G1 X103.883 Y129.177 E8.45923
G1 X103.681 Y128.646 E8.47624
G1 X103.54 Y127.986 E8.49644
G1 X103.503 Y127.533 E8.51005
G1 X103.5 Y108.121 E9.09113
G1 X103.511 Y107.421 E9.11209
G1 X103.582 Y106.759 E9.13202
G1 X103.728 Y106.211 E9.14899
G1 X103.979 Y105.633 E9.16785
G1 X104.278 Y105.154 E9.18476
G1 X104.759 Y104.604 E9.20663
G1 F1500 E8.20663
;MESH:xyzCalibration_cube.stl
G0 F3600 X107.914 Y106.835
G0 X107.914 Y107.914
G0 X126.328 Y108.672
G0 X126.5 Y126.5
;TYPE:WALL-INNER
G1 F1500 E9.20663
G1 F1800 X126.5 Y108.5 E9.74544
G1 X108.5 Y108.5 E10.28426
G1 X108.5 Y126.5 E10.82307
G1 X126.5 Y126.5 E11.36189
G0 F3600 X126.9 Y126.9
G1 F1800 X126.9 Y108.1 E11.92465
G1 X108.1 Y108.1 E12.48741
G1 X108.1 Y126.9 E13.05017
G1 X126.9 Y126.9 E13.61293
G0 F3600 X127.3 Y127.3
M204 S500
;TYPE:WALL-OUTER
G1 F1200 X127.3 Y107.7 E14.19964
G1 X107.7 Y107.7 E14.78635
G1 X107.7 Y127.3 E15.37306
G1 X127.3 Y127.3 E15.95977
M204 S1000
G0 F3600 X127.3 Y127.1
G0 X126.63 Y126.63
G0 X126.12 Y126.12
;TYPE:SKIN
G1 F1800 X108.88 Y126.12 E16.47583
G1 X108.88 Y108.88 E16.9919
G1 X126.12 Y108.88 E17.50796
G1 X126.12 Y126.12 E18.02402
G0 F3600 X126.4 Y126.12
G0 X126.4 Y109.514
G0 X125.919 Y109.514
G1 F1800 X125.485 Y109.08 E18.0424
G0 F3600 X124.919 Y109.08
G1 F1800 X125.919 Y110.08 E18.08473
G0 F3600 X125.919 Y110.645
G1 F1800 X124.353 Y109.08 E18.151
G0 F3600 X123.788 Y109.08
G1 F1800 X125.919 Y111.211 E18.24121
G0 F3600 X125.919 Y111.777
G1 F1800 X123.222 Y109.08 E18.35539
G0 F3600 X122.656 Y109.08
G1 F1800 X125.919 Y112.343 E18.49352
G0 F3600 X125.919 Y112.908
G1 F1800 X122.091 Y109.08 E18.65557
G0 F3600 X121.525 Y109.08
G1 F1800 X125.919 Y113.474 E18.84158
G0 F3600 X125.919 Y114.04
G1 F1800 X120.959 Y109.08 E19.05156
G0 F3600 X120.394 Y109.08
G1 F1800 X125.919 Y114.605 E19.28545
G0 F3600 X125.919 Y115.171
G1 F1800 X119.828 Y109.08 E19.5433
G0 F3600 X119.262 Y109.08
G1 F1800 X125.919 Y115.737 E19.82511
G0 F3600 X125.919 Y116.302
G1 F1800 X118.697 Y109.08 E20.13084
G0 F3600 X118.131 Y109.08
G1 F1800 X125.919 Y116.868 E20.46053
G0 F3600 X125.919 Y117.434
G1 F1800 X117.565 Y109.08 E20.81419
G0 F3600 X117 Y109.08
G1 F1800 X125.919 Y117.999 E21.19176
G0 F3600 X125.919 Y118.565
G1 F1800 X116.434 Y109.08 E21.59329
G0 F3600 X115.868 Y109.08
G1 F1800 X125.919 Y119.131 E22.01878
G0 F3600 X125.919 Y119.696
G1 F1800 X115.302 Y109.08 E22.46821
G0 F3600 X114.737 Y109.08
G1 F1800 X125.919 Y120.262 E22.94158
G0 F3600 X125.919 Y120.828
G1 F1800 X114.171 Y109.08 E23.43891
G0 F3600 X113.605 Y109.08
G1 F1800 X125.919 Y121.393 E23.96018
G0 F3600 X125.919 Y121.959
G1 F1800 X113.04 Y109.08 E24.50539
G0 F3600 X112.474 Y109.08
G1 F1800 X125.919 Y122.525 E25.07456
G0 F3600 X125.919 Y123.091
G1 F1800 X111.908 Y109.08 E25.66769
G0 F3600 X111.343 Y109.08
G1 F1800 X125.919 Y123.656 E26.28474
G0 F3600 X125.919 Y124.222
G1 F1800 X110.777 Y109.08 E26.92575
G0 F3600 X110.211 Y109.08
G1 F1800 X125.919 Y124.788 E27.59072
G0 F3600 X125.919 Y125.353
G1 F1800 X109.646 Y109.08 E28.27961
G0 F3600 X109.079 Y109.079
G1 F1800 X125.919 Y125.919 E28.9925
G0 F3600 X125.353 Y125.919
G1 F1800 X109.079 Y109.645 E29.68143
G0 F3600 X109.079 Y110.211
G1 F1800 X124.788 Y125.919 E30.34643
G0 F3600 X124.222 Y125.919
G1 F1800 X109.079 Y110.776 E30.98748
G0 F3600 X109.079 Y111.342
G1 F1800 X123.656 Y125.919 E31.60457
G0 F3600 X123.091 Y125.919
G1 F1800 X109.079 Y111.908 E32.19772
G0 F3600 X109.079 Y112.473
G1 F1800 X122.525 Y125.919 E32.76693
G0 F3600 X121.959 Y125.919
G1 F1800 X109.079 Y113.039 E33.31219
G0 F3600 X109.079 Y113.605
G1 F1800 X121.393 Y125.919 E33.83348
G0 F3600 X120.828 Y125.919
G1 F1800 X109.079 Y114.17 E34.33085
G0 F3600 X109.079 Y114.736
G1 F1800 X120.262 Y125.919 E34.80426
G0 F3600 X119.696 Y125.919
G1 F1800 X109.079 Y115.302 E35.25372
G0 F3600 X109.079 Y115.867
G1 F1800 X119.131 Y125.919 E35.67925
G0 F3600 X118.565 Y125.919
G1 F1800 X109.079 Y116.433 E36.08082
G0 F3600 X109.079 Y116.999
G1 F1800 X117.999 Y125.919 E36.45844
G0 F3600 X117.434 Y125.919
G1 F1800 X109.079 Y117.564 E36.81213
G0 F3600 X109.079 Y118.13
G1 F1800 X116.868 Y125.919 E37.14186
G0 F3600 X116.302 Y125.919
G1 F1800 X109.079 Y118.696 E37.44764
G0 F3600 X109.079 Y119.262
G1 F1800 X115.737 Y125.919 E37.72947
G0 F3600 X115.171 Y125.919
G1 F1800 X109.079 Y119.827 E37.98736
G0 F3600 X109.079 Y120.393
G1 F1800 X114.605 Y125.919 E38.2213
G0 F3600 X114.04 Y125.919
G1 F1800 X109.079 Y120.959 E38.43129
G0 F3600 X109.079 Y121.524
G1 F1800 X113.474 Y125.919 E38.61735
G0 F3600 X112.908 Y125.919
G1 F1800 X109.079 Y122.09 E38.77944
G0 F3600 X109.079 Y122.656
G1 F1800 X112.343 Y125.919 E38.91759
G0 F3600 X111.777 Y125.919
G1 F1800 X109.079 Y123.221 E39.03181
G0 F3600 X109.079 Y123.787
G1 F1800 X111.211 Y125.919 E39.12206
G0 F3600 X110.645 Y125.919
G1 F1800 X109.079 Y124.353 E39.18836
G0 F3600 X109.079 Y124.918
G1 F1800 X110.08 Y125.919 E39.23073
G0 F3600 X109.514 Y125.919
M104 S200
G1 F1800 X109.079 Y125.484 E39.24915
;MESH:NONMESH
G0 F600 X109.079 Y125.484 Z0.4
G0 F3600 X108.6 Y125.484
G0 X108.672 Y126.328
G0 X126.5 Y126.5
;TIME_ELAPSED:53.388057
;LAYER:1
M106 S255
M204 S1250
;TYPE:WALL-INNER
;MESH:xyzCalibration_cube.stl
G1 F2700 X126.5 Y108.5 E39.84783
G1 X108.5 Y108.5 E40.44651
G1 X108.5 Y126.5 E41.0452
G1 X126.5 Y126.5 E41.64388
M204 S1750
G0 F7800 X126.9 Y126.9
M204 S1250
G1 F2700 X126.9 Y108.1 E42.26917
G1 X108.1 Y108.1 E42.89446
G1 X108.1 Y126.9 E43.51975
G1 X126.9 Y126.9 E44.14504
M204 S1750
G0 F7800 X127.3 Y127.3
M204 S500
;TYPE:WALL-OUTER
G1 F1200 X127.3 Y107.7 E44.79694
G1 X107.7 Y107.7 E45.44884
G1 X107.7 Y127.3 E46.10074
G1 X127.3 Y127.3 E46.75264
M204 S1750
G0 F7800 X127.3 Y127.1
G0 X126.63 Y126.63
G0 X126.12 Y126.12
M204 S1250
;TYPE:SKIN
G1 F3300 X108.88 Y126.12 E47.32604
G1 X108.88 Y108.88 E47.89944
G1 X126.12 Y108.88 E48.47285
G1 X126.12 Y126.12 E49.04625
M204 S1750
G0 F7800 X125.81 Y125.919
M204 S1250
G1 F3300 X125.919 Y125.81 E49.05138
M204 S1750
G0 F7800 X125.919 Y125.244
M204 S1250
G1 F3300 X125.244 Y125.919 E49.08313
M204 S1750
G0 F7800 X124.679 Y125.919
M204 S1250
G1 F3300 X125.919 Y124.679 E49.14146
M204 S1750
G0 F7800 X125.919 Y124.113
M204 S1250
G1 F3300 X124.113 Y125.919 E49.22641
M204 S1750
G0 F7800 X123.547 Y125.919
M204 S1250
G1 F3300 X125.919 Y123.547 E49.33798
M204 S1750
G0 F7800 X125.919 Y122.982
M204 S1250
G1 F3300 X122.982 Y125.919 E49.47612
M204 S1750
G0 F7800 X122.416 Y125.919
M204 S1250
G1 F3300 X125.919 Y122.416 E49.6409
M204 S1750
G0 F7800 X125.919 Y121.85
M204 S1250
G1 F3300 X121.85 Y125.919 E49.83229
M204 S1750
G0 F7800 X121.285 Y125.919
M204 S1250
G1 F3300 X125.919 Y121.285 E50.05026
M204 S1750
G0 F7800 X125.919 Y120.719
M204 S1250
G1 F3300 X120.719 Y125.919 E50.29485
M204 S1750
G0 F7800 X120.153 Y125.919
M204 S1250
G1 F3300 X125.919 Y120.153 E50.56606
M204 S1750
G0 F7800 X125.919 Y119.588
M204 S1250
G1 F3300 X119.588 Y125.919 E50.86386
M204 S1750
G0 F7800 X119.022 Y125.919
M204 S1250
G1 F3300 X125.919 Y119.022 E51.18827
M204 S1750
G0 F7800 X125.919 Y118.456
M204 S1250
G1 F3300 X118.456 Y125.919 E51.53931
M204 S1750
G0 F7800 X117.89 Y125.919
M204 S1250
G1 F3300 X125.919 Y117.89 E51.91697
M204 S1750
G0 F7800 X125.919 Y117.325
M204 S1250
G1 F3300 X117.325 Y125.919 E52.3212
M204 S1750
G0 F7800 X116.759 Y125.919
M204 S1250
G1 F3300 X125.919 Y116.759 E52.75206
M204 S1750
G0 F7800 X125.919 Y116.193
M204 S1250
G1 F3300 X116.193 Y125.919 E53.20954
M204 S1750
G0 F7800 X115.628 Y125.919
M204 S1250
G1 F3300 X125.919 Y115.628 E53.6936
M204 S1750
G0 F7800 X125.919 Y115.062
M204 S1250
G1 F3300 X115.062 Y125.919 E54.20428
M204 S1750
G0 F7800 X114.496 Y125.919
M204 S1250
G1 F3300 X125.919 Y114.496 E54.74158
M204 S1750
G0 F7800 X125.919 Y113.931
M204 S1250
G1 F3300 X113.931 Y125.919 E55.30546
M204 S1750
G0 F7800 X113.365 Y125.919
M204 S1250
G1 F3300 X125.919 Y113.365 E55.89596
M204 S1750
G0 F7800 X125.919 Y112.799
M204 S1250
G1 F3300 X112.799 Y125.919 E56.51309
M204 S1750
G0 F7800 X112.234 Y125.919
M204 S1250
G1 F3300 X125.919 Y112.234 E57.15679
M204 S1750
G0 F7800 X125.919 Y111.668
M204 S1250
G1 F3300 X111.668 Y125.919 E57.82711
M204 S1750
G0 F7800 X111.102 Y125.919
M204 S1250
G1 F3300 X125.919 Y111.102 E58.52406
M204 S1750
G0 F7800 X125.919 Y110.537
M204 S1250
G1 F3300 X110.537 Y125.919 E59.24758
M204 S1750
G0 F7800 X109.971 Y125.919
M204 S1250
G1 F3300 X125.919 Y109.971 E59.99772
M204 S1750
G0 F7800 X125.919 Y109.405
M204 S1250
G1 F3300 X109.405 Y125.919 E60.77449
M204 S1750
G0 F7800 X109.08 Y125.679
M204 S1250
G1 F3300 X125.679 Y109.079 E61.55528
M204 S1750
G0 F7800 X125.114 Y109.079
M204 S1250
G1 F3300 X109.08 Y125.113 E62.30947
M204 S1750
G0 F7800 X109.08 Y124.547
M204 S1250
G1 F3300 X124.548 Y109.079 E63.03704
M204 S1750
G0 F7800 X123.982 Y109.079
M204 S1250
G1 F3300 X109.08 Y123.981 E63.73798
M204 S1750
G0 F7800 X109.08 Y123.416
M204 S1250
G1 F3300 X123.417 Y109.079 E64.41235
M204 S1750
G0 F7800 X122.851 Y109.079
M204 S1250
G1 F3300 X109.08 Y122.85 E65.0601
M204 S1750
G0 F7800 X109.08 Y122.284
M204 S1250
G1 F3300 X122.285 Y109.079 E65.68122
M204 S1750
G0 F7800 X121.719 Y109.079
M204 S1250
G1 F3300 X109.08 Y121.719 E66.27574
M204 S1750
G0 F7800 X109.08 Y121.153
M204 S1250
G1 F3300 X121.154 Y109.079 E66.84367
M204 S1750
G0 F7800 X120.588 Y109.079
M204 S1250
G1 F3300 X109.08 Y120.587 E67.38497
M204 S1750
G0 F7800 X109.08 Y120.022
M204 S1250
G1 F3300 X120.022 Y109.079 E67.89967
M204 S1750
G0 F7800 X119.457 Y109.079
M204 S1250
G1 F3300 X109.08 Y119.456 E68.38777
M204 S1750
G0 F7800 X109.08 Y118.89
M204 S1250
G1 F3300 X118.891 Y109.079 E68.84925
M204 S1750
G0 F7800 X118.325 Y109.079
M204 S1250
G1 F3300 X109.08 Y118.325 E69.28413
M204 S1750
G0 F7800 X109.08 Y117.759
M204 S1250
G1 F3300 X117.76 Y109.079 E69.69241
M204 S1750
G0 F7800 X117.194 Y109.079
M204 S1250
G1 F3300 X109.08 Y117.193 E70.07407
M204 S1750
G0 F7800 X109.08 Y116.628
M204 S1250
G1 F3300 X116.628 Y109.079 E70.42913
M204 S1750
G0 F7800 X116.063 Y109.079
M204 S1250
G1 F3300 X109.08 Y116.062 E70.75759
M204 S1750
G0 F7800 X109.08 Y115.496
M204 S1250
G1 F3300 X115.497 Y109.079 E71.05942
M204 S1750
G0 F7800 X114.931 Y109.079
M204 S1250
G1 F3300 X109.08 Y114.931 E71.33466
M204 S1750
G0 F7800 X109.08 Y114.365
M204 S1250
G1 F3300 X114.366 Y109.079 E71.5833
M204 S1750
G0 F7800 X113.8 Y109.079
M204 S1250
G1 F3300 X109.08 Y113.799 E71.80531
M204 S1750
G0 F7800 X109.08 Y113.233
M204 S1250
G1 F3300 X113.234 Y109.079 E72.0007
M204 S1750
G0 F7800 X112.668 Y109.079
M204 S1250
G1 F3300 X109.08 Y112.668 E72.16949
M204 S1750
G0 F7800 X109.08 Y112.102
M204 S1250
G1 F3300 X112.103 Y109.079 E72.31169
M204 S1750
G0 F7800 X111.537 Y109.079
M204 S1250
G1 F3300 X109.08 Y111.536 E72.42726
M204 S1750
G0 F7800 X109.08 Y110.971
M204 S1250
G1 F3300 X110.971 Y109.079 E72.51623
M204 S1750
G0 F7800 X110.406 Y109.079
M204 S1250
G1 F3300 X109.08 Y110.405 E72.5786
M204 S1750
G0 F7800 X109.08 Y109.839
M204 S1250
G1 F3300 X109.84 Y109.079 E72.61435
M204 S1750
G0 F7800 X109.274 Y109.079
M204 S1250
G1 F3300 X109.08 Y109.274 E72.62349
M204 S1750
;MESH:NONMESH
G0 F600 X109.08 Y109.274 Z0.6
G0 F7800 X108.6 Y109.274
