;FLAVOR:Marlin
;TIME:714
;Filament used: 0.497654m
;Layer height: 0.12
;MINX:105.2
;MINY:108.435
;MINZ:0.12
;MAXX:129.8
;MAXY:126.565
;MAXZ:6
;POSTPROCESSED
;Generated with Cura_SteamEngine 5.3.1
M82 ;absolute extrusion mode
G90
M117 ; Heating Bed
M140 S45 ; Set Heat Bed temperature
M117 ; Preheat e to 160 and Autohome
M104 S160; start warming extruder to 160
G92 E0 ; Reset Extruder
G28 ; Home all axes
BED_MESH_CALIBRATE PRINT_MIN=105.2,108.435 PRINT_MAX=129.8,126.565
G92 E0 ; Reset Extruder
G1 X0.1 Y.1 Z3.0 F5000.0 ; move to off the edge
M117 Heat E to temp
M104 S205 ; Set Extruder temperature
G1 X0.1 Y20 Z3.0 F5000.0 ; move to start-line position
M190 S45 ; Wait for Heat Bed temperature
M109 S205 ; Wait for Extruder temperature
G1 Z3.0 F3000 ; move z up little to prevent scratching of surface
G1 Z0.3 F3000 ; move z back down a bit
M117 Draw Line
G1 X0.1 Y200.0 Z0.3 F1500.0 E15 ; draw 1st line
G1 X0.4 Y200.0 Z0.3 F5000.0 ; move to side a little
G1 X0.4 Y20 Z0.3 F1500.0 E30 ; draw 2nd line
G92 E0 ; reset extruder
G1 Z2.0 F3000 ; move z up little to prevent scratching of surface
M117 Begin Print
; End of custom start GCode
G92 E0
G92 E0
G1 F1500 E-0.75
;LAYER_COUNT:50
;LAYER:0
M107
;MESH:Square_18mm_Bowden_StockNut_45deg.stl
G0 F3600 X108.355 Y110.16 Z0.12
;TYPE:WALL-INNER
G1 F1500 E0
G1 F2100 X106 Y112.516 E0.06648
G1 X106 Y115.963 E0.13527
G1 X106.174 Y115.707 E0.14144
G1 X106.638 Y115.229 E0.15474
G1 X107.192 Y114.868 E0.16793
G1 X107.596 Y114.703 E0.17664
G1 X108.075 Y114.594 E0.18644
G1 X108.568 Y114.562 E0.1963
G1 X109.216 Y114.65 E0.20935
G1 F2187.5 X109.768 Y114.863 E0.22069
G1 F1870.8 X110.609 Y115.36 E0.24257
G1 F1500 X110.908 Y115.65 E0.25421
G1 F1418.9 X111.08 Y115.925 E0.26379
G1 X111.376 Y115.03 E0.29163
G1 X111.039 Y114.991 E0.30165
G1 F1549.8 X110.349 Y114.751 E0.32141
G1 F1900.5 X109.639 Y114.389 E0.33898
G1 F2137.4 X108.969 Y113.846 E0.35589
G1 F2115.9 X108.439 Y113.08 E0.37434
G1 F2100 X108.223 Y112.56 E0.38557
G1 X108.073 Y111.87 E0.39967
G1 X108.083 Y111.109 E0.41485
G1 X108.195 Y110.566 E0.42592
G1 X108.355 Y110.16 E0.43463
G0 F3600 X109.081 Y113.681
G0 X110.539 Y115.067
G0 X107.938 Y114.83
G0 X106.565 Y116.112
G0 X106.181 Y116.96
G0 X106.148 Y117.884
G0 X107.219 Y120.038
G0 X107.324 Y119.761
G1 F2100 X106.684 Y119.287 E0.45052
G1 F2105.3 X106.232 Y118.663 E0.46586
G1 X105.993 Y117.929 E0.48122
G1 F2153.8 X105.974 Y117.393 E0.49166
G1 F2126.6 X106.01 Y116.979 E0.49985
G1 F2069 X106.22 Y116.369 E0.51292
G1 F2089.6 X106.472 Y115.974 E0.52231
G1 F2100 X106.867 Y115.557 E0.53378
G1 X107.35 Y115.235 E0.54536
G1 X107.705 Y115.088 E0.55303
G1 X108.163 Y114.984 E0.5624
G1 X108.698 Y114.969 E0.57308
G1 X109.245 Y115.07 E0.58418
G1 X109.6 Y115.209 E0.59179
G1 X110.159 Y115.581 E0.60519
G1 X110.509 Y115.944 E0.61525
G1 X110.819 Y116.447 E0.62704
G1 X110.998 Y117.06 E0.63979
G1 F2148.3 X111.031 Y117.572 E0.6498
G1 F2153.8 X111.001 Y117.934 E0.65686
G1 F2110.6 X110.832 Y118.507 E0.66873
G1 F2100 X110.525 Y119.044 E0.68107
G1 X110.099 Y119.482 E0.69326
G1 X109.583 Y119.8 E0.70536
G1 X109.094 Y119.97 E0.71569
G1 X108.64 Y120.041 E0.72486
G1 X107.978 Y119.98 E0.73813
G1 X107.324 Y119.761 E0.75189
G0 F3600 X107.219 Y120.038
G0 X106.186 Y119.584
G0 X106.165 Y122.416
G0 X108.598 Y125.046
G0 X109.067 Y125.3
G1 F2100 X108.841 Y124.97 E0.75987
G1 X108.602 Y124.437 E0.77153
G1 X108.47 Y123.683 E0.78681
G1 X108.498 Y122.981 E0.80083
G1 X108.758 Y122.184 E0.81756
G1 X109.093 Y121.634 E0.83041
G1 X109.562 Y121.151 E0.84384
G1 X110.231 Y120.736 E0.85955
G1 X110.861 Y120.522 E0.87283
G1 X111.625 Y120.467 E0.88812
G1 X112.225 Y120.553 E0.90021
G1 X112.054 Y120.249 E0.90717
G1 X111.84 Y119.778 E0.9175
G1 X111.651 Y119.232 E0.92903
G1 X111.484 Y118.552 E0.943
G1 F2110.6 X111.408 Y117.791 E0.95819
G1 X111.408 Y117.187 E0.97018
G1 F2100 X111.483 Y116.459 E0.98479
G1 X111.637 Y115.816 E0.99798
G1 X111.816 Y115.282 E1.00922
G1 X112.077 Y114.706 E1.02184
G1 X112.208 Y114.478 E1.02709
G1 X111.286 Y114.536 E1.04552
G1 X110.479 Y114.371 E1.06196
G1 X109.882 Y114.08 E1.07521
G1 X109.262 Y113.568 E1.09126
G1 X108.789 Y112.883 E1.10787
G1 X108.619 Y112.47 E1.11679
G1 X108.474 Y111.833 E1.12982
G1 X108.478 Y111.174 E1.14297
G1 X108.568 Y110.712 E1.15237
G1 X108.819 Y110.073 E1.16607
G1 X109.064 Y109.701 E1.17496
G1 X108.25 Y109.7 E1.1912
G1 X105.6 Y112.35 E1.26599
G1 F2079.2 X105.605 Y116.95 E1.35871
G1 F2126.6 X105.591 Y117.368 E1.36695
G1 F2153.8 X105.6 Y118.056 E1.38033
G1 F2105.3 X105.601 Y122.65 E1.47178
G1 F2100 X108.25 Y125.3 E1.54656
G1 X109.067 Y125.3 E1.56286
G1 F1500 E0.81286
G0 F3600 X108.598 Y125.046
G0 X109.478 Y125.493
G0 X110.453 Y124.93
G0 X113.05 Y124.356
G0 X113.991 Y124.909
G0 X115.125 Y123.748
G0 X120.235 Y123.224
G0 X120.561 Y122.785
G1 F1500 E1.56286
G1 F2100 X119.923 Y123.098 E1.57704
G1 X119.392 Y123.3 E1.58838
G1 X118.89 Y123.44 E1.59878
G1 X118.318 Y123.547 E1.61039
G1 X117.573 Y123.611 E1.62532
G1 X116.88 Y123.569 E1.63917
G1 X116.147 Y123.459 E1.65396
G1 X115.331 Y123.211 E1.67098
G1 X114.437 Y122.795 E1.69066
G1 X114.529 Y123.282 E1.70055
G1 X114.527 Y123.789 E1.71067
G1 X114.412 Y124.368 E1.72245
G1 X114.179 Y124.932 E1.73463
G1 X113.92 Y125.3 E1.74361
G1 X121.067 Y125.3 E1.88623
G1 X120.841 Y124.97 E1.89422
G1 X120.602 Y124.435 E1.90591
G1 X120.47 Y123.684 E1.92113
G1 X120.494 Y123.051 E1.93377
G1 X120.561 Y122.785 E1.93924
G1 F1500 E1.18924
G0 F3600 X120.235 Y123.224
G0 X120.776 Y124.379
G0 X121.821 Y124.061
G0 X124.74 Y124.762
G0 X125.532 Y125.492
G0 X126.406 Y125.046
G0 X125.92 Y125.3
G1 F1500 E1.93924
G1 F2100 X126.75 Y125.3 E1.9558
G1 X129.4 Y122.65 E2.03059
G1 X129.4 Y117.957 E2.12425
G1 F2148.3 X129.409 Y117.662 E2.13
G1 F2142.9 X129.4 Y117.043 E2.14211
G1 F2100 X129.4 Y112.35 E2.23577
G1 X126.75 Y109.701 E2.31054
G1 X125.945 Y109.7 E2.3266
G1 X126.063 Y109.871 E2.33075
G1 X126.388 Y110.533 E2.34547
G1 X126.513 Y111.107 E2.35719
G1 X126.542 Y111.605 E2.36715
G1 X126.454 Y112.243 E2.38
G1 X126.148 Y112.992 E2.39615
G1 X125.872 Y113.401 E2.40599
G1 F2105.3 X125.309 Y113.951 E2.42166
G1 X124.594 Y114.338 E2.43784
G1 F2100 X124.111 Y114.48 E2.44789
G1 X123.387 Y114.533 E2.46238
G1 X122.79 Y114.434 E2.47445
G1 X123.104 Y115.091 E2.48898
G1 X123.303 Y115.621 E2.50028
G1 X123.46 Y116.198 E2.51222
G1 F2063.9 X123.592 Y116.961 E2.52794
G1 F2089.6 X123.593 Y117.667 E2.5421
G1 F2126.6 X123.555 Y118.241 E2.55343
G1 F2100 X123.468 Y118.763 E2.564
G1 X123.323 Y119.319 E2.57546
G1 X123.106 Y119.904 E2.58791
G1 X122.807 Y120.526 E2.60169
G1 X123.696 Y120.462 E2.61947
G1 X124.188 Y120.54 E2.62941
G1 X124.729 Y120.715 E2.64076
G1 X125.431 Y121.146 E2.6572
G1 X125.846 Y121.568 E2.66901
G1 X126.139 Y121.984 E2.67917
G1 X126.39 Y122.547 E2.69147
G1 X126.541 Y123.352 E2.70781
G1 X126.516 Y123.864 E2.71804
G1 X126.398 Y124.436 E2.7297
G1 X126.179 Y124.932 E2.74052
G1 X125.92 Y125.3 E2.7495
G0 F3600 X126.406 Y125.046
G0 X126.765 Y123.838
G0 X126.619 Y122.471
G0 X125.762 Y120.685
G0 X124.866 Y120.171
G0 X125.876 Y120.271
G0 X125.904 Y119.973
G1 F2100 X125.305 Y119.747 E2.76227
G1 X124.688 Y119.291 E2.77758
G1 F2105.3 X124.231 Y118.663 E2.79304
G1 F2110.6 X123.988 Y117.914 E2.80868
G1 F2126.6 X123.975 Y117.281 E2.82116
G1 F2105.3 X124.009 Y116.944 E2.8279
G1 F2084.4 X124.232 Y116.355 E2.84056
G1 F2100 X124.472 Y115.974 E2.84955
G1 X124.807 Y115.605 E2.85949
G1 X125.305 Y115.257 E2.87162
G1 X125.686 Y115.094 E2.87989
G1 X126.276 Y114.971 E2.89192
G1 X126.679 Y114.967 E2.89996
G1 X127.234 Y115.066 E2.91121
G1 X127.673 Y115.252 E2.92072
G1 X128.159 Y115.582 E2.93245
G1 X128.469 Y115.895 E2.94124
G1 X128.816 Y116.44 E2.95413
G1 X128.999 Y117.06 E2.96703
G1 F2153.8 X129.03 Y117.572 E2.97701
G1 F2148.3 X129 Y117.969 E2.98478
G1 F2094.8 X128.846 Y118.467 E2.99521
G1 F2100 X128.527 Y119.043 E3.00835
G1 X128.044 Y119.516 E3.02184
G1 X127.554 Y119.809 E3.03323
G1 X127.097 Y119.969 E3.04289
G1 X126.637 Y120.041 E3.05218
G1 X125.904 Y119.973 E3.06688
G1 F1500 E2.31688
G0 F3600 X125.876 Y120.271
G0 X124.8 Y119.173
G0 X122.723 Y114.671
G0 X120.92 Y112.692
G0 X120.225 Y111.754
G0 X120.561 Y112.229
G1 F1500 E3.06688
G1 F2100 X120.474 Y111.773 E3.07614
G1 X120.478 Y111.174 E3.08809
G1 X120.568 Y110.712 E3.09749
G1 X120.819 Y110.073 E3.11119
G1 X121.064 Y109.701 E3.12008
G1 X113.945 Y109.7 E3.26214
G1 X114.063 Y109.871 E3.26629
G1 X114.389 Y110.537 E3.28109
G1 X114.525 Y111.165 E3.29391
G1 X114.534 Y111.663 E3.30385
G1 X114.46 Y112.192 E3.31451
G1 X115.311 Y111.796 E3.33324
G1 X116.137 Y111.543 E3.35048
G1 X116.876 Y111.431 E3.3654
G1 X117.568 Y111.389 E3.37923
G1 X118.259 Y111.446 E3.39307
G1 X118.833 Y111.548 E3.4047
G1 X119.386 Y111.697 E3.41613
G1 X120.116 Y111.98 E3.43176
G1 X120.561 Y112.229 E3.44193
G0 F3600 X120.073 Y111.531
G1 F2100 X120.083 Y111.109 E3.45036
G1 X120.195 Y110.566 E3.46142
G1 X120.378 Y110.101 E3.47139
G1 X114.62 Y110.1 E3.5863
G1 X114.795 Y110.521 E3.5954
G1 X114.923 Y111.116 E3.60754
G1 X114.939 Y111.529 E3.61579
G1 X115.234 Y111.401 E3.62221
G1 X116.05 Y111.151 E3.63924
G1 X116.852 Y111.032 E3.65542
G1 X117.576 Y110.988 E3.66989
G1 X118.292 Y111.047 E3.68423
G1 X118.99 Y111.174 E3.69839
G1 X119.492 Y111.311 E3.70877
G1 X120.073 Y111.531 E3.72117
G1 F1500 E2.97117
G0 F3600 X120.72 Y110.82
G0 X121.771 Y111.11
G0 X124.825 Y110.321
G0 X125.622 Y109.58
G0 X126.656 Y110.172
G1 F1500 E3.72117
G1 F2100 X126.795 Y110.522 E3.72869
G1 X126.905 Y111.022 E3.7389
G1 X126.944 Y111.622 E3.7509
G1 X126.842 Y112.351 E3.76559
G1 X126.517 Y113.157 E3.78294
G1 X126.165 Y113.673 E3.7954
G1 F2121.2 X125.528 Y114.294 E3.81298
G1 F2193.2 X124.946 Y114.585 E3.82541
G1 F2222.2 X124.76 Y114.694 E3.82948
G1 F1931 X124.037 Y114.986 E3.8464
G1 F1552.7 X123.608 Y115.016 E3.858
G1 F1414.1 X123.802 Y115.547 E3.87476
G1 X123.905 Y115.933 E3.8866
G1 F1558.4 X124.297 Y115.414 E3.90409
G1 F1958 X125.122 Y114.915 E3.92472
G1 F2181.8 X125.566 Y114.714 E3.93408
G1 F2115.9 X126.172 Y114.571 E3.94642
G1 F2105.3 X126.732 Y114.57 E3.95756
G1 F2100 X127.356 Y114.685 E3.97023
G1 X127.897 Y114.921 E3.98201
G1 X128.383 Y115.25 E3.99372
G1 X128.764 Y115.625 E4.00439
G1 X129 Y115.979 E4.01288
G1 X129 Y112.516 E4.08198
G1 X126.656 Y110.172 E4.14814
G0 F3600 X126.032 Y113.525
G0 X125.128 Y114.655
G0 X127.54 Y115.357
G0 X128.38 Y116.038
G0 X128.835 Y117.025
G0 X128.837 Y117.96
G0 X128.392 Y118.948
G0 X126.591 Y120.25
G0 X125.192 Y120.28
G0 X125.883 Y121.066
G0 X126.665 Y124.819
G1 F2100 X129 Y122.484 E4.21404
G1 X129 Y119.024 E4.28308
G1 X128.762 Y119.374 E4.29153
G1 X128.258 Y119.853 E4.30541
G1 X127.687 Y120.186 E4.3186
G1 X127.213 Y120.352 E4.32862
G1 X126.645 Y120.444 E4.3401
G1 X125.818 Y120.368 E4.35668
G1 F2029 X125.176 Y120.116 E4.37092
G1 F1846.2 X124.267 Y119.552 E4.3952
G1 F1570.1 X123.905 Y119.052 E4.41168
G1 F1426.1 X123.802 Y119.445 E4.42362
G1 X123.61 Y119.974 E4.44016
G1 F1555.6 X124.042 Y120.01 E4.45183
G1 F1900.5 X124.865 Y120.352 E4.47149
G1 F2126.6 X125.673 Y120.823 E4.48992
G1 F2110.6 X126.202 Y121.359 E4.50487
G1 F2100 X126.524 Y121.865 E4.51684
G1 X126.777 Y122.438 E4.52934
G1 X126.944 Y123.324 E4.54733
G1 X126.908 Y123.944 E4.55973
G1 X126.803 Y124.448 E4.57
G1 X126.665 Y124.819 E4.5779
G1 F1500 E3.8279
G0 F3600 X125.532 Y125.492
G0 X124.74 Y124.762
G0 X122.193 Y124.697
G0 X121.478 Y125.493
G0 X120.372 Y124.899
G1 F1500 E4.5779
G1 F2100 X120.195 Y124.43 E4.5879
G1 X120.076 Y123.753 E4.60162
G1 X120.067 Y123.47 E4.60727
G1 X119.499 Y123.685 E4.61939
G1 X118.997 Y123.825 E4.62979
G1 X118.387 Y123.941 E4.64218
G1 X117.583 Y124.012 E4.65829
G1 X116.856 Y123.968 E4.67282
G1 X116.055 Y123.849 E4.68898
G1 X115.243 Y123.603 E4.70592
G1 X114.937 Y123.471 E4.71257
G1 X114.925 Y123.865 E4.72043
G1 X114.804 Y124.449 E4.73234
G1 X114.63 Y124.899 E4.74196
G1 X120.372 Y124.899 E4.85655
G1 F1500 E4.10655
G0 F3600 X113.532 Y125.492
G0 X112.74 Y124.762
G0 X110.193 Y124.697
G0 X109.478 Y125.493
G0 X108.336 Y124.82
G1 F1500 E4.85655
G1 F2100 X108.195 Y124.431 E4.86481
G1 X108.076 Y123.752 E4.87856
G1 X108.098 Y122.921 E4.89515
G1 X108.388 Y122.012 E4.9142
G1 X108.779 Y121.383 E4.92898
G1 F2126.6 X109.322 Y120.827 E4.94429
G1 F2170.5 X110.118 Y120.359 E4.96212
G1 F2148.3 X110.78 Y120.127 E4.9758
G1 F2100 X111.514 Y120.074 E4.99049
G1 X111.245 Y119.271 E5.00739
G1 X111.133 Y118.794 E5.01717
G1 X110.846 Y119.288 E5.02857
G1 F2142.9 X110.343 Y119.804 E5.04266
G1 F2222.2 X109.729 Y120.158 E5.05603
G1 F2181.8 X109.209 Y120.353 E5.06669
G1 F2100 X108.651 Y120.445 E5.07798
G1 X107.849 Y120.369 E5.09406
G1 X107.254 Y120.159 E5.10665
G1 X107.01 Y120.027 E5.11218
G1 X106.521 Y119.665 E5.12432
G1 X106.306 Y119.447 E5.13044
G1 X106.001 Y119.025 E5.14083
G1 X106.001 Y122.484 E5.20985
G1 X108.336 Y124.82 E5.27577
G0 F3600 X109.403 Y125.465
G0 X110.01 Y125.699
;TYPE:WALL-OUTER
G1 F2100 X109.533 Y125.26 E5.2887
G1 X109.228 Y124.844 E5.299
G1 X108.987 Y124.315 E5.3106
G1 X108.864 Y123.614 E5.3248
G1 X108.895 Y123.053 E5.33601
G1 X109.122 Y122.35 E5.35076
G1 X109.428 Y121.863 E5.36223
G1 X109.803 Y121.476 E5.37299
G1 X110.388 Y121.106 E5.3868
G1 X110.924 Y120.923 E5.3981
G1 X111.697 Y120.867 E5.41357
G1 X112.067 Y120.922 E5.42104
G1 X112.536 Y121.072 E5.43086
G1 F2000 X112.915 Y121.275 E5.43987
G1 F1656.8 X113.21 Y121.379 E5.44778
G1 F1724.8 X112.857 Y120.797 E5.46432
G1 F2100 X112.695 Y120.568 E5.46992
G1 X112.418 Y120.083 E5.48106
G1 X112.204 Y119.612 E5.49139
G1 X112.029 Y119.102 E5.50215
G1 X111.871 Y118.445 E5.51563
G1 X111.806 Y117.777 E5.52903
G1 X111.806 Y117.225 E5.54004
G1 X111.868 Y116.579 E5.55299
G1 X112.031 Y115.894 E5.56705
G1 X112.202 Y115.392 E5.57763
G1 X112.416 Y114.921 E5.58795
G1 X112.697 Y114.429 E5.59926
G1 X112.759 Y114.339 E5.60144
G1 F1700.4 X113.121 Y113.708 E5.61937
G1 F1552.7 X112.925 Y113.76 E5.62484
G1 F1879.2 X112.385 Y113.988 E5.63791
G1 F2100 X112.061 Y114.081 E5.64464
G1 X111.329 Y114.136 E5.65929
G1 X110.59 Y113.98 E5.67436
G1 X110.081 Y113.726 E5.68572
G1 X109.546 Y113.278 E5.69964
G1 X109.147 Y112.697 E5.71371
G1 X108.995 Y112.335 E5.72154
G1 X108.878 Y111.806 E5.73235
G1 X108.873 Y111.239 E5.74367
G1 X108.94 Y110.858 E5.75139
G1 X109.201 Y110.195 E5.76561
G1 X109.543 Y109.727 E5.77718
G1 X110.016 Y109.301 E5.78988
G1 X108.084 Y109.3 E5.82843
G1 X105.2 Y112.184 E5.90983
G1 X105.201 Y122.816 E6.122
G1 X108.084 Y125.7 E6.20338
G1 X110.01 Y125.699 E6.24181
G0 F3600 X109.863 Y125.564
G1 F1500 E5.49181
G0 F3600 X109.403 Y125.465
G0 X110.453 Y124.93
G0 X112.74 Y124.762
G0 X112.927 Y125.7
G1 F1500 E6.24181
G1 F2100 X122.01 Y125.699 E6.42307
G1 X121.533 Y125.26 E6.43601
G1 X121.228 Y124.844 E6.44631
G1 X120.987 Y124.315 E6.45791
G1 X120.864 Y123.614 E6.47211
G1 X120.895 Y123.052 E6.48334
G1 X121.113 Y122.372 E6.49759
G1 F1700.4 X121.321 Y121.849 E6.51146
G1 X120.881 Y122.086 E6.52378
G1 F2100 X120.408 Y122.412 E6.53524
G1 X119.779 Y122.724 E6.54926
G1 X119.303 Y122.908 E6.55944
G1 X118.765 Y123.058 E6.57059
G1 X118.249 Y123.153 E6.58106
G1 X117.583 Y123.208 E6.59439
G1 X116.886 Y123.167 E6.60833
G1 X116.22 Y123.063 E6.62178
G1 X115.466 Y122.834 E6.6375
G1 X114.842 Y122.543 E6.65124
G1 X114.388 Y122.276 E6.66175
G1 X114.021 Y122.01 E6.6708
G1 F1721.3 X113.642 Y121.806 E6.68128
G1 X113.794 Y122.193 E6.6914
G1 F2100 X114.009 Y122.685 E6.70212
G1 X114.135 Y123.356 E6.71574
G1 X114.128 Y123.758 E6.72376
G1 X114.008 Y124.327 E6.73537
G1 X113.789 Y124.813 E6.74601
G1 X113.353 Y125.385 E6.76036
G1 X112.927 Y125.7 E6.77093
G0 F3600 X113.127 Y125.7
G0 X113.604 Y125.456
G0 X114.245 Y124.378
G0 X114.378 Y123.363
G0 X114.114 Y122.355
G0 X113.642 Y121.806
G1 F1460.9 X113.21 Y121.379 E6.78836
G0 F3600 X112.644 Y120.873
G0 X111.151 Y118.963
G0 X110.437 Y119.422
G0 X107.265 Y120.055
G0 X107.511 Y119.401
G1 F2100 X106.971 Y119.002 E6.80176
G1 X106.592 Y118.477 E6.81468
G1 X106.385 Y117.839 E6.82806
G1 X106.365 Y117.377 E6.83729
G1 X106.41 Y117.038 E6.84412
G1 X106.592 Y116.53 E6.85489
G1 X106.77 Y116.241 E6.86166
G1 X107.096 Y115.885 E6.87129
G1 X107.473 Y115.622 E6.88047
G1 X107.825 Y115.47 E6.88812
G1 X108.25 Y115.375 E6.89681
G1 X108.632 Y115.364 E6.90443
G1 X109.084 Y115.44 E6.91358
G1 X109.424 Y115.569 E6.92084
G1 X109.97 Y115.943 E6.93404
