;FLAVOR:Marlin
;TIME:4105
;Filament used: 3.94979m
;Layer height: 0.15
;MINX:90.094
;MINY:101
;MINZ:0.15
;MAXX:156.737
;MAXY:134
;MAXZ:60
;POSTPROCESSED
;Generated with Cura_SteamEngine 5.3.1
M82 ;absolute extrusion mode
; Ender 3 Custom Start G-code
G92 E0 ; Reset Extruder

M140 S55 ; set bed temp
M190 S55 ; wait for bed temp

G28 ; Home all axes
BED_MESH_CALIBRATE  AREA_START=90.094,101 AREA_END=156.737,134
M104 S200 ; set extruder temp 

G1 Z2.0 F3000 ; Move Z Axis up little to prevent scratching of Heat Bed
M109 S200 ; wait for extruder temp
G1 X0.1 Y20 Z0.3 F5000.0 ; Move to start position

G1 X0.1 Y200.0 Z0.3 F1500.0 E15 ; Draw the first line
G1 X0.4 Y200.0 Z0.3 F5000.0 ; Move to side a little
G1 X0.4 Y20 Z0.3 F1500.0 E30 ; Draw the second line
G92 E0 ; Reset Extruder
G1 Z2.0 F3000 ; Move Z Axis up little to prevent scratching of Heat Bed
G1 X5 Y20 Z0.3 F5000.0 ; Move over to prevent blob squish
G92 E0
G92 E0
G1 F1500 E-1
;LAYER_COUNT:400
;LAYER:0
M107
M204 S1000
G0 F3600 X91.882 Y107.206 Z0.15
;TYPE:SKIRT
G1 F1500 E0
G1 F2100 X92.273 Y106.885 E0.01262
G1 X92.709 Y106.629 E0.02523
G1 X93.18 Y106.446 E0.03784
G1 X93.77 Y106.318 E0.0529
G1 X94.535 Y106.295 E0.07199
G1 X97.265 Y106.175 E0.14015
G1 X100.011 Y105.978 E0.20883
G1 X102.716 Y105.706 E0.27665
G1 X105.446 Y105.353 E0.34531
G1 X108.176 Y104.922 E0.41426
G1 X110.833 Y104.424 E0.48169
G1 X113.484 Y103.85 E0.54935
G1 X116.174 Y103.189 E0.61845
G1 X118.788 Y102.466 E0.6861
G1 X119.625 Y102.209 E0.70795
G1 X120.554 Y101.938 E0.73209
G1 X121.049 Y101.835 E0.7447
G1 X121.682 Y101.801 E0.76051
G1 X134.686 Y101.8 E1.0849
G1 X135.387 Y101.81 E1.10239
G1 X135.89 Y101.857 E1.11499
G1 X136.38 Y101.983 E1.12761
G1 X136.958 Y102.235 E1.14334
G1 X138.508 Y103.319 E1.19052
G1 X140.757 Y104.835 E1.25818
G1 X143.085 Y106.313 E1.32696
G1 X145.429 Y107.707 E1.39499
G1 X147.844 Y109.054 E1.46397
G1 X150.263 Y110.313 E1.532
G1 X152.727 Y111.51 E1.60033
G1 X154.078 Y112.139 E1.63751
G1 X154.518 Y112.387 E1.65011
G1 X154.913 Y112.702 E1.66271
G1 X155.254 Y113.076 E1.67533
G1 X155.532 Y113.498 E1.68794
G1 X155.74 Y113.959 E1.70056
G1 X155.873 Y114.447 E1.71317
G1 X155.936 Y115.035 E1.72793
G1 X155.937 Y120.339 E1.86023
G1 X155.927 Y121.066 E1.87837
G1 X155.88 Y121.569 E1.89097
G1 X155.754 Y122.059 E1.90359
G1 X155.553 Y122.523 E1.91621
G1 X155.281 Y122.949 E1.92882
G1 X154.946 Y123.328 E1.94143
G1 X154.555 Y123.648 E1.95404
G1 X154.119 Y123.903 E1.96664
G1 X153.559 Y124.122 E1.98164
G1 X150.277 Y124.73 E2.0649
G1 X147.553 Y125.32 E2.13443
G1 X144.908 Y125.971 E2.20237
G1 X142.291 Y126.695 E2.27011
G1 X139.674 Y127.498 E2.33839
G1 X137.05 Y128.386 E2.4075
G1 X134.493 Y129.332 E2.47551
G1 X131.983 Y130.343 E2.54301
G1 X129.451 Y131.446 E2.6119
G1 X126.908 Y132.642 E2.682
G1 X126.448 Y132.866 E2.69476
G1 X125.977 Y133.051 E2.70739
G1 X125.484 Y133.159 E2.71998
G1 X124.719 Y133.2 E2.73909
G1 X122.111 Y133.2 E2.80414
G1 X121.407 Y133.19 E2.82171
G1 X120.903 Y133.143 E2.83433
G1 X120.43 Y133.023 E2.84651
G1 X119.201 Y132.609 E2.87886
G1 X116.604 Y131.772 E2.94692
G1 X113.957 Y131.002 E3.01569
G1 X111.297 Y130.31 E3.08425
G1 X108.625 Y129.695 E3.15265
G1 X105.984 Y129.165 E3.21984
G1 X103.258 Y128.697 E3.28883
G1 X100.535 Y128.309 E3.35745
G1 X97.832 Y128.001 E3.42531
G1 X95.075 Y127.767 E3.49433
G1 X93.874 Y127.681 E3.52437
G1 X93.375 Y127.605 E3.53696
G1 X92.893 Y127.451 E3.54958
G1 X92.441 Y127.224 E3.5622
G1 X92.031 Y126.928 E3.57481
G1 X91.673 Y126.571 E3.58742
G1 X91.376 Y126.163 E3.60001
G1 X91.146 Y125.712 E3.61264
G1 X90.99 Y125.231 E3.62525
G1 X90.895 Y124.508 E3.64344
G1 X90.894 Y110.156 E4.00146
G1 X90.903 Y109.468 E4.01862
G1 X90.95 Y108.965 E4.03122
G1 X91.075 Y108.475 E4.04384
G1 X91.276 Y108.011 E4.05645
G1 X91.547 Y107.584 E4.06907
G1 X91.882 Y107.206 E4.08167
G0 F3600 X91.628 Y106.897
G1 F2100 X92.07 Y106.54 E4.09584
G1 X92.564 Y106.256 E4.11005
G1 X93.095 Y106.055 E4.12422
G1 X93.721 Y105.919 E4.1402
G1 X94.517 Y105.895 E4.16006
G1 X97.247 Y105.775 E4.22823
G1 X99.978 Y105.579 E4.29653
G1 X102.665 Y105.309 E4.36389
G1 X105.395 Y104.956 E4.43256
G1 X108.106 Y104.528 E4.50102
G1 X110.746 Y104.033 E4.56803
G1 X113.399 Y103.46 E4.63573
G1 X116.067 Y102.803 E4.70427
G1 X118.681 Y102.081 E4.77192
G1 X119.513 Y101.825 E4.79364
G1 X120.473 Y101.546 E4.81857
G1 X120.968 Y101.443 E4.83119
G1 X121.682 Y101.401 E4.84903
G1 X134.692 Y101.4 E5.17356
G1 X135.393 Y101.41 E5.19105
G1 X135.99 Y101.47 E5.20602
G1 X136.54 Y101.616 E5.22021
G1 X137.153 Y101.883 E5.23689
G1 X138.732 Y102.987 E5.28495
G1 X140.981 Y104.503 E5.35261
G1 X143.298 Y105.974 E5.42107
G1 X145.634 Y107.363 E5.48887
G1 X148.029 Y108.699 E5.55728
G1 X150.438 Y109.953 E5.62502
G1 X152.896 Y111.147 E5.69319
G1 X154.247 Y111.776 E5.73037
G1 X154.767 Y112.074 E5.74532
G1 X155.209 Y112.432 E5.7595
G1 X155.55 Y112.806 E5.77213
G1 X155.897 Y113.333 E5.78787
G1 X156.105 Y113.794 E5.80049
G1 X156.271 Y114.404 E5.81626
G1 X156.334 Y114.992 E5.83101
G1 X156.337 Y120.345 E5.96454
G1 X156.327 Y121.072 E5.98267
G1 X156.267 Y121.669 E5.99764
G1 X156.121 Y122.218 E6.01181
G1 X155.89 Y122.738 E6.02601
G1 X155.581 Y123.214 E6.04016
G1 X155.246 Y123.593 E6.05278
G1 X154.808 Y123.958 E6.067
G1 X154.265 Y124.276 E6.0827
G1 X153.674 Y124.507 E6.09853
G1 X150.362 Y125.121 E6.18256
G1 X147.638 Y125.711 E6.25208
G1 X145.015 Y126.356 E6.31946
G1 X142.398 Y127.08 E6.38719
G1 X139.802 Y127.877 E6.45494
G1 X137.178 Y128.765 E6.52404
G1 X134.632 Y129.707 E6.59176
G1 X132.143 Y130.71 E6.6587
G1 X129.611 Y131.813 E6.72759
G1 X127.083 Y133.002 E6.79728
G1 X126.623 Y133.226 E6.81004
G1 X126.063 Y133.442 E6.82501
G1 X125.57 Y133.55 E6.8376
G1 X124.719 Y133.6 E6.85887
G1 X122.105 Y133.6 E6.92407
G1 X121.401 Y133.59 E6.94164
G1 X120.805 Y133.531 E6.95658
G1 X120.302 Y133.402 E6.96953
G1 X119.078 Y132.99 E7.00175
G1 X116.481 Y132.153 E7.06981
G1 X113.849 Y131.387 E7.13819
G1 X111.207 Y130.7 E7.20629
G1 X108.535 Y130.085 E7.27468
G1 X105.909 Y129.558 E7.34149
G1 X103.202 Y129.093 E7.41001
G1 X100.479 Y128.705 E7.47862
G1 X97.798 Y128.4 E7.54593
G1 X95.041 Y128.166 E7.61495
G1 X93.845 Y128.08 E7.64486
G1 X93.253 Y127.986 E7.65982
G1 X92.771 Y127.832 E7.67244
G1 X92.261 Y127.581 E7.68662
G1 X91.797 Y127.252 E7.70081
G1 X91.391 Y126.854 E7.71499
G1 X91.02 Y126.345 E7.7307
G1 X90.79 Y125.894 E7.74333
G1 X90.597 Y125.316 E7.75853
G1 X90.498 Y124.56 E7.77755
G1 X90.494 Y110.151 E8.13698
G1 X90.503 Y109.463 E8.15415
G1 X90.562 Y108.866 E8.16911
G1 X90.687 Y108.376 E8.18173
G1 X90.909 Y107.852 E8.19592
G1 X91.209 Y107.37 E8.21008
G1 X91.628 Y106.897 E8.22585
G0 F3600 X91.351 Y106.606
G1 F2100 X91.871 Y106.193 E8.24241
G1 X92.422 Y105.882 E8.2582
G1 X93.01 Y105.664 E8.27384
G1 X93.672 Y105.52 E8.29074
G1 X94.499 Y105.495 E8.31138
G1 X97.229 Y105.375 E8.37954
G1 X99.945 Y105.18 E8.44747
G1 X102.614 Y104.912 E8.51438
G1 X105.344 Y104.559 E8.58305
G1 X108.036 Y104.134 E8.65103
G1 X110.666 Y103.641 E8.71778
G1 X113.315 Y103.069 E8.78538
G1 X115.961 Y102.417 E8.85336
G1 X118.575 Y101.695 E8.92101
G1 X119.401 Y101.441 E8.94257
G1 X120.392 Y101.154 E8.9683
G1 X120.887 Y101.051 E8.98092
G1 X121.682 Y101.001 E9.00079
G1 X134.698 Y101 E9.32547
G1 X135.399 Y101.01 E9.34296
G1 X136.093 Y101.083 E9.36037
G1 X136.643 Y101.229 E9.37456
G1 X137.347 Y101.531 E9.39367
G1 X138.956 Y102.655 E9.44263
G1 X141.205 Y104.171 E9.51029
G1 X143.511 Y105.635 E9.57843
G1 X145.839 Y107.019 E9.64599
G1 X148.214 Y108.344 E9.71383
G1 X150.613 Y109.593 E9.78129
G1 X153.065 Y110.784 E9.84929
G1 X154.416 Y111.413 E9.88647
G1 X155.019 Y111.763 E9.90386
G1 X155.505 Y112.162 E9.91955
G1 X155.846 Y112.536 E9.93217
G1 X156.262 Y113.168 E9.95105
G1 X156.47 Y113.629 E9.96366
G1 X156.669 Y114.361 E9.98258
G1 X156.732 Y114.949 E9.99734
G1 X156.737 Y120.351 E10.13209
G1 X156.727 Y121.078 E10.15023
G1 X156.654 Y121.772 E10.16763
G1 X156.487 Y122.38 E10.18336
G1 X156.226 Y122.956 E10.19914
G1 X155.917 Y123.432 E10.21329
G1 X155.546 Y123.858 E10.22738
G1 X155.038 Y124.287 E10.24397
G1 X154.411 Y124.649 E10.26203
G1 X153.789 Y124.892 E10.27869
G1 X150.447 Y125.512 E10.36348
G1 X147.723 Y126.102 E10.433
G1 X145.122 Y126.741 E10.49981
G1 X142.505 Y127.465 E10.56755
G1 X139.93 Y128.256 E10.63474
G1 X137.306 Y129.144 E10.70385
G1 X134.782 Y130.078 E10.77098
G1 X132.303 Y131.077 E10.83765
G1 X129.771 Y132.18 E10.90655
G1 X127.258 Y133.362 E10.97582
G1 X126.798 Y133.586 E10.98858
G1 X126.149 Y133.833 E11.00591
G1 X125.656 Y133.941 E11.0185
G1 X124.719 Y134 E11.04192
G1 X122.099 Y134 E11.10727
G1 X121.395 Y133.99 E11.12483
G1 X120.766 Y133.929 E11.1406
G1 X120.174 Y133.781 E11.15582
G1 X118.955 Y133.371 E11.1879
G1 X116.358 Y132.534 E11.25597
G1 X113.742 Y131.772 E11.32394
G1 X111.117 Y131.09 E11.39159
G1 X108.445 Y130.475 E11.45999
G1 X105.834 Y129.951 E11.52642
G1 X103.146 Y129.489 E11.59445
G1 X100.423 Y129.101 E11.66306
G1 X97.764 Y128.799 E11.72982
G1 X95.007 Y128.565 E11.79884
G1 X93.816 Y128.479 E11.82863
G1 X93.131 Y128.367 E11.84594
G1 X92.594 Y128.191 E11.86004
G1 X92.084 Y127.94 E11.87422
G1 X91.517 Y127.538 E11.89156
G1 X91.087 Y127.116 E11.90658
G1 X90.664 Y126.527 E11.92467
G1 X90.411 Y126.021 E11.93879
G1 X90.205 Y125.403 E11.95504
G1 X90.101 Y124.612 E11.97494
G1 X90.094 Y110.146 E12.33579
G1 X90.103 Y109.458 E12.35296
G1 X90.174 Y108.767 E12.37028
G1 X90.299 Y108.277 E12.3829
G1 X90.569 Y107.641 E12.40013
G1 X90.869 Y107.159 E12.4143
G1 X91.351 Y106.606 E12.4326
G1 F1500 E11.4326
;MESH:FYSETC - PIS - Ender 3 Mount With Glass Bed Clip.stl
G0 F3600 X94.508 Y108.835
G0 X94.508 Y109.914
G0 X96.534 Y110.7
G0 X96.066 Y111.472
G0 X96.066 Y118.928
G0 X112.92 Y119.672
G0 X113.092 Y123.5
;TYPE:WALL-INNER
G1 F1500 E12.4326
G1 F2100 X113.092 Y119.5 E12.53238
G1 X96.494 Y119.5 E12.94641
G1 X96.109 Y119.424 E12.9562
G1 X95.693 Y119.101 E12.96934
G1 F2089.6 X95.494 Y118.65 E12.9817
G1 X95.494 Y111.9 E13.15092
G1 F2100 X95.786 Y111.192 E13.17003
G1 F2089.6 X96.34 Y110.9 E13.18573
G1 X113.094 Y110.9 E13.60575
G1 F2100 X113.094 Y110.5 E13.61572
G1 X95.095 Y110.501 E14.06471
G1 X95.094 Y123.5 E14.38897
G1 X113.092 Y123.5 E14.83793
G0 F3600 X113.492 Y123.9
G1 F2100 X113.492 Y119.1 E14.95767
G1 X96.494 Y119.1 E15.38169
G1 X96.263 Y119.054 E15.38756
G1 X96.013 Y118.861 E15.39544
G1 X95.894 Y118.585 E15.40294
G1 X95.894 Y111.9 E15.5697
G1 X96.069 Y111.475 E15.58116
G1 X96.405 Y111.3 E15.59061
G1 X113.494 Y111.3 E16.0169
G1 X113.494 Y110.1 E16.04683
G1 X94.695 Y110.101 E16.51578
G1 X94.694 Y123.9 E16.85999
G1 X113.492 Y123.9 E17.32891
G0 F3600 X113.222 Y123.63
G0 X112.92 Y119.672
G0 X98.022 Y119.31
G0 X95.666 Y119.328
G0 X96.333 Y118.621
;TYPE:WALL-OUTER
G1 F2100 X96.296 Y118.535 E17.33125
G1 X96.294 Y111.9 E17.49676
G1 X96.352 Y111.758 E17.50058
G1 X96.459 Y111.702 E17.5036
G1 X113.894 Y111.7 E17.93851
G1 X113.894 Y109.7 E17.9884
G1 X94.295 Y109.701 E18.4773
G1 X94.294 Y124.3 E18.84148
G1 X113.892 Y124.3 E19.33035
G1 X113.892 Y118.7 E19.47004
G1 X96.437 Y118.7 E19.90546
G1 X96.333 Y118.621 E19.90872
G0 F3600 X96.296 Y118.535
G0 X96.296 Y118.428
G0 X95.594 Y118.428
G0 X95.674 Y111.077
G0 X96.534 Y110.7
G0 X95.529 Y110.603
G0 X95.527 Y110.86
;TYPE:SKIN
G1 F1866.7 X95.473 Y110.86 E19.91023
G1 X95.444 Y110.908 E19.91181
G1 X95.472 Y110.956 E19.91337
G1 X95.527 Y110.956 E19.91491
G1 X95.556 Y110.908 E19.91648
G0 F3600 X95.719 Y111.118
G0 X95.647 Y119.183
G0 X95.475 Y119.404
G1 F2100 X95.917 Y119.748 E19.93046
G1 X96.458 Y119.877 E19.94433
G1 X112.712 Y119.88 E20.34979
G1 X112.712 Y123.12 E20.43061
G1 X95.474 Y123.12 E20.86061
G1 X95.475 Y119.404 E20.95331
G0 F3600 X95.647 Y119.183
G0 X95.674 Y111.077
G0 X96.534 Y110.7
G0 X95.267 Y110.673
G0 X95.266 Y123.328
G0 X95.766 Y122.919
G1 F2100 X95.674 Y122.827 E20.95655
G0 F3600 X95.674 Y122.261
G1 F2100 X96.331 Y122.919 E20.97975
G0 F3600 X96.897 Y122.919
G1 F2100 X95.674 Y121.695 E21.02291
G0 F3600 X95.674 Y121.13
G1 F2100 X97.463 Y122.919 E21.08602
G0 F3600 X98.029 Y122.919
G1 F2100 X95.674 Y120.564 E21.1691
G0 F3600 X95.674 Y119.998
G1 F2100 X98.594 Y122.919 E21.27213
G0 F3600 X99.16 Y122.919
G1 F2100 X96.288 Y120.046 E21.37347
G0 F3600 X96.886 Y120.079
G1 F2100 X99.726 Y122.919 E21.47365
G0 F3600 X100.291 Y122.919
G1 F2100 X97.452 Y120.079 E21.57383
G0 F3600 X98.017 Y120.079
G1 F2100 X100.857 Y122.919 E21.67401
G0 F3600 X101.423 Y122.919
G1 F2100 X98.583 Y120.079 E21.7742
G0 F3600 X99.149 Y120.079
G1 F2100 X101.988 Y122.919 E21.87437
G0 F3600 X102.554 Y122.919
G1 F2100 X99.714 Y120.079 E21.97456
G0 F3600 X100.28 Y120.079
G1 F2100 X103.12 Y122.919 E22.07475
G0 F3600 X103.685 Y122.919
G1 F2100 X100.846 Y120.079 E22.17492
G0 F3600 X101.411 Y120.079
G1 F2100 X104.251 Y122.919 E22.27511
G0 F3600 X104.817 Y122.919
G1 F2100 X101.977 Y120.079 E22.3753
G0 F3600 X102.543 Y120.079
G1 F2100 X105.382 Y122.919 E22.47547
G0 F3600 X105.948 Y122.919
G1 F2100 X103.108 Y120.079 E22.57566
G0 F3600 X103.674 Y120.079
G1 F2100 X106.514 Y122.919 E22.67585
G0 F3600 X107.08 Y122.919
G1 F2100 X104.24 Y120.079 E22.77604
G0 F3600 X104.805 Y120.079
G1 F2100 X107.645 Y122.919 E22.87623
G0 F3600 X108.211 Y122.919
G1 F2100 X105.371 Y120.079 E22.97641
G0 F3600 X105.937 Y120.079
G1 F2100 X108.777 Y122.919 E23.0766
G0 F3600 X109.342 Y122.919
G1 F2100 X106.503 Y120.079 E23.17677
G0 F3600 X107.068 Y120.079
G1 F2100 X109.908 Y122.919 E23.27696
G0 F3600 X110.474 Y122.919
G1 F2100 X107.634 Y120.079 E23.37715
G0 F3600 X108.2 Y120.079
G1 F2100 X111.039 Y122.919 E23.47732
G0 F3600 X111.605 Y122.919
G1 F2100 X108.765 Y120.079 E23.57751
G0 F3600 X109.331 Y120.079
G1 F2100 X112.171 Y122.919 E23.6777
G0 F3600 X112.512 Y122.694
G1 F2100 X109.897 Y120.079 E23.76995
G0 F3600 X110.462 Y120.079
G1 F2100 X112.512 Y122.128 E23.84225
G0 F3600 X112.512 Y121.562
G1 F2100 X111.028 Y120.079 E23.89459
G0 F3600 X111.594 Y120.079
G1 F2100 X112.512 Y120.997 E23.92697
G0 F3600 X112.512 Y120.431
G1 F2100 X112.159 Y120.079 E23.93941
G1 F1500 E22.93941
;MESH:FYSETC - PIS - Ender 3 Mount - Gantry Mount CR Touch.stl
G0 F3600 X112.159 Y119.6
G0 X113.678 Y124.086
G0 X114.757 Y124.086
G0 X120.784 Y124.086
G0 X121.869 Y124.086
G0 X122.621 Y128.828
G0 X124.049 Y129
;TYPE:WALL-INNER
G1 F1500 E23.93941
G1 F2100 X124.049 Y109.998 E24.41341
G1 X124.142 Y109.574 E24.42424
G1 X124.378 Y109.255 E24.43414
G1 X124.663 Y109.074 E24.44256
G1 X124.924 Y108.998 E24.44934
G1 X130.749 Y108.998 E24.59465
G1 X131.095 Y109.059 E24.60341
G1 X131.382 Y109.223 E24.61166
G1 X131.568 Y109.422 E24.61845
G1 X131.701 Y109.689 E24.62589
G1 X131.749 Y109.998 E24.63369
G1 X131.749 Y120.031 E24.88397
G1 X151.737 Y120.031 E25.38257
G1 X151.737 Y116.033 E25.4823
G1 X135.347 Y116.033 E25.89115
G1 X135.111 Y116.006 E25.89708
G1 X134.896 Y115.926 E25.9028
G1 X134.697 Y115.794 E25.90876
G1 X134.519 Y115.596 E25.9154
G1 X134.392 Y115.334 E25.92266
G1 X134.347 Y115.033 E25.93025
G1 X134.347 Y106 E26.15558
G1 X122.449 Y106 E26.45238
G1 X122.449 Y129 E27.02612
G1 X124.049 Y129 E27.06603
G0 F3600 X124.449 Y129.4
G1 F2100 X124.449 Y109.998 E27.55001
G1 X124.505 Y109.743 E27.55653
G1 X124.646 Y109.552 E27.56245
G1 X124.972 Y109.398 E27.57144
G1 X130.749 Y109.398 E27.71555
G1 X130.957 Y109.434 E27.72082
G1 X131.129 Y109.533 E27.72577
G1 X131.241 Y109.652 E27.72984
G1 X131.32 Y109.812 E27.73429
G1 X131.349 Y109.998 E27.73899
G1 X131.349 Y120.431 E27.99924
G1 X152.137 Y120.431 E28.5178
G1 X152.137 Y115.633 E28.63749
G1 X135.248 Y115.633 E29.05879
G1 X134.957 Y115.49 E29.06687
G1 X134.774 Y115.214 E29.07513
G1 X134.747 Y115.033 E29.0797
G1 X134.747 Y105.6 E29.31501
G1 X122.049 Y105.6 E29.63176
G1 X122.049 Y129.4 E30.22545
G1 X124.449 Y129.4 E30.28532
G0 F3600 X124.179 Y129.13
G0 X124.221 Y109.17
G0 X131.577 Y109.17
G0 X131.931 Y119.86
G0 X151.565 Y119.859
G0 X151.565 Y116.205
G0 X135.217 Y115.933
G0 X135.217 Y115.186
;TYPE:WALL-OUTER
G1 F2100 X135.149 Y115.068 E30.28872
G1 X135.147 Y105.2 E30.53488
G1 X121.649 Y105.2 E30.87159
G1 X121.649 Y129.8 E31.48524
G1 X124.849 Y129.8 E31.56506
G1 X124.849 Y109.998 E32.05902
G1 X124.914 Y109.849 E32.06308
G1 X125.014 Y109.8 E32.06586
G1 X130.798 Y109.798 E32.21014
G1 X130.949 Y109.949 E32.21546
G1 X130.949 Y120.831 E32.48692
