;FLAVOR:Marlin
;TIME:1082
;Filament used: 1.22455m
;Layer height: 0.15
;MINX:89.466
;MINY:99.964
;MINZ:0.3
;MAXX:145.535
;MAXY:135.037
;MAXZ:3.45
;Generated with Cura_SteamEngine 5.3.1
M140 S55
M105
M190 S55
M104 S200
M105
M109 S200
M82 ;absolute extrusion mode
G90
G92 E0 ; Reset Extruder
G28 ; Home all axes
BED_MESH_CALIBRATE
G1 Z2.0 F3000
G1 X5.1 Y20 Z0.3 F5000.0
G1 X5.1 Y200.0 Z0.3 F1500.0 E15
G1 X5.4 Y200.0 Z0.3 F5000.0
G1 X5.4 Y20 Z0.3 F1500.0 E30
G92 E0
G1 Z2.0 F3000
G1 X5 Y20 Z0.3 F5000.0
G92 E0
G92 E0
G1 F1500 E-1
;LAYER_COUNT:22
;LAYER:0
M107
M204 S1000
G0 F3600 X94.4 Y101.941 Z0.3
;TYPE:SUPPORT
G1 F1500 E0
G1 F2100 X94.4 Y105.595 E0.1823
G1 X94.395 Y105.6
G1 X90.91 Y105.6 E0.35617
G0 F3600 X90.8 Y105.833
G1 F2100 X90.8 Y113.614 E0.74436
G1 X90.779 Y113.6
G1 X92.845 Y113.6 E0.84743
G1 X92.8 Y113.489
G1 X92.8 Y114.372 E0.89149
G0 F3600 X92.4 Y114.338
G1 F2100 X92.4 Y111.808 E1.01771
G1 X92.432 Y112
G1 X89.656 Y112 E1.15621
G0 F3600 X89.6 Y111.79
G1 F2100 X89.6 Y109.909 E1.25005
G1 X89.576 Y110
G1 X92.39 Y110 E1.39044
G1 X92.4 Y109.94
G1 X92.4 Y104.082 E1.6827
G1 X92.557 Y104
G1 X96.377 Y104 E1.87328
G1 X96.4 Y103.986
G1 X96.4 Y100.978 E2.02335
G0 F3600 X96.8 Y100.944
G1 F2100 X96.8 Y103.776 E2.16464
G0 F3600 X97.16 Y103.6
G1 F2100 X93.199 Y103.6 E2.36225
G1 X93.2 Y103.598
G1 X93.2 Y107.342 E2.54904
G1 X93.274 Y107.2
G1 X90.512 Y107.2 E2.68684
G0 F3600 X90.52 Y107.6
G1 F2100 X93.063 Y107.6 E2.81371
G0 F3600 X92.903 Y108
G1 F2100 X90.495 Y108 E2.93384
G0 F3600 X90.4 Y108.304
G1 F2100 X90.4 Y113.239 E3.18005
G1 X90.361 Y113.2
G1 X92.705 Y113.2 E3.29699
G0 F3600 X92.593 Y112.8
G1 F2100 X90.06 Y112.8 E3.42337
G1 X90 Y112.713
G1 X90 Y108.975 E3.60986
G0 F3600 X90.112 Y108.8
G1 F2100 X92.633 Y108.8 E3.73563
G0 F3600 X92.521 Y109.2
G1 F2100 X89.879 Y109.2 E3.86744
G0 F3600 X89.691 Y109.6
G1 F2100 X92.455 Y109.6 E4.00534
G0 F3600 X92.364 Y110.4
G1 F2100 X89.499 Y110.4 E4.14827
G0 F3600 X89.466 Y110.8
G1 F2100 X92.342 Y110.8 E4.29175
G0 F3600 X92.357 Y111.2
G1 F2100 X89.49 Y111.2 E4.43479
G0 F3600 X89.548 Y111.6
G1 F2100 X92.379 Y111.6 E4.57603
G0 F3600 X92.498 Y112.4
G1 F2100 X89.831 Y112.4 E4.70909
G1 F1500 E3.70909
G0 F3600 X91.2 Y113.894
G1 F1500 E4.70909
G1 F2100 X91.2 Y105.131 E5.14627
G1 X91.153 Y105.2
G1 X94.791 Y105.2 E5.32777
G1 X94.8 Y105.192
G1 X94.8 Y101.61 E5.50648
G1 X94.815 Y101.6
G1 X103.605 Y101.6 E5.94502
G1 X103.6 Y101.594
G1 X103.6 Y103.381 E6.03417
G0 F3600 X103.2 Y103.235
G1 F2100 X103.2 Y101.081 E6.14163
G1 X103.319 Y101.2
G1 X95.538 Y101.2 E6.52983
G1 X95.6 Y101.17
G1 X95.6 Y104.514 E6.69666
G1 X95.745 Y104.4
G1 X91.916 Y104.4 E6.88769
G1 X92 Y104.34
G1 X92 Y114.233 E7.38126
G0 F3600 X91.6 Y114.089
G1 F2100 X91.6 Y104.671 E7.85112
G1 X91.471 Y104.8
G1 X95.233 Y104.8 E8.03881
G1 X95.2 Y104.826
G1 X95.2 Y101.357 E8.21188
G0 F3600 X96 Y101.055
G1 F2100 X96 Y104.237 E8.37063
G1 F1500 E7.37063
G0 F3600 X97.2 Y103.581
G1 F1500 E8.37063
G1 F2100 X97.2 Y100.954 E8.50169
G0 F3600 X97.6 Y100.969
G1 F2100 X97.6 Y103.423 E8.62412
G0 F3600 X98 Y103.276
G1 F2100 X98 Y100.903 E8.74251
G0 F3600 X98.24 Y100.8
G1 F2100 X102.919 Y100.8 E8.97595
G1 X102.8 Y100.715
G1 X102.8 Y103.132 E9.09653
G0 F3600 X103.061 Y103.2
G1 F2100 X104.142 Y103.2 E9.15046
G0 F3600 X104 Y103.529
G1 F2100 X104 Y102.449 E9.20434
G1 X103.987 Y102.4
G1 X94.002 Y102.4 E9.7025
G1 X94 Y102.402
G1 X94 Y106.071 E9.88554
G1 X94.059 Y106
G1 X90.723 Y106 E10.05198
G0 F3600 X90.616 Y106.4
G1 F2100 X93.764 Y106.4 E10.20903
G0 F3600 X93.6 Y106.644
G1 F2100 X93.6 Y103.072 E10.38724
G1 X93.516 Y103.2
G1 X98.251 Y103.2 E10.62347
G1 X98.4 Y103.162
G1 X98.4 Y100.72 E10.7453
G0 F3600 X98.8 Y100.476
G1 F2100 X98.8 Y103.059 E10.87417
G0 F3600 X99.2 Y102.984
G1 F2100 X99.2 Y100.274 E11.00937
G0 F3600 X98.933 Y100.4
G1 F2100 X102.328 Y100.4 E11.17875
G1 X102.4 Y100.435
G1 X102.4 Y103.029 E11.30816
G0 F3600 X102 Y102.966
G1 F2100 X102 Y100.247 E11.44381
G0 F3600 X101.6 Y100.109
G1 F2100 X101.6 Y102.905 E11.58331
G0 F3600 X101.2 Y102.877
G1 F2100 X101.2 Y100.01 E11.72634
G1 X101.092 Y100
G1 X100.168 Y100 E11.77244
G1 X100 Y100.016
G1 X100 Y102.884 E11.91553
G0 F3600 X100.4 Y102.864
G1 F2100 X100.4 Y99.98 E12.05941
G0 F3600 X100.8 Y99.976
G1 F2100 X100.8 Y102.858 E12.20319
G1 F1500 E11.20319
G0 F3600 X99.6 Y102.923
G1 F1500 E12.20319
G1 F2100 X99.6 Y100.124 E12.34284
G1 F1500 E11.34284
G0 F3600 X103.823 Y102
G1 F1500 E12.34284
G1 F2100 X94.341 Y102 E12.8159
G0 F3600 X93.743 Y102.8
G1 F2100 X104.094 Y102.8 E13.33231
G1 F1500 E12.33231
G0 F3600 X99.789 Y102.889
G0 X98.931 Y103.02
G0 X98.093 Y103.236
G0 X97.281 Y103.537
G0 X96.505 Y103.916
G0 X95.775 Y104.372
G0 X95.097 Y104.899
G0 X94.48 Y105.492
G0 X93.494 Y106.8
G1 F1500 E13.33231
G1 F2100 X90.546 Y106.8 E13.47938
G1 F1500 E12.47938
G0 F3600 X90.364 Y108.4
G1 F1500 E13.47938
G1 F2100 X92.745 Y108.4 E13.59817
G1 X92.8 Y108.259
G1 X92.8 Y103.871 E13.81709
G1 F1500 E12.81709
G0 F3600 X92.334 Y110.873
G0 X92.381 Y111.715
G0 X92.517 Y112.547
G0 X93.005 Y114
G1 F1500 E13.81709
G1 F2100 X91.409 Y114 E13.89672
G1 F1500 E12.89672
G0 F3600 X92.4 Y122.94
G1 F1500 E13.89672
G1 F2100 X92.4 Y123.027 E13.90106
G1 X92.389 Y123.2
G1 X91.844 Y123.2 E13.92825
G1 X92 Y123.127
G1 X92 Y130.213 E14.28177
G1 X92.058 Y130.4
G1 X95.489 Y130.4 E14.45294
G1 X95.6 Y130.487
G1 X95.6 Y133.205 E14.58854
G1 X95.581 Y133.2
G1 X102.105 Y133.2 E14.91403
G1 X102 Y133.353
G1 X102 Y132.033 E14.97988
G0 F3600 X102.222 Y132
G1 F2100 X102.545 Y132 E14.996
G1 X102.4 Y131.973
G1 X102.4 Y132.607 E15.02763
G0 F3600 X102.308 Y132.8
G1 F2100 X94.014 Y132.8 E15.44142
G1 X94 Y132.792
G1 X94 Y128.93 E15.63409
G1 X93.899 Y128.8
G1 X90.77 Y128.8 E15.7902
G1 X90.8 Y128.829
G1 X90.8 Y123.951 E16.03356
G1 X90.75 Y124
G1 X92.344 Y124 E16.11309
G0 F3600 X92.353 Y124.4
G1 F2100 X90.438 Y124.4 E16.20863
G1 X90.4 Y124.454
G1 X90.4 Y128.325 E16.40175
G1 X90.451 Y128.4
G1 X93.629 Y128.4 E16.5603
G1 X93.6 Y128.357
G1 X93.6 Y132.57 E16.77049
G0 F3600 X93.355 Y132.4
G1 F2100 X102.455 Y132.4 E17.22449
G0 F3600 X101.6 Y132.094
G1 F2100 X101.6 Y133.839 E17.31155
G0 F3600 X101.438 Y134
G1 F2100 X96.741 Y134 E17.54589
G1 X96.8 Y134.057
G1 X96.8 Y131.225 E17.68717
G1 X96.75 Y131.2
G1 X92.368 Y131.2 E17.90579
G1 X92.4 Y131.264
G1 X92.4 Y125.06 E18.21531
G1 X92.423 Y125.2
G1 X90.017 Y125.2 E18.33535
G1 X90 Y125.263
G1 X90 Y127.516 E18.44775
G1 X90.021 Y127.6
G1 X93.168 Y127.6 E18.60476
G1 X93.2 Y127.659
G1 X93.2 Y132.279 E18.83525
G0 F3600 X92.92 Y132
G1 F2100 X99.093 Y132 E19.14322
G1 X99.2 Y132.017
G1 X99.2 Y134.89 E19.28655
G0 F3600 X98.8 Y134.874
G1 F2100 X98.8 Y131.942 E19.43283
G0 F3600 X98.4 Y131.84
G1 F2100 X98.4 Y134.827 E19.58185
G1 X98.297 Y134.8
G1 X99.88 Y134.8 E19.66083
G1 X100 Y134.769
G1 X100 Y132.117 E19.79314
G0 F3600 X100.4 Y132.137
G1 F2100 X100.4 Y134.642 E19.91811
G0 F3600 X100.8 Y134.455
G1 F2100 X100.8 Y132.141 E20.03356
G0 F3600 X101.2 Y132.122
G1 F2100 X101.2 Y134.188 E20.13663
G0 F3600 X100.895 Y134.4
G1 F2100 X97.282 Y134.4 E20.31689
G1 X97.2 Y134.341
G1 X97.2 Y131.421 E20.46257
G0 F3600 X97.6 Y131.579
G1 F2100 X97.6 Y134.557 E20.61114
G0 F3600 X98 Y134.719
G1 F2100 X98 Y131.726 E20.76046
G0 F3600 X97.659 Y131.6
G1 F2100 X92.607 Y131.6 E21.01251
G0 F3600 X92.8 Y131.873
G1 F2100 X92.8 Y126.742 E21.26849
G1 X92.823 Y126.8
G1 X89.844 Y126.8 E21.41712
G0 F3600 X89.81 Y126.4
G1 F2100 X92.689 Y126.4 E21.56075
G0 F3600 X92.577 Y126
G1 F2100 X89.843 Y126 E21.69715
G0 F3600 X89.909 Y125.6
G1 F2100 X92.488 Y125.6 E21.82582
G0 F3600 X92.375 Y124.8
G1 F2100 X90.199 Y124.8 E21.93438
G1 F1500 E20.93438
G0 F3600 X91.186 Y123.6
G1 F1500 E21.93438
G1 F2100 X92.366 Y123.6 E21.99325
G0 F3600 X91.6 Y123.314
G1 F2100 X91.6 Y129.545 E22.30411
G1 X91.656 Y129.6
G1 X94.583 Y129.6 E22.45014
G0 F3600 X94.4 Y129.406
G1 F2100 X94.4 Y132.961 E22.6275
G0 F3600 X94.8 Y133.067
G1 F2100 X94.8 Y129.809 E22.79004
G0 F3600 X94.999 Y130
G1 F2100 X91.931 Y130 E22.94311
G0 F3600 X92.185 Y130.8
G1 F2100 X96.058 Y130.8 E23.13633
G1 X96 Y130.764
G1 X96 Y133.374 E23.26655
G0 F3600 X96.319 Y133.6
G1 F2100 X101.825 Y133.6 E23.54124
G1 F1500 E22.54124
G0 F3600 X99.6 Y134.856
G1 F1500 E23.54124
G1 F2100 X99.6 Y132.078 E23.67984
G1 F1500 E22.67984
G0 F3600 X98.094 Y131.764
G0 X96.4 Y131.014
G1 F1500 E23.67984
G1 F2100 X96.4 Y133.664 E23.81204
G1 F1500 E22.81204
G0 F3600 X95.2 Y133.126
G1 F1500 E23.81204
G1 F2100 X95.2 Y130.175 E23.95927
G1 F1500 E22.95927
G0 F3600 X94.227 Y129.2
G1 F1500 E23.95927
G1 F2100 X91.212 Y129.2 E24.10969
G1 X91.2 Y129.19
G1 X91.2 Y123.59 E24.38907
G1 F1500 E23.38907
G0 F3600 X89.914 Y127.2
G1 F1500 E24.38907
G1 F2100 X92.982 Y127.2 E24.54214
G0 F3600 X93.38 Y128
G1 F2100 X90.208 Y128 E24.70039
G1 F1500 E23.70039
G0 F3600 X97.281 Y131.464
G0 X98.094 Y131.764
G0 X98.931 Y131.98
G0 X99.789 Y132.111
G0 X100.656 Y132.155
G0 X118.229 Y132.116
G0 X130.841 Y131.6
G1 F1500 E24.70039
G1 F2100 X131.347 Y131.6 E24.72563
G1 X131.2 Y131.546
G1 X131.2 Y133.047 E24.80052
G1 X131.271 Y133.2
G1 X140.459 Y133.2 E25.25891
G1 X140.4 Y133.25
G1 X140.4 Y129.616 E25.44021
G1 X140.416 Y129.6
G1 X143.986 Y129.6 E25.61832
G1 X144 Y129.583
G1 X144 Y121.246 E26.03425
G1 X143.937 Y121.2
G1 X142.075 Y121.2 E26.12715
G0 F3600 X142 Y121.011
G1 F2100 X142 Y120.611 E26.14711
G0 F3600 X141.916 Y120.8
G1 F2100 X143.131 Y120.8 E26.20772
G1 X143.2 Y120.82
G1 X143.2 Y130.52 E26.69166
G1 X143.328 Y130.4
G1 X139.51 Y130.4 E26.88214
G1 X139.6 Y130.33
G1 X139.6 Y133.736 E27.05206
G0 F3600 X139.89 Y133.6
G1 F2100 X131.535 Y133.6 E27.4689
G1 X131.6 Y133.692
G1 X131.6 Y131.694 E27.56858
G0 F3600 X132 Y131.817
G1 F2100 X132 Y134.119 E27.68342
G1 X131.881 Y134
G1 X138.792 Y134 E28.02822
G1 X138.8 Y133.998
G1 X138.8 Y130.888 E28.18337
G1 X138.941 Y130.8
G1 X142.796 Y130.8 E28.3757
G1 X142.8 Y130.799
G1 X142.8 Y120.713 E28.87889
G0 F3600 X142.4 Y120.645
G1 F2100 X142.4 Y122.174 E28.95518
G1 X142.351 Y122
G1 X144.801 Y122 E29.07741
G1 X144.8 Y122.001
G1 X144.8 Y126.342 E29.29398
G1 X144.762 Y126.4
G1 X142.311 Y126.4 E29.41626
G0 F3600 X142.4 Y126.081
G1 F2100 X142.4 Y131.024 E29.66287
G0 F3600 X142.064 Y131.2
G1 F2100 X138.25 Y131.2 E29.85315
G1 X138.4 Y131.126
G1 X138.4 Y134.039 E29.99848
G0 F3600 X138 Y134.054
G1 F2100 X138 Y131.322 E30.13478
G0 F3600 X137.6 Y131.504
G1 F2100 X137.6 Y134.038 E30.2612
G0 F3600 X137.2 Y134.054
G1 F2100 X137.2 Y131.651 E30.38109
G1 X137.341 Y131.6
G1 X141.617 Y131.6 E30.59442
G1 X141.6 Y131.627
G1 X141.6 Y128.037 E30.77352
G1 X141.62 Y128
G1 X144.471 Y128 E30.91576
G0 F3600 X144.474 Y127.6
G1 F2100 X141.831 Y127.6 E31.04762
G0 F3600 X142 Y127.242
G1 F2100 X142 Y131.234 E31.24678
G1 F1500 E30.24678
G0 F3600 X141.351 Y132
G1 F1500 E31.24678
G1 F2100 X135.907 Y132 E31.51838
G1 X136 Y131.985
G1 X136 Y134.632 E31.65044
G0 F3600 X135.639 Y134.8
G1 F2100 X133.1 Y134.8 E31.77712
G1 X133.2 Y134.838
G1 X133.2 Y132.064 E31.91551
G0 F3600 X133.6 Y132.113
G1 F2100 X133.6 Y134.945 E32.0568
G0 F3600 X134 Y135.007
G1 F2100 X134 Y132.132 E32.20023
G0 F3600 X134.4 Y132.146
G1 F2100 X134.4 Y135.037 E32.34447
G0 F3600 X134.8 Y135.003
G1 F2100 X134.8 Y132.126 E32.488
G0 F3600 X135.2 Y132.106
G1 F2100 X135.2 Y134.93 E32.62889
G0 F3600 X135.6 Y134.819
G1 F2100 X135.6 Y132.046 E32.76724
G0 F3600 X136.4 Y131.89
G1 F2100 X136.4 Y134.385 E32.89171
G1 X136.378 Y134.4
G1 X132.363 Y134.4 E33.09202
G1 X132.4 Y134.425
G1 X132.4 Y131.92 E33.217
G0 F3600 X132.782 Y132
G1 F2100 X130.872 Y132 E33.31229
G0 F3600 X130.958 Y132.4
G1 F2100 X141.138 Y132.4 E33.82017
G1 X141.2 Y132.312
G1 X141.2 Y128.652 E34.00277
G1 X141.1 Y128.8
G1 X144.33 Y128.8 E34.16391
G0 F3600 X144.4 Y128.544
G1 F2100 X144.4 Y121.561 E34.5123
G1 X144.44 Y121.6
G1 X142.235 Y121.6 E34.6223
G0 F3600 X142.463 Y122.4
G1 F2100 X145.076 Y122.4 E34.75267
G0 F3600 X145.2 Y122.667
G1 F2100 X145.2 Y125.633 E34.90064
G1 X145.214 Y125.6
G1 X142.512 Y125.6 E35.03544
G0 F3600 X142.578 Y125.2
G1 F2100 X145.37 Y125.2 E35.17474
G0 F3600 X145.477 Y124.8
G1 F2100 X142.625 Y124.8 E35.31702
G0 F3600 X142.647 Y124.4
G1 F2100 X145.517 Y124.4 E35.46021
G0 F3600 X145.527 Y124
G1 F2100 X142.655 Y124 E35.60349
G0 F3600 X142.632 Y123.6
G1 F2100 X145.493 Y123.6 E35.74623
G0 F3600 X145.398 Y123.2
G1 F2100 X142.601 Y123.2 E35.88577
G0 F3600 X142.535 Y122.8
G1 F2100 X145.263 Y122.8 E36.02187
G1 F1500 E35.02187
G0 F3600 X143.6 Y121.005
G1 F1500 E36.02187
G1 F2100 X143.6 Y130.129 E36.47707
G1 X143.706 Y130
G1 X140 Y130 E36.66197
G1 X140 Y133.53 E36.83808
G0 F3600 X139.2 Y133.891
G1 F2100 X139.2 Y130.638 E37.00037
G1 F1500 E36.00037
G0 F3600 X140.772 Y129.2
G1 F1500 E37.00037
G1 F2100 X144.183 Y129.2 E37.17055
G0 F3600 X144.437 Y128.4
G1 F2100 X141.371 Y128.4 E37.32351
G0 F3600 X140.8 Y129.167
G1 F2100 X140.8 Y132.859 E37.5077
G1 X140.858 Y132.8
G1 X131.084 Y132.8 E37.99533
G1 F1500 E36.99533
G0 F3600 X132.8 Y132.003
G1 F1500 E37.99533
G1 F2100 X132.8 Y134.659 E38.12784
G1 F1500 E37.12784
G0 F3600 X136.8 Y134.18
G1 F1500 E38.12784
G1 F2100 X136.8 Y131.787 E38.24723
G1 F1500 E37.24723
G0 F3600 X137.719 Y131.464
G0 X138.495 Y131.084
G0 X139.225 Y130.628
G0 X139.903 Y130.101
G0 X140.52 Y129.508
G0 X141.069 Y128.855
G0 X142.017 Y127.2
G1 F1500 E38.24723
G1 F2100 X144.492 Y127.2 E38.3707
G0 F3600 X144.566 Y126.8
G1 F2100 X142.177 Y126.8 E38.48989
G0 F3600 X142.423 Y126
G1 F2100 X145.014 Y126 E38.61916
G1 F1500 E37.61916
G0 F3600 X142.8 Y114.288
G1 F1500 E38.61916
G1 F2100 X142.8 Y104.201 E39.1224
G0 F3600 X143.087 Y104.4
G1 F2100 X139.255 Y104.4 E39.31358
G1 X139.2 Y104.361
G1 X139.2 Y101.11 E39.47577
G0 F3600 X139.465 Y101.2
G1 F2100 X131.68 Y101.2 E39.86417
G1 X131.6 Y101.307
G1 X131.6 Y103.308 E39.964
G0 F3600 X131.934 Y103.2
G1 F2100 X130.859 Y103.2 E40.01763
G0 F3600 X130.906 Y102.8
G1 F2100 X141.266 Y102.8 E40.53449
G1 X141.2 Y102.688
G1 X141.2 Y106.347 E40.71704
G1 X141.236 Y106.4
G1 X144.386 Y106.4 E40.87419
G1 X144.4 Y106.457
G1 X144.4 Y113.439 E41.22253
G0 F3600 X144.219 Y113.6
G1 F2100 X142.155 Y113.6 E41.3255
G0 F3600 X142 Y113.988
G1 F2100 X142 Y114.389 E41.34551
G0 F3600 X141.995 Y114
G1 F2100 X143.588 Y114 E41.42498
G1 X143.6 Y113.996
G1 X143.6 Y104.871 E41.88023
G1 X143.53 Y104.8
G1 X139.768 Y104.8 E42.06792
G0 F3600 X139.6 Y104.669
G1 F2100 X139.6 Y101.265 E42.23774
G0 F3600 X140 Y101.471
G1 F2100 X140 Y104.999 E42.41376
G0 F3600 X140.209 Y105.2
G1 F2100 X143.849 Y105.2 E42.59536
G0 F3600 X144 Y105.418
G1 F2100 X144 Y113.755 E43.01129
G0 F3600 X144.638 Y113.2
G1 F2100 X142.296 Y113.2 E43.12813
G0 F3600 X142.4 Y112.828
G1 F2100 X142.4 Y114.356 E43.20437
G0 F3600 X143.2 Y114.181
G1 F2100 X143.2 Y104.481 E43.6883
G0 F3600 X142.413 Y104
G1 F2100 X138.624 Y104 E43.87734
G0 F3600 X138.8 Y104.111
G1 F2100 X138.8 Y101.003 E44.03239
G0 F3600 X138.4 Y100.963
G1 F2100 X138.4 Y103.873 E44.17757
G0 F3600 X138 Y103.678
G1 F2100 X138 Y100.953 E44.31353
G0 F3600 X137.6 Y100.972
G1 F2100 X137.6 Y103.496 E44.43945
G0 F3600 X137.841 Y103.6
G1 F2100 X141.792 Y103.6 E44.63656
G0 F3600 X142 Y103.751
G1 F2100 X142 Y107.758 E44.83647
G1 X141.937 Y107.6
G1 X144.481 Y107.6 E44.9634
G0 F3600 X144.49 Y107.2
G1 F2100 X141.725 Y107.2 E45.10134
G0 F3600 X141.6 Y106.963
G1 F2100 X141.6 Y103.39 E45.2796
G0 F3600 X141.48 Y103.2
G1 F2100 X136.752 Y103.2 E45.51548
G1 X136.8 Y103.213
G1 X136.8 Y100.836 E45.63407
G1 X136.727 Y100.8
G1 X132.08 Y100.8 E45.86591
G1 X132 Y100.881
G1 X132 Y103.185 E45.98086
G0 F3600 X132.4 Y103.082
G1 F2100 X132.4 Y100.574 E46.10598
G0 F3600 X132.671 Y100.4
G1 F2100 X136.069 Y100.4 E46.27551
G1 X136 Y100.369
G1 X136 Y103.014 E46.40747
G0 F3600 X135.6 Y102.953
G1 F2100 X135.6 Y100.182 E46.54571
G0 F3600 X135.2 Y100.071
G1 F2100 X135.2 Y102.893 E46.6865
G0 F3600 X134.8 Y102.873
G1 F2100 X134.8 Y99.998 E46.82994
G1 X134.844 Y100
G1 X133.897 Y100 E46.87718
G1 X134 Y99.992
G1 X134 Y102.869 E47.02072
G0 F3600 X134.4 Y102.853
G1 F2100 X134.4 Y99.964 E47.16485
G0 F3600 X133.6 Y100.054
G1 F2100 X133.6 Y102.888 E47.30624
G0 F3600 X133.2 Y102.937
G1 F2100 X133.2 Y100.161 E47.44473
G0 F3600 X132.8 Y100.34
G1 F2100 X132.8 Y102.998 E47.57734
G1 F1500 E46.57734
G0 F3600 X131.2 Y103.456
G1 F1500 E47.57734
G1 F2100 X131.2 Y101.952 E47.65238
G1 X131.178 Y102
G1 X140.66 Y102 E48.12544
