;FLAVOR:Marlin
;TIME:7931
;Filament used: 18.4271m
;Layer height: 0.25
;MINX:70.95
;MINY:70.95
;MINZ:0.3
;MAXX:154.05
;MAXY:154.05
;MAXZ:45.8
;TARGET_MACHINE.NAME:Unknown
;Generated with Cura_SteamEngine 5.6.0
M140 S50
M105
M190 S50
M104 S210
M105
M109 S210
M82 ;absolute extrusion mode
G90
G92 E0 ; Reset Extruder
G28 ; Home all axes
BED_MESH_CALIBRATE
G1 Z2.0 F3000
G1 X5.1 Y20 Z0.3 F5000.0
G1 X5.1 Y200.0 Z0.3 F1500.0 E15
G1 X5.4 Y200.0 Z0.3 F5000.0
G1 X5.4 Y20 Z0.3 F1500.0 E30
G92 E0
G1 Z2.0 F3000
G1 X5 Y20 Z0.3 F5000.0
G92 E0
G92 E0
G1 F2400 E-6
;LAYER_COUNT:183
;LAYER:0
M107
M204 S1000
;MESH:2x2x6_Post-it.3mf
G0 F3900 X74.549 Y76.904 Z0.3
;TYPE:WALL-INNER
G1 F2400 E0
G1 F3600 X74.965 Y76.129 E0.04388
G1 X75.494 Y75.494 E0.08512
G1 X76.129 Y74.965 E0.12635
G1 X76.904 Y74.549 E0.17023
G1 X74.549 Y74.549 E0.28772
G1 X74.549 Y76.904 E0.40522
G0 F3900 X74.406 Y78.5
G0 X74.484 Y79.298
G0 X74.718 Y80.067
G0 X75.097 Y80.775
G0 X75.606 Y81.394
G0 X76.225 Y81.903
G0 X76.933 Y82.282
G0 X77.702 Y82.516
G0 X78.5 Y82.594
G0 X80.118 Y82.324
G0 X79.978 Y82.061
G1 F3600 X79.257 Y82.275 E0.44274
G1 X78.502 Y82.353 E0.4806
G1 X77.746 Y82.279 E0.5185
G1 X77.022 Y82.06 E0.55624
G1 X76.366 Y81.71 E0.59333
G1 X75.772 Y81.222 E0.63169
G1 X75.292 Y80.636 E0.66948
G1 X74.967 Y80.028 E0.70387
G1 F3243.2 X74.678 Y79.248 E0.74994
G1 F3000 X74.623 Y78.501 E0.79478
G1 F3018.9 X74.673 Y77.8 E0.83659
G1 F3257.9 X74.967 Y76.972 E0.88503
G1 F3600 X75.292 Y76.363 E0.91947
G1 X75.777 Y75.777 E0.95742
G1 X76.363 Y75.292 E0.99537
G1 X76.972 Y74.967 E1.02981
G1 F3243.2 X77.752 Y74.678 E1.07587
G1 F3000 X78.499 Y74.623 E1.12072
G1 F3018.9 X79.2 Y74.673 E1.16253
G1 F3257.9 X80.028 Y74.967 E1.21097
G1 F3600 X80.636 Y75.292 E1.24536
G1 X81.222 Y75.772 E1.28315
G1 X81.71 Y76.366 E1.3215
G1 X82.06 Y77.022 E1.3586
G1 X82.279 Y77.746 E1.39634
G1 X82.353 Y78.5 E1.43413
G1 X82.279 Y79.255 E1.47198
G1 X82.06 Y79.97 E1.50929
G1 X81.719 Y80.614 E1.54564
G1 X81.223 Y81.223 E1.58483
G1 X80.614 Y81.719 E1.62401
G1 X79.978 Y82.061 E1.66004
G0 F3900 X80.118 Y82.324
G0 X77.636 Y82.832
G0 X74.737 Y80.885
G0 X74.737 Y102.115
G0 X77.637 Y100.168
G0 X79.529 Y100.555
G0 X80.775 Y101.097
G0 X81.394 Y101.606
G0 X81.903 Y102.225
G0 X82.282 Y102.933
G0 X82.516 Y103.702
G0 X82.594 Y104.5
G0 X82.516 Y105.298
G0 X82.282 Y106.067
G0 X81.903 Y106.775
G0 X81.394 Y107.394
G0 X80.775 Y107.903
G0 X79.272 Y108.579
G0 X79.248 Y108.322
G1 F3000 X78.501 Y108.377 E1.70488
G1 F3018.9 X77.8 Y108.327 E1.7467
G1 F3257.9 X76.972 Y108.033 E1.79513
G1 F3600 X76.363 Y107.708 E1.82957
G1 X75.777 Y107.223 E1.86752
G1 X75.292 Y106.637 E1.90547
G1 X74.967 Y106.028 E1.93991
G1 F3243.2 X74.678 Y105.248 E1.98598
G1 F3000 X74.623 Y104.501 E2.03082
G1 F3018.9 X74.673 Y103.8 E2.07263
G1 F3257.9 X74.967 Y102.972 E2.12107
G1 F3600 X75.292 Y102.364 E2.15546
G1 X75.772 Y101.778 E2.19326
G1 X76.366 Y101.29 E2.23161
G1 X77.022 Y100.94 E2.2687
G1 X77.746 Y100.721 E2.30644
G1 X78.5 Y100.647 E2.34424
G1 X79.255 Y100.721 E2.38209
G1 X79.97 Y100.94 E2.41939
G1 X80.614 Y101.281 E2.45575
G1 X81.223 Y101.777 E2.49493
G1 X81.719 Y102.386 E2.53412
G1 X82.06 Y103.03 E2.57047
G1 X82.279 Y103.745 E2.60778
G1 X82.353 Y104.5 E2.64563
G1 X82.279 Y105.254 E2.68343
G1 X82.06 Y105.978 E2.72116
G1 X81.71 Y106.634 E2.75826
G1 X81.222 Y107.228 E2.79661
G1 X80.636 Y107.708 E2.8344
G1 X80.028 Y108.033 E2.8688
G1 F3243.2 X79.248 Y108.322 E2.91486
G0 F3900 X79.272 Y108.579
G0 X105.272 Y108.579
G0 X105.248 Y108.322
G1 F3000 X104.501 Y108.377 E2.95971
G1 F3018.9 X103.8 Y108.327 E3.00152
G1 F3257.9 X102.972 Y108.033 E3.04996
G1 F3600 X102.364 Y107.708 E3.08435
G1 X101.778 Y107.228 E3.12214
G1 X101.29 Y106.634 E3.1605
G1 X100.94 Y105.978 E3.19759
G1 X100.721 Y105.254 E3.23533
G1 X100.647 Y104.5 E3.27312
G1 X100.721 Y103.745 E3.31097
G1 X100.94 Y103.03 E3.34828
G1 X101.281 Y102.386 E3.38464
G1 X101.777 Y101.777 E3.42382
G1 X102.386 Y101.281 E3.46301
G1 X103.03 Y100.94 E3.49936
G1 X103.745 Y100.721 E3.53667
G1 X104.5 Y100.647 E3.57452
G1 X105.254 Y100.721 E3.61231
G1 X105.974 Y100.939 E3.64985
G1 X106.635 Y101.292 E3.68723
G1 X107.228 Y101.778 E3.72548
G1 X107.705 Y102.361 E3.76306
G1 X108.033 Y102.972 E3.79766
G1 F3257.9 X108.327 Y103.8 E3.8461
G1 F3025.2 X108.377 Y104.5 E3.88776
G1 F3012.6 X108.323 Y105.248 E3.93247
G1 F3243.2 X108.033 Y106.028 E3.97856
G1 F3600 X107.704 Y106.64 E4.01322
G1 X107.223 Y107.223 E4.05093
G1 X106.637 Y107.708 E4.08888
G1 X106.028 Y108.033 E4.12332
G1 F3243.2 X105.248 Y108.322 E4.16938
G0 F3900 X105.272 Y108.579
G0 X108.515 Y108.533
G0 X108.632 Y108.813
G1 F3600 X108.741 Y108.741 E4.1759
G1 X108.813 Y108.632 E4.18242
G1 X108.85 Y108.443 E4.19203
G1 X108.851 Y106.033 E4.31226
G1 F3243.2 X108.807 Y105.29 E4.35348
G1 F3070.4 X108.826 Y104.5 E4.39971
G1 F3083.5 X108.809 Y103.777 E4.44183
G1 F3096.8 X108.828 Y103.602 E4.45204
G1 F3404.3 X108.851 Y102.967 E4.48556
G1 F3600 X108.851 Y80.033 E5.62974
G1 F3243.2 X108.807 Y79.29 E5.67096
G1 F3070.4 X108.826 Y78.5 E5.71719
G1 F3083.5 X108.809 Y77.777 E5.75931
G1 F3096.8 X108.828 Y77.602 E5.76952
G1 F3404.3 X108.851 Y76.967 E5.80305
G1 F3600 X108.851 Y74.556 E5.92333
G1 X108.814 Y74.368 E5.93289
G1 X108.632 Y74.186 E5.94573
G1 X108.444 Y74.149 E5.95529
G1 X106.033 Y74.149 E6.07558
G1 F3404.3 X105.398 Y74.172 E6.1091
G1 F3096.8 X105.223 Y74.191 E6.11931
G1 F3083.5 X104.5 Y74.174 E6.16143
G1 F3063.8 X103.71 Y74.193 E6.20776
G1 F3243.2 X102.967 Y74.149 E6.24897
G1 F3600 X80.033 Y74.149 E7.39316
G1 F3404.3 X79.398 Y74.172 E7.42668
G1 F3096.8 X79.223 Y74.191 E7.43689
G1 F3083.5 X78.5 Y74.174 E7.47901
G1 F3063.8 X77.71 Y74.193 E7.52534
G1 F3243.2 X76.967 Y74.149 E7.56656
G1 F3600 X74.556 Y74.149 E7.68684
G1 X74.368 Y74.186 E7.6964
G1 X74.186 Y74.368 E7.70924
G1 X74.149 Y74.556 E7.7188
G1 X74.149 Y76.967 E7.83909
G1 F3404.3 X74.172 Y77.602 E7.87261
G1 F3096.8 X74.191 Y77.777 E7.88282
G1 F3083.5 X74.174 Y78.5 E7.92494
G1 F3063.8 X74.193 Y79.29 E7.97127
G1 F3243.2 X74.149 Y80.033 E8.01249
G1 F3600 X74.149 Y102.967 E9.15667
G1 F3404.3 X74.172 Y103.602 E9.19019
G1 F3096.8 X74.191 Y103.777 E9.2004
G1 F3083.5 X74.174 Y104.5 E9.24252
G1 F3063.8 X74.193 Y105.29 E9.28885
G1 F3243.2 X74.149 Y106.033 E9.33007
G1 F3600 X74.149 Y108.443 E9.4503
G1 X74.187 Y108.632 E9.45992
G1 X74.259 Y108.741 E9.46644
G1 X74.368 Y108.813 E9.47295
G1 X74.556 Y108.851 E9.48252
G1 X76.967 Y108.851 E9.60281
G1 F3404.3 X77.602 Y108.828 E9.63633
G1 F3096.8 X77.777 Y108.809 E9.64654
G1 F3083.5 X78.5 Y108.826 E9.68867
G1 F3063.8 X79.29 Y108.807 E9.73499
G1 F3243.2 X80.033 Y108.851 E9.77621
G1 F3600 X102.967 Y108.851 E10.92039
G1 F3404.3 X103.602 Y108.828 E10.95391
G1 F3096.8 X103.777 Y108.809 E10.96412
G1 F3083.5 X104.5 Y108.826 E11.00625
G1 F3063.8 X105.29 Y108.807 E11.05257
G1 F3243.2 X106.033 Y108.851 E11.09379
G1 F3600 X108.444 Y108.85 E11.21407
G1 X108.632 Y108.813 E11.22363
G0 F3900 X108.515 Y108.533
G0 X108.56 Y106.246
G0 X108.578 Y79.273
G0 X108.323 Y79.248
G1 F3243.2 X108.033 Y80.028 E11.26972
G1 F3600 X107.705 Y80.639 E11.30431
G1 X107.228 Y81.222 E11.3419
G1 X106.635 Y81.708 E11.38015
G1 X105.974 Y82.061 E11.41753
G1 X105.254 Y82.279 E11.45506
G1 X104.5 Y82.353 E11.49286
G1 X103.745 Y82.279 E11.53071
G1 X103.03 Y82.06 E11.56802
G1 X102.386 Y81.719 E11.60437
G1 X101.777 Y81.223 E11.64356
G1 X101.281 Y80.614 E11.68274
G1 X100.94 Y79.97 E11.7191
G1 X100.721 Y79.255 E11.7564
G1 X100.647 Y78.5 E11.79425
G1 X100.721 Y77.746 E11.83205
G1 X100.94 Y77.022 E11.86979
G1 X101.29 Y76.366 E11.90688
G1 X101.778 Y75.772 E11.94524
G1 X102.364 Y75.292 E11.98303
G1 X102.972 Y74.967 E12.01742
G1 F3243.2 X103.752 Y74.678 E12.06349
G1 F3000 X104.499 Y74.623 E12.10833
G1 F3018.9 X105.2 Y74.673 E12.15014
G1 F3257.9 X106.028 Y74.967 E12.19858
G1 F3600 X106.637 Y75.292 E12.23302
G1 X107.223 Y75.777 E12.27097
G1 X107.704 Y76.36 E12.30868
G1 X108.033 Y76.972 E12.34334
G1 F3257.9 X108.327 Y77.8 E12.39178
G1 F3018.9 X108.377 Y78.5 E12.43353
G1 F3006.3 X108.323 Y79.248 E12.47834
G0 F3900 X108.578 Y79.273
G0 X108.451 Y76.904
G1 F3600 X108.451 Y74.549 E12.59583
G1 X106.096 Y74.549 E12.71332
G1 X106.871 Y74.965 E12.7572
G1 X107.506 Y75.494 E12.79843
G1 X108.039 Y76.136 E12.84006
G1 X108.451 Y76.904 E12.88354
G0 F3900 X108.594 Y78.5
G0 X108.594 Y104.5
G0 X108.516 Y105.298
G0 X108.282 Y106.067
G0 X107.903 Y106.775
G0 X106.096 Y108.451
G1 F3600 X108.45 Y108.449 E13.00099
G1 X108.451 Y106.096 E13.11838
G1 X108.039 Y106.864 E13.16186
G1 X107.506 Y107.506 E13.20349
G1 X106.871 Y108.035 E13.24472
G1 X106.096 Y108.451 E13.2886
G0 F3900 X104.66 Y108.58
G0 X102.904 Y108.451
G1 F3600 X102.132 Y108.037 E13.33231
G1 X101.49 Y107.509 E13.37378
G1 X100.958 Y106.861 E13.41561
G1 X100.568 Y106.131 E13.4569
G1 X100.327 Y105.333 E13.49849
G1 X100.246 Y104.5 E13.54024
G1 X100.327 Y103.664 E13.58214
G1 X100.569 Y102.881 E13.62303
G1 X100.964 Y102.132 E13.66528
G1 X101.494 Y101.494 E13.70666
G1 X102.13 Y100.965 E13.74793
G1 X102.878 Y100.565 E13.79025
G1 X103.663 Y100.333 E13.83109
G1 X104.496 Y100.245 E13.87288
G1 X105.335 Y100.327 E13.91493
G1 X106.132 Y100.57 E13.9565
G1 X106.86 Y100.959 E13.99768
G1 X107.509 Y101.491 E14.03955
G1 X108.04 Y102.139 E14.08135
G1 X108.451 Y102.904 E14.12467
G1 X108.451 Y80.096 E15.26257
G1 X108.04 Y80.861 E15.30589
G1 X107.51 Y81.509 E15.34766
G1 X106.86 Y82.041 E15.38956
G1 X106.132 Y82.43 E15.43074
G1 X105.334 Y82.673 E15.47236
G1 X104.5 Y82.754 E15.51417
G1 X103.664 Y82.673 E15.55607
G1 X102.881 Y82.431 E15.59696
G1 X102.132 Y82.036 E15.6392
G1 X101.494 Y81.506 E15.68058
G1 X100.965 Y80.87 E15.72185
G1 X100.565 Y80.122 E15.76417
G1 X100.333 Y79.337 E15.80501
G1 X100.245 Y78.504 E15.8468
G1 X100.327 Y77.666 E15.88881
G1 X100.568 Y76.869 E15.93035
G1 X100.958 Y76.139 E15.97164
G1 X101.49 Y75.491 E16.01347
G1 X102.132 Y74.963 E16.05494
G1 X102.904 Y74.549 E16.09864
G1 X80.096 Y74.549 E17.23654
G1 X80.868 Y74.963 E17.28024
G1 X81.51 Y75.491 E17.32171
G1 X82.042 Y76.139 E17.36354
G1 X82.432 Y76.869 E17.40483
G1 X82.673 Y77.667 E17.44642
G1 X82.754 Y78.5 E17.48818
G1 X82.673 Y79.336 E17.53008
G1 X82.431 Y80.119 E17.57097
G1 X82.036 Y80.868 E17.61321
G1 X81.506 Y81.506 E17.65459
G1 X80.87 Y82.035 E17.69586
G1 X80.122 Y82.435 E17.73818
G1 X79.337 Y82.667 E17.77902
G1 X78.504 Y82.755 E17.82081
G1 X77.666 Y82.673 E17.86282
G1 X76.869 Y82.432 E17.90436
G1 X76.139 Y82.042 E17.94565
G1 X75.491 Y81.51 E17.98748
G1 X74.963 Y80.868 E18.02895
G1 X74.549 Y80.096 E18.07265
G1 X74.549 Y102.904 E19.21055
G1 X74.963 Y102.132 E19.25425
G1 X75.491 Y101.49 E19.29572
G1 X76.139 Y100.958 E19.33755
G1 X76.869 Y100.568 E19.37884
G1 X77.667 Y100.327 E19.42043
G1 X78.5 Y100.246 E19.46219
G1 X79.336 Y100.327 E19.50409
G1 X80.119 Y100.569 E19.54498
G1 X80.868 Y100.964 E19.58722
G1 X81.506 Y101.494 E19.6286
G1 X82.035 Y102.13 E19.66987
G1 X82.435 Y102.878 E19.71219
G1 X82.667 Y103.663 E19.75303
G1 X82.755 Y104.496 E19.79482
G1 X82.673 Y105.334 E19.83683
G1 X82.432 Y106.131 E19.87837
G1 X82.042 Y106.861 E19.91966
G1 X81.51 Y107.509 E19.96149
G1 X80.868 Y108.037 E20.00296
G1 X80.096 Y108.451 E20.04666
G1 X102.904 Y108.451 E21.18456
G0 F3900 X78.5 Y108.594
G0 X76.904 Y108.451
G1 F3600 X76.129 Y108.035 E21.22844
G1 X75.494 Y107.506 E21.26967
G1 X74.965 Y106.871 E21.31091
G1 X74.549 Y106.096 E21.35479
G1 X74.549 Y108.451 E21.47228
G1 X76.904 Y108.451 E21.58977
G0 F3900 X78.412 Y108.645
G0 X78.48 Y107.949
;TYPE:WALL-OUTER
G1 F3600 X77.843 Y107.887 E21.6217
G1 X77.16 Y107.68 E21.65731
G1 X76.57 Y107.36 E21.6908
G1 X76.06 Y106.94 E21.72376
G1 X75.618 Y106.397 E21.75869
G1 X75.305 Y105.803 E21.79219
G1 X75.115 Y105.172 E21.82506
G1 X75.051 Y104.48 E21.85973
G1 X75.113 Y103.843 E21.89166
G1 X75.32 Y103.16 E21.92727
G1 X75.64 Y102.57 E21.96076
G1 X76.075 Y102.047 E21.99469
G1 X76.603 Y101.618 E22.02863
G1 X77.197 Y101.305 E22.06213
G1 X77.843 Y101.113 E22.09575
G1 X78.52 Y101.051 E22.12967
G1 X79.157 Y101.113 E22.1616
G1 X79.82 Y101.311 E22.19612
G1 X80.406 Y101.623 E22.22924
G1 X80.933 Y102.054 E22.26321
G1 X81.371 Y102.585 E22.29755
G1 X81.683 Y103.166 E22.33045
G1 X81.887 Y103.843 E22.36573
G1 X81.949 Y104.52 E22.39964
G1 X81.887 Y105.157 E22.43157
G1 X81.68 Y105.84 E22.46718
G1 X81.382 Y106.397 E22.4987
G1 X80.925 Y106.953 E22.5346
G1 X80.397 Y107.382 E22.56854
G1 X79.803 Y107.695 E22.60204
G1 X79.172 Y107.885 E22.63492
G1 X78.48 Y107.949 E22.66959
G0 F3900 X78.281 Y107.93
G0 X78.213 Y108.626
G0 X104.412 Y108.645
G0 X104.48 Y107.949
G1 F3600 X103.843 Y107.887 E22.70152
G1 X103.16 Y107.68 E22.73712
G1 X102.57 Y107.36 E22.77061
G1 X102.047 Y106.925 E22.80455
G1 X101.618 Y106.397 E22.83849
G1 X101.305 Y105.803 E22.87199
G1 X101.113 Y105.157 E22.90561
G1 X101.051 Y104.48 E22.93953
G1 X101.113 Y103.843 E22.97146
G1 X101.311 Y103.18 E23.00598
G1 X101.623 Y102.594 E23.0391
G1 X102.06 Y102.06 E23.07352
G1 X102.585 Y101.629 E23.10741
G1 X103.166 Y101.317 E23.14031
G1 X103.843 Y101.113 E23.17559
G1 X104.52 Y101.051 E23.20951
G1 X105.157 Y101.113 E23.24144
G1 X105.84 Y101.32 E23.27704
G1 X106.397 Y101.618 E23.30856
G1 X106.953 Y102.075 E23.34446
G1 X107.382 Y102.603 E23.37841
G1 X107.695 Y103.197 E23.4119
G1 X107.887 Y103.843 E23.44552
G1 X107.949 Y104.52 E23.47944
G1 X107.885 Y105.172 E23.51213
G1 X107.68 Y105.84 E23.54699
G1 X107.382 Y106.397 E23.5785
G1 X106.94 Y106.94 E23.61343
G1 X106.397 Y107.382 E23.64836
G1 X105.803 Y107.695 E23.68186
G1 X105.172 Y107.885 E23.71474
G1 X104.48 Y107.949 E23.74941
G0 F3900 X104.281 Y107.93
G0 X104.213 Y108.626
G0 X108.526 Y108.526
G0 X109.029 Y109.029
G1 F3600 X109.191 Y108.788 E23.7639
G1 X109.25 Y108.481 E23.77949
G1 X109.251 Y74.518 E25.47392
G1 X109.191 Y74.212 E25.48947
G1 X109.029 Y73.971 E25.50396
G1 X108.788 Y73.809 E25.51845
G1 X108.482 Y73.749 E25.534
G1 X74.518 Y73.749 E27.22848
G1 X74.212 Y73.809 E27.24403
G1 X73.971 Y73.971 E27.25852
G1 X73.809 Y74.212 E27.27301
G1 X73.749 Y74.518 E27.28856
G1 X73.749 Y108.481 E28.98299
G1 X73.809 Y108.788 E28.99859
G1 X73.971 Y109.029 E29.01308
G1 X74.212 Y109.191 E29.02757
G1 X74.518 Y109.251 E29.04312
G1 X108.482 Y109.25 E30.73759
G1 X108.788 Y109.191 E30.75314
G1 X109.029 Y109.029 E30.76763
G0 F3900 X109.14 Y108.863
G0 X108.533 Y108.515
G0 X108.594 Y104.5
G0 X108.264 Y80.883
G0 X105.914 Y82.462
G0 X104.412 Y82.645
G0 X104.48 Y81.949
G1 F3600 X103.843 Y81.887 E30.79956
G1 X103.18 Y81.689 E30.83408
G1 X102.594 Y81.377 E30.8672
G1 X102.06 Y80.94 E30.90163
G1 X101.629 Y80.415 E30.93552
G1 X101.317 Y79.834 E30.96842
G1 X101.113 Y79.157 E31.00369
G1 X101.051 Y78.48 E31.03761
G1 X101.113 Y77.843 E31.06954
G1 X101.32 Y77.16 E31.10514
G1 X101.618 Y76.603 E31.13666
G1 X102.075 Y76.047 E31.17257
G1 X102.603 Y75.618 E31.20651
G1 X103.197 Y75.305 E31.24001
G1 X103.828 Y75.115 E31.27288
G1 X104.52 Y75.051 E31.30755
G1 X105.157 Y75.113 E31.33948
G1 X105.84 Y75.32 E31.37509
G1 X106.43 Y75.64 E31.40858
G1 X106.94 Y76.06 E31.44154
G1 X107.382 Y76.603 E31.47647
G1 X107.695 Y77.197 E31.50997
G1 X107.887 Y77.843 E31.54359
G1 X107.949 Y78.48 E31.57552
G1 X107.885 Y79.172 E31.61019
G1 X107.68 Y79.84 E31.64505
G1 X107.382 Y80.397 E31.67657
G1 X106.925 Y80.953 E31.71247
G1 X106.397 Y81.382 E31.74641
G1 X105.803 Y81.695 E31.77991
G1 X105.157 Y81.887 E31.81353
G1 X104.48 Y81.949 E31.84745
G0 F3900 X104.281 Y81.93
G0 X104.213 Y82.626
G0 X102.049 Y82.173
G0 X100.176 Y79.37
G0 X100.823 Y76.051
G0 X102.115 Y74.737
G0 X80.885 Y74.737
G0 X82.832 Y77.637
G0 X82.173 Y80.951
G0 X80.467 Y82.322
G0 X78.412 Y82.645
G0 X78.48 Y81.949
G1 F3600 X77.843 Y81.887 E31.87938
G1 X77.16 Y81.68 E31.91499
G1 X76.603 Y81.382 E31.9465
G1 X76.047 Y80.925 E31.98241
