;FLAVOR:Marlin
;TIME:1629
;Filament used: 1.34699m
;Layer height: 0.2
;MINX:103.5
;MINY:103.5
;MINZ:0.2
;MAXX:131.5
;MAXY:131.5
;MAXZ:20
;POSTPROCESSED
;Generated with Cura_SteamEngine 5.3.1
M140 S50
M105
M190 S50
M104 S200
M105
M109 S200
M82 ;absolute extrusion mode
G90
G92 E0 ; Reset Extruder
G28 ; Home all axes
BED_MESH_CALIBRATE
G1 Z2.0 F3000
G1 X5.1 Y20 Z0.3 F5000.0
G1 X5.1 Y200.0 Z0.3 F1500.0 E15
G1 X5.4 Y200.0 Z0.3 F5000.0
G1 X5.4 Y20 Z0.3 F1500.0 E30
G92 E0
G1 Z2.0 F3000
G1 X5 Y20 Z0.3 F5000.0
G92 E0
G92 E0
G1 F1500 E-1
;LAYER_COUNT:100
;LAYER:0
M107
G0 F3600 X105.289 Y105.204 Z0.2
;TYPE:SKIRT
G1 F1500 E0
G1 F1200 X105.68 Y104.883 E0.01683
G1 X106.117 Y104.628 E0.03365
G1 X106.588 Y104.444 E0.05047
G1 X107.082 Y104.338 E0.06728
G1 X107.527 Y104.301 E0.08213
G1 X126.839 Y104.3 E0.72445
G1 X127.537 Y104.31 E0.74767
G1 X128.04 Y104.357 E0.76447
G1 X128.53 Y104.483 E0.7813
G1 X128.994 Y104.685 E0.79813
G1 X129.42 Y104.957 E0.81494
G1 X129.798 Y105.292 E0.83174
G1 X130.118 Y105.683 E0.84854
G1 X130.373 Y106.12 E0.86537
G1 X130.556 Y106.591 E0.88218
G1 X130.663 Y107.085 E0.89899
G1 X130.699 Y107.74 E0.92081
G1 X130.7 Y126.804 E1.55488
G1 X130.691 Y127.531 E1.57906
G1 X130.645 Y128.034 E1.59586
G1 X130.52 Y128.524 E1.61268
G1 X130.319 Y128.988 E1.6295
G1 X130.048 Y129.415 E1.64632
G1 X129.713 Y129.794 E1.66314
G1 X129.323 Y130.115 E1.67994
G1 X128.887 Y130.371 E1.69676
G1 X128.416 Y130.554 E1.71357
G1 X127.922 Y130.662 E1.73038
G1 X127.472 Y130.699 E1.7454
G1 X108.166 Y130.7 E2.38752
G1 X107.468 Y130.691 E2.41074
G1 X106.964 Y130.644 E2.42758
G1 X106.474 Y130.519 E2.4444
G1 X106.01 Y130.318 E2.46121
G1 X105.584 Y130.047 E2.47801
G1 X105.205 Y129.712 E2.49483
G1 X104.884 Y129.321 E2.51166
G1 X104.629 Y128.885 E2.52846
G1 X104.445 Y128.414 E2.54527
G1 X104.338 Y127.92 E2.56209
G1 X104.301 Y127.467 E2.5772
G1 X104.3 Y108.131 E3.22032
G1 X104.309 Y107.466 E3.24244
G1 X104.356 Y106.962 E3.25928
G1 X104.482 Y106.473 E3.27607
G1 X104.683 Y106.009 E3.29289
G1 X104.954 Y105.582 E3.30971
G1 X105.289 Y105.204 E3.32651
G0 F3600 X105.035 Y104.895
G1 F1200 X105.478 Y104.538 E3.34543
G1 X105.971 Y104.255 E3.36434
G1 X106.442 Y104.071 E3.38116
G1 X107.049 Y103.939 E3.40182
G1 X107.494 Y103.902 E3.41667
G1 X126.845 Y103.9 E4.06029
G1 X127.543 Y103.91 E4.08351
G1 X128.14 Y103.97 E4.10346
G1 X128.69 Y104.116 E4.12239
G1 X129.154 Y104.318 E4.13922
G1 X129.635 Y104.62 E4.15811
G1 X130.108 Y105.039 E4.17913
G1 X130.428 Y105.43 E4.19593
G1 X130.746 Y105.975 E4.21692
G1 X130.929 Y106.446 E4.23373
G1 X131.054 Y107 E4.25262
G1 X131.099 Y107.74 E4.27727
G1 X131.1 Y126.809 E4.91151
G1 X131.091 Y127.536 E4.93569
G1 X131.033 Y128.133 E4.95564
G1 X130.908 Y128.623 E4.97246
G1 X130.657 Y129.202 E4.99345
G1 X130.348 Y129.68 E5.01238
G1 X129.967 Y130.103 E5.03132
G1 X129.526 Y130.46 E5.05019
G1 X129.032 Y130.744 E5.06914
G1 X128.501 Y130.945 E5.08803
G1 X127.955 Y131.061 E5.10659
G1 X127.505 Y131.098 E5.12161
G1 X108.161 Y131.1 E5.76499
G1 X107.463 Y131.091 E5.78821
G1 X106.865 Y131.032 E5.8082
G1 X106.375 Y130.907 E5.82502
G1 X105.851 Y130.685 E5.84394
G1 X105.319 Y130.347 E5.86491
G1 X104.94 Y130.012 E5.88173
G1 X104.575 Y129.575 E5.90067
G1 X104.256 Y129.031 E5.92164
G1 X104.072 Y128.56 E5.93846
G1 X103.939 Y127.953 E5.95913
G1 X103.902 Y127.5 E5.97425
G1 X103.9 Y108.126 E6.61863
G1 X103.909 Y107.461 E6.64075
G1 X103.969 Y106.862 E6.66077
G1 X104.115 Y106.314 E6.67963
G1 X104.345 Y105.795 E6.69851
G1 X104.616 Y105.368 E6.71534
G1 X105.035 Y104.895 E6.73635
G0 F3600 X104.759 Y104.604
G1 F1200 X105.279 Y104.191 E6.75844
G1 X105.825 Y103.882 E6.77931
G1 X106.296 Y103.698 E6.79612
G1 X107.016 Y103.54 E6.82064
G1 X107.461 Y103.503 E6.83549
G1 X126.851 Y103.5 E7.48041
G1 X127.549 Y103.51 E7.50362
G1 X128.243 Y103.583 E7.52683
G1 X128.793 Y103.729 E7.54576
G1 X129.314 Y103.951 E7.5646
G1 X129.848 Y104.281 E7.58548
G1 X130.418 Y104.786 E7.6108
G1 X130.738 Y105.177 E7.62761
G1 X131.119 Y105.83 E7.65275
G1 X131.302 Y106.301 E7.66956
G1 X131.444 Y106.912 E7.69042
G1 X131.499 Y107.74 E7.71802
G1 X131.5 Y126.814 E8.35243
G1 X131.491 Y127.541 E8.37661
G1 X131.421 Y128.232 E8.39971
G1 X131.296 Y128.722 E8.41653
G1 X131.011 Y129.392 E8.44075
G1 X130.645 Y129.948 E8.46289
G1 X130.219 Y130.414 E8.48389
G1 X129.778 Y130.771 E8.50276
G1 X129.231 Y131.091 E8.52384
G1 X128.643 Y131.319 E8.54481
G1 X127.988 Y131.46 E8.5671
G1 X127.538 Y131.497 E8.58211
G1 X108.156 Y131.5 E9.22676
G1 X107.458 Y131.491 E9.24998
G1 X106.766 Y131.42 E9.27312
G1 X106.276 Y131.295 E9.28993
G1 X105.636 Y131.023 E9.31306
G1 X105.104 Y130.685 E9.33403
G1 X104.675 Y130.312 E9.35294
G1 X104.247 Y129.806 E9.37498
G1 X103.883 Y129.177 E9.39915
G1 X103.681 Y128.646 E9.41805
G1 X103.54 Y127.986 E9.44049
G1 X103.503 Y127.533 E9.45561
G1 X103.5 Y108.121 E10.10125
G1 X103.511 Y107.421 E10.12454
G1 X103.582 Y106.759 E10.14668
G1 X103.728 Y106.211 E10.16555
G1 X103.979 Y105.633 E10.18651
G1 X104.278 Y105.154 E10.20529
G1 X104.759 Y104.604 E10.22959
G1 F1500 E9.22959
;MESH:xyzCalibration_cube.stl
G0 F3600 X107.914 Y106.835
G0 X107.914 Y107.914
G0 X126.328 Y108.672
G0 X126.5 Y126.5
;TYPE:WALL-INNER
G1 F1500 E10.22959
G1 F1200 X126.5 Y108.5 E10.82827
G1 X108.5 Y108.5 E11.42695
G1 X108.5 Y126.5 E12.02564
G1 X126.5 Y126.5 E12.62432
G0 F3600 X126.9 Y126.9
G1 F1200 X126.9 Y108.1 E13.24961
G1 X108.1 Y108.1 E13.8749
G1 X108.1 Y126.9 E14.50019
G1 X126.9 Y126.9 E15.12548
G0 F3600 X127.3 Y127.3
;TYPE:WALL-OUTER
G1 F1200 X127.3 Y107.7 E15.77738
G1 X107.7 Y107.7 E16.42928
G1 X107.7 Y127.3 E17.08118
G1 X127.3 Y127.3 E17.73307
G0 F3600 X127.3 Y127.1
G0 X126.63 Y126.63
G0 X126.12 Y126.12
;TYPE:SKIN
G1 F1200 X108.88 Y126.12 E18.30648
G1 X108.88 Y108.88 E18.87988
G1 X126.12 Y108.88 E19.45329
G1 X126.12 Y126.12 E20.02669
G0 F3600 X126.4 Y126.12
G0 X126.4 Y109.514
G0 X125.919 Y109.514
G1 F1200 X125.485 Y109.08 E20.04711
G0 F3600 X124.919 Y109.08
G1 F1200 X125.919 Y110.08 E20.09414
G0 F3600 X125.919 Y110.645
G1 F1200 X124.353 Y109.08 E20.16778
G0 F3600 X123.788 Y109.08
G1 F1200 X125.919 Y111.211 E20.26802
G0 F3600 X125.919 Y111.777
G1 F1200 X123.222 Y109.08 E20.39487
G0 F3600 X122.656 Y109.08
G1 F1200 X125.919 Y112.343 E20.54836
G0 F3600 X125.919 Y112.908
G1 F1200 X122.091 Y109.08 E20.72841
G0 F3600 X121.525 Y109.08
G1 F1200 X125.919 Y113.474 E20.93509
G0 F3600 X125.919 Y114.04
G1 F1200 X120.959 Y109.08 E21.1684
G0 F3600 X120.394 Y109.08
G1 F1200 X125.919 Y114.605 E21.42828
G0 F3600 X125.919 Y115.171
G1 F1200 X119.828 Y109.08 E21.71478
G0 F3600 X119.262 Y109.08
G1 F1200 X125.919 Y115.737 E22.0279
G0 F3600 X125.919 Y116.302
G1 F1200 X118.697 Y109.08 E22.3676
G0 F3600 X118.131 Y109.08
G1 F1200 X125.919 Y116.868 E22.73393
G0 F3600 X125.919 Y117.434
G1 F1200 X117.565 Y109.08 E23.12687
G0 F3600 X117 Y109.08
G1 F1200 X125.919 Y117.999 E23.5464
G0 F3600 X125.919 Y118.565
G1 F1200 X116.434 Y109.08 E23.99254
G0 F3600 X115.868 Y109.08
G1 F1200 X125.919 Y119.131 E24.46531
G0 F3600 X125.919 Y119.696
G1 F1200 X115.302 Y109.08 E24.96468
G0 F3600 X114.737 Y109.08
G1 F1200 X125.919 Y120.262 E25.49064
G0 F3600 X125.919 Y120.828
G1 F1200 X114.171 Y109.08 E26.04323
G0 F3600 X113.605 Y109.08
G1 F1200 X125.919 Y121.393 E26.62242
G0 F3600 X125.919 Y121.959
G1 F1200 X113.04 Y109.08 E27.22821
G0 F3600 X112.474 Y109.08
G1 F1200 X125.919 Y122.525 E27.86062
G0 F3600 X125.919 Y123.091
G1 F1200 X111.908 Y109.08 E28.51966
G0 F3600 X111.343 Y109.08
G1 F1200 X125.919 Y123.656 E29.20527
G0 F3600 X125.919 Y124.222
G1 F1200 X110.777 Y109.08 E29.9175
G0 F3600 X110.211 Y109.08
G1 F1200 X125.919 Y124.788 E30.65636
G0 F3600 X125.919 Y125.353
G1 F1200 X109.646 Y109.08 E31.42179
G0 F3600 X109.079 Y109.079
G1 F1200 X125.919 Y125.919 E32.21389
G0 F3600 X125.353 Y125.919
G1 F1200 X109.079 Y109.645 E32.97937
G0 F3600 X109.079 Y110.211
G1 F1200 X124.788 Y125.919 E33.71825
G0 F3600 X124.222 Y125.919
G1 F1200 X109.079 Y110.776 E34.43053
G0 F3600 X109.079 Y111.342
G1 F1200 X123.656 Y125.919 E35.11619
G0 F3600 X123.091 Y125.919
G1 F1200 X109.079 Y111.908 E35.77525
G0 F3600 X109.079 Y112.473
G1 F1200 X122.525 Y125.919 E36.40771
G0 F3600 X121.959 Y125.919
G1 F1200 X109.079 Y113.039 E37.01354
G0 F3600 X109.079 Y113.605
G1 F1200 X121.393 Y125.919 E37.59275
G0 F3600 X120.828 Y125.919
G1 F1200 X109.079 Y114.17 E38.14539
G0 F3600 X109.079 Y114.736
G1 F1200 X120.262 Y125.919 E38.6714
G0 F3600 X119.696 Y125.919
G1 F1200 X109.079 Y115.302 E39.1708
G0 F3600 X109.079 Y115.867
G1 F1200 X119.131 Y125.919 E39.64361
G0 F3600 X118.565 Y125.919
G1 F1200 X109.079 Y116.433 E40.0898
G0 F3600 X109.079 Y116.999
G1 F1200 X117.999 Y125.919 E40.50937
G0 F3600 X117.434 Y125.919
G1 F1200 X109.079 Y117.564 E40.90237
G0 F3600 X109.079 Y118.13
G1 F1200 X116.868 Y125.919 E41.26874
G0 F3600 X116.302 Y125.919
G1 F1200 X109.079 Y118.696 E41.60849
G0 F3600 X109.079 Y119.262
G1 F1200 X115.737 Y125.919 E41.92163
G0 F3600 X115.171 Y125.919
G1 F1200 X109.079 Y119.827 E42.20818
G0 F3600 X109.079 Y120.393
G1 F1200 X114.605 Y125.919 E42.46811
G0 F3600 X114.04 Y125.919
G1 F1200 X109.079 Y120.959 E42.70144
G0 F3600 X109.079 Y121.524
G1 F1200 X113.474 Y125.919 E42.90816
G0 F3600 X112.908 Y125.919
G1 F1200 X109.079 Y122.09 E43.08827
G0 F3600 X109.079 Y122.656
G1 F1200 X112.343 Y125.919 E43.24177
G0 F3600 X111.777 Y125.919
G1 F1200 X109.079 Y123.221 E43.36868
G0 F3600 X109.079 Y123.787
G1 F1200 X111.211 Y125.919 E43.46896
G0 F3600 X110.645 Y125.919
G1 F1200 X109.079 Y124.353 E43.54262
G0 F3600 X109.079 Y124.918
G1 F1200 X110.08 Y125.919 E43.5897
G0 F3600 X109.514 Y125.919
G1 F1200 X109.079 Y125.484 E43.61017
;MESH:NONMESH
G0 F600 X109.079 Y125.484 Z0.4
G0 F3600 X108.6 Y125.484
G0 X108.672 Y126.328
G0 X126.5 Y126.5
;TIME_ELAPSED:72.537604
;LAYER:1
M140 S45
M106 S255
;TYPE:WALL-INNER
;MESH:xyzCalibration_cube.stl
G1 F1350 X126.5 Y108.5 E44.20885
G1 X108.5 Y108.5 E44.80753
G1 X108.5 Y126.5 E45.40621
G1 X126.5 Y126.5 E46.0049
G0 F5400 X126.9 Y126.9
G1 F1350 X126.9 Y108.1 E46.63019
G1 X108.1 Y108.1 E47.25548
G1 X108.1 Y126.9 E47.88077
G1 X126.9 Y126.9 E48.50606
G0 F5400 X127.3 Y127.3
;TYPE:WALL-OUTER
G1 F1350 X127.3 Y107.7 E49.15796
G1 X107.7 Y107.7 E49.80985
G1 X107.7 Y127.3 E50.46175
G1 X127.3 Y127.3 E51.11365
G0 F5400 X127.3 Y127.1
G0 X126.63 Y126.63
G0 X126.12 Y126.12
;TYPE:SKIN
G1 F1500 X108.88 Y126.12 E51.68706
G1 X108.88 Y108.88 E52.26046
G1 X126.12 Y108.88 E52.83387
G1 X126.12 Y126.12 E53.40727
G0 F5400 X125.81 Y125.919
G1 F1500 X125.919 Y125.81 E53.4124
G0 F5400 X125.919 Y125.244
G1 F1500 X125.244 Y125.919 E53.44415
G0 F5400 X124.679 Y125.919
G1 F1500 X125.919 Y124.679 E53.50247
G0 F5400 X125.919 Y124.113
G1 F1500 X124.113 Y125.919 E53.58742
G0 F5400 X123.547 Y125.919
G1 F1500 X125.919 Y123.547 E53.69899
G0 F5400 X125.919 Y122.982
G1 F1500 X122.982 Y125.919 E53.83714
G0 F5400 X122.416 Y125.919
G1 F1500 X125.919 Y122.416 E54.00191
G0 F5400 X125.919 Y121.85
G1 F1500 X121.85 Y125.919 E54.1933
G0 F5400 X121.285 Y125.919
G1 F1500 X125.919 Y121.285 E54.41127
G0 F5400 X125.919 Y120.719
G1 F1500 X120.719 Y125.919 E54.65587
G0 F5400 X120.153 Y125.919
G1 F1500 X125.919 Y120.153 E54.92708
G0 F5400 X125.919 Y119.588
G1 F1500 X119.588 Y125.919 E55.22487
G0 F5400 X119.022 Y125.919
G1 F1500 X125.919 Y119.022 E55.54929
G0 F5400 X125.919 Y118.456
G1 F1500 X118.456 Y125.919 E55.90032
G0 F5400 X117.89 Y125.919
G1 F1500 X125.919 Y117.89 E56.27798
G0 F5400 X125.919 Y117.325
G1 F1500 X117.325 Y125.919 E56.68222
G0 F5400 X116.759 Y125.919
G1 F1500 X125.919 Y116.759 E57.11308
G0 F5400 X125.919 Y116.193
G1 F1500 X116.193 Y125.919 E57.57056
G0 F5400 X115.628 Y125.919
G1 F1500 X125.919 Y115.628 E58.05461
G0 F5400 X125.919 Y115.062
G1 F1500 X115.062 Y125.919 E58.56529
G0 F5400 X114.496 Y125.919
G1 F1500 X125.919 Y114.496 E59.1026
G0 F5400 X125.919 Y113.931
G1 F1500 X113.931 Y125.919 E59.66648
G0 F5400 X113.365 Y125.919
G1 F1500 X125.919 Y113.365 E60.25698
G0 F5400 X125.919 Y112.799
G1 F1500 X112.799 Y125.919 E60.8741
G0 F5400 X112.234 Y125.919
G1 F1500 X125.919 Y112.234 E61.5178
G0 F5400 X125.919 Y111.668
G1 F1500 X111.668 Y125.919 E62.18813
G0 F5400 X111.102 Y125.919
G1 F1500 X125.919 Y111.102 E62.88507
G0 F5400 X125.919 Y110.537
G1 F1500 X110.537 Y125.919 E63.60859
G0 F5400 X109.971 Y125.919
G1 F1500 X125.919 Y109.971 E64.35874
G0 F5400 X125.919 Y109.405
G1 F1500 X109.405 Y125.919 E65.13551
G0 F5400 X109.08 Y125.679
G1 F1500 X125.679 Y109.079 E65.9163
G0 F5400 X125.114 Y109.079
G1 F1500 X109.08 Y125.113 E66.67049
G0 F5400 X109.08 Y124.547
G1 F1500 X124.548 Y109.079 E67.39805
G0 F5400 X123.982 Y109.079
G1 F1500 X109.08 Y123.981 E68.099
G0 F5400 X109.08 Y123.416
G1 F1500 X123.417 Y109.079 E68.77337
G0 F5400 X122.851 Y109.079
G1 F1500 X109.08 Y122.85 E69.42111
G0 F5400 X109.08 Y122.284
G1 F1500 X122.285 Y109.079 E70.04224
G0 F5400 X121.719 Y109.079
G1 F1500 X109.08 Y121.719 E70.63676
G0 F5400 X109.08 Y121.153
G1 F1500 X121.154 Y109.079 E71.20468
G0 F5400 X120.588 Y109.079
G1 F1500 X109.08 Y120.587 E71.74598
G0 F5400 X109.08 Y120.022
G1 F1500 X120.022 Y109.079 E72.26069
G0 F5400 X119.457 Y109.079
G1 F1500 X109.08 Y119.456 E72.74879
G0 F5400 X109.08 Y118.89
G1 F1500 X118.891 Y109.079 E73.21027
G0 F5400 X118.325 Y109.079
G1 F1500 X109.08 Y118.325 E73.64515
G0 F5400 X109.08 Y117.759
G1 F1500 X117.76 Y109.079 E74.05343
G0 F5400 X117.194 Y109.079
G1 F1500 X109.08 Y117.193 E74.43509
G0 F5400 X109.08 Y116.628
G1 F1500 X116.628 Y109.079 E74.79014
G0 F5400 X116.063 Y109.079
G1 F1500 X109.08 Y116.062 E75.1186
G0 F5400 X109.08 Y115.496
G1 F1500 X115.497 Y109.079 E75.42044
G0 F5400 X114.931 Y109.079
G1 F1500 X109.08 Y114.931 E75.69567
G0 F5400 X109.08 Y114.365
G1 F1500 X114.366 Y109.079 E75.94431
G0 F5400 X113.8 Y109.079
G1 F1500 X109.08 Y113.799 E76.16633
G0 F5400 X109.08 Y113.233
G1 F1500 X113.234 Y109.079 E76.36172
G0 F5400 X112.668 Y109.079
G1 F1500 X109.08 Y112.668 E76.53051
G0 F5400 X109.08 Y112.102
G1 F1500 X112.103 Y109.079 E76.6727
G0 F5400 X111.537 Y109.079
G1 F1500 X109.08 Y111.536 E76.78827
G0 F5400 X109.08 Y110.971
G1 F1500 X110.971 Y109.079 E76.87724
G0 F5400 X110.406 Y109.079
G1 F1500 X109.08 Y110.405 E76.93961
G0 F5400 X109.08 Y109.839
G1 F1500 X109.84 Y109.079 E76.97536
G0 F5400 X109.274 Y109.079
G1 F1500 X109.08 Y109.274 E76.98451
;MESH:NONMESH
G0 F600 X109.08 Y109.274 Z0.6
G0 F5400 X108.6 Y109.274
G0 X108.672 Y126.328
G0 X126.5 Y126.5
;TIME_ELAPSED:115.503333
;LAYER:2
;TYPE:WALL-INNER
;MESH:xyzCalibration_cube.stl
G1 F1500 X126.5 Y108.5 E77.58319
G1 X108.5 Y108.5 E78.18188
G1 X108.5 Y126.5 E78.78056
G1 X126.5 Y126.5 E79.37924
G0 F7200 X126.9 Y126.9
G1 F1500 X126.9 Y108.1 E80.00453
G1 X108.1 Y108.1 E80.62982
G1 X108.1 Y126.9 E81.25511
G1 X126.9 Y126.9 E81.8804
G0 F7200 X127.3 Y127.3
;TYPE:WALL-OUTER
G1 F1500 X127.3 Y107.7 E82.5323
G1 X107.7 Y107.7 E83.1842
G1 X107.7 Y127.3 E83.8361
G1 X127.3 Y127.3 E84.488
G0 F7200 X127.3 Y127.1
G0 X126.63 Y126.63
G0 X126.12 Y126.12
;TYPE:SKIN
G1 F1800 X108.88 Y126.12 E85.0614
G1 X108.88 Y108.88 E85.63481
G1 X126.12 Y108.88 E86.20821
G1 X126.12 Y126.12 E86.78162
G0 F7200 X126.4 Y126.12
G0 X126.4 Y109.514
G0 X125.919 Y109.514
G1 F1800 X125.485 Y109.08 E86.80203
G0 F7200 X124.919 Y109.08
G1 F1800 X125.919 Y110.08 E86.84907
G0 F7200 X125.919 Y110.645
G1 F1800 X124.353 Y109.08 E86.9227
G0 F7200 X123.788 Y109.08
G1 F1800 X125.919 Y111.211 E87.02294
G0 F7200 X125.919 Y111.777
G1 F1800 X123.222 Y109.08 E87.1498
G0 F7200 X122.656 Y109.08
G1 F1800 X125.919 Y112.343 E87.30328
G0 F7200 X125.919 Y112.908
G1 F1800 X122.091 Y109.08 E87.48334
G0 F7200 X121.525 Y109.08
G1 F1800 X125.919 Y113.474 E87.69002
G0 F7200 X125.919 Y114.04
G1 F1800 X120.959 Y109.08 E87.92332
G0 F7200 X120.394 Y109.08
G1 F1800 X125.919 Y114.605 E88.1832
G0 F7200 X125.919 Y115.171
G1 F1800 X119.828 Y109.08 E88.4697
G0 F7200 X119.262 Y109.08
G1 F1800 X125.919 Y115.737 E88.78283
G0 F7200 X125.919 Y116.302
G1 F1800 X118.697 Y109.08 E89.12253
G0 F7200 X118.131 Y109.08
G1 F1800 X125.919 Y116.868 E89.48885
G0 F7200 X125.919 Y117.434
G1 F1800 X117.565 Y109.08 E89.8818
G0 F7200 X117 Y109.08
G1 F1800 X125.919 Y117.999 E90.30132
G0 F7200 X125.919 Y118.565
G1 F1800 X116.434 Y109.08 E90.74746
G0 F7200 X115.868 Y109.08
