;FLAVOR:Marlin
;TIME:1196
;Filament used: 1.39091m
;Layer height: 0.15
;MINX:103.5
;MINY:103.5
;MINZ:0.3
;MAXX:131.5
;MAXY:131.5
;MAXZ:19.95
;POSTPROCESSED
;Generated with Cura_SteamEngine 5.3.1
M82 ;absolute extrusion mode
; Ender 3 Custom Start G-code
G92 E0 ; Reset Extruder

M140 S50 ; set bed temp
M190 S50 ; wait for bed temp

G28 ; Home all axes
BED_MESH_CALIBRATE  AREA_START=103.5,103.5 AREA_END=131.5,131.5
M104 S200 ; set extruder temp 

G1 Z2.0 F3000 ; Move Z Axis up little to prevent scratching of Heat Bed
M109 S200 ; wait for extruder temp
G1 X0.1 Y20 Z0.3 F5000.0 ; Move to start position

G1 X0.1 Y200.0 Z0.3 F1500.0 E15 ; Draw the first line
G1 X0.4 Y200.0 Z0.3 F5000.0 ; Move to side a little
G1 X0.4 Y20 Z0.3 F1500.0 E30 ; Draw the second line
G92 E0 ; Reset Extruder
G1 Z2.0 F3000 ; Move Z Axis up little to prevent scratching of Heat Bed
G1 X5 Y20 Z0.3 F5000.0 ; Move over to prevent blob squish
G92 E0
G92 E0
G1 F1500 E-1
;LAYER_COUNT:132
;LAYER:0
M107
M204 S1000
G0 F3600 X105.289 Y105.204 Z0.3
;TYPE:SKIRT
G1 F1500 E0
G1 F2100 X105.68 Y104.883 E0.02524
G1 X106.117 Y104.628 E0.05048
G1 X106.588 Y104.444 E0.07571
G1 X107.082 Y104.338 E0.10092
G1 X107.527 Y104.301 E0.12319
G1 X126.839 Y104.3 E1.08667
G1 X127.537 Y104.31 E1.1215
G1 X128.04 Y104.357 E1.1467
G1 X128.53 Y104.483 E1.17195
G1 X128.994 Y104.685 E1.19719
G1 X129.42 Y104.957 E1.22241
G1 X129.798 Y105.292 E1.24761
G1 X130.118 Y105.683 E1.27282
G1 X130.373 Y106.12 E1.29806
G1 X130.556 Y106.591 E1.32327
G1 X130.663 Y107.085 E1.34848
G1 X130.699 Y107.74 E1.38121
G1 X130.7 Y126.804 E2.33232
G1 X130.691 Y127.531 E2.36859
G1 X130.645 Y128.034 E2.39379
G1 X130.52 Y128.524 E2.41902
G1 X130.319 Y128.988 E2.44425
G1 X130.048 Y129.415 E2.46948
G1 X129.713 Y129.794 E2.49472
G1 X129.323 Y130.115 E2.51992
G1 X128.887 Y130.371 E2.54514
G1 X128.416 Y130.554 E2.57035
G1 X127.922 Y130.662 E2.59558
G1 X127.472 Y130.699 E2.6181
G1 X108.166 Y130.7 E3.58128
G1 X107.468 Y130.691 E3.61611
G1 X106.964 Y130.644 E3.64136
G1 X106.474 Y130.519 E3.66659
G1 X106.01 Y130.318 E3.69182
G1 X105.584 Y130.047 E3.71701
G1 X105.205 Y129.712 E3.74225
G1 X104.884 Y129.321 E3.76749
G1 X104.629 Y128.885 E3.79268
G1 X104.445 Y128.414 E3.81791
G1 X104.338 Y127.92 E3.84313
G1 X104.301 Y127.467 E3.8658
G1 X104.3 Y108.131 E4.83048
G1 X104.309 Y107.466 E4.86366
G1 X104.356 Y106.962 E4.88892
G1 X104.482 Y106.473 E4.91411
G1 X104.683 Y106.009 E4.93934
G1 X104.954 Y105.582 E4.96457
G1 X105.289 Y105.204 E4.98977
G0 F3600 X105.035 Y104.895
G1 F2100 X105.478 Y104.538 E5.01815
G1 X105.971 Y104.255 E5.04651
G1 X106.442 Y104.071 E5.07174
G1 X107.049 Y103.939 E5.10273
G1 X107.494 Y103.902 E5.12501
G1 X126.845 Y103.9 E6.09043
G1 X127.543 Y103.91 E6.12526
G1 X128.14 Y103.97 E6.15519
G1 X128.69 Y104.116 E6.18358
G1 X129.154 Y104.318 E6.20883
G1 X129.635 Y104.62 E6.23717
G1 X130.108 Y105.039 E6.26869
G1 X130.428 Y105.43 E6.2939
G1 X130.746 Y105.975 E6.32538
G1 X130.929 Y106.446 E6.35059
G1 X131.054 Y107 E6.37892
G1 X131.099 Y107.74 E6.41591
G1 X131.1 Y126.809 E7.36727
G1 X131.091 Y127.536 E7.40354
G1 X131.033 Y128.133 E7.43346
G1 X130.908 Y128.623 E7.45869
G1 X130.657 Y129.202 E7.49018
G1 X130.348 Y129.68 E7.51857
G1 X129.967 Y130.103 E7.54698
G1 X129.526 Y130.46 E7.57528
G1 X129.032 Y130.744 E7.60371
G1 X128.501 Y130.945 E7.63204
G1 X127.955 Y131.061 E7.65989
G1 X127.505 Y131.098 E7.68241
G1 X108.161 Y131.1 E8.64749
G1 X107.463 Y131.091 E8.68231
G1 X106.865 Y131.032 E8.71229
G1 X106.375 Y130.907 E8.73752
G1 X105.851 Y130.685 E8.76591
G1 X105.319 Y130.347 E8.79736
G1 X104.94 Y130.012 E8.8226
G1 X104.575 Y129.575 E8.851
G1 X104.256 Y129.031 E8.88246
G1 X104.072 Y128.56 E8.90769
G1 X103.939 Y127.953 E8.93869
G1 X103.902 Y127.5 E8.96137
G1 X103.9 Y108.126 E9.92794
G1 X103.909 Y107.461 E9.96112
G1 X103.969 Y106.862 E9.99116
G1 X104.115 Y106.314 E10.01945
G1 X104.345 Y105.795 E10.04777
G1 X104.616 Y105.368 E10.073
G1 X105.035 Y104.895 E10.10453
G0 F3600 X104.759 Y104.604
G1 F2100 X105.279 Y104.191 E10.13766
G1 X105.825 Y103.882 E10.16896
G1 X106.296 Y103.698 E10.19419
G1 X107.016 Y103.54 E10.23096
G1 X107.461 Y103.503 E10.25324
G1 X126.851 Y103.5 E11.22061
G1 X127.549 Y103.51 E11.25544
G1 X128.243 Y103.583 E11.29025
G1 X128.793 Y103.729 E11.31864
G1 X129.314 Y103.951 E11.3469
G1 X129.848 Y104.281 E11.37821
G1 X130.418 Y104.786 E11.41621
G1 X130.738 Y105.177 E11.44141
G1 X131.119 Y105.83 E11.47913
G1 X131.302 Y106.301 E11.50434
G1 X131.444 Y106.912 E11.53564
G1 X131.499 Y107.74 E11.57704
G1 X131.5 Y126.814 E12.52864
G1 X131.491 Y127.541 E12.56492
G1 X131.421 Y128.232 E12.59957
G1 X131.296 Y128.722 E12.6248
G1 X131.011 Y129.392 E12.66112
G1 X130.645 Y129.948 E12.69433
G1 X130.219 Y130.414 E12.72583
G1 X129.778 Y130.771 E12.75414
G1 X129.231 Y131.091 E12.78575
G1 X128.643 Y131.319 E12.81722
G1 X127.988 Y131.46 E12.85064
G1 X127.538 Y131.497 E12.87317
G1 X108.156 Y131.5 E13.84014
G1 X107.458 Y131.491 E13.87497
G1 X106.766 Y131.42 E13.90967
G1 X106.276 Y131.295 E13.9349
G1 X105.636 Y131.023 E13.9696
G1 X105.104 Y130.685 E14.00104
G1 X104.675 Y130.312 E14.0294
G1 X104.247 Y129.806 E14.06247
G1 X103.883 Y129.177 E14.09872
G1 X103.681 Y128.646 E14.12707
G1 X103.54 Y127.986 E14.16074
G1 X103.503 Y127.533 E14.18341
G1 X103.5 Y108.121 E15.15188
G1 X103.511 Y107.421 E15.18681
G1 X103.582 Y106.759 E15.22003
G1 X103.728 Y106.211 E15.24832
G1 X103.979 Y105.633 E15.27976
G1 X104.278 Y105.154 E15.30793
G1 X104.759 Y104.604 E15.34438
G1 F1500 E14.34438
;MESH:xyzCalibration_cube.stl
G0 F3600 X107.914 Y106.835
G0 X107.914 Y107.914
G0 X126.328 Y108.672
G0 X126.5 Y126.5
;TYPE:WALL-INNER
G1 F1500 E15.34438
G1 F2100 X126.5 Y108.5 E16.24241
G1 X108.5 Y108.5 E17.14043
G1 X108.5 Y126.5 E18.03845
G1 X126.5 Y126.5 E18.93648
G0 F3600 X126.9 Y126.9
G1 F2100 X126.9 Y108.1 E19.87441
G1 X108.1 Y108.1 E20.81235
G1 X108.1 Y126.9 E21.75028
G1 X126.9 Y126.9 E22.68822
G0 F3600 X127.3 Y127.3
;TYPE:WALL-OUTER
G1 F2100 X127.3 Y107.7 E23.66607
G1 X107.7 Y107.7 E24.64392
G1 X107.7 Y127.3 E25.62176
G1 X127.3 Y127.3 E26.59961
G0 F3600 X127.3 Y127.1
G0 X126.63 Y126.63
G0 X126.12 Y126.12
;TYPE:SKIN
G1 F2100 X108.88 Y126.12 E27.45972
G1 X108.88 Y108.88 E28.31983
G1 X126.12 Y108.88 E29.17993
G1 X126.12 Y126.12 E30.04004
G0 F3600 X126.4 Y126.12
G0 X126.4 Y109.514
G0 X125.919 Y109.514
G1 F2100 X125.485 Y109.08 E30.07066
G0 F3600 X124.919 Y109.08
G1 F2100 X125.919 Y110.08 E30.14122
G0 F3600 X125.919 Y110.645
G1 F2100 X124.353 Y109.08 E30.25167
G0 F3600 X123.788 Y109.08
G1 F2100 X125.919 Y111.211 E30.40202
G0 F3600 X125.919 Y111.777
G1 F2100 X123.222 Y109.08 E30.59231
G0 F3600 X122.656 Y109.08
G1 F2100 X125.919 Y112.343 E30.82253
G0 F3600 X125.919 Y112.908
G1 F2100 X122.091 Y109.08 E31.09262
G0 F3600 X121.525 Y109.08
G1 F2100 X125.919 Y113.474 E31.40264
G0 F3600 X125.919 Y114.04
G1 F2100 X120.959 Y109.08 E31.7526
G0 F3600 X120.394 Y109.08
G1 F2100 X125.919 Y114.605 E32.14241
G0 F3600 X125.919 Y115.171
G1 F2100 X119.828 Y109.08 E32.57217
G0 F3600 X119.262 Y109.08
G1 F2100 X125.919 Y115.737 E33.04185
G0 F3600 X125.919 Y116.302
G1 F2100 X118.697 Y109.08 E33.55141
G0 F3600 X118.131 Y109.08
G1 F2100 X125.919 Y116.868 E34.10089
G0 F3600 X125.919 Y117.434
G1 F2100 X117.565 Y109.08 E34.69031
G0 F3600 X117 Y109.08
G1 F2100 X125.919 Y117.999 E35.31959
G0 F3600 X125.919 Y118.565
G1 F2100 X116.434 Y109.08 E35.98881
G0 F3600 X115.868 Y109.08
G1 F2100 X125.919 Y119.131 E36.69797
G0 F3600 X125.919 Y119.696
G1 F2100 X115.302 Y109.08 E37.44702
G0 F3600 X114.737 Y109.08
G1 F2100 X125.919 Y120.262 E38.23597
G0 F3600 X125.919 Y120.828
G1 F2100 X114.171 Y109.08 E39.06485
G0 F3600 X113.605 Y109.08
G1 F2100 X125.919 Y121.393 E39.93364
G0 F3600 X125.919 Y121.959
G1 F2100 X113.04 Y109.08 E40.84232
G0 F3600 X112.474 Y109.08
G1 F2100 X125.919 Y122.525 E41.79094
G0 F3600 X125.919 Y123.091
G1 F2100 X111.908 Y109.08 E42.77949
G0 F3600 X111.343 Y109.08
G1 F2100 X125.919 Y123.656 E43.8079
G0 F3600 X125.919 Y124.222
G1 F2100 X110.777 Y109.08 E44.87625
G0 F3600 X110.211 Y109.08
G1 F2100 X125.919 Y124.788 E45.98454
G0 F3600 X125.919 Y125.353
G1 F2100 X109.646 Y109.08 E47.13269
G0 F3600 X109.079 Y109.079
G1 F2100 X125.919 Y125.919 E48.32084
G0 F3600 X125.353 Y125.919
G1 F2100 X109.079 Y109.645 E49.46906
G0 F3600 X109.079 Y110.211
G1 F2100 X124.788 Y125.919 E50.57738
G0 F3600 X124.222 Y125.919
G1 F2100 X109.079 Y110.776 E51.6458
G0 F3600 X109.079 Y111.342
G1 F2100 X123.656 Y125.919 E52.67428
G0 F3600 X123.091 Y125.919
G1 F2100 X109.079 Y111.908 E53.66287
G0 F3600 X109.079 Y112.473
G1 F2100 X122.525 Y125.919 E54.61156
G0 F3600 X121.959 Y125.919
G1 F2100 X109.079 Y113.039 E55.52031
G0 F3600 X109.079 Y113.605
G1 F2100 X121.393 Y125.919 E56.38913
G0 F3600 X120.828 Y125.919
G1 F2100 X109.079 Y114.17 E57.21809
G0 F3600 X109.079 Y114.736
G1 F2100 X120.262 Y125.919 E58.00711
G0 F3600 X119.696 Y125.919
G1 F2100 X109.079 Y115.302 E58.75619
G0 F3600 X109.079 Y115.867
G1 F2100 X119.131 Y125.919 E59.46542
G0 F3600 X118.565 Y125.919
G1 F2100 X109.079 Y116.433 E60.13471
G0 F3600 X109.079 Y116.999
G1 F2100 X117.999 Y125.919 E60.76406
G0 F3600 X117.434 Y125.919
G1 F2100 X109.079 Y117.564 E61.35355
G0 F3600 X109.079 Y118.13
G1 F2100 X116.868 Y125.919 E61.90311
G0 F3600 X116.302 Y125.919
G1 F2100 X109.079 Y118.696 E62.41273
G0 F3600 X109.079 Y119.262
G1 F2100 X115.737 Y125.919 E62.88245
G0 F3600 X115.171 Y125.919
G1 F2100 X109.079 Y119.827 E63.31227
G0 F3600 X109.079 Y120.393
G1 F2100 X114.605 Y125.919 E63.70216
G0 F3600 X114.04 Y125.919
G1 F2100 X109.079 Y120.959 E64.05215
G0 F3600 X109.079 Y121.524
G1 F2100 X113.474 Y125.919 E64.36224
G0 F3600 X112.908 Y125.919
G1 F2100 X109.079 Y122.09 E64.6324
G0 F3600 X109.079 Y122.656
G1 F2100 X112.343 Y125.919 E64.86266
G0 F3600 X111.777 Y125.919
G1 F2100 X109.079 Y123.221 E65.05302
G0 F3600 X109.079 Y123.787
G1 F2100 X111.211 Y125.919 E65.20344
G0 F3600 X110.645 Y125.919
G1 F2100 X109.079 Y124.353 E65.31393
G0 F3600 X109.079 Y124.918
G1 F2100 X110.08 Y125.919 E65.38456
G0 F3600 X109.514 Y125.919
M104 S200
G1 F2100 X109.079 Y125.484 E65.41525
;MESH:NONMESH
G0 F600 X109.079 Y125.484 Z0.45
G0 F3600 X108.6 Y125.484
G0 X108.672 Y126.328
G0 X126.5 Y126.5
;TIME_ELAPSED:46.013867
;LAYER:1
M140 S60
M106 S255
M204 S1250
;TYPE:WALL-INNER
;MESH:xyzCalibration_cube.stl
G1 F2850 X126.5 Y108.5 E65.86426
G1 X108.5 Y108.5 E66.31327
G1 X108.5 Y126.5 E66.76228
G1 X126.5 Y126.5 E67.2113
M204 S1750
G0 F7800 X126.9 Y126.9
M204 S1250
G1 F2850 X126.9 Y108.1 E67.68026
G1 X108.1 Y108.1 E68.14923
G1 X108.1 Y126.9 E68.6182
G1 X126.9 Y126.9 E69.08717
M204 S1750
G0 F7800 X127.3 Y127.3
M204 S1250
;TYPE:WALL-OUTER
G1 F2850 X127.3 Y107.7 E69.57609
G1 X107.7 Y107.7 E70.06501
G1 X107.7 Y127.3 E70.55394
G1 X127.3 Y127.3 E71.04286
M204 S1750
G0 F7800 X127.3 Y127.1
G0 X126.63 Y126.63
G0 X126.12 Y126.12
M204 S1250
;TYPE:SKIN
G1 F3450 X108.88 Y126.12 E71.47292
G1 X108.88 Y108.88 E71.90297
G1 X126.12 Y108.88 E72.33302
G1 X126.12 Y126.12 E72.76308
M204 S1750
G0 F7800 X125.81 Y125.919
M204 S1250
G1 F3450 X125.919 Y125.81 E72.76692
M204 S1750
G0 F7800 X125.919 Y125.244
M204 S1250
G1 F3450 X125.244 Y125.919 E72.79073
M204 S1750
G0 F7800 X124.679 Y125.919
M204 S1250
G1 F3450 X125.919 Y124.679 E72.83448
M204 S1750
G0 F7800 X125.919 Y124.113
M204 S1250
G1 F3450 X124.113 Y125.919 E72.89819
M204 S1750
G0 F7800 X123.547 Y125.919
M204 S1250
G1 F3450 X125.919 Y123.547 E72.98187
M204 S1750
G0 F7800 X125.919 Y122.982
M204 S1250
G1 F3450 X122.982 Y125.919 E73.08548
M204 S1750
G0 F7800 X122.416 Y125.919
M204 S1250
G1 F3450 X125.919 Y122.416 E73.20906
M204 S1750
G0 F7800 X125.919 Y121.85
M204 S1250
G1 F3450 X121.85 Y125.919 E73.3526
M204 S1750
G0 F7800 X121.285 Y125.919
M204 S1250
G1 F3450 X125.919 Y121.285 E73.51608
M204 S1750
G0 F7800 X125.919 Y120.719
M204 S1250
G1 F3450 X120.719 Y125.919 E73.69952
M204 S1750
G0 F7800 X120.153 Y125.919
M204 S1250
G1 F3450 X125.919 Y120.153 E73.90293
M204 S1750
G0 F7800 X125.919 Y119.588
M204 S1250
G1 F3450 X119.588 Y125.919 E74.12628
M204 S1750
G0 F7800 X119.022 Y125.919
M204 S1250
G1 F3450 X125.919 Y119.022 E74.36959
M204 S1750
G0 F7800 X125.919 Y118.456
M204 S1250
G1 F3450 X118.456 Y125.919 E74.63287
M204 S1750
G0 F7800 X117.89 Y125.919
M204 S1250
G1 F3450 X125.919 Y117.89 E74.91611
M204 S1750
G0 F7800 X125.919 Y117.325
M204 S1250
G1 F3450 X117.325 Y125.919 E75.21929
M204 S1750
G0 F7800 X116.759 Y125.919
M204 S1250
G1 F3450 X125.919 Y116.759 E75.54243
M204 S1750
G0 F7800 X125.919 Y116.193
M204 S1250
G1 F3450 X116.193 Y125.919 E75.88554
M204 S1750
G0 F7800 X115.628 Y125.919
M204 S1250
G1 F3450 X125.919 Y115.628 E76.24858
M204 S1750
G0 F7800 X125.919 Y115.062
M204 S1250
G1 F3450 X115.062 Y125.919 E76.63159
M204 S1750
G0 F7800 X114.496 Y125.919
M204 S1250
G1 F3450 X125.919 Y114.496 E77.03457
M204 S1750
G0 F7800 X125.919 Y113.931
M204 S1250
G1 F3450 X113.931 Y125.919 E77.45748
M204 S1750
G0 F7800 X113.365 Y125.919
M204 S1250
G1 F3450 X125.919 Y113.365 E77.90036
M204 S1750
G0 F7800 X125.919 Y112.799
M204 S1250
G1 F3450 X112.799 Y125.919 E78.3632
M204 S1750
G0 F7800 X112.234 Y125.919
M204 S1250
G1 F3450 X125.919 Y112.234 E78.84598
M204 S1750
G0 F7800 X125.919 Y111.668
M204 S1250
G1 F3450 X111.668 Y125.919 E79.34872
M204 S1750
G0 F7800 X111.102 Y125.919
M204 S1250
G1 F3450 X125.919 Y111.102 E79.87143
M204 S1750
G0 F7800 X125.919 Y110.537
M204 S1250
G1 F3450 X110.537 Y125.919 E80.41407
M204 S1750
G0 F7800 X109.971 Y125.919
M204 S1250
G1 F3450 X125.919 Y109.971 E80.97668
M204 S1750
G0 F7800 X125.919 Y109.405
M204 S1250
G1 F3450 X109.405 Y125.919 E81.55925
M204 S1750
G0 F7800 X109.08 Y125.679
M204 S1250
G1 F3450 X125.679 Y109.079 E82.14485
M204 S1750
G0 F7800 X125.114 Y109.079
M204 S1250
G1 F3450 X109.08 Y125.113 E82.71049
M204 S1750
G0 F7800 X109.08 Y124.547
M204 S1250
G1 F3450 X124.548 Y109.079 E83.25616
M204 S1750
G0 F7800 X123.982 Y109.079
M204 S1250
G1 F3450 X109.08 Y123.981 E83.78187
M204 S1750
G0 F7800 X109.08 Y123.416
M204 S1250
G1 F3450 X123.417 Y109.079 E84.28765
M204 S1750
G0 F7800 X122.851 Y109.079
M204 S1250
G1 F3450 X109.08 Y122.85 E84.77346
M204 S1750
G0 F7800 X109.08 Y122.284
M204 S1250
G1 F3450 X122.285 Y109.079 E85.2393
M204 S1750
G0 F7800 X121.719 Y109.079
M204 S1250
G1 F3450 X109.08 Y121.719 E85.68519
M204 S1750
G0 F7800 X109.08 Y121.153
M204 S1250
G1 F3450 X121.154 Y109.079 E86.11114
M204 S1750
G0 F7800 X120.588 Y109.079
M204 S1250
G1 F3450 X109.08 Y120.587 E86.51711
M204 S1750
G0 F7800 X109.08 Y120.022
M204 S1250
G1 F3450 X120.022 Y109.079 E86.90314
M204 S1750
G0 F7800 X119.457 Y109.079
M204 S1250
G1 F3450 X109.08 Y119.456 E87.26921
M204 S1750
G0 F7800 X109.08 Y118.89
M204 S1250
G1 F3450 X118.891 Y109.079 E87.61532
M204 S1750
G0 F7800 X118.325 Y109.079
M204 S1250
G1 F3450 X109.08 Y118.325 E87.94148
M204 S1750
G0 F7800 X109.08 Y117.759
M204 S1250
G1 F3450 X117.76 Y109.079 E88.24769
M204 S1750
G0 F7800 X117.194 Y109.079
M204 S1250
G1 F3450 X109.08 Y117.193 E88.53394
M204 S1750
G0 F7800 X109.08 Y116.628
M204 S1250
G1 F3450 X116.628 Y109.079 E88.80023
M204 S1750
G0 F7800 X116.063 Y109.079
M204 S1250
G1 F3450 X109.08 Y116.062 E89.04658
M204 S1750
G0 F7800 X109.08 Y115.496
M204 S1250
G1 F3450 X115.497 Y109.079 E89.27295
M204 S1750
G0 F7800 X114.931 Y109.079
M204 S1250
G1 F3450 X109.08 Y114.931 E89.47938
M204 S1750
G0 F7800 X109.08 Y114.365
M204 S1250
G1 F3450 X114.366 Y109.079 E89.66586
M204 S1750
G0 F7800 X113.8 Y109.079
M204 S1250
G1 F3450 X109.08 Y113.799 E89.83237
M204 S1750
G0 F7800 X109.08 Y113.233
M204 S1250
G1 F3450 X113.234 Y109.079 E89.97891
M204 S1750
G0 F7800 X112.668 Y109.079
M204 S1250
G1 F3450 X109.08 Y112.668 E90.10551
M204 S1750
G0 F7800 X109.08 Y112.102
M204 S1250
G1 F3450 X112.103 Y109.079 E90.21215
M204 S1750
G0 F7800 X111.537 Y109.079
M204 S1250
G1 F3450 X109.08 Y111.536 E90.29883
M204 S1750
G0 F7800 X109.08 Y110.971
M204 S1250
G1 F3450 X110.971 Y109.079 E90.36556
M204 S1750
G0 F7800 X110.406 Y109.079
M204 S1250
G1 F3450 X109.08 Y110.405 E90.41233
M204 S1750
G0 F7800 X109.08 Y109.839
M204 S1250
G1 F3450 X109.84 Y109.079 E90.43915
M204 S1750
G0 F7800 X109.274 Y109.079
M204 S1250
G1 F3450 X109.08 Y109.274 E90.44601
M204 S1750
;MESH:NONMESH
