;FLAVOR:Marlin
;TIME:1774
;Filament used: 1.45206m
;Layer height: 0.2
;MINX:93.5
;MINY:98.5
;MINZ:0.2
;MAXX:141.5
;MAXY:136.5
;MAXZ:4
;POSTPROCESSED
;Generated with Cura_SteamEngine 5.3.1
M82 ;absolute extrusion mode
; Ender 3 Custom Start G-code
G92 E0 ; Reset Extruder

M140 S50 ; set bed temp
M190 S50 ; wait for bed temp

G28 ; Home all axes
BED_MESH_CALIBRATE  AREA_START=93.5,98.5 AREA_END=141.5,136.5
M104 S205 ; set extruder temp 

G1 Z2.0 F3000 ; Move Z Axis up little to prevent scratching of Heat Bed
M109 S205 ; wait for extruder temp
G1 X0.1 Y20 Z0.3 F5000.0 ; Move to start position

G1 X0.1 Y200.0 Z0.3 F1500.0 E15 ; Draw the first line
G1 X0.4 Y200.0 Z0.3 F5000.0 ; Move to side a little
G1 X0.4 Y20 Z0.3 F1500.0 E30 ; Draw the second line
G92 E0 ; Reset Extruder
G1 Z2.0 F3000 ; Move Z Axis up little to prevent scratching of Heat Bed
G1 X5 Y20 Z0.3 F5000.0 ; Move over to prevent blob squish
G92 E0
G92 E0
G1 F2400 E-1.6
;LAYER_COUNT:20
;LAYER:0
M107
G0 X95.289 Y100.204 Z0.2
;TYPE:SKIRT
G1 F2400 E0
G1 F1800 X95.68 Y99.883 E0.01598
G1 X96.117 Y99.628 E0.03197
G1 X96.588 Y99.444 E0.04795
G1 X97.082 Y99.338 E0.06391
G1 X97.527 Y99.301 E0.07802
G1 X136.839 Y99.3 E1.32017
G1 X137.537 Y99.31 E1.34223
G1 X138.04 Y99.357 E1.35819
G1 X138.53 Y99.483 E1.37417
G1 X138.994 Y99.685 E1.39016
G1 X139.42 Y99.957 E1.40614
G1 X139.798 Y100.292 E1.42209
G1 X140.118 Y100.683 E1.43806
G1 X140.373 Y101.12 E1.45405
G1 X140.556 Y101.591 E1.47001
G1 X140.663 Y102.085 E1.48598
G1 X140.699 Y102.74 E1.50671
G1 X140.7 Y131.804 E2.42505
G1 X140.691 Y132.531 E2.44802
G1 X140.645 Y133.034 E2.46398
G1 X140.52 Y133.524 E2.47996
G1 X140.319 Y133.988 E2.49594
G1 X140.048 Y134.415 E2.51192
G1 X139.713 Y134.794 E2.5279
G1 X139.323 Y135.115 E2.54386
G1 X138.887 Y135.371 E2.55984
G1 X138.416 Y135.554 E2.5758
G1 X137.922 Y135.662 E2.59178
G1 X137.26 Y135.699 E2.61273
G1 X98.166 Y135.7 E3.84799
G1 X97.468 Y135.691 E3.87004
G1 X96.964 Y135.644 E3.88604
G1 X96.474 Y135.519 E3.90202
G1 X96.01 Y135.318 E3.91799
G1 X95.584 Y135.047 E3.93395
G1 X95.205 Y134.712 E3.94993
G1 X94.884 Y134.321 E3.96591
G1 X94.629 Y133.885 E3.98187
G1 X94.445 Y133.414 E3.99785
G1 X94.338 Y132.92 E4.01382
G1 X94.301 Y132.467 E4.02818
G1 X94.3 Y103.131 E4.95512
G1 X94.309 Y102.466 E4.97613
G1 X94.356 Y101.962 E4.99213
G1 X94.482 Y101.473 E5.00808
G1 X94.683 Y101.009 E5.02406
G1 X94.954 Y100.582 E5.04004
G1 X95.289 Y100.204 E5.056
G0 F2400 X95.035 Y99.895
G1 F1800 X95.478 Y99.538 E5.07397
G1 X95.971 Y99.255 E5.09194
G1 X96.442 Y99.071 E5.10791
G1 X97.049 Y98.939 E5.12754
G1 X97.494 Y98.902 E5.14165
G1 X136.845 Y98.9 E6.38503
G1 X137.543 Y98.91 E6.40709
G1 X138.14 Y98.97 E6.42604
G1 X138.69 Y99.116 E6.44403
G1 X139.154 Y99.318 E6.46002
G1 X139.635 Y99.62 E6.47796
G1 X140.108 Y100.039 E6.49793
G1 X140.428 Y100.43 E6.51389
G1 X140.746 Y100.975 E6.53383
G1 X140.929 Y101.446 E6.5498
G1 X141.054 Y102 E6.56774
G1 X141.099 Y102.74 E6.59117
G1 X141.1 Y131.809 E7.50966
G1 X141.091 Y132.536 E7.53263
G1 X141.033 Y133.133 E7.55159
G1 X140.908 Y133.623 E7.56757
G1 X140.657 Y134.202 E7.58751
G1 X140.348 Y134.68 E7.60549
G1 X139.967 Y135.103 E7.62348
G1 X139.526 Y135.46 E7.64141
G1 X139.09 Y135.716 E7.65738
G1 X138.561 Y135.927 E7.67538
G1 X138.007 Y136.053 E7.69333
G1 X137.26 Y136.099 E7.71698
G1 X98.161 Y136.1 E8.95239
G1 X97.463 Y136.091 E8.97445
G1 X96.865 Y136.032 E8.99344
G1 X96.375 Y135.907 E9.00941
G1 X95.851 Y135.685 E9.0274
G1 X95.319 Y135.347 E9.04731
G1 X94.94 Y135.012 E9.06329
G1 X94.575 Y134.575 E9.08128
G1 X94.256 Y134.031 E9.10121
G1 X94.072 Y133.56 E9.11719
G1 X93.939 Y132.953 E9.13682
G1 X93.902 Y132.5 E9.15118
G1 X93.9 Y103.126 E10.07932
G1 X93.909 Y102.461 E10.10033
G1 X93.969 Y101.862 E10.11935
G1 X94.115 Y101.314 E10.13727
G1 X94.345 Y100.795 E10.15521
G1 X94.616 Y100.368 E10.17119
G1 X95.035 Y99.895 E10.19116
G0 F2400 X94.759 Y99.604
G1 F1800 X95.279 Y99.191 E10.21214
G1 X95.825 Y98.882 E10.23196
G1 X96.296 Y98.698 E10.24794
G1 X97.016 Y98.54 E10.27123
G1 X97.461 Y98.503 E10.28534
G1 X136.851 Y98.5 E11.52995
G1 X137.549 Y98.51 E11.55201
G1 X138.243 Y98.583 E11.57406
G1 X138.793 Y98.729 E11.59204
G1 X139.314 Y98.951 E11.60993
G1 X139.848 Y99.281 E11.62977
G1 X140.418 Y99.786 E11.65383
G1 X140.738 Y100.177 E11.66979
G1 X141.119 Y100.83 E11.69368
G1 X141.302 Y101.301 E11.70965
G1 X141.444 Y101.912 E11.72947
G1 X141.499 Y102.74 E11.75569
G1 X141.5 Y131.814 E12.67434
G1 X141.491 Y132.541 E12.69731
G1 X141.421 Y133.232 E12.71926
G1 X141.296 Y133.722 E12.73524
G1 X141.011 Y134.392 E12.75824
G1 X140.645 Y134.948 E12.77928
G1 X140.219 Y135.414 E12.79923
G1 X139.729 Y135.805 E12.81903
G1 X139.238 Y136.088 E12.83694
G1 X138.709 Y136.299 E12.85494
G1 X138.096 Y136.443 E12.87483
G1 X137.26 Y136.499 E12.90131
G1 X98.156 Y136.5 E14.13688
G1 X97.458 Y136.491 E14.15894
G1 X96.766 Y136.42 E14.18092
G1 X96.276 Y136.295 E14.1969
G1 X95.636 Y136.023 E14.21887
G1 X95.104 Y135.685 E14.23878
G1 X94.675 Y135.312 E14.25675
G1 X94.247 Y134.806 E14.27769
G1 X93.883 Y134.177 E14.30065
G1 X93.681 Y133.646 E14.3186
G1 X93.54 Y132.986 E14.33993
G1 X93.503 Y132.533 E14.35429
G1 X93.5 Y103.121 E15.28362
G1 X93.511 Y102.421 E15.30574
G1 X93.582 Y101.759 E15.32678
G1 X93.728 Y101.211 E15.3447
G1 X93.979 Y100.633 E15.36461
G1 X94.278 Y100.154 E15.38245
G1 X94.759 Y99.604 E15.40554
G1 F2400 E13.80554
;MESH:test_czcionek.stl
G0 X105.233 Y101.835
G0 X105.105 Y107.493
;TYPE:WALL-OUTER
G1 F2400 E15.40554
G1 F485.8 X105.188 Y107.441 E15.40936
G1 X105.301 Y107.436 E15.41377
G1 X105.429 Y107.536 E15.42011
G1 X105.524 Y107.778 E15.43026
G1 X105.524 Y107.939 E15.43654
G1 X105.425 Y108.077 E15.44317
G1 X105.201 Y108.13 E15.45215
G1 X105.092 Y108.084 E15.45677
G1 X105.027 Y107.82 E15.46738
G1 X105.105 Y107.493 E15.48049
G0 F2400 X105.059 Y107.687
G1 F2400 E13.88049
G0 X105.293 Y107.718
G0 X112.077 Y108.258
G0 X112.133 Y107.441
G1 F2400 E15.48049
G1 F473.4 X112.271 Y107.485 E15.4863
G1 X112.366 Y107.745 E15.49738
G1 X112.421 Y108.257 E15.518
G1 F486.8 X112.405 Y109.061 E15.54932
G1 F501 X112.351 Y109.314 E15.55911
G1 X112.25 Y109.49 E15.56679
G1 X112.13 Y109.505 E15.57136
G1 X112.044 Y109.439 E15.57547
G1 X111.927 Y109.056 E15.59062
G1 F486.8 X111.911 Y108.259 E15.62166
G1 F473.4 X112 Y107.621 E15.64746
G1 X112.058 Y107.498 E15.65291
G1 X112.133 Y107.441 E15.65668
G0 F2400 X112.058 Y107.498
G0 X112.013 Y107.594
G1 F2400 E14.05668
G0 X112.151 Y107.728
G0 X114.849 Y108.246
G0 X114.905 Y107.441
G1 F2400 E15.65668
G1 F473.4 X115.002 Y107.451 E15.66059
G1 X115.081 Y107.556 E15.66585
G1 X115.138 Y107.738 E15.67349
G1 X115.193 Y108.257 E15.69439
G1 F486.8 X115.177 Y109.061 E15.72571
G1 F501 X115.064 Y109.44 E15.74067
G1 X114.995 Y109.499 E15.7441
G1 X114.854 Y109.48 E15.74949
G1 X114.752 Y109.297 E15.75742
G1 X114.699 Y109.056 E15.76675
G1 F486.8 X114.683 Y108.249 E15.79819
G1 F473.4 X114.772 Y107.621 E15.82359
G1 X114.831 Y107.498 E15.82905
G1 X114.905 Y107.441 E15.83279
G0 F2400 X114.831 Y107.498
G0 X114.785 Y107.594
G1 F2400 E14.23279
G0 X114.927 Y107.721
G0 X118.921 Y107.954
G0 X118.812 Y107.47
G1 F2400 E15.83279
G1 F497.9 X119.021 Y107.444 E15.84081
G1 X119.149 Y107.548 E15.84709
G1 X119.22 Y107.704 E15.85362
G1 F495.9 X119.241 Y107.895 E15.86096
G1 F493.8 X119.207 Y108.004 E15.86535
G1 X119.038 Y108.125 E15.87333
G1 X118.86 Y108.125 E15.88016
G1 X118.754 Y108.021 E15.88586
G1 F495.9 X118.741 Y107.638 E15.90051
G1 F497.9 X118.812 Y107.47 E15.90746
G0 F2400 X118.741 Y107.638
G0 X118.741 Y107.656
G1 F2400 E14.30746
G0 X118.998 Y107.683
G0 X121.726 Y109.014
G0 X121.985 Y108.845
G1 F2400 E15.90746
G1 F480 X122.047 Y109.03 E15.91516
G1 X122.011 Y109.365 E15.92847
G1 X121.93 Y109.464 E15.93352
G1 X121.754 Y109.485 E15.94052
G1 X121.661 Y109.419 E15.94503
G1 X121.585 Y109.293 E15.95084
G1 X121.535 Y109.042 E15.96095
G1 X121.586 Y108.908 E15.96661
G1 X121.696 Y108.828 E15.97198
G1 X121.882 Y108.803 E15.97939
G1 X121.985 Y108.845 E15.98379
G0 F2400 X121.882 Y108.803
G0 X121.794 Y108.814
G1 F2400 E14.38379
G0 X121.824 Y109.064
G0 X128.446 Y109.51
G1 F2400 E15.98379
G1 F687.7 X128.436 Y109.35 E15.98821
G1 X128.63 Y109.161 E15.99567
G1 X128.792 Y109.265 E16.00098
G1 X128.847 Y109.357 E16.00394
G1 X128.848 Y109.487 E16.00752
G1 X128.747 Y109.563 E16.01101
G1 X128.446 Y109.51 E16.01943
G0 F2400 X128.643 Y109.544
G1 F2400 E14.41943
G0 X128.683 Y107.683
G0 X128.696 Y107.914
G1 F2400 E16.01943
G1 F535.7 X128.465 Y107.774 E16.02899
G1 X128.374 Y107.664 E16.03404
G1 X128.376 Y107.509 E16.03953
G1 X128.482 Y107.43 E16.04421
G1 X128.813 Y107.423 E16.05592
G1 X128.89 Y107.473 E16.05917
G1 X128.923 Y107.59 E16.06347
G1 X128.893 Y107.724 E16.06833
G1 X128.696 Y107.914 E16.07802
G0 F2400 X128.84 Y107.775
G1 F2400 E14.47802
G0 X128.634 Y107.607
G0 X131.179 Y109.532
G1 F2400 E16.07802
G1 F705.9 X131.116 Y109.568 E16.07997
G1 X131.095 Y109.532 E16.08109
G1 X131.157 Y109.496 E16.08301
G1 F2400 E14.48301
G0 X131.559 Y108.25
G1 F2400 E16.08301
G1 F452.8 X131.495 Y108.25 E16.08569
G1 X131.461 Y108.307 E16.08847
G1 X131.494 Y108.364 E16.09123
G1 X131.559 Y108.364 E16.09395
G1 X131.593 Y108.307 E16.09673
G1 F2400 E14.49673
G0 X128.805 Y117.491
G0 X128.787 Y117.939
G1 F2400 E16.09673
G1 F446.1 X128.576 Y117.82 E16.10702
G1 X128.438 Y117.682 E16.11532
G1 X128.422 Y117.466 E16.12452
G1 X128.541 Y117.363 E16.13121
G1 X128.818 Y117.341 E16.14302
G1 X128.991 Y117.395 E16.15072
G1 X129.061 Y117.546 E16.15779
G1 X129.022 Y117.719 E16.16533
G1 X128.903 Y117.865 E16.17334
G1 X128.787 Y117.939 E16.17918
G0 F2400 X128.903 Y117.865
G0 X128.942 Y117.817
G1 F2400 E14.57918
G0 X128.766 Y117.672
G0 X128.729 Y119.314
G0 X128.52 Y119.529
G1 F2400 E16.17918
G1 F536.9 X128.488 Y119.477 E16.18134
G1 X128.499 Y119.287 E16.18806
G1 X128.585 Y119.176 E16.19302
G1 X128.727 Y119.09 E16.19888
G1 X128.877 Y119.178 E16.20502
G1 X128.976 Y119.328 E16.21137
G1 X128.978 Y119.469 E16.21635
G1 X128.938 Y119.535 E16.21907
G1 X128.836 Y119.58 E16.22301
G1 X128.643 Y119.582 E16.22982
G1 X128.52 Y119.529 E16.23455
G0 F2400 X128.643 Y119.582
G0 X128.71 Y119.582
G1 F2400 E14.63455
G0 X128.736 Y119.349
G0 X131.435 Y118.822
G1 F2400 E16.23455
G1 F697.7 X131.435 Y118.111 E16.25387
G1 X131.945 Y118.096 E16.26774
G1 X131.435 Y118.822 E16.29184
G0 F2400 X131.549 Y118.659
G1 F2400 E14.69184
G0 X129.021 Y126.326
G0 X128.879 Y126.468
;TYPE:WALL-INNER
G1 F2400 E16.29184
G1 F517.2 X128.823 Y126.468 E16.2939
G1 X128.793 Y126.518 E16.29603
G1 X128.822 Y126.568 E16.29815
G1 X128.879 Y126.568 E16.30024
G1 X128.909 Y126.518 E16.30238
G0 F2400 X128.883 Y127.028
;TYPE:WALL-OUTER
G1 F600 X129.101 Y126.894 E16.31047
G1 X129.269 Y126.689 E16.31884
G1 X129.299 Y126.341 E16.32988
G1 X129.171 Y126.156 E16.33698
G1 X128.841 Y126.082 E16.34767
G1 X128.588 Y126.113 E16.35572
G1 X128.392 Y126.252 E16.36332
G1 X128.335 Y126.49 E16.37105
G1 X128.362 Y126.623 E16.37534
G1 X128.576 Y126.859 E16.3854
G1 X128.883 Y127.028 E16.39648
G0 F2400 X129.053 Y126.923
G1 F2400 E14.79648
G0 X128.894 Y126.668
G0 X128.819 Y128.119
G0 X128.821 Y127.947
G1 F2400 E16.39648
G1 F448.6 X128.999 Y128.049 E16.40515
G1 X129.103 Y128.188 E16.41248
G1 X129.123 Y128.299 E16.41725
G1 X129.081 Y128.466 E16.42453
G1 X128.933 Y128.533 E16.43139
G1 X128.725 Y128.536 E16.44018
G1 X128.585 Y128.475 E16.44664
G1 X128.531 Y128.387 E16.451
G1 X128.532 Y128.227 E16.45776
G1 X128.654 Y128.044 E16.46706
G1 X128.821 Y127.947 E16.47522
G0 F2400 X128.654 Y128.044
G0 X128.651 Y128.049
G1 F2400 E14.87522
G0 X128.779 Y128.236
G0 X131.668 Y127.248
G0 X131.473 Y127.884
G1 F2400 E16.47522
G1 F564.7 X131.475 Y126.972 E16.50584
G1 X132.089 Y126.972 E16.52645
G1 X131.473 Y127.884 E16.5634
G0 F2400 X131.585 Y127.719
G1 F2400 E14.9634
G0 X131.691 Y127.171
G0 X130.432 Y127.248
G0 X130.259 Y127.483
;TYPE:WALL-INNER
G1 F2400 E16.5634
G1 F521.7 X130.23 Y127.532 E16.56547
G1 X130.174 Y127.532 E16.5675
G1 X130.145 Y127.483 E16.56957
G1 X130.174 Y127.434 E16.57164
G1 X130.23 Y127.434 E16.57367
G0 F2400 X130.229 Y128.467
G0 X130.032 Y129.713
G0 X130.23 Y129.075
G1 F1800 X129.966 Y129.394 E16.58676
G1 X129.586 Y129.643 E16.60111
G1 X129.157 Y129.776 E16.61531
G1 X128.558 Y129.776 E16.63423
G1 X128.352 Y129.74 E16.64084
G1 X127.864 Y129.541 E16.65749
G1 X127.586 Y129.312 E16.66887
G1 F1478.4 X127.167 Y128.697 E16.6975
G1 F1256.5 X127.13 Y128.431 E16.70966
G1 F1481.5 X127.212 Y128.268 E16.71666
G1 F1800 X127.254 Y127.965 E16.72633
G1 X127.504 Y127.464 E16.74402
G1 X127.278 Y127.18 E16.75549
G1 X127.126 Y126.747 E16.76999
G1 X127.12 Y126.196 E16.7874
G1 X127.241 Y125.803 E16.80039
G1 X127.634 Y125.292 E16.82076
G1 X128.106 Y125.023 E16.83792
G1 X128.588 Y124.908 E16.85358
G1 X129.084 Y124.911 E16.86925
G1 X129.647 Y125.049 E16.88757
G1 X130.107 Y125.363 E16.90517
G1 X130.238 Y125.51 E16.91139
G1 X130.277 Y125.317 E16.91761
G1 X130.429 Y125.102 E16.92593
G1 X130.571 Y125.007 E16.93133
G1 X130.79 Y124.949 E16.93849
G1 X131.383 Y124.959 E16.95723
G1 X131.641 Y125.081 E16.96624
G1 X131.735 Y125.176 E16.97047
G1 X131.863 Y125.548 E16.9829
G1 X131.863 Y125.753 E16.98938
G1 X132.96 Y125.753 E17.02404
G1 X133.258 Y125.855 E17.03399
G1 F1632.7 X133.543 Y126.194 E17.04942
G1 X133.735 Y125.795 E17.06484
G1 F1800 X133.865 Y125.685 E17.07022
G1 X134.039 Y125.611 E17.0762
G1 X134.55 Y125.594 E17.09235
G1 X134.739 Y125.624 E17.0984
G1 X134.953 Y125.748 E17.10621
G1 X135.118 Y125.999 E17.11571
G1 X135.15 Y126.54 E17.13283
G1 X135.694 Y126.57 E17.15004
G1 X135.967 Y126.757 E17.1605
G1 X136.104 Y127.14 E17.17335
G1 X136.096 Y127.614 E17.18833
G1 X135.968 Y127.893 E17.19803
G1 X135.695 Y128.079 E17.20847
G1 X135.15 Y128.11 E17.22572
G1 X135.12 Y128.655 E17.24296
G1 X134.979 Y128.885 E17.25149
G1 X134.791 Y129.014 E17.25869
G1 X134.654 Y129.056 E17.26322
G1 X134.184 Y129.064 E17.27807
G1 X133.885 Y128.985 E17.28784
G1 X133.715 Y128.84 E17.2949
G1 X133.592 Y128.564 E17.30445
G1 X133.584 Y128.11 E17.3188
G1 X133.13 Y128.102 E17.33315
G1 X132.909 Y127.839 E17.344
G1 X131.795 Y129.498 E17.40714
G1 X131.595 Y129.684 E17.41577
G1 X131.4 Y129.755 E17.42233
G1 X130.832 Y129.763 E17.44028
G1 X130.554 Y129.696 E17.44931
G1 X130.401 Y129.582 E17.45534
G1 X130.298 Y129.44 E17.46089
G1 X130.237 Y129.251 E17.46716
G1 X130.23 Y129.075 E17.47273
G0 F2400 X130.032 Y129.713
G0 X127.163 Y129.69
G0 X122.084 Y130.04
G0 X120.229 Y129.871
G0 X118.803 Y129.999
G0 X117.427 Y129.466
G0 X116.339 Y129.604
G0 X115.403 Y130.028
G0 X113.567 Y129.627
G0 X112.649 Y130.025
G0 X110.795 Y129.627
G0 X109.859 Y130.028
G0 X107.883 Y129.538
G0 X106.536 Y129.775
G0 X105.706 Y130.033
G0 X104.67 Y129.889
G0 X103.606 Y129.504
G0 X101.535 Y129.973
G0 X101.71 Y128.884
G1 F1531.9 X101.588 Y129.1 E17.48194
G1 F1726.6 X101.129 Y129.474 E17.50144
G1 F1800 X100.791 Y129.646 E17.51342
G1 X100.249 Y129.784 E17.53109
G1 X99.873 Y129.789 E17.54298
G1 X99.465 Y129.71 E17.55611
G1 X98.979 Y129.456 E17.57343
G1 X98.808 Y129.306 E17.58062
G1 X98.578 Y128.974 E17.59338
G1 F1855.7 X98.459 Y128.612 E17.60506
G1 F1967.2 X98.434 Y128.095 E17.62003
G1 F1904.8 X98.541 Y127.543 E17.63682
G1 F1800 X98.866 Y126.947 E17.65827
G1 X99.198 Y126.555 E17.6745
G1 X98.831 Y126.554 E17.68609
G1 X98.629 Y126.507 E17.69265
G1 F1478.4 X98.186 Y126.072 E17.71653
G1 X98.1 Y126.858 E17.74695
G1 F1800 X98.1 Y127.431 E17.76505
G1 F1904.8 X98.078 Y128.095 E17.78489
G1 X98.101 Y129.067 E17.81392
G1 F1800 X98.1 Y131.9 E17.90344
G1 X136.9 Y131.9 E19.12941
G1 X136.9 Y103.1 E20.0394
G1 X98.1 Y103.1 E21.26537
G1 X98.1 Y105.623 E21.34509
G1 F1666.7 X98.133 Y106.488 E21.37463
G1 F1541.8 X98.135 Y110.594 E21.5261
G1 F1655.2 X98.099 Y111.308 E21.55066
G1 F1800 X98.1 Y115.37 E21.67901
G1 F1841.4 X98.091 Y116.552 E21.71552
G1 X98.682 Y115.952 E21.74153
G1 F1800 X101.143 Y115.953 E21.81929
G1 X101.451 Y116.062 E21.82962
G1 X101.642 Y116.435 E21.84286
G1 X101.833 Y116.062 E21.8561
G1 X102.108 Y115.952 E21.86546
G1 X102.906 Y115.952 E21.89067
G1 X103.159 Y116.075 E21.89956
G1 X103.354 Y116.334 E21.9098
G1 F1686.2 X103.421 Y116.927 E21.92993
G1 F1330.9 X103.508 Y117.228 E21.94332
G1 F1400.8 X103.796 Y116.77 E21.96529
G1 F1800 X104.133 Y116.339 E21.98258
G1 X104.553 Y116.073 E21.99829
