;FLAVOR:Marlin
;TIME:603
;Filament used: 1.39901m
;Layer height: 0.3
;MINX:87.25
;MINY:98
;MINZ:0.3
;MAXX:147.75
;MAXY:137
;MAXZ:3.9
;POSTPROCESSED
;Generated with Cura_SteamEngine 5.3.1
M82 ;absolute extrusion mode
; Ender 3 Custom Start G-code
G92 E0 ; Reset Extruder

M140 S55 ; set bed temp
M190 S55 ; wait for bed temp

G28 ; Home all axes
BED_MESH_CALIBRATE  AREA_START=87.25,98 AREA_END=147.75,137
M104 S200 ; set extruder temp 

G1 Z2.0 F3000 ; Move Z Axis up little to prevent scratching of Heat Bed
M109 S200 ; wait for extruder temp
G1 X0.1 Y20 Z0.3 F5000.0 ; Move to start position

G1 X0.1 Y200.0 Z0.3 F1500.0 E15 ; Draw the first line
G1 X0.4 Y200.0 Z0.3 F5000.0 ; Move to side a little
G1 X0.4 Y20 Z0.3 F1500.0 E30 ; Draw the second line
G92 E0 ; Reset Extruder
G1 Z2.0 F3000 ; Move Z Axis up little to prevent scratching of Heat Bed
G1 X5 Y20 Z0.3 F5000.0 ; Move over to prevent blob squish
G92 E0
G92 E0
G1 F1500 E-1
;LAYER_COUNT:13
;LAYER:0
M107
M204 S1000
G0 F3600 X89.039 Y99.704 Z0.3
;TYPE:SKIRT
G1 F1500 E0
G1 F2100 X89.43 Y99.383 E0.02524
G1 X89.867 Y99.128 E0.05048
G1 X90.338 Y98.944 E0.07571
G1 X90.832 Y98.838 E0.10092
G1 X91.277 Y98.801 E0.12319
G1 X143.089 Y98.8 E2.7081
G1 X143.787 Y98.81 E2.74293
G1 X144.29 Y98.857 E2.76814
G1 X144.78 Y98.983 E2.79338
G1 X145.244 Y99.185 E2.81862
G1 X145.67 Y99.457 E2.84384
G1 X146.048 Y99.792 E2.86904
G1 X146.368 Y100.183 E2.89425
G1 X146.623 Y100.62 E2.91949
G1 X146.806 Y101.091 E2.9447
G1 X146.913 Y101.585 E2.96992
G1 X146.949 Y102.24 E3.00264
G1 X146.95 Y132.304 E4.50254
G1 X146.941 Y133.031 E4.53882
G1 X146.895 Y133.534 E4.56401
G1 X146.77 Y134.024 E4.58924
G1 X146.569 Y134.488 E4.61447
G1 X146.298 Y134.915 E4.6397
G1 X145.963 Y135.294 E4.66494
G1 X145.573 Y135.615 E4.69014
G1 X145.137 Y135.871 E4.71536
G1 X144.666 Y136.054 E4.74057
G1 X144.172 Y136.162 E4.7658
G1 X143.51 Y136.199 E4.79888
G1 X91.916 Y136.2 E7.37292
G1 X91.218 Y136.191 E7.40774
G1 X90.714 Y136.144 E7.433
G1 X90.224 Y136.019 E7.45822
G1 X89.76 Y135.818 E7.48345
G1 X89.334 Y135.547 E7.50864
G1 X88.955 Y135.212 E7.53388
G1 X88.634 Y134.821 E7.55912
G1 X88.379 Y134.385 E7.58432
G1 X88.195 Y133.914 E7.60954
G1 X88.088 Y133.42 E7.63476
G1 X88.051 Y132.967 E7.65744
G1 X88.05 Y102.631 E9.17091
G1 X88.059 Y101.966 E9.20409
G1 X88.106 Y101.462 E9.22934
G1 X88.232 Y100.973 E9.25453
G1 X88.433 Y100.509 E9.27976
G1 X88.704 Y100.082 E9.30499
G1 X89.039 Y99.704 E9.33019
G0 F3600 X88.785 Y99.395
G1 F2100 X89.228 Y99.038 E9.35857
G1 X89.721 Y98.755 E9.38693
G1 X90.192 Y98.571 E9.41216
G1 X90.799 Y98.439 E9.44315
G1 X91.244 Y98.402 E9.46543
G1 X143.095 Y98.4 E12.05229
G1 X143.793 Y98.41 E12.08712
G1 X144.39 Y98.47 E12.11705
G1 X144.94 Y98.616 E12.14544
G1 X145.404 Y98.818 E12.17069
G1 X145.885 Y99.12 E12.19902
G1 X146.358 Y99.539 E12.23055
G1 X146.678 Y99.93 E12.25575
G1 X146.996 Y100.475 E12.28724
G1 X147.179 Y100.946 E12.31244
G1 X147.304 Y101.5 E12.34078
G1 X147.349 Y102.24 E12.37777
G1 X147.35 Y132.309 E13.87791
G1 X147.341 Y133.036 E13.91419
G1 X147.283 Y133.633 E13.94411
G1 X147.158 Y134.123 E13.96934
G1 X146.907 Y134.702 E14.00082
G1 X146.598 Y135.18 E14.02922
G1 X146.217 Y135.603 E14.05762
G1 X145.776 Y135.96 E14.08593
G1 X145.34 Y136.216 E14.11115
G1 X144.811 Y136.427 E14.13957
G1 X144.257 Y136.553 E14.16791
G1 X143.51 Y136.599 E14.20525
G1 X91.911 Y136.6 E16.77954
G1 X91.213 Y136.591 E16.81436
G1 X90.615 Y136.532 E16.84434
G1 X90.125 Y136.407 E16.86957
G1 X89.601 Y136.185 E16.89796
G1 X89.069 Y135.847 E16.92941
G1 X88.69 Y135.512 E16.95464
G1 X88.325 Y135.075 E16.98305
G1 X88.006 Y134.531 E17.01451
G1 X87.822 Y134.06 E17.03974
G1 X87.689 Y133.453 E17.07074
G1 X87.652 Y133 E17.09342
G1 X87.65 Y102.626 E18.60878
G1 X87.659 Y101.961 E18.64196
G1 X87.719 Y101.362 E18.672
G1 X87.865 Y100.814 E18.70029
G1 X88.095 Y100.295 E18.72861
G1 X88.366 Y99.868 E18.75384
G1 X88.785 Y99.395 E18.78537
G0 F3600 X88.509 Y99.104
G1 F2100 X89.029 Y98.691 E18.8185
G1 X89.575 Y98.382 E18.8498
G1 X90.046 Y98.198 E18.87503
G1 X90.766 Y98.04 E18.9118
G1 X91.211 Y98.003 E18.93408
G1 X143.101 Y98 E21.52288
G1 X143.799 Y98.01 E21.55771
G1 X144.493 Y98.083 E21.59252
G1 X145.043 Y98.229 E21.62091
G1 X145.564 Y98.451 E21.64917
G1 X146.098 Y98.781 E21.68049
G1 X146.668 Y99.286 E21.71848
G1 X146.988 Y99.677 E21.74369
G1 X147.369 Y100.33 E21.7814
G1 X147.552 Y100.801 E21.80661
G1 X147.694 Y101.412 E21.83791
G1 X147.749 Y102.24 E21.87931
G1 X147.75 Y132.314 E23.37971
G1 X147.741 Y133.041 E23.41598
G1 X147.671 Y133.732 E23.45063
G1 X147.546 Y134.222 E23.47586
G1 X147.261 Y134.892 E23.51219
G1 X146.895 Y135.448 E23.54539
G1 X146.469 Y135.914 E23.57689
G1 X145.979 Y136.305 E23.60817
G1 X145.488 Y136.588 E23.63644
G1 X144.959 Y136.799 E23.66486
G1 X144.346 Y136.943 E23.69627
G1 X143.51 Y136.999 E23.73807
G1 X91.906 Y137 E26.31261
G1 X91.208 Y136.991 E26.34743
G1 X90.516 Y136.92 E26.38214
G1 X90.026 Y136.795 E26.40737
G1 X89.386 Y136.523 E26.44206
G1 X88.854 Y136.185 E26.47351
G1 X88.425 Y135.812 E26.50187
G1 X87.997 Y135.306 E26.53493
G1 X87.633 Y134.677 E26.57119
G1 X87.431 Y134.146 E26.59953
G1 X87.29 Y133.486 E26.6332
G1 X87.253 Y133.033 E26.65588
G1 X87.25 Y102.621 E28.17314
G1 X87.261 Y101.921 E28.20807
G1 X87.332 Y101.259 E28.24128
G1 X87.478 Y100.711 E28.26958
G1 X87.729 Y100.133 E28.30102
G1 X88.028 Y99.654 E28.32919
G1 X88.509 Y99.104 E28.36564
G1 F1500 E27.36564
;MESH:FSYETC_PIS_Mount_-_Bed.stl
G0 F3600 X100.088 Y122.944
G0 X101.66 Y123.042
G0 X102.666 Y123.507
G0 X103.361 Y124.483
G0 X103.489 Y125.392
G0 X102.768 Y127.126
;TYPE:WALL-INNER
G1 F1500 E28.36564
G1 F2100 X102.231 Y127.437 E28.3966
G1 X101.732 Y127.602 E28.42282
G1 X101.288 Y127.65 E28.4451
G1 X100.927 Y127.626 E28.46315
G1 X100.295 Y127.446 E28.49594
G1 X100.07 Y127.338 E28.50839
G1 X99.642 Y127.025 E28.53484
G1 X99.214 Y126.518 E28.56794
G1 X98.958 Y125.95 E28.59903
G1 X98.871 Y125.561 E28.61891
G1 X98.857 Y125.112 E28.64132
G1 X98.979 Y124.436 E28.67559
G1 X99.295 Y123.847 E28.70894
G1 X99.735 Y123.387 E28.7407
G1 X100.169 Y123.106 E28.76649
G1 X100.711 Y122.91 E28.79525
G1 X101.087 Y122.857 E28.81419
G1 X101.668 Y122.886 E28.84322
G1 X102.264 Y123.076 E28.87442
G1 X102.815 Y123.432 E28.90715
G1 X103.239 Y123.889 E28.93825
G1 X103.524 Y124.481 E28.97103
G1 X103.635 Y124.982 E28.99663
G1 X103.645 Y125.403 E29.01764
G1 X103.532 Y126.009 E29.0484
G1 X103.229 Y126.609 E29.08193
G1 X102.768 Y127.126 E29.11649
G0 F3600 X101.76 Y127.435
G0 X100.84 Y127.458
G0 X99.378 Y126.589
G0 X99.595 Y126.39
G1 F2100 X99.348 Y125.862 E29.14557
G1 X99.265 Y125.492 E29.16449
G1 X99.257 Y125.112 E29.18345
G1 X99.348 Y124.638 E29.20753
G1 X99.602 Y124.115 E29.23654
G1 X99.991 Y123.695 E29.2651
G1 X100.345 Y123.465 E29.28616
G1 X100.803 Y123.299 E29.31047
G1 X101.259 Y123.251 E29.33334
G1 X101.599 Y123.28 E29.35037
G1 X102.078 Y123.433 E29.37545
G1 X102.512 Y123.692 E29.40067
G1 X102.891 Y124.105 E29.42863
G1 X103.115 Y124.526 E29.45243
G1 X103.239 Y125.033 E29.47847
G1 X103.247 Y125.37 E29.49528
G1 X103.135 Y125.921 E29.52334
G1 X102.901 Y126.381 E29.54908
G1 X102.511 Y126.811 E29.57805
G1 X102.095 Y127.061 E29.60226
G1 X101.663 Y127.208 E29.62503
G1 X101.363 Y127.246 E29.64011
G1 X100.958 Y127.227 E29.66034
G1 X100.422 Y127.067 E29.68825
G1 X100.05 Y126.849 E29.70976
G1 X99.595 Y126.39 E29.742
G1 F1500 E28.742
G0 F3600 X99.378 Y126.589
G0 X100.244 Y127.258
G0 X101.306 Y127.493
G0 X102.264 Y127.252
G0 X103.696 Y126.122
G0 X131.321 Y126.127
G0 X132.331 Y127.064
G0 X132.492 Y126.815
G1 F1500 E29.742
G1 F2100 X132.099 Y126.381 E29.77121
G1 X131.868 Y125.931 E29.79645
G1 X131.76 Y125.452 E29.82095
G1 X131.771 Y124.979 E29.84455
G1 X131.859 Y124.597 E29.86411
G1 X132.094 Y124.117 E29.89077
G1 X132.488 Y123.697 E29.9195
G1 X132.823 Y123.477 E29.9395
G1 X133.278 Y123.306 E29.96375
G1 X133.759 Y123.251 E29.9879
G1 X134.136 Y123.288 E30.0068
G1 X134.645 Y123.46 E30.0336
G1 X135.008 Y123.694 E30.05515
G1 X135.398 Y124.115 E30.08378
G1 X135.652 Y124.638 E30.11279
G1 X135.743 Y125.096 E30.13609
G1 X135.74 Y125.425 E30.1525
G1 X135.634 Y125.926 E30.17805
G1 X135.434 Y126.327 E30.2004
G1 X135.064 Y126.753 E30.22855
G1 X134.595 Y127.061 E30.25655
G1 X134.163 Y127.208 E30.27931
G1 X133.863 Y127.246 E30.2944
G1 X133.458 Y127.227 E30.31463
G1 X132.922 Y127.067 E30.34254
G1 X132.492 Y126.815 E30.3674
G1 F1500 E29.3674
G0 F3600 X132.331 Y127.064
G0 X133.239 Y127.418
G0 X134.792 Y127.607
G0 X134.792 Y131.8
G0 X142.88 Y132.13
G0 X143.15 Y132.4
G1 F1500 E30.3674
G1 F2100 X143.15 Y102.6 E31.85413
G1 X91.851 Y102.601 E34.41345
G1 X91.85 Y132.4 E35.90012
G1 X143.15 Y132.4 E38.45949
G0 F3600 X142.75 Y132
G1 F2100 X142.75 Y103 E39.90631
G1 X92.251 Y103.001 E42.42571
G1 X92.25 Y132 E43.87248
G1 X142.75 Y132 E46.39193
G1 F1500 E45.39193
G0 F3600 X142.55 Y123.884
G0 X136.116 Y124.231
G0 X135.725 Y123.884
G1 F1500 E46.39193
G1 F2100 X136.042 Y124.55 E46.42873
G1 X136.143 Y125.087 E46.45599
G1 X136.134 Y125.494 E46.4763
G1 X136.012 Y126.058 E46.50509
G1 X135.786 Y126.518 E46.53066
G1 X135.358 Y127.025 E46.56376
G1 X135.168 Y127.184 E46.57613
G1 X134.731 Y127.437 E46.60132
G1 X134.232 Y127.602 E46.62754
G1 X133.788 Y127.65 E46.64982
G1 X133.427 Y127.626 E46.66787
G1 X132.795 Y127.446 E46.70065
G1 X132.57 Y127.338 E46.7131
G1 X132.142 Y127.025 E46.73956
G1 X131.771 Y126.609 E46.76737
G1 X131.492 Y126.066 E46.79782
G1 X131.362 Y125.494 E46.82709
G1 X131.363 Y124.994 E46.85203
G1 X131.476 Y124.481 E46.87824
G1 X131.763 Y123.883 E46.91133
G1 X132.28 Y123.352 E46.94831
G1 X132.631 Y123.126 E46.96914
G1 X133.242 Y122.903 E47.00159
G1 X133.706 Y122.85 E47.02489
G1 X134.229 Y122.899 E47.05109
G1 X134.816 Y123.099 E47.08203
G1 X135.3 Y123.41 E47.11073
G1 X135.725 Y123.884 E47.14249
G0 F3600 X135.98 Y125.008
G0 X135.867 Y126.006
G0 X135.166 Y126.993
G0 X134.26 Y127.435
G0 X132.625 Y127.253
G0 X133.004 Y126.666
;TYPE:WALL-OUTER
G1 F2100 X132.729 Y126.481 E47.15903
G1 X132.428 Y126.153 E47.18124
G1 X132.245 Y125.797 E47.20121
G1 X132.161 Y125.433 E47.21985
G1 X132.158 Y125.088 E47.23706
G1 X132.246 Y124.7 E47.25691
G1 X132.419 Y124.36 E47.27594
G1 X132.756 Y123.995 E47.30073
G1 X133.028 Y123.821 E47.31684
G1 X133.386 Y123.691 E47.33584
G1 X133.695 Y123.65 E47.35139
G1 X134.026 Y123.674 E47.36795
G1 X134.496 Y123.834 E47.39272
G1 X134.771 Y124.019 E47.40925
G1 X135.071 Y124.345 E47.43135
G1 X135.262 Y124.726 E47.45262
G1 X135.339 Y125.066 E47.47001
G1 X135.345 Y125.361 E47.48473
G1 X135.256 Y125.794 E47.50678
G1 X135.083 Y126.135 E47.52586
G1 X134.771 Y126.481 E47.5491
G1 X134.458 Y126.685 E47.56774
G1 X134.094 Y126.814 E47.58701
G1 X133.772 Y126.85 E47.60318
G1 X133.441 Y126.818 E47.61977
G1 X133.004 Y126.666 E47.64285
G0 F3600 X132.838 Y126.555
G1 F1500 E46.64285
G0 F3600 X132.457 Y127.145
G0 X133.251 Y127.426
G0 X134.792 Y127.607
G0 X134.792 Y131.8
G0 X143.55 Y132.8
G1 F1500 E47.64285
G1 F2100 X143.55 Y102.2 E49.16949
G1 X91.451 Y102.201 E51.76872
G1 X91.45 Y132.8 E53.29531
G1 X143.55 Y132.8 E55.89459
G0 F3600 X143.55 Y132.6
G1 F1500 E54.89459
G0 F3600 X142.88 Y132.13
G0 X100.125 Y131.8
G0 X100.915 Y127.806
G0 X100.125 Y127.253
G0 X100.504 Y126.666
G1 F1500 E55.89459
G1 F2100 X100.229 Y126.481 E55.91112
G1 X99.946 Y126.176 E55.93188
G1 X99.738 Y125.774 E55.95446
G1 X99.659 Y125.423 E55.97241
G1 X99.661 Y125.067 E55.99017
G1 X99.738 Y124.726 E56.00761
G1 X99.929 Y124.345 E56.02888
G1 X100.247 Y124.002 E56.05221
G1 X100.522 Y123.824 E56.06856
G1 X100.895 Y123.689 E56.08835
G1 X101.187 Y123.651 E56.10304
G1 X101.53 Y123.674 E56.12019
G1 X101.963 Y123.817 E56.14294
G1 X102.244 Y123.995 E56.15953
G1 X102.569 Y124.342 E56.18325
G1 X102.754 Y124.7 E56.20336
G1 X102.842 Y125.085 E56.22306
G1 X102.848 Y125.338 E56.23569
G1 X102.757 Y125.792 E56.25879
G1 X102.572 Y126.153 E56.27902
G1 X102.271 Y126.481 E56.30123
G1 X101.958 Y126.685 E56.31987
G1 X101.594 Y126.814 E56.33914
G1 X101.272 Y126.85 E56.35531
G1 X100.941 Y126.818 E56.3719
G1 X100.504 Y126.666 E56.39498
G0 F3600 X100.338 Y126.555
G1 F1500 E55.39498
G0 F3600 X99.957 Y127.145
G0 X100.84 Y127.458
G0 X102.991 Y127.147
G0 X102.991 Y131.8
G0 X142.578 Y131.828
G0 X142.37 Y131.62
;TYPE:SKIN
G1 F1500 E56.39498
G1 F2100 X92.63 Y131.62 E58.87652
G1 X92.632 Y103.382 E60.28532
G1 X142.37 Y103.38 E62.76676
G1 X142.37 Y131.62 E64.17566
G1 F1500 E63.17566
G0 F3600 X142.65 Y131.62
G0 X133.713 Y131.806
G0 X131.658 Y131.8
G0 X132.472 Y127.489
G0 X131.658 Y126.633
G0 X131.423 Y126.791
G1 F1500 E64.17566
G1 F2100 X131.857 Y127.278 E64.2082
G1 X132.352 Y127.65 E64.23909
G1 X132.653 Y127.798 E64.25583
G1 X133.357 Y127.999 E64.29235
G1 X133.778 Y128.03 E64.31341
G1 X134.295 Y127.977 E64.33934
G1 X134.857 Y127.795 E64.36881
G1 X135.393 Y127.49 E64.39958
G1 X135.645 Y127.275 E64.41611
G1 X136.118 Y126.701 E64.45321
G1 X136.373 Y126.184 E64.48197
G1 X136.509 Y125.559 E64.51389
G1 X136.524 Y125.089 E64.53735
G1 X136.405 Y124.434 E64.57056
G1 X136.293 Y124.137 E64.58639
G1 X136.013 Y123.617 E64.61586
G1 X135.527 Y123.111 E64.65086
G1 X134.933 Y122.73 E64.68607
G1 X134.311 Y122.528 E64.7187
G1 X133.594 Y122.475 E64.75457
G1 X133.055 Y122.558 E64.78177
G1 X132.528 Y122.751 E64.80977
G1 X131.977 Y123.097 E64.84223
G1 X131.445 Y123.669 E64.8812
G1 X131.113 Y124.366 E64.91972
G1 X130.986 Y124.95 E64.94954
G1 X130.987 Y125.555 E64.97972
G1 X131.127 Y126.173 E65.01134
G1 X131.423 Y126.791 E65.04552
G1 F1500 E64.04552
G0 F3600 X131.658 Y126.633
G0 X103.696 Y126.122
G0 X102.666 Y126.993
G0 X101.76 Y127.435
G0 X100.84 Y127.458
G0 X99.125 Y126.562
G0 X98.879 Y126.698
G1 F1500 E65.04552
G1 F2100 X99.369 Y127.291 E65.0839
G1 X99.852 Y127.65 E65.11392
G1 X100.153 Y127.798 E65.13066
G1 X100.857 Y127.999 E65.16718
G1 X101.278 Y128.03 E65.18824
G1 X101.795 Y127.977 E65.21417
G1 X102.357 Y127.795 E65.24365
G1 X102.864 Y127.51 E65.27266
G1 X103.141 Y127.278 E65.29069
G1 X103.542 Y126.829 E65.32072
G1 X103.884 Y126.186 E65.35706
G1 X104.025 Y125.429 E65.39547
G1 X104.012 Y124.926 E65.42058
G1 X103.831 Y124.217 E65.45708
G1 X103.528 Y123.654 E65.48898
G1 X103.034 Y123.102 E65.52594
G1 X102.411 Y122.725 E65.56227
G1 X101.735 Y122.51 E65.59766
G1 X101.035 Y122.48 E65.63261
G1 X100.603 Y122.545 E65.65441
G1 X99.997 Y122.766 E65.68659
G1 X99.473 Y123.111 E65.71789
G1 X98.987 Y123.617 E65.75289
G1 X98.71 Y124.131 E65.78202
G1 X98.583 Y124.479 E65.8005
G1 X98.479 Y125.081 E65.83098
G1 X98.496 Y125.626 E65.85819
G1 X98.587 Y126.035 E65.87909
G1 X98.879 Y126.698 E65.91523
G1 F1500 E64.91523
G0 F3600 X99.125 Y126.562
G0 X99.154 Y131.8
G0 X92.952 Y131.9
G0 X92.952 Y131.419
G1 F1500 E65.91523
G1 F2100 X92.829 Y131.296 E65.92391
G0 F3600 X92.829 Y130.73
G1 F2100 X93.518 Y131.419 E65.97252
G0 F3600 X94.084 Y131.419
G1 F2100 X92.829 Y130.164 E66.06107
G0 F3600 X92.829 Y129.599
G1 F2100 X94.649 Y131.419 E66.18948
G0 F3600 X95.215 Y131.419
G1 F2100 X92.829 Y129.033 E66.35783
G0 F3600 X92.829 Y128.467
G1 F2100 X95.781 Y131.419 E66.56611
G0 F3600 X96.346 Y131.419
G1 F2100 X92.829 Y127.902 E66.81425
G0 F3600 X92.829 Y127.336
G1 F2100 X96.912 Y131.419 E67.10233
G0 F3600 X97.478 Y131.419
G1 F2100 X92.829 Y126.77 E67.43034
G0 F3600 X92.829 Y126.205
G1 F2100 X98.043 Y131.419 E67.79822
G0 F3600 X98.609 Y131.419
G1 F2100 X92.829 Y125.639 E68.20603
G0 F3600 X92.829 Y125.073
G1 F2100 X99.175 Y131.419 E68.65377
G0 F3600 X99.74 Y131.419
G1 F2100 X92.829 Y124.508 E69.14138
G0 F3600 X92.829 Y123.942
G1 F2100 X100.306 Y131.419 E69.66892
G0 F3600 X100.872 Y131.419
G1 F2100 X92.829 Y123.376 E70.2364
G0 F3600 X92.829 Y122.811
G1 F2100 X101.438 Y131.419 E70.84378
G0 F3600 X102.003 Y131.419
G1 F2100 X92.829 Y122.245 E71.49105
G0 F3600 X92.83 Y121.68
G1 F2100 X102.569 Y131.419 E72.17819
G0 F3600 X103.135 Y131.419
G1 F2100 X92.83 Y121.114 E72.90526
G0 F3600 X92.83 Y120.548
G1 F2100 X98.41 Y126.129 E73.299
G0 F3600 X98.29 Y125.443
G1 F2100 X92.83 Y119.983 E73.68423
G0 F3600 X92.83 Y119.417
G1 F2100 X98.308 Y124.895 E74.07073
G0 F3600 X98.396 Y124.417
G1 F2100 X92.83 Y118.851 E74.46344
G0 F3600 X92.83 Y118.286
G1 F2100 X98.55 Y124.006 E74.86702
G0 F3600 X98.748 Y123.638
G1 F2100 X92.83 Y117.72 E75.28457
G0 F3600 X92.83 Y117.154
