;FLAVOR:Marlin
;TIME:1163
;Filament used: 1.33676m
;Layer height: 0.2
;MINX:107.7
;MINY:107.598
;MINZ:0.2
;MAXX:127.352
;MAXY:127.3
;MAXZ:20
;POSTPROCESSED
;Generated with Cura_SteamEngine 5.3.1
M82 ;absolute extrusion mode
G90
M117 ; Heating Bed
M140 S70 ; Set Heat Bed temperature
M117 ; Preheat e to 160 and Autohome
M104 S160; start warming extruder to 160
G92 E0 ; Reset Extruder
G28 ; Home all axes
BED_MESH_CALIBRATE PRINT_MIN=107.7,107.598 PRINT_MAX=127.352,127.3
G92 E0 ; Reset Extruder
G1 X0.1 Y.1 Z3.0 F5000.0 ; move to off the edge
M117 Heat E to temp
M104 S200 ; Set Extruder temperature
G1 X0.1 Y20 Z3.0 F5000.0 ; move to start-line position
M190 S70 ; Wait for Heat Bed temperature
M109 S200 ; Wait for Extruder temperature
G1 Z3.0 F3000 ; move z up little to prevent scratching of surface
G1 Z0.3 F3000 ; move z back down a bit
M117 Draw Line
G1 X0.1 Y200.0 Z0.3 F1500.0 E15 ; draw 1st line
G1 X0.4 Y200.0 Z0.3 F5000.0 ; move to side a little
G1 X0.4 Y20 Z0.3 F1500.0 E30 ; draw 2nd line
G92 E0 ; reset extruder
G1 Z2.0 F3000 ; move z up little to prevent scratching of surface
M117 Begin Print
; End of custom start GCode
G92 E0
G92 E0
G1 F1500 E-1
;LAYER_COUNT:100
;LAYER:0
M107
M204 S1000
;MESH:xyzCalibration_cube.stl
G0 F3600 X126.5 Y126.5 Z0.2
;TYPE:WALL-INNER
G1 F1500 E0
G1 F2100 X126.5 Y108.5 E0.59868
G1 X108.5 Y108.5 E1.19736
G1 X108.5 Y126.5 E1.79605
G1 X126.5 Y126.5 E2.39473
G0 F3600 X126.9 Y126.9
G1 F2100 X126.9 Y108.1 E3.02002
G1 X108.1 Y108.1 E3.64531
G1 X108.1 Y126.9 E4.2706
G1 X126.9 Y126.9 E4.89589
G0 F3600 X127.3 Y127.3
;TYPE:WALL-OUTER
G1 F1200 X127.3 Y107.7 E5.54779
G1 X107.7 Y107.7 E6.19969
G1 X107.7 Y127.3 E6.85159
G1 X127.3 Y127.3 E7.50349
G0 F3600 X127.3 Y127.1
G0 X126.63 Y126.63
G0 X126.12 Y126.12
;TYPE:SKIN
G1 F2100 X108.88 Y126.12 E8.07689
G1 X108.88 Y108.88 E8.6503
G1 X126.12 Y108.88 E9.2237
G1 X126.12 Y126.12 E9.79711
G0 F3600 X126.4 Y126.12
G0 X126.4 Y109.514
G0 X125.919 Y109.514
G1 F2100 X125.485 Y109.08 E9.81752
G0 F3600 X124.919 Y109.08
G1 F2100 X125.919 Y110.08 E9.86456
G0 F3600 X125.919 Y110.645
G1 F2100 X124.353 Y109.08 E9.93819
G0 F3600 X123.788 Y109.08
G1 F2100 X125.919 Y111.211 E10.03843
G0 F3600 X125.919 Y111.777
G1 F2100 X123.222 Y109.08 E10.16529
G0 F3600 X122.656 Y109.08
G1 F2100 X125.919 Y112.343 E10.31877
G0 F3600 X125.919 Y112.908
G1 F2100 X122.091 Y109.08 E10.49883
G0 F3600 X121.525 Y109.08
G1 F2100 X125.919 Y113.474 E10.70551
G0 F3600 X125.919 Y114.04
G1 F2100 X120.959 Y109.08 E10.93881
G0 F3600 X120.394 Y109.08
G1 F2100 X125.919 Y114.605 E11.19869
G0 F3600 X125.919 Y115.171
G1 F2100 X119.828 Y109.08 E11.48519
G0 F3600 X119.262 Y109.08
G1 F2100 X125.919 Y115.737 E11.79832
G0 F3600 X125.919 Y116.302
G1 F2100 X118.697 Y109.08 E12.13802
G0 F3600 X118.131 Y109.08
G1 F2100 X125.919 Y116.868 E12.50434
G0 F3600 X125.919 Y117.434
G1 F2100 X117.565 Y109.08 E12.89729
G0 F3600 X117 Y109.08
G1 F2100 X125.919 Y117.999 E13.31681
G0 F3600 X125.919 Y118.565
G1 F2100 X116.434 Y109.08 E13.76295
G0 F3600 X115.868 Y109.08
G1 F2100 X125.919 Y119.131 E14.23572
G0 F3600 X125.919 Y119.696
G1 F2100 X115.302 Y109.08 E14.73509
G0 F3600 X114.737 Y109.08
G1 F2100 X125.919 Y120.262 E15.26106
G0 F3600 X125.919 Y120.828
G1 F2100 X114.171 Y109.08 E15.81365
G0 F3600 X113.605 Y109.08
G1 F2100 X125.919 Y121.393 E16.39284
G0 F3600 X125.919 Y121.959
G1 F2100 X113.04 Y109.08 E16.99862
G0 F3600 X112.474 Y109.08
G1 F2100 X125.919 Y122.525 E17.63104
G0 F3600 X125.919 Y123.091
G1 F2100 X111.908 Y109.08 E18.29007
G0 F3600 X111.343 Y109.08
G1 F2100 X125.919 Y123.656 E18.97568
G0 F3600 X125.919 Y124.222
G1 F2100 X110.777 Y109.08 E19.68791
G0 F3600 X110.211 Y109.08
G1 F2100 X125.919 Y124.788 E20.42677
G0 F3600 X125.919 Y125.353
G1 F2100 X109.646 Y109.08 E21.1922
G0 F3600 X109.079 Y109.079
G1 F2100 X125.919 Y125.919 E21.9843
G0 F3600 X125.353 Y125.919
G1 F2100 X109.079 Y109.645 E22.74978
G0 F3600 X109.079 Y110.211
G1 F2100 X124.788 Y125.919 E23.48866
G0 F3600 X124.222 Y125.919
G1 F2100 X109.079 Y110.776 E24.20094
G0 F3600 X109.079 Y111.342
G1 F2100 X123.656 Y125.919 E24.8866
G0 F3600 X123.091 Y125.919
G1 F2100 X109.079 Y111.908 E25.54566
G0 F3600 X109.079 Y112.473
G1 F2100 X122.525 Y125.919 E26.17812
G0 F3600 X121.959 Y125.919
G1 F2100 X109.079 Y113.039 E26.78395
G0 F3600 X109.079 Y113.605
G1 F2100 X121.393 Y125.919 E27.36317
G0 F3600 X120.828 Y125.919
G1 F2100 X109.079 Y114.17 E27.9158
G0 F3600 X109.079 Y114.736
G1 F2100 X120.262 Y125.919 E28.44182
G0 F3600 X119.696 Y125.919
G1 F2100 X109.079 Y115.302 E28.94121
G0 F3600 X109.079 Y115.867
G1 F2100 X119.131 Y125.919 E29.41402
G0 F3600 X118.565 Y125.919
G1 F2100 X109.079 Y116.433 E29.86022
G0 F3600 X109.079 Y116.999
G1 F2100 X117.999 Y125.919 E30.27979
G0 F3600 X117.434 Y125.919
G1 F2100 X109.079 Y117.564 E30.67278
G0 F3600 X109.079 Y118.13
G1 F2100 X116.868 Y125.919 E31.03915
G0 F3600 X116.302 Y125.919
G1 F2100 X109.079 Y118.696 E31.3789
G0 F3600 X109.079 Y119.262
G1 F2100 X115.737 Y125.919 E31.69205
G0 F3600 X115.171 Y125.919
G1 F2100 X109.079 Y119.827 E31.97859
G0 F3600 X109.079 Y120.393
G1 F2100 X114.605 Y125.919 E32.23852
G0 F3600 X114.04 Y125.919
G1 F2100 X109.079 Y120.959 E32.47185
G0 F3600 X109.079 Y121.524
G1 F2100 X113.474 Y125.919 E32.67857
G0 F3600 X112.908 Y125.919
G1 F2100 X109.079 Y122.09 E32.85868
G0 F3600 X109.079 Y122.656
G1 F2100 X112.343 Y125.919 E33.01218
G0 F3600 X111.777 Y125.919
G1 F2100 X109.079 Y123.221 E33.13909
G0 F3600 X109.079 Y123.787
G1 F2100 X111.211 Y125.919 E33.23937
G0 F3600 X110.645 Y125.919
G1 F2100 X109.079 Y124.353 E33.31303
G0 F3600 X109.079 Y124.918
G1 F2100 X110.08 Y125.919 E33.36012
G0 F3600 X109.514 Y125.919
M104 S200
G1 F2100 X109.079 Y125.484 E33.38058
;MESH:NONMESH
G0 F600 X109.079 Y125.484 Z0.4
G0 F3600 X108.6 Y125.484
G0 X108.672 Y126.328
G0 X126.5 Y126.5
;TIME_ELAPSED:38.357031
;LAYER:1
M140 S60
M106 S255
M204 S1250
;TYPE:WALL-INNER
;MESH:xyzCalibration_cube.stl
G1 F2850 X126.5 Y108.5 E33.97926
G1 X108.5 Y108.5 E34.57794
G1 X108.5 Y126.5 E35.17662
G1 X126.5 Y126.5 E35.77531
M204 S1750
G0 F7800 X126.9 Y126.9
M204 S1250
G1 F2850 X126.9 Y108.1 E36.4006
G1 X108.1 Y108.1 E37.02589
G1 X108.1 Y126.9 E37.65118
G1 X126.9 Y126.9 E38.27647
M204 S1750
G0 F7800 X127.3 Y127.3
M204 S1250
;TYPE:WALL-OUTER
G1 F1200 X127.3 Y107.7 E38.92837
G1 X107.7 Y107.7 E39.58027
G1 X107.7 Y127.3 E40.23217
G1 X127.3 Y127.3 E40.88406
M204 S1750
G0 F7800 X127.3 Y127.1
G0 X126.63 Y126.63
G0 X126.12 Y126.12
M204 S1250
;TYPE:SKIN
G1 F3450 X108.88 Y126.12 E41.45747
G1 X108.88 Y108.88 E42.03087
G1 X126.12 Y108.88 E42.60428
G1 X126.12 Y126.12 E43.17768
M204 S1750
G0 F7800 X125.81 Y125.919
M204 S1250
G1 F3450 X125.919 Y125.81 E43.18281
M204 S1750
G0 F7800 X125.919 Y125.244
M204 S1250
G1 F3450 X125.244 Y125.919 E43.21456
M204 S1750
G0 F7800 X124.679 Y125.919
M204 S1250
G1 F3450 X125.919 Y124.679 E43.27289
M204 S1750
G0 F7800 X125.919 Y124.113
M204 S1250
G1 F3450 X124.113 Y125.919 E43.35783
M204 S1750
G0 F7800 X123.547 Y125.919
M204 S1250
G1 F3450 X125.919 Y123.547 E43.46941
M204 S1750
G0 F7800 X125.919 Y122.982
M204 S1250
G1 F3450 X122.982 Y125.919 E43.60755
M204 S1750
G0 F7800 X122.416 Y125.919
M204 S1250
G1 F3450 X125.919 Y122.416 E43.77232
M204 S1750
G0 F7800 X125.919 Y121.85
M204 S1250
G1 F3450 X121.85 Y125.919 E43.96372
M204 S1750
G0 F7800 X121.285 Y125.919
M204 S1250
G1 F3450 X125.919 Y121.285 E44.18169
M204 S1750
G0 F7800 X125.919 Y120.719
M204 S1250
G1 F3450 X120.719 Y125.919 E44.42628
M204 S1750
G0 F7800 X120.153 Y125.919
M204 S1250
G1 F3450 X125.919 Y120.153 E44.69749
M204 S1750
G0 F7800 X125.919 Y119.588
M204 S1250
G1 F3450 X119.588 Y125.919 E44.99528
M204 S1750
G0 F7800 X119.022 Y125.919
M204 S1250
G1 F3450 X125.919 Y119.022 E45.3197
M204 S1750
G0 F7800 X125.919 Y118.456
M204 S1250
G1 F3450 X118.456 Y125.919 E45.67073
M204 S1750
G0 F7800 X117.89 Y125.919
M204 S1250
G1 F3450 X125.919 Y117.89 E46.04839
M204 S1750
G0 F7800 X125.919 Y117.325
M204 S1250
G1 F3450 X117.325 Y125.919 E46.45263
M204 S1750
G0 F7800 X116.759 Y125.919
M204 S1250
G1 F3450 X125.919 Y116.759 E46.88349
M204 S1750
G0 F7800 X125.919 Y116.193
M204 S1250
G1 F3450 X116.193 Y125.919 E47.34097
M204 S1750
G0 F7800 X115.628 Y125.919
M204 S1250
G1 F3450 X125.919 Y115.628 E47.82503
M204 S1750
G0 F7800 X125.919 Y115.062
M204 S1250
G1 F3450 X115.062 Y125.919 E48.33571
M204 S1750
G0 F7800 X114.496 Y125.919
M204 S1250
G1 F3450 X125.919 Y114.496 E48.87301
M204 S1750
G0 F7800 X125.919 Y113.931
M204 S1250
G1 F3450 X113.931 Y125.919 E49.43689
M204 S1750
G0 F7800 X113.365 Y125.919
M204 S1250
G1 F3450 X125.919 Y113.365 E50.02739
M204 S1750
G0 F7800 X125.919 Y112.799
M204 S1250
G1 F3450 X112.799 Y125.919 E50.64451
M204 S1750
G0 F7800 X112.234 Y125.919
M204 S1250
G1 F3450 X125.919 Y112.234 E51.28821
M204 S1750
G0 F7800 X125.919 Y111.668
M204 S1250
G1 F3450 X111.668 Y125.919 E51.95854
M204 S1750
G0 F7800 X111.102 Y125.919
M204 S1250
G1 F3450 X125.919 Y111.102 E52.65548
M204 S1750
G0 F7800 X125.919 Y110.537
M204 S1250
G1 F3450 X110.537 Y125.919 E53.37901
M204 S1750
G0 F7800 X109.971 Y125.919
M204 S1250
G1 F3450 X125.919 Y109.971 E54.12915
M204 S1750
G0 F7800 X125.919 Y109.405
M204 S1250
G1 F3450 X109.405 Y125.919 E54.90592
M204 S1750
G0 F7800 X109.08 Y125.679
M204 S1250
G1 F3450 X125.679 Y109.079 E55.68671
M204 S1750
G0 F7800 X125.114 Y109.079
M204 S1250
G1 F3450 X109.08 Y125.113 E56.4409
M204 S1750
G0 F7800 X109.08 Y124.547
M204 S1250
G1 F3450 X124.548 Y109.079 E57.16847
M204 S1750
G0 F7800 X123.982 Y109.079
M204 S1250
G1 F3450 X109.08 Y123.981 E57.86941
M204 S1750
G0 F7800 X109.08 Y123.416
M204 S1250
G1 F3450 X123.417 Y109.079 E58.54378
M204 S1750
G0 F7800 X122.851 Y109.079
M204 S1250
G1 F3450 X109.08 Y122.85 E59.19152
M204 S1750
G0 F7800 X109.08 Y122.284
M204 S1250
G1 F3450 X122.285 Y109.079 E59.81265
M204 S1750
G0 F7800 X121.719 Y109.079
M204 S1250
G1 F3450 X109.08 Y121.719 E60.40717
M204 S1750
G0 F7800 X109.08 Y121.153
M204 S1250
G1 F3450 X121.154 Y109.079 E60.97509
M204 S1750
G0 F7800 X120.588 Y109.079
M204 S1250
G1 F3450 X109.08 Y120.587 E61.5164
M204 S1750
G0 F7800 X109.08 Y120.022
M204 S1250
G1 F3450 X120.022 Y109.079 E62.0311
M204 S1750
G0 F7800 X119.457 Y109.079
M204 S1250
G1 F3450 X109.08 Y119.456 E62.5192
M204 S1750
G0 F7800 X109.08 Y118.89
M204 S1250
G1 F3450 X118.891 Y109.079 E62.98068
M204 S1750
G0 F7800 X118.325 Y109.079
M204 S1250
G1 F3450 X109.08 Y118.325 E63.41556
M204 S1750
G0 F7800 X109.08 Y117.759
M204 S1250
G1 F3450 X117.76 Y109.079 E63.82384
M204 S1750
G0 F7800 X117.194 Y109.079
M204 S1250
G1 F3450 X109.08 Y117.193 E64.2055
M204 S1750
G0 F7800 X109.08 Y116.628
M204 S1250
G1 F3450 X116.628 Y109.079 E64.56056
M204 S1750
G0 F7800 X116.063 Y109.079
M204 S1250
G1 F3450 X109.08 Y116.062 E64.88901
M204 S1750
G0 F7800 X109.08 Y115.496
M204 S1250
G1 F3450 X115.497 Y109.079 E65.19085
M204 S1750
G0 F7800 X114.931 Y109.079
M204 S1250
G1 F3450 X109.08 Y114.931 E65.46609
M204 S1750
G0 F7800 X109.08 Y114.365
M204 S1250
G1 F3450 X114.366 Y109.079 E65.71472
M204 S1750
G0 F7800 X113.8 Y109.079
M204 S1250
G1 F3450 X109.08 Y113.799 E65.93674
M204 S1750
G0 F7800 X109.08 Y113.233
M204 S1250
G1 F3450 X113.234 Y109.079 E66.13213
M204 S1750
G0 F7800 X112.668 Y109.079
M204 S1250
G1 F3450 X109.08 Y112.668 E66.30092
M204 S1750
G0 F7800 X109.08 Y112.102
M204 S1250
G1 F3450 X112.103 Y109.079 E66.44311
M204 S1750
G0 F7800 X111.537 Y109.079
M204 S1250
G1 F3450 X109.08 Y111.536 E66.55868
M204 S1750
G0 F7800 X109.08 Y110.971
M204 S1250
G1 F3450 X110.971 Y109.079 E66.64765
M204 S1750
G0 F7800 X110.406 Y109.079
M204 S1250
G1 F3450 X109.08 Y110.405 E66.71003
M204 S1750
G0 F7800 X109.08 Y109.839
M204 S1250
G1 F3450 X109.84 Y109.079 E66.74577
M204 S1750
G0 F7800 X109.274 Y109.079
M204 S1250
G1 F3450 X109.08 Y109.274 E66.75492
M204 S1750
;MESH:NONMESH
G0 F600 X109.08 Y109.274 Z0.6
G0 F7800 X108.6 Y109.274
G0 X108.672 Y126.328
G0 X126.5 Y126.5
;TIME_ELAPSED:62.683033
;LAYER:2
M204 S1500
;TYPE:WALL-INNER
;MESH:xyzCalibration_cube.stl
G1 F3600 X126.5 Y108.5 E67.3536
G1 X108.5 Y108.5 E67.95229
G1 X108.5 Y126.5 E68.55097
G1 X126.5 Y126.5 E69.14965
M204 S2500
G0 F12000 X126.9 Y126.9
M204 S1500
G1 F3600 X126.9 Y108.1 E69.77494
G1 X108.1 Y108.1 E70.40023
G1 X108.1 Y126.9 E71.02552
G1 X126.9 Y126.9 E71.65081
M204 S2500
G0 F12000 X127.3 Y127.3
M204 S1500
;TYPE:WALL-OUTER
G1 F1200 X127.3 Y107.7 E72.30271
G1 X107.7 Y107.7 E72.95461
G1 X107.7 Y127.3 E73.60651
G1 X127.3 Y127.3 E74.25841
M204 S2500
G0 F12000 X127.3 Y127.1
G0 X126.63 Y126.63
G0 X126.12 Y126.12
M204 S1500
;TYPE:SKIN
G1 F4800 X108.88 Y126.12 E74.83181
G1 X108.88 Y108.88 E75.40522
G1 X126.12 Y108.88 E75.97862
G1 X126.12 Y126.12 E76.55203
M204 S2500
G0 F12000 X126.4 Y126.12
G0 X126.4 Y109.514
G0 X125.919 Y109.514
M204 S1500
G1 F4800 X125.485 Y109.08 E76.57244
M204 S2500
G0 F12000 X124.919 Y109.08
M204 S1500
G1 F4800 X125.919 Y110.08 E76.61948
M204 S2500
G0 F12000 X125.919 Y110.645
M204 S1500
G1 F4800 X124.353 Y109.08 E76.69312
M204 S2500
G0 F12000 X123.788 Y109.08
M204 S1500
G1 F4800 X125.919 Y111.211 E76.79335
M204 S2500
G0 F12000 X125.919 Y111.777
M204 S1500
G1 F4800 X123.222 Y109.08 E76.92021
M204 S2500
G0 F12000 X122.656 Y109.08
M204 S1500
G1 F4800 X125.919 Y112.343 E77.07369
M204 S2500
G0 F12000 X125.919 Y112.908
M204 S1500
G1 F4800 X122.091 Y109.08 E77.25375
M204 S2500
G0 F12000 X121.525 Y109.08
M204 S1500
G1 F4800 X125.919 Y113.474 E77.46043
M204 S2500
G0 F12000 X125.919 Y114.04
M204 S1500
G1 F4800 X120.959 Y109.08 E77.69373
M204 S2500
G0 F12000 X120.394 Y109.08
M204 S1500
G1 F4800 X125.919 Y114.605 E77.95361
M204 S2500
G0 F12000 X125.919 Y115.171
M204 S1500
G1 F4800 X119.828 Y109.08 E78.24011
M204 S2500
G0 F12000 X119.262 Y109.08
M204 S1500
G1 F4800 X125.919 Y115.737 E78.55324
M204 S2500
G0 F12000 X125.919 Y116.302
M204 S1500
G1 F4800 X118.697 Y109.08 E78.89294
M204 S2500
G0 F12000 X118.131 Y109.08
M204 S1500
G1 F4800 X125.919 Y116.868 E79.25926
M204 S2500
G0 F12000 X125.919 Y117.434
M204 S1500
G1 F4800 X117.565 Y109.08 E79.65221
M204 S2500
G0 F12000 X117 Y109.08
M204 S1500
G1 F4800 X125.919 Y117.999 E80.07173
M204 S2500
G0 F12000 X125.919 Y118.565
M204 S1500
G1 F4800 X116.434 Y109.08 E80.51788
M204 S2500
G0 F12000 X115.868 Y109.08
M204 S1500
G1 F4800 X125.919 Y119.131 E80.99064
M204 S2500
G0 F12000 X125.919 Y119.696
M204 S1500
G1 F4800 X115.302 Y109.08 E81.49001
M204 S2500
G0 F12000 X114.737 Y109.08
M204 S1500
G1 F4800 X125.919 Y120.262 E82.01598
M204 S2500
G0 F12000 X125.919 Y120.828
M204 S1500
G1 F4800 X114.171 Y109.08 E82.56857
M204 S2500
G0 F12000 X113.605 Y109.08
M204 S1500
G1 F4800 X125.919 Y121.393 E83.14776
M204 S2500
G0 F12000 X125.919 Y121.959
M204 S1500
G1 F4800 X113.04 Y109.08 E83.75355
M204 S2500
G0 F12000 X112.474 Y109.08
M204 S1500
G1 F4800 X125.919 Y122.525 E84.38596
M204 S2500
G0 F12000 X125.919 Y123.091
M204 S1500
G1 F4800 X111.908 Y109.08 E85.04499
M204 S2500
G0 F12000 X111.343 Y109.08
M204 S1500
G1 F4800 X125.919 Y123.656 E85.7306
M204 S2500
G0 F12000 X125.919 Y124.222
M204 S1500
G1 F4800 X110.777 Y109.08 E86.44284
M204 S2500
G0 F12000 X110.211 Y109.08
M204 S1500
G1 F4800 X125.919 Y124.788 E87.18169
M204 S2500
G0 F12000 X125.919 Y125.353
M204 S1500
G1 F4800 X109.646 Y109.08 E87.94713
M204 S2500
G0 F12000 X109.079 Y109.079
M204 S1500
G1 F4800 X125.919 Y125.919 E88.73923
M204 S2500
G0 F12000 X125.353 Y125.919
M204 S1500
G1 F4800 X109.079 Y109.645 E89.50471
M204 S2500
G0 F12000 X109.079 Y110.211
M204 S1500
G1 F4800 X124.788 Y125.919 E90.24359
M204 S2500
G0 F12000 X124.222 Y125.919
M204 S1500
G1 F4800 X109.079 Y110.776 E90.95587
M204 S2500
G0 F12000 X109.079 Y111.342
M204 S1500
G1 F4800 X123.656 Y125.919 E91.64152
M204 S2500
G0 F12000 X123.091 Y125.919
M204 S1500
G1 F4800 X109.079 Y111.908 E92.30058
M204 S2500
G0 F12000 X109.079 Y112.473
M204 S1500
G1 F4800 X122.525 Y125.919 E92.93304
M204 S2500
G0 F12000 X121.959 Y125.919
M204 S1500
G1 F4800 X109.079 Y113.039 E93.53888
M204 S2500
G0 F12000 X109.079 Y113.605
M204 S1500
G1 F4800 X121.393 Y125.919 E94.11809
M204 S2500
G0 F12000 X120.828 Y125.919
M204 S1500
G1 F4800 X109.079 Y114.17 E94.67073
M204 S2500
G0 F12000 X109.079 Y114.736
M204 S1500
G1 F4800 X120.262 Y125.919 E95.19674
