;FLAVOR:Marlin
;TIME:1171
;Filament used: 1.33343m
;Layer height: 0.2
;MINX:107.7
;MINY:107.598
;MINZ:0.2
;MAXX:127.352
;MAXY:127.3
;MAXZ:20
;POSTPROCESSED
;Generated with Cura_SteamEngine 5.3.1
M82 ;absolute extrusion mode
; Ender 3 Custom Start G-code
G92 E0 ; Reset Extruder

M140 S50 ; set bed temp
M190 S50 ; wait for bed temp

G28 ; Home all axes
BED_MESH_CALIBRATE  AREA_START=107.7,107.598 AREA_END=127.352,127.3
M104 S200 ; set extruder temp 

G1 Z2.0 F3000 ; Move Z Axis up little to prevent scratching of Heat Bed
M109 S200 ; wait for extruder temp
G1 X0.1 Y20 Z0.3 F5000.0 ; Move to start position

G1 X0.1 Y200.0 Z0.3 F1500.0 E15 ; Draw the first line
G1 X0.4 Y200.0 Z0.3 F5000.0 ; Move to side a little
G1 X0.4 Y20 Z0.3 F1500.0 E30 ; Draw the second line
G92 E0 ; Reset Extruder
G1 Z2.0 F3000 ; Move Z Axis up little to prevent scratching of Heat Bed
G1 X5 Y20 Z0.3 F5000.0 ; Move over to prevent blob squish
G92 E0
G92 E0
G1 F1500 E-1
;LAYER_COUNT:100
;LAYER:0
M107
M204 S1000
;MESH:xyzCalibration_cube.stl
G0 F3600 X126.5 Y126.5 Z0.2
;TYPE:WALL-INNER
G1 F1500 E0
G1 F1800 X126.5 Y108.5 E0.53881
G1 X108.5 Y108.5 E1.07763
G1 X108.5 Y126.5 E1.61644
G1 X126.5 Y126.5 E2.15526
G0 F3600 X126.9 Y126.9
G1 F1800 X126.9 Y108.1 E2.71802
G1 X108.1 Y108.1 E3.28078
G1 X108.1 Y126.9 E3.84354
G1 X126.9 Y126.9 E4.4063
G0 F3600 X127.3 Y127.3
M204 S500
;TYPE:WALL-OUTER
G1 F1200 X127.3 Y107.7 E4.99301
G1 X107.7 Y107.7 E5.57972
G1 X107.7 Y127.3 E6.16643
G1 X127.3 Y127.3 E6.75314
M204 S1000
G0 F3600 X127.3 Y127.1
G0 X126.63 Y126.63
G0 X126.12 Y126.12
;TYPE:SKIN
G1 F1800 X108.88 Y126.12 E7.2692
G1 X108.88 Y108.88 E7.78527
G1 X126.12 Y108.88 E8.30133
G1 X126.12 Y126.12 E8.81739
G0 F3600 X126.4 Y126.12
G0 X126.4 Y109.514
G0 X125.919 Y109.514
G1 F1800 X125.485 Y109.08 E8.83577
G0 F3600 X124.919 Y109.08
G1 F1800 X125.919 Y110.08 E8.8781
G0 F3600 X125.919 Y110.645
G1 F1800 X124.353 Y109.08 E8.94437
G0 F3600 X123.788 Y109.08
G1 F1800 X125.919 Y111.211 E9.03459
G0 F3600 X125.919 Y111.777
G1 F1800 X123.222 Y109.08 E9.14876
G0 F3600 X122.656 Y109.08
G1 F1800 X125.919 Y112.343 E9.28689
G0 F3600 X125.919 Y112.908
G1 F1800 X122.091 Y109.08 E9.44894
G0 F3600 X121.525 Y109.08
G1 F1800 X125.919 Y113.474 E9.63496
G0 F3600 X125.919 Y114.04
G1 F1800 X120.959 Y109.08 E9.84493
G0 F3600 X120.394 Y109.08
G1 F1800 X125.919 Y114.605 E10.07882
G0 F3600 X125.919 Y115.171
G1 F1800 X119.828 Y109.08 E10.33667
G0 F3600 X119.262 Y109.08
G1 F1800 X125.919 Y115.737 E10.61848
G0 F3600 X125.919 Y116.302
G1 F1800 X118.697 Y109.08 E10.92421
G0 F3600 X118.131 Y109.08
G1 F1800 X125.919 Y116.868 E11.25391
G0 F3600 X125.919 Y117.434
G1 F1800 X117.565 Y109.08 E11.60756
G0 F3600 X117 Y109.08
G1 F1800 X125.919 Y117.999 E11.98513
G0 F3600 X125.919 Y118.565
G1 F1800 X116.434 Y109.08 E12.38666
G0 F3600 X115.868 Y109.08
G1 F1800 X125.919 Y119.131 E12.81215
G0 F3600 X125.919 Y119.696
G1 F1800 X115.302 Y109.08 E13.26158
G0 F3600 X114.737 Y109.08
G1 F1800 X125.919 Y120.262 E13.73495
G0 F3600 X125.919 Y120.828
G1 F1800 X114.171 Y109.08 E14.23228
G0 F3600 X113.605 Y109.08
G1 F1800 X125.919 Y121.393 E14.75355
G0 F3600 X125.919 Y121.959
G1 F1800 X113.04 Y109.08 E15.29876
G0 F3600 X112.474 Y109.08
G1 F1800 X125.919 Y122.525 E15.86793
G0 F3600 X125.919 Y123.091
G1 F1800 X111.908 Y109.08 E16.46106
G0 F3600 X111.343 Y109.08
G1 F1800 X125.919 Y123.656 E17.07811
G0 F3600 X125.919 Y124.222
G1 F1800 X110.777 Y109.08 E17.71912
G0 F3600 X110.211 Y109.08
G1 F1800 X125.919 Y124.788 E18.38409
G0 F3600 X125.919 Y125.353
G1 F1800 X109.646 Y109.08 E19.07298
G0 F3600 X109.079 Y109.079
G1 F1800 X125.919 Y125.919 E19.78587
G0 F3600 X125.353 Y125.919
G1 F1800 X109.079 Y109.645 E20.47481
G0 F3600 X109.079 Y110.211
G1 F1800 X124.788 Y125.919 E21.1398
G0 F3600 X124.222 Y125.919
G1 F1800 X109.079 Y110.776 E21.78085
G0 F3600 X109.079 Y111.342
G1 F1800 X123.656 Y125.919 E22.39794
G0 F3600 X123.091 Y125.919
G1 F1800 X109.079 Y111.908 E22.99109
G0 F3600 X109.079 Y112.473
G1 F1800 X122.525 Y125.919 E23.56031
G0 F3600 X121.959 Y125.919
G1 F1800 X109.079 Y113.039 E24.10556
G0 F3600 X109.079 Y113.605
G1 F1800 X121.393 Y125.919 E24.62685
G0 F3600 X120.828 Y125.919
G1 F1800 X109.079 Y114.17 E25.12422
G0 F3600 X109.079 Y114.736
G1 F1800 X120.262 Y125.919 E25.59764
G0 F3600 X119.696 Y125.919
G1 F1800 X109.079 Y115.302 E26.04709
G0 F3600 X109.079 Y115.867
G1 F1800 X119.131 Y125.919 E26.47262
G0 F3600 X118.565 Y125.919
G1 F1800 X109.079 Y116.433 E26.87419
G0 F3600 X109.079 Y116.999
G1 F1800 X117.999 Y125.919 E27.25181
G0 F3600 X117.434 Y125.919
G1 F1800 X109.079 Y117.564 E27.6055
G0 F3600 X109.079 Y118.13
G1 F1800 X116.868 Y125.919 E27.93523
G0 F3600 X116.302 Y125.919
G1 F1800 X109.079 Y118.696 E28.24101
G0 F3600 X109.079 Y119.262
G1 F1800 X115.737 Y125.919 E28.52284
G0 F3600 X115.171 Y125.919
G1 F1800 X109.079 Y119.827 E28.78074
G0 F3600 X109.079 Y120.393
G1 F1800 X114.605 Y125.919 E29.01467
G0 F3600 X114.04 Y125.919
G1 F1800 X109.079 Y120.959 E29.22466
G0 F3600 X109.079 Y121.524
G1 F1800 X113.474 Y125.919 E29.41072
G0 F3600 X112.908 Y125.919
G1 F1800 X109.079 Y122.09 E29.57281
G0 F3600 X109.079 Y122.656
G1 F1800 X112.343 Y125.919 E29.71097
G0 F3600 X111.777 Y125.919
G1 F1800 X109.079 Y123.221 E29.82518
G0 F3600 X109.079 Y123.787
G1 F1800 X111.211 Y125.919 E29.91544
G0 F3600 X110.645 Y125.919
G1 F1800 X109.079 Y124.353 E29.98173
G0 F3600 X109.079 Y124.918
G1 F1800 X110.08 Y125.919 E30.0241
G0 F3600 X109.514 Y125.919
M104 S200
G1 F1800 X109.079 Y125.484 E30.04252
;MESH:NONMESH
G0 F600 X109.079 Y125.484 Z0.4
G0 F3600 X108.6 Y125.484
G0 X108.672 Y126.328
G0 X126.5 Y126.5
;TIME_ELAPSED:42.623911
;LAYER:1
M106 S255
M204 S1250
;TYPE:WALL-INNER
;MESH:xyzCalibration_cube.stl
G1 F2700 X126.5 Y108.5 E30.6412
G1 X108.5 Y108.5 E31.23988
G1 X108.5 Y126.5 E31.83857
G1 X126.5 Y126.5 E32.43725
M204 S1750
G0 F7800 X126.9 Y126.9
M204 S1250
G1 F2700 X126.9 Y108.1 E33.06254
G1 X108.1 Y108.1 E33.68783
G1 X108.1 Y126.9 E34.31312
G1 X126.9 Y126.9 E34.93841
M204 S1750
G0 F7800 X127.3 Y127.3
M204 S500
;TYPE:WALL-OUTER
G1 F1200 X127.3 Y107.7 E35.59031
G1 X107.7 Y107.7 E36.24221
G1 X107.7 Y127.3 E36.89411
G1 X127.3 Y127.3 E37.54601
M204 S1750
G0 F7800 X127.3 Y127.1
G0 X126.63 Y126.63
G0 X126.12 Y126.12
M204 S1250
;TYPE:SKIN
G1 F3300 X108.88 Y126.12 E38.11941
G1 X108.88 Y108.88 E38.69282
G1 X126.12 Y108.88 E39.26622
G1 X126.12 Y126.12 E39.83963
M204 S1750
G0 F7800 X125.81 Y125.919
M204 S1250
G1 F3300 X125.919 Y125.81 E39.84475
M204 S1750
G0 F7800 X125.919 Y125.244
M204 S1250
G1 F3300 X125.244 Y125.919 E39.8765
M204 S1750
G0 F7800 X124.679 Y125.919
M204 S1250
G1 F3300 X125.919 Y124.679 E39.93483
M204 S1750
G0 F7800 X125.919 Y124.113
M204 S1250
G1 F3300 X124.113 Y125.919 E40.01978
M204 S1750
G0 F7800 X123.547 Y125.919
M204 S1250
G1 F3300 X125.919 Y123.547 E40.13135
M204 S1750
G0 F7800 X125.919 Y122.982
M204 S1250
G1 F3300 X122.982 Y125.919 E40.2695
M204 S1750
G0 F7800 X122.416 Y125.919
M204 S1250
G1 F3300 X125.919 Y122.416 E40.43427
M204 S1750
G0 F7800 X125.919 Y121.85
M204 S1250
G1 F3300 X121.85 Y125.919 E40.62566
M204 S1750
G0 F7800 X121.285 Y125.919
M204 S1250
G1 F3300 X125.919 Y121.285 E40.84363
M204 S1750
G0 F7800 X125.919 Y120.719
M204 S1250
G1 F3300 X120.719 Y125.919 E41.08822
M204 S1750
G0 F7800 X120.153 Y125.919
M204 S1250
G1 F3300 X125.919 Y120.153 E41.35944
M204 S1750
G0 F7800 X125.919 Y119.588
M204 S1250
G1 F3300 X119.588 Y125.919 E41.65723
M204 S1750
G0 F7800 X119.022 Y125.919
M204 S1250
G1 F3300 X125.919 Y119.022 E41.98164
M204 S1750
G0 F7800 X125.919 Y118.456
M204 S1250
G1 F3300 X118.456 Y125.919 E42.33268
M204 S1750
G0 F7800 X117.89 Y125.919
M204 S1250
G1 F3300 X125.919 Y117.89 E42.71034
M204 S1750
G0 F7800 X125.919 Y117.325
M204 S1250
G1 F3300 X117.325 Y125.919 E43.11457
M204 S1750
G0 F7800 X116.759 Y125.919
M204 S1250
G1 F3300 X125.919 Y116.759 E43.54543
M204 S1750
G0 F7800 X125.919 Y116.193
M204 S1250
G1 F3300 X116.193 Y125.919 E44.00291
M204 S1750
G0 F7800 X115.628 Y125.919
M204 S1250
G1 F3300 X125.919 Y115.628 E44.48697
M204 S1750
G0 F7800 X125.919 Y115.062
M204 S1250
G1 F3300 X115.062 Y125.919 E44.99765
M204 S1750
G0 F7800 X114.496 Y125.919
M204 S1250
G1 F3300 X125.919 Y114.496 E45.53495
M204 S1750
G0 F7800 X125.919 Y113.931
M204 S1250
G1 F3300 X113.931 Y125.919 E46.09883
M204 S1750
G0 F7800 X113.365 Y125.919
M204 S1250
G1 F3300 X125.919 Y113.365 E46.68933
M204 S1750
G0 F7800 X125.919 Y112.799
M204 S1250
G1 F3300 X112.799 Y125.919 E47.30646
M204 S1750
G0 F7800 X112.234 Y125.919
M204 S1250
G1 F3300 X125.919 Y112.234 E47.95016
M204 S1750
G0 F7800 X125.919 Y111.668
M204 S1250
G1 F3300 X111.668 Y125.919 E48.62048
M204 S1750
G0 F7800 X111.102 Y125.919
M204 S1250
G1 F3300 X125.919 Y111.102 E49.31743
M204 S1750
G0 F7800 X125.919 Y110.537
M204 S1250
G1 F3300 X110.537 Y125.919 E50.04095
M204 S1750
G0 F7800 X109.971 Y125.919
M204 S1250
G1 F3300 X125.919 Y109.971 E50.79109
M204 S1750
G0 F7800 X125.919 Y109.405
M204 S1250
G1 F3300 X109.405 Y125.919 E51.56786
M204 S1750
G0 F7800 X109.08 Y125.679
M204 S1250
G1 F3300 X125.679 Y109.079 E52.34865
M204 S1750
G0 F7800 X125.114 Y109.079
M204 S1250
G1 F3300 X109.08 Y125.113 E53.10284
M204 S1750
G0 F7800 X109.08 Y124.547
M204 S1250
G1 F3300 X124.548 Y109.079 E53.83041
M204 S1750
G0 F7800 X123.982 Y109.079
M204 S1250
G1 F3300 X109.08 Y123.981 E54.53135
M204 S1750
G0 F7800 X109.08 Y123.416
M204 S1250
G1 F3300 X123.417 Y109.079 E55.20572
M204 S1750
G0 F7800 X122.851 Y109.079
M204 S1250
G1 F3300 X109.08 Y122.85 E55.85347
M204 S1750
G0 F7800 X109.08 Y122.284
M204 S1250
G1 F3300 X122.285 Y109.079 E56.47459
M204 S1750
G0 F7800 X121.719 Y109.079
M204 S1250
G1 F3300 X109.08 Y121.719 E57.06911
M204 S1750
G0 F7800 X109.08 Y121.153
M204 S1250
G1 F3300 X121.154 Y109.079 E57.63704
M204 S1750
G0 F7800 X120.588 Y109.079
M204 S1250
G1 F3300 X109.08 Y120.587 E58.17834
M204 S1750
G0 F7800 X109.08 Y120.022
M204 S1250
G1 F3300 X120.022 Y109.079 E58.69304
M204 S1750
G0 F7800 X119.457 Y109.079
M204 S1250
G1 F3300 X109.08 Y119.456 E59.18114
M204 S1750
G0 F7800 X109.08 Y118.89
M204 S1250
G1 F3300 X118.891 Y109.079 E59.64262
M204 S1750
G0 F7800 X118.325 Y109.079
M204 S1250
G1 F3300 X109.08 Y118.325 E60.0775
M204 S1750
G0 F7800 X109.08 Y117.759
M204 S1250
G1 F3300 X117.76 Y109.079 E60.48578
M204 S1750
G0 F7800 X117.194 Y109.079
M204 S1250
G1 F3300 X109.08 Y117.193 E60.86744
M204 S1750
G0 F7800 X109.08 Y116.628
M204 S1250
G1 F3300 X116.628 Y109.079 E61.2225
M204 S1750
G0 F7800 X116.063 Y109.079
M204 S1250
G1 F3300 X109.08 Y116.062 E61.55096
M204 S1750
G0 F7800 X109.08 Y115.496
M204 S1250
G1 F3300 X115.497 Y109.079 E61.85279
M204 S1750
G0 F7800 X114.931 Y109.079
M204 S1250
G1 F3300 X109.08 Y114.931 E62.12803
M204 S1750
G0 F7800 X109.08 Y114.365
M204 S1250
G1 F3300 X114.366 Y109.079 E62.37667
M204 S1750
G0 F7800 X113.8 Y109.079
M204 S1250
G1 F3300 X109.08 Y113.799 E62.59868
M204 S1750
G0 F7800 X109.08 Y113.233
M204 S1250
G1 F3300 X113.234 Y109.079 E62.79407
M204 S1750
G0 F7800 X112.668 Y109.079
M204 S1250
G1 F3300 X109.08 Y112.668 E62.96286
M204 S1750
G0 F7800 X109.08 Y112.102
M204 S1250
G1 F3300 X112.103 Y109.079 E63.10506
M204 S1750
G0 F7800 X111.537 Y109.079
M204 S1250
G1 F3300 X109.08 Y111.536 E63.22063
M204 S1750
G0 F7800 X109.08 Y110.971
M204 S1250
G1 F3300 X110.971 Y109.079 E63.3096
M204 S1750
G0 F7800 X110.406 Y109.079
M204 S1250
G1 F3300 X109.08 Y110.405 E63.37197
M204 S1750
G0 F7800 X109.08 Y109.839
M204 S1250
G1 F3300 X109.84 Y109.079 E63.40772
M204 S1750
G0 F7800 X109.274 Y109.079
M204 S1250
G1 F3300 X109.08 Y109.274 E63.41686
M204 S1750
;MESH:NONMESH
G0 F600 X109.08 Y109.274 Z0.6
G0 F7800 X108.6 Y109.274
G0 X108.672 Y126.328
G0 X126.5 Y126.5
;TIME_ELAPSED:67.652387
;LAYER:2
M204 S1500
;TYPE:WALL-INNER
;MESH:xyzCalibration_cube.stl
G1 F3600 X126.5 Y108.5 E64.01555
G1 X108.5 Y108.5 E64.61423
G1 X108.5 Y126.5 E65.21291
G1 X126.5 Y126.5 E65.81159
M204 S2500
G0 F12000 X126.9 Y126.9
M204 S1500
G1 F3600 X126.9 Y108.1 E66.43689
G1 X108.1 Y108.1 E67.06218
G1 X108.1 Y126.9 E67.68747
G1 X126.9 Y126.9 E68.31276
M204 S2500
G0 F12000 X127.3 Y127.3
M204 S500
;TYPE:WALL-OUTER
G1 F1200 X127.3 Y107.7 E68.96466
G1 X107.7 Y107.7 E69.61655
G1 X107.7 Y127.3 E70.26845
G1 X127.3 Y127.3 E70.92035
M204 S2500
G0 F12000 X127.3 Y127.1
G0 X126.63 Y126.63
G0 X126.12 Y126.12
M204 S1500
;TYPE:SKIN
G1 F4800 X108.88 Y126.12 E71.49376
G1 X108.88 Y108.88 E72.06716
G1 X126.12 Y108.88 E72.64057
G1 X126.12 Y126.12 E73.21397
M204 S2500
G0 F12000 X126.4 Y126.12
G0 X126.4 Y109.514
G0 X125.919 Y109.514
M204 S1500
G1 F4800 X125.485 Y109.08 E73.23438
M204 S2500
G0 F12000 X124.919 Y109.08
M204 S1500
G1 F4800 X125.919 Y110.08 E73.28142
M204 S2500
G0 F12000 X125.919 Y110.645
M204 S1500
G1 F4800 X124.353 Y109.08 E73.35506
M204 S2500
G0 F12000 X123.788 Y109.08
M204 S1500
G1 F4800 X125.919 Y111.211 E73.45529
M204 S2500
G0 F12000 X125.919 Y111.777
M204 S1500
G1 F4800 X123.222 Y109.08 E73.58215
M204 S2500
G0 F12000 X122.656 Y109.08
M204 S1500
G1 F4800 X125.919 Y112.343 E73.73563
M204 S2500
G0 F12000 X125.919 Y112.908
M204 S1500
G1 F4800 X122.091 Y109.08 E73.91569
M204 S2500
G0 F12000 X121.525 Y109.08
M204 S1500
G1 F4800 X125.919 Y113.474 E74.12237
M204 S2500
G0 F12000 X125.919 Y114.04
M204 S1500
G1 F4800 X120.959 Y109.08 E74.35567
M204 S2500
G0 F12000 X120.394 Y109.08
M204 S1500
G1 F4800 X125.919 Y114.605 E74.61555
M204 S2500
G0 F12000 X125.919 Y115.171
M204 S1500
G1 F4800 X119.828 Y109.08 E74.90206
M204 S2500
G0 F12000 X119.262 Y109.08
M204 S1500
G1 F4800 X125.919 Y115.737 E75.21518
M204 S2500
G0 F12000 X125.919 Y116.302
M204 S1500
G1 F4800 X118.697 Y109.08 E75.55488
M204 S2500
G0 F12000 X118.131 Y109.08
M204 S1500
G1 F4800 X125.919 Y116.868 E75.9212
M204 S2500
G0 F12000 X125.919 Y117.434
M204 S1500
G1 F4800 X117.565 Y109.08 E76.31415
M204 S2500
G0 F12000 X117 Y109.08
M204 S1500
G1 F4800 X125.919 Y117.999 E76.73367
M204 S2500
G0 F12000 X125.919 Y118.565
M204 S1500
G1 F4800 X116.434 Y109.08 E77.17982
M204 S2500
G0 F12000 X115.868 Y109.08
M204 S1500
G1 F4800 X125.919 Y119.131 E77.65259
M204 S2500
G0 F12000 X125.919 Y119.696
M204 S1500
G1 F4800 X115.302 Y109.08 E78.15195
M204 S2500
G0 F12000 X114.737 Y109.08
M204 S1500
G1 F4800 X125.919 Y120.262 E78.67792
M204 S2500
G0 F12000 X125.919 Y120.828
M204 S1500
G1 F4800 X114.171 Y109.08 E79.23051
M204 S2500
G0 F12000 X113.605 Y109.08
M204 S1500
G1 F4800 X125.919 Y121.393 E79.8097
M204 S2500
G0 F12000 X125.919 Y121.959
M204 S1500
G1 F4800 X113.04 Y109.08 E80.41549
M204 S2500
G0 F12000 X112.474 Y109.08
M204 S1500
G1 F4800 X125.919 Y122.525 E81.0479
M204 S2500
G0 F12000 X125.919 Y123.091
M204 S1500
G1 F4800 X111.908 Y109.08 E81.70694
M204 S2500
G0 F12000 X111.343 Y109.08
M204 S1500
G1 F4800 X125.919 Y123.656 E82.39255
M204 S2500
G0 F12000 X125.919 Y124.222
M204 S1500
G1 F4800 X110.777 Y109.08 E83.10478
M204 S2500
G0 F12000 X110.211 Y109.08
M204 S1500
G1 F4800 X125.919 Y124.788 E83.84364
M204 S2500
G0 F12000 X125.919 Y125.353
M204 S1500
G1 F4800 X109.646 Y109.08 E84.60907
M204 S2500
G0 F12000 X109.079 Y109.079
M204 S1500
G1 F4800 X125.919 Y125.919 E85.40117
M204 S2500
G0 F12000 X125.353 Y125.919
M204 S1500
G1 F4800 X109.079 Y109.645 E86.16665
M204 S2500
G0 F12000 X109.079 Y110.211
M204 S1500
G1 F4800 X124.788 Y125.919 E86.90553
M204 S2500
G0 F12000 X124.222 Y125.919
M204 S1500
G1 F4800 X109.079 Y110.776 E87.61781
M204 S2500
G0 F12000 X109.079 Y111.342
M204 S1500
G1 F4800 X123.656 Y125.919 E88.30347
M204 S2500
G0 F12000 X123.091 Y125.919
M204 S1500
G1 F4800 X109.079 Y111.908 E88.96252
M204 S2500
G0 F12000 X109.079 Y112.473
M204 S1500
G1 F4800 X122.525 Y125.919 E89.59498
M204 S2500
G0 F12000 X121.959 Y125.919
M204 S1500
G1 F4800 X109.079 Y113.039 E90.20082
M204 S2500
G0 F12000 X109.079 Y113.605
M204 S1500
G1 F4800 X121.393 Y125.919 E90.78003
M204 S2500
G0 F12000 X120.828 Y125.919
M204 S1500
G1 F4800 X109.079 Y114.17 E91.33267
M204 S2500
G0 F12000 X109.079 Y114.736
M204 S1500
G1 F4800 X120.262 Y125.919 E91.85868
M204 S2500
G0 F12000 X119.696 Y125.919
M204 S1500
G1 F4800 X109.079 Y115.302 E92.35807
M204 S2500
G0 F12000 X109.079 Y115.867
M204 S1500
G1 F4800 X119.131 Y125.919 E92.83089
M204 S2500
