;FLAVOR:Marlin
;TIME:458
;Filament used: 0.890803m
;Layer height: 0.3
;MINX:94.701
;MINY:94.701
;MINZ:0.3
;MAXX:140.299
;MAXY:140.299
;MAXZ:27.3
;POSTPROCESSED
;Generated with Cura_SteamEngine 5.3.1
M82 ;absolute extrusion mode
; Ender 3 Custom Start G-code
G92 E0 ; Reset Extruder

M140 S50 ; set bed temp
M190 S50 ; wait for bed temp

G28 ; Home all axes
BED_MESH_CALIBRATE  AREA_START=94.701,94.701 AREA_END=140.299,140.299
M104 S205 ; set extruder temp 

G1 Z2.0 F3000 ; Move Z Axis up little to prevent scratching of Heat Bed
M109 S205 ; wait for extruder temp
G1 X0.1 Y20 Z0.3 F5000.0 ; Move to start position

G1 X0.1 Y200.0 Z0.3 F1500.0 E15 ; Draw the first line
G1 X0.4 Y200.0 Z0.3 F5000.0 ; Move to side a little
G1 X0.4 Y20 Z0.3 F1500.0 E30 ; Draw the second line
G92 E0 ; Reset Extruder
G1 Z2.0 F3000 ; Move Z Axis up little to prevent scratching of Heat Bed
G1 X5 Y20 Z0.3 F5000.0 ; Move over to prevent blob squish
G92 E0
G92 E0
G1 F1620 E-1
;LAYER_COUNT:91
;LAYER:0
M107
G0 F2400 X96.775 Y97.152 Z0.3
;TYPE:SKIRT
G1 F1620 E0
G1 F2400 X98.259 Y95.951 E0.08466
G1 X100.224 Y94.975 E0.18196
G1 X101.747 Y94.753 E0.25022
G1 X132.994 Y94.701 E1.63594
G1 X135.032 Y95.051 E1.72765
G1 X136.557 Y95.861 E1.80422
G1 X137.848 Y96.775 E1.87437
G1 X139.049 Y98.259 E1.95904
G1 X140.025 Y100.224 E2.05634
G1 X140.247 Y101.747 E2.12459
G1 X140.299 Y132.994 E3.51032
G1 X139.949 Y135.032 E3.60202
G1 X139.139 Y136.557 E3.6786
G1 X138.225 Y137.848 E3.74875
G1 X136.741 Y139.049 E3.83341
G1 X134.776 Y140.025 E3.93071
G1 X133.253 Y140.247 E3.99896
G1 X102.006 Y140.299 E5.38469
G1 X99.968 Y139.949 E5.47639
G1 X98.443 Y139.139 E5.55297
G1 X97.152 Y138.225 E5.62312
G1 X95.951 Y136.741 E5.70778
G1 X94.975 Y134.776 E5.80508
G1 X94.753 Y133.253 E5.87334
G1 X94.701 Y102.006 E7.25906
G1 X95.051 Y99.968 E7.35076
G1 X95.861 Y98.443 E7.42734
G1 X96.775 Y97.152 E7.49749
G0 X97.071 Y97.426
G1 X98.476 Y96.29 E7.57762
G1 X100.344 Y95.362 E7.67012
G1 X101.805 Y95.149 E7.73559
G1 X132.961 Y95.101 E9.11728
G1 X134.899 Y95.434 E9.20449
G1 X136.326 Y96.188 E9.27606
G1 X137.574 Y97.071 E9.34386
G1 X138.71 Y98.476 E9.42399
G1 X139.638 Y100.344 E9.51649
G1 X139.851 Y101.805 E9.58196
G1 X139.899 Y132.961 E10.96365
G1 X139.566 Y134.899 E11.05086
G1 X138.812 Y136.326 E11.12243
G1 X137.929 Y137.574 E11.19023
G1 X136.524 Y138.71 E11.27036
G1 X134.656 Y139.638 E11.36286
G1 X133.195 Y139.851 E11.42833
G1 X102.039 Y139.899 E12.81002
G1 X100.101 Y139.566 E12.89723
G1 X98.674 Y138.812 E12.9688
G1 X97.426 Y137.929 E13.0366
G1 X96.29 Y136.524 E13.11673
G1 X95.362 Y134.656 E13.20923
G1 X95.149 Y133.195 E13.2747
G1 X95.101 Y102.039 E14.65639
G1 X95.434 Y100.101 E14.7436
G1 X96.188 Y98.674 E14.81517
G1 X97.071 Y97.426 E14.88297
G0 X97.367 Y97.701
G1 X98.693 Y96.629 E14.95859
G1 X100.464 Y95.749 E15.04629
G1 X101.863 Y95.545 E15.10899
G1 X132.928 Y95.501 E16.48664
G1 X134.767 Y95.817 E16.56939
G1 X136.139 Y96.542 E16.63821
G1 X137.299 Y97.367 E16.70134
G1 X138.371 Y98.693 E16.77695
G1 X139.251 Y100.464 E16.86465
G1 X139.455 Y101.863 E16.92735
G1 X139.499 Y132.928 E18.30501
G1 X139.183 Y134.767 E18.38776
G1 X138.458 Y136.139 E18.45657
G1 X137.633 Y137.299 E18.5197
G1 X136.307 Y138.371 E18.59532
G1 X134.536 Y139.251 E18.68302
G1 X133.137 Y139.455 E18.74572
G1 X102.072 Y139.499 E20.12337
G1 X100.233 Y139.183 E20.20612
G1 X98.861 Y138.458 E20.27494
G1 X97.701 Y137.633 E20.33806
G1 X96.629 Y136.307 E20.41368
G1 X95.749 Y134.536 E20.50138
G1 X95.545 Y133.137 E20.56408
G1 X95.501 Y102.072 E21.94173
G1 X95.817 Y100.233 E22.02448
G1 X96.542 Y98.861 E22.0933
G1 X97.367 Y97.701 E22.15643
G0 X97.662 Y97.977
G1 X98.91 Y96.968 E22.2276
G1 X100.584 Y96.136 E22.3105
G1 X101.921 Y95.941 E22.37042
G1 X132.895 Y95.901 E23.74404
G1 X134.635 Y96.2 E23.82233
G1 X135.952 Y96.896 E23.88839
G1 X137.023 Y97.662 E23.94679
G1 X138.032 Y98.91 E24.01796
G1 X138.864 Y100.584 E24.10086
G1 X139.059 Y101.921 E24.16078
G1 X139.099 Y132.895 E25.5344
G1 X138.8 Y134.635 E25.61269
G1 X138.104 Y135.952 E25.67875
G1 X137.338 Y137.023 E25.73715
G1 X136.09 Y138.032 E25.80832
G1 X134.416 Y138.864 E25.89122
G1 X133.079 Y139.059 E25.95114
G1 X102.105 Y139.099 E27.32476
G1 X100.365 Y138.8 E27.40305
G1 X99.048 Y138.104 E27.46911
G1 X97.977 Y137.338 E27.52751
G1 X96.968 Y136.09 E27.59868
G1 X96.136 Y134.416 E27.68158
G1 X95.941 Y133.079 E27.7415
G1 X95.901 Y102.105 E29.11512
G1 X96.2 Y100.365 E29.19341
G1 X96.896 Y99.048 E29.25947
G1 X97.662 Y97.977 E29.31786
G0 X97.956 Y98.253
G1 X99.127 Y97.307 E29.38462
G1 X100.704 Y96.523 E29.46273
G1 X101.979 Y96.337 E29.51987
G1 X132.862 Y96.301 E30.88945
G1 X134.503 Y96.583 E30.96329
G1 X135.765 Y97.25 E31.02659
G1 X136.747 Y97.956 E31.08023
G1 X137.693 Y99.127 E31.14699
G1 X138.477 Y100.704 E31.22509
G1 X138.663 Y101.979 E31.28223
G1 X138.699 Y132.862 E32.65181
G1 X138.417 Y134.503 E32.72565
G1 X137.75 Y135.765 E32.78896
G1 X137.044 Y136.747 E32.84259
G1 X135.873 Y137.693 E32.90935
G1 X134.296 Y138.477 E32.98745
G1 X133.021 Y138.663 E33.04459
G1 X102.138 Y138.699 E34.41418
G1 X100.497 Y138.417 E34.48802
G1 X99.235 Y137.75 E34.55132
G1 X98.253 Y137.044 E34.60495
G1 X97.307 Y135.873 E34.67171
G1 X96.523 Y134.296 E34.74982
G1 X96.337 Y133.021 E34.80696
G1 X96.301 Y102.138 E36.17654
G1 X96.583 Y100.497 E36.25038
G1 X97.25 Y99.235 E36.31368
G1 X97.956 Y98.253 E36.36732
G0 X98.251 Y98.529
G1 X99.344 Y97.646 E36.42963
G1 X100.824 Y96.91 E36.50293
G1 X102.037 Y96.733 E36.5573
G1 X132.829 Y96.701 E37.92284
G1 X134.371 Y96.966 E37.99223
G1 X135.578 Y97.604 E38.05277
G1 X136.471 Y98.251 E38.10168
G1 X137.354 Y99.344 E38.16399
G1 X138.09 Y100.824 E38.23729
G1 X138.267 Y102.037 E38.29166
G1 X138.299 Y132.829 E39.6572
G1 X138.034 Y134.371 E39.72659
G1 X137.396 Y135.578 E39.78713
G1 X136.749 Y136.471 E39.83604
G1 X135.656 Y137.354 E39.89835
G1 X134.176 Y138.09 E39.97165
G1 X132.963 Y138.267 E40.02601
G1 X102.171 Y138.299 E41.39156
G1 X100.629 Y138.034 E41.46095
G1 X99.422 Y137.396 E41.52149
G1 X98.529 Y136.749 E41.5704
G1 X97.646 Y135.656 E41.63271
G1 X96.91 Y134.176 E41.70601
G1 X96.733 Y132.963 E41.76037
G1 X96.701 Y102.171 E43.12592
G1 X96.966 Y100.629 E43.19531
G1 X97.604 Y99.422 E43.25585
G1 X98.251 Y98.529 E43.30476
G0 X98.545 Y98.806
G1 X99.561 Y97.985 E43.36268
G1 X100.944 Y97.297 E43.43119
G1 X102.095 Y97.129 E43.48277
G1 X132.796 Y97.101 E44.84428
G1 X134.239 Y97.349 E44.90921
G1 X135.391 Y97.958 E44.967
G1 X136.194 Y98.545 E45.01111
G1 X137.015 Y99.561 E45.06904
G1 X137.703 Y100.944 E45.13754
G1 X137.871 Y102.095 E45.18913
G1 X137.899 Y132.796 E46.55064
G1 X137.651 Y134.239 E46.61557
G1 X137.042 Y135.391 E46.67336
G1 X136.455 Y136.194 E46.71747
G1 X135.439 Y137.015 E46.7754
G1 X134.056 Y137.703 E46.8439
G1 X132.905 Y137.871 E46.89549
G1 X102.204 Y137.899 E48.257
G1 X100.761 Y137.651 E48.32193
G1 X99.609 Y137.042 E48.37971
G1 X98.806 Y136.455 E48.42383
G1 X97.985 Y135.439 E48.48175
G1 X97.297 Y134.056 E48.55026
G1 X97.129 Y132.905 E48.60184
G1 X97.101 Y102.204 E49.96335
G1 X97.349 Y100.761 E50.02828
G1 X97.958 Y99.609 E50.08607
G1 X98.545 Y98.806 E50.13018
G0 X98.837 Y99.084
G1 X99.778 Y98.324 E50.18382
G1 X101.064 Y97.684 E50.24753
G1 X102.153 Y97.525 E50.29633
G1 X132.763 Y97.501 E51.65381
G1 X134.107 Y97.732 E51.71428
G1 X135.204 Y98.312 E51.76931
G1 X135.916 Y98.837 E51.80855
G1 X136.676 Y99.778 E51.86219
G1 X137.316 Y101.064 E51.92589
G1 X137.475 Y102.153 E51.9747
G1 X137.499 Y132.763 E53.33217
G1 X137.268 Y134.107 E53.39265
G1 X136.688 Y135.204 E53.44768
G1 X136.163 Y135.916 E53.48691
G1 X135.222 Y136.676 E53.54055
G1 X133.936 Y137.316 E53.60425
G1 X132.847 Y137.475 E53.65306
G1 X102.237 Y137.499 E55.01053
G1 X100.893 Y137.268 E55.07101
G1 X99.796 Y136.688 E55.12604
G1 X99.084 Y136.163 E55.16527
G1 X98.324 Y135.222 E55.21891
G1 X97.684 Y133.936 E55.28262
G1 X97.525 Y132.847 E55.33142
G1 X97.501 Y102.237 E56.6889
G1 X97.732 Y100.893 E56.74938
G1 X98.312 Y99.796 E56.80441
G1 X98.837 Y99.084 E56.84364
G0 X99.13 Y99.361
G1 X99.995 Y98.663 E56.89293
G1 X101.184 Y98.071 E56.95183
G1 X102.211 Y97.921 E56.99786
G1 X132.73 Y97.901 E58.3513
G1 X133.975 Y98.115 E58.40732
G1 X135.017 Y98.666 E58.45959
G1 X135.639 Y99.13 E58.49401
G1 X136.337 Y99.995 E58.5433
G1 X136.929 Y101.184 E58.6022
G1 X137.079 Y102.211 E58.64823
G1 X137.099 Y132.73 E60.00167
G1 X136.885 Y133.975 E60.05769
G1 X136.334 Y135.017 E60.10996
G1 X135.87 Y135.639 E60.14438
G1 X135.005 Y136.337 E60.19367
G1 X133.816 Y136.929 E60.25257
G1 X132.789 Y137.079 E60.2986
G1 X102.27 Y137.099 E61.65204
G1 X101.025 Y136.885 E61.70806
G1 X99.983 Y136.334 E61.76034
G1 X99.361 Y135.87 E61.79475
G1 X98.663 Y135.005 E61.84404
G1 X98.071 Y133.816 E61.90294
G1 X97.921 Y132.789 E61.94897
G1 X97.901 Y102.27 E63.30241
G1 X98.115 Y101.025 E63.35843
G1 X98.666 Y99.983 E63.41071
G1 X99.13 Y99.361 E63.44512
G0 X99.421 Y99.64
G1 X100.212 Y99.002 E63.49019
G1 X101.304 Y98.458 E63.54429
G1 X102.269 Y98.317 E63.58754
G1 X132.697 Y98.301 E64.93694
G1 X133.843 Y98.498 E64.98851
G1 X134.83 Y99.02 E65.03803
G1 X135.36 Y99.421 E65.0675
G1 X135.998 Y100.212 E65.11257
G1 X136.542 Y101.304 E65.16667
G1 X136.683 Y102.269 E65.20992
G1 X136.699 Y132.697 E66.55932
G1 X136.502 Y133.843 E66.61089
G1 X135.98 Y134.83 E66.66041
G1 X135.579 Y135.36 E66.68988
G1 X134.788 Y135.998 E66.73495
G1 X133.696 Y136.542 E66.78905
G1 X132.731 Y136.683 E66.8323
G1 X102.303 Y136.699 E68.1817
G1 X101.157 Y136.502 E68.23327
G1 X100.17 Y135.98 E68.28279
G1 X99.64 Y135.579 E68.31226
G1 X99.002 Y134.788 E68.35733
G1 X98.458 Y133.696 E68.41143
G1 X98.317 Y132.731 E68.45468
G1 X98.301 Y102.303 E69.80408
G1 X98.498 Y101.157 E69.85565
G1 X99.02 Y100.17 E69.90517
G1 X99.421 Y99.64 E69.93464
G0 X99.707 Y99.923
G1 X100.432 Y99.339 E69.97593
G1 X101.424 Y98.845 E70.02507
G1 X102.327 Y98.713 E70.06554
G1 X132.664 Y98.701 E71.41091
G1 X133.711 Y98.881 E71.45802
G1 X134.643 Y99.374 E71.50478
G1 X135.077 Y99.707 E71.52904
G1 X135.661 Y100.432 E71.57033
G1 X136.155 Y101.424 E71.61947
G1 X136.287 Y102.327 E71.65994
G1 X136.299 Y132.664 E73.00531
G1 X136.119 Y133.711 E73.05242
G1 X135.626 Y134.643 E73.09918
G1 X135.293 Y135.077 E73.12344
G1 X134.568 Y135.661 E73.16473
G1 X133.576 Y136.155 E73.21387
G1 X132.673 Y136.287 E73.25434
G1 X102.336 Y136.299 E74.59971
G1 X101.289 Y136.119 E74.64682
G1 X100.357 Y135.626 E74.69358
G1 X99.923 Y135.293 E74.71784
G1 X99.339 Y134.568 E74.75913
G1 X98.845 Y133.576 E74.80827
G1 X98.713 Y132.673 E74.84874
G1 X98.701 Y102.336 E76.19411
G1 X98.881 Y101.289 E76.24122
G1 X99.374 Y100.357 E76.28798
G1 X99.707 Y99.923 E76.31224
G0 X99.958 Y100.235
G1 X100.652 Y99.676 E76.35176
G1 X101.544 Y99.232 E76.39595
G1 X102.385 Y99.109 E76.43364
G1 X132.631 Y99.101 E77.77497
G1 X133.579 Y99.264 E77.81763
G1 X134.456 Y99.728 E77.86163
G1 X134.765 Y99.958 E77.87871
G1 X135.324 Y100.652 E77.91823
G1 X135.768 Y101.544 E77.96242
G1 X135.891 Y102.385 E78.00011
G1 X135.899 Y132.631 E79.34145
G1 X135.736 Y133.579 E79.3841
G1 X135.272 Y134.456 E79.4281
G1 X135.042 Y134.765 E79.44519
G1 X134.348 Y135.324 E79.48471
G1 X133.456 Y135.768 E79.52889
G1 X132.615 Y135.891 E79.56659
G1 X102.369 Y135.899 E80.90792
G1 X101.421 Y135.736 E80.95058
G1 X100.544 Y135.272 E80.99458
G1 X100.235 Y135.042 E81.01166
G1 X99.676 Y134.348 E81.05118
G1 X99.232 Y133.456 E81.09537
G1 X99.109 Y132.615 E81.13306
G1 X99.101 Y102.369 E82.47439
G1 X99.264 Y101.421 E82.51705
G1 X99.728 Y100.544 E82.56105
G1 X99.958 Y100.235 E82.57813
G0 X100.249 Y100.514
G1 X100.868 Y100.015 E82.61339
G1 X101.664 Y99.619 E82.65282
G1 X102.443 Y99.505 E82.68774
G1 X132.598 Y99.501 E84.02503
G1 X133.447 Y99.647 E84.06323
G1 X134.269 Y100.082 E84.10448
G1 X134.486 Y100.249 E84.11662
G1 X134.985 Y100.868 E84.15188
G1 X135.381 Y101.664 E84.19131
G1 X135.495 Y102.443 E84.22622
G1 X135.499 Y132.598 E85.56352
G1 X135.353 Y133.447 E85.60172
G1 X134.918 Y134.269 E85.64297
G1 X134.751 Y134.486 E85.65511
G1 X134.132 Y134.985 E85.69037
G1 X133.336 Y135.381 E85.7298
G1 X132.557 Y135.495 E85.76471
G1 X102.402 Y135.499 E87.10201
G1 X101.553 Y135.353 E87.14021
G1 X100.731 Y134.918 E87.18145
G1 X100.514 Y134.751 E87.1936
G1 X100.015 Y134.132 E87.22886
G1 X99.619 Y133.336 E87.26829
G1 X99.505 Y132.557 E87.3032
G1 X99.501 Y102.402 E88.6405
G1 X99.647 Y101.553 E88.6787
G1 X100.082 Y100.731 E88.71994
G1 X100.249 Y100.514 E88.73209
G0 X100.539 Y100.794
G1 X101.084 Y100.354 E88.76315
G1 X101.784 Y100.006 E88.79782
G1 X102.501 Y99.901 E88.82995
G1 X132.565 Y99.901 E90.16321
G1 X133.315 Y100.03 E90.19696
G1 X134.082 Y100.436 E90.23545
G1 X134.206 Y100.539 E90.2426
G1 X134.646 Y101.084 E90.27366
G1 X134.994 Y101.784 E90.30833
G1 X135.099 Y102.501 E90.34046
G1 X135.099 Y132.565 E91.67372
G1 X134.97 Y133.315 E91.70747
G1 X134.564 Y134.082 E91.74596
G1 X134.461 Y134.206 E91.75311
G1 X133.916 Y134.646 E91.78417
G1 X133.216 Y134.994 E91.81884
G1 X132.499 Y135.099 E91.85097
G1 X102.435 Y135.099 E93.18424
G1 X101.685 Y134.97 E93.21798
G1 X100.918 Y134.564 E93.25647
G1 X100.794 Y134.461 E93.26362
G1 X100.354 Y133.916 E93.29468
G1 X100.006 Y133.216 E93.32935
G1 X99.901 Y132.499 E93.36149
G1 X99.901 Y102.435 E94.69475
G1 X100.03 Y101.685 E94.72849
G1 X100.436 Y100.918 E94.76698
G1 X100.539 Y100.794 E94.77413
G0 X100.79 Y101.105
G1 X101.3 Y100.693 E94.8032
G1 X101.906 Y100.392 E94.83321
G1 X102.501 Y100.301 E94.85991
G1 X132.532 Y100.301 E96.1917
G1 X133.183 Y100.413 E96.221
G1 X133.895 Y100.79 E96.25673
G1 X134.307 Y101.3 E96.2858
G1 X134.608 Y101.906 E96.31581
G1 X134.699 Y102.501 E96.3425
G1 X134.699 Y132.532 E97.6743
G1 X134.587 Y133.183 E97.70359
G1 X134.21 Y133.895 E97.73932
G1 X133.7 Y134.307 E97.7684
G1 X133.094 Y134.608 E97.7984
G1 X132.499 Y134.699 E97.8251
G1 X102.468 Y134.699 E99.15689
G1 X101.817 Y134.587 E99.18619
G1 X101.105 Y134.21 E99.22192
G1 X100.693 Y133.7 E99.25099
G1 X100.392 Y133.094 E99.281
G1 X100.301 Y132.499 E99.30769
G1 X100.301 Y102.468 E100.63949
G1 X100.413 Y101.817 E100.66878
G1 X100.79 Y101.105 E100.70451
G0 X101.106 Y101.363
G1 X101.478 Y101.051 E100.72604
G1 X102.027 Y100.778 E100.75323
G1 X102.501 Y100.701 E100.77453
G1 X132.499 Y100.701 E102.10486
G1 X133.051 Y100.796 E102.1297
G1 X133.637 Y101.106 E102.1591
G1 X133.949 Y101.478 E102.18063
G1 X134.222 Y102.027 E102.20783
G1 X134.299 Y102.501 E102.22912
G1 X134.299 Y132.499 E103.55945
G1 X134.204 Y133.051 E103.58429
G1 X133.894 Y133.637 E103.61369
G1 X133.522 Y133.949 E103.63523
G1 X132.973 Y134.222 E103.66242
G1 X132.499 Y134.299 E103.68371
G1 X102.501 Y134.299 E105.01405
G1 X101.949 Y134.204 E105.03889
G1 X101.363 Y133.894 E105.06829
G1 X101.051 Y133.522 E105.08982
G1 X100.778 Y132.973 E105.11701
G1 X100.701 Y132.499 E105.1383
G1 X100.701 Y102.501 E106.46864
G1 X100.796 Y101.949 E106.49348
G1 X101.106 Y101.363 E106.52288
G0 X101.424 Y101.618
G1 X101.656 Y101.409 E106.53672
G1 X102.15 Y101.163 E106.5612
G1 X102.501 Y101.101 E106.57701
G1 X132.499 Y101.101 E107.90734
G1 X132.918 Y101.179 E107.92624
G1 X133.382 Y101.424 E107.94951
G1 X133.591 Y101.656 E107.96336
G1 X133.837 Y102.15 E107.98783
G1 X133.899 Y102.501 E108.00364
G1 X133.899 Y132.499 E109.33397
G1 X133.821 Y132.918 E109.35287
G1 X133.576 Y133.382 E109.37614
G1 X133.344 Y133.591 E109.38999
G1 X132.85 Y133.837 E109.41446
G1 X132.499 Y133.899 E109.43027
G1 X102.501 Y133.899 E110.7606
G1 X102.082 Y133.821 E110.7795
G1 X101.618 Y133.576 E110.80277
G1 X101.409 Y133.344 E110.81662
G1 X101.163 Y132.85 E110.84109
G1 X101.101 Y132.499 E110.8569
G1 X101.101 Y102.501 E112.18723
G1 X101.179 Y102.082 E112.20614
G1 X101.424 Y101.618 E112.22941
G0 X101.846 Y101.761
G1 X102.228 Y101.555 E112.24865
G1 X102.501 Y101.501 E112.26099
G1 X132.499 Y101.501 E113.59133
G1 X132.837 Y101.571 E113.60663
G1 X133.1 Y101.708 E113.61979
G1 X133.239 Y101.846 E113.62847
G1 X133.445 Y102.228 E113.64772
G1 X133.499 Y102.501 E113.66006
G1 X133.499 Y132.499 E114.99039
G1 X133.429 Y132.837 E115.0057
G1 X133.292 Y133.1 E115.01885
G1 X133.154 Y133.239 E115.02754
G1 X132.772 Y133.445 E115.04679
G1 X132.499 Y133.499 E115.05913
G1 X102.501 Y133.499 E116.38946
G1 X102.163 Y133.429 E116.40477
G1 X101.9 Y133.292 E116.41792
G1 X101.761 Y133.154 E116.4266
