;FLAVOR:Marlin
;TIME:1106
;Filament used: 1.12226m
;Layer height: 0.15
;MINX:89.012
;MINY:99.517
;MINZ:0.15
;MAXX:145.988
;MAXY:135.486
;MAXZ:3.45
;POSTPROCESSED
;Generated with Cura_SteamEngine 5.3.1
M82 ;absolute extrusion mode
; Ender 3 Custom Start G-code
G92 E0 ; Reset Extruder

M140 S55 ; set bed temp
M190 S55 ; wait for bed temp

G28 ; Home all axes
BED_MESH_CALIBRATE  AREA_START=89.012,99.517 AREA_END=145.988,135.486
M104 S200 ; set extruder temp 

G1 Z2.0 F3000 ; Move Z Axis up little to prevent scratching of Heat Bed
M109 S200 ; wait for extruder temp
G1 X0.1 Y20 Z0.3 F5000.0 ; Move to start position

G1 X0.1 Y200.0 Z0.3 F1500.0 E15 ; Draw the first line
G1 X0.4 Y200.0 Z0.3 F5000.0 ; Move to side a little
G1 X0.4 Y20 Z0.3 F1500.0 E30 ; Draw the second line
G92 E0 ; Reset Extruder
G1 Z2.0 F3000 ; Move Z Axis up little to prevent scratching of Heat Bed
G1 X5 Y20 Z0.3 F5000.0 ; Move over to prevent blob squish
G92 E0
G92 E0
G1 F1500 E-1
;LAYER_COUNT:23
;LAYER:0
M107
M204 S1000
G0 F3600 X93.598 Y102.85 Z0.15
;TYPE:SKIRT
G1 F1500 E0
G1 F2100 X94.235 Y102.37 E0.0199
G1 X94.703 Y102.055 E0.03397
G1 X95.5 Y101.58 E0.05711
G1 X96.496 Y101.122 E0.08446
G1 X97.458 Y100.781 E0.10992
G1 X98.642 Y100.498 E0.14029
G1 X99.763 Y100.349 E0.1685
G1 X100.89 Y100.317 E0.19662
G1 X101.649 Y100.367 E0.21559
G1 X102.23 Y100.433 E0.23018
G1 X104.521 Y100.769 E0.28794
G1 X107.268 Y101.101 E0.35696
G1 X109.944 Y101.348 E0.424
G1 X112.729 Y101.525 E0.49361
G1 X115.443 Y101.621 E0.56136
G1 X118.195 Y101.64 E0.63001
G1 X120.914 Y101.582 E0.69785
G1 X123.665 Y101.446 E0.76656
G1 X126.368 Y101.236 E0.83419
G1 X129.101 Y100.944 E0.90275
G1 X133.109 Y100.391 E1.00368
G1 X133.706 Y100.341 E1.01862
G1 X134.565 Y100.318 E1.04006
G1 X135.566 Y100.381 E1.06508
G1 X136.471 Y100.527 E1.08794
G1 X137.014 Y100.648 E1.10182
G1 X137.551 Y100.794 E1.1157
G1 X138.09 Y100.973 E1.12987
G1 X138.861 Y101.272 E1.1505
G1 X139.91 Y101.807 E1.17987
G1 X140.778 Y102.369 E1.20567
G1 X141.706 Y103.114 E1.23535
G1 X142.278 Y103.681 E1.25544
G1 X142.685 Y104.132 E1.2706
G1 X143.241 Y104.823 E1.29272
G1 X143.85 Y105.779 E1.321
G1 X144.27 Y106.622 E1.34449
G1 X144.602 Y107.45 E1.36674
G1 X144.796 Y108.069 E1.38293
G1 X144.965 Y108.741 E1.40021
G1 X145.112 Y109.624 E1.42254
G1 X145.167 Y110.261 E1.43849
G1 X145.188 Y111 E1.45693
G1 X145.155 Y111.867 E1.47857
G1 X145.054 Y113.768 E1.52606
G1 X144.987 Y116.485 E1.59386
G1 X144.998 Y119.237 E1.66251
G1 X145.085 Y121.958 E1.73042
G1 X145.159 Y123.3 E1.76395
G1 X145.187 Y123.995 E1.7813
G1 X145.166 Y124.925 E1.8045
G1 X145.022 Y126.021 E1.83208
G1 X144.815 Y126.862 E1.85368
G1 X144.605 Y127.566 E1.87201
G1 X144.231 Y128.47 E1.89641
G1 X143.993 Y128.937 E1.90949
G1 X143.582 Y129.669 E1.93043
G1 X142.945 Y130.568 E1.95791
G1 X142.237 Y131.37 E1.9846
G1 X141.495 Y132.07 E2.01004
G1 X140.768 Y132.627 E2.03289
G1 X140.297 Y132.945 E2.04707
G1 X139.511 Y133.414 E2.0699
G1 X138.494 Y133.884 E2.09785
G1 X137.451 Y134.244 E2.12537
G1 X136.454 Y134.486 E2.15096
G1 X135.242 Y134.651 E2.18147
G1 X134.115 Y134.683 E2.2096
G1 X132.113 Y134.554 E2.25964
G1 X129.325 Y134.415 E2.32928
G1 X126.608 Y134.356 E2.39707
G1 X123.854 Y134.375 E2.46577
G1 X121.148 Y134.469 E2.53331
G1 X119.508 Y134.581 E2.57431
G1 X119.383 Y134.58 E2.57743
G1 X118.093 Y134.659 E2.60967
G1 X117.364 Y134.686 E2.62787
G1 X115.449 Y134.56 E2.67574
G1 X112.657 Y134.417 E2.74548
G1 X109.939 Y134.354 E2.8133
G1 X107.184 Y134.369 E2.88203
G1 X104.482 Y134.459 E2.94946
G1 X101.407 Y134.654 E3.02632
G1 X100.772 Y134.677 E3.04217
G1 X100.207 Y134.668 E3.05627
G1 X99.433 Y134.619 E3.07562
G1 X98.529 Y134.473 E3.09846
G1 X97.982 Y134.351 E3.11244
G1 X97.116 Y134.108 E3.13488
G1 X96.086 Y133.704 E3.16248
G1 X95.401 Y133.357 E3.18163
G1 X94.847 Y133.036 E3.1976
G1 X94.097 Y132.53 E3.22017
G1 X93.274 Y131.869 E3.2465
G1 X92.464 Y131.053 E3.27518
G1 X91.762 Y130.18 E3.30313
G1 X91.252 Y129.383 E3.32673
G1 X90.817 Y128.565 E3.34984
G1 X90.46 Y127.743 E3.3722
G1 X90.227 Y127.014 E3.39129
G1 X90.082 Y126.466 E3.40543
G1 X89.972 Y125.925 E3.4192
G1 X89.888 Y125.375 E3.43308
G1 X89.833 Y124.736 E3.44908
G1 X89.812 Y123.987 E3.46777
G1 X89.845 Y123.133 E3.48909
G1 X89.946 Y121.232 E3.53658
G1 X90.013 Y118.515 E3.60437
G1 X90.002 Y115.763 E3.67302
G1 X89.915 Y113.042 E3.74093
G1 X89.841 Y111.699 E3.77448
G1 X89.813 Y111.001 E3.79191
G1 X89.827 Y110.359 E3.80793
G1 X89.893 Y109.517 E3.829
G1 X90.094 Y108.455 E3.85596
G1 X90.35 Y107.582 E3.87865
G1 X90.549 Y107.053 E3.89275
G1 X90.874 Y106.302 E3.91316
G1 X91.33 Y105.487 E3.93646
G1 X91.837 Y104.733 E3.95913
G1 X92.229 Y104.234 E3.97495
G1 X92.727 Y103.66 E3.99391
G1 X93.598 Y102.85 E4.02358
G0 F3600 X93.357 Y102.531
G1 F2100 X94.012 Y102.038 E4.04403
G1 X94.498 Y101.711 E4.05864
G1 X95.295 Y101.236 E4.08179
G1 X96.362 Y100.745 E4.11109
G1 X97.324 Y100.404 E4.13655
G1 X98.589 Y100.101 E4.169
G1 X99.71 Y99.952 E4.1972
G1 X100.879 Y99.917 E4.22638
G1 X101.694 Y99.97 E4.24675
G1 X102.288 Y100.037 E4.26166
G1 X104.579 Y100.373 E4.31942
G1 X107.317 Y100.704 E4.38822
G1 X109.973 Y100.949 E4.45476
G1 X112.743 Y101.125 E4.52399
G1 X115.457 Y101.221 E4.59174
G1 X118.189 Y101.24 E4.65989
G1 X120.894 Y101.182 E4.72738
G1 X123.645 Y101.046 E4.79609
G1 X126.331 Y100.837 E4.86329
G1 X129.059 Y100.546 E4.93173
G1 X133.076 Y99.992 E5.03288
G1 X133.695 Y99.941 E5.04838
G1 X134.554 Y99.918 E5.06981
G1 X135.63 Y99.986 E5.09671
G1 X136.535 Y100.132 E5.11957
G1 X137.119 Y100.262 E5.1345
G1 X137.677 Y100.414 E5.14892
G1 X138.235 Y100.6 E5.1636
G1 X139.006 Y100.899 E5.18422
G1 X140.127 Y101.471 E5.21562
G1 X140.995 Y102.033 E5.24141
G1 X141.988 Y102.83 E5.27318
G1 X142.575 Y103.413 E5.29381
G1 X142.997 Y103.881 E5.30953
G1 X143.553 Y104.572 E5.33166
G1 X144.208 Y105.601 E5.36208
G1 X144.641 Y106.473 E5.38637
G1 X144.984 Y107.33 E5.4094
G1 X145.184 Y107.971 E5.42615
G1 X145.36 Y108.675 E5.44425
G1 X145.511 Y109.59 E5.46738
G1 X145.567 Y110.25 E5.48391
G1 X145.588 Y111.015 E5.503
G1 X145.554 Y111.888 E5.52479
G1 X145.454 Y113.778 E5.572
G1 X145.387 Y116.495 E5.6398
G1 X145.398 Y119.224 E5.70787
G1 X145.484 Y121.945 E5.77578
G1 X145.559 Y123.284 E5.80924
G1 X145.587 Y124.004 E5.82721
G1 X145.563 Y124.977 E5.85149
G1 X145.419 Y126.073 E5.87906
G1 X145.198 Y126.976 E5.90225
G1 X144.975 Y127.719 E5.92161
G1 X144.601 Y128.623 E5.94601
G1 X144.342 Y129.133 E5.96028
G1 X143.931 Y129.865 E5.98122
G1 X143.245 Y130.833 E6.01082
G1 X142.537 Y131.635 E6.0375
G1 X141.738 Y132.388 E6.06489
G1 X140.992 Y132.959 E6.08832
G1 X140.521 Y133.277 E6.1025
G1 X139.679 Y133.777 E6.12693
G1 X138.625 Y134.262 E6.15587
G1 X137.545 Y134.633 E6.18436
G1 X136.548 Y134.875 E6.20995
G1 X135.253 Y135.051 E6.24255
G1 X134.126 Y135.083 E6.27067
G1 X132.093 Y134.954 E6.32149
G1 X129.305 Y134.815 E6.39112
G1 X126.602 Y134.756 E6.45856
G1 X123.868 Y134.775 E6.52677
G1 X121.162 Y134.869 E6.59431
G1 X119.535 Y134.98 E6.63499
G1 X119.389 Y134.98 E6.63863
G1 X118.108 Y135.059 E6.67065
G1 X117.379 Y135.086 E6.68884
G1 X115.423 Y134.959 E6.73774
G1 X112.648 Y134.817 E6.80705
G1 X109.932 Y134.754 E6.87482
G1 X107.197 Y134.769 E6.94305
G1 X104.495 Y134.859 E7.01049
G1 X101.421 Y135.054 E7.08732
G1 X100.766 Y135.077 E7.10367
G1 X100.182 Y135.067 E7.11824
G1 X99.369 Y135.014 E7.13856
G1 X98.465 Y134.868 E7.16141
G1 X97.874 Y134.736 E7.17651
G1 X97.008 Y134.493 E7.19895
G1 X95.905 Y134.061 E7.2285
G1 X95.2 Y133.703 E7.24822
G1 X94.623 Y133.368 E7.26487
G1 X93.873 Y132.862 E7.28743
G1 X92.99 Y132.151 E7.31571
G1 X92.152 Y131.304 E7.34544
G1 X91.45 Y130.431 E7.37338
G1 X90.915 Y129.599 E7.39806
G1 X90.45 Y128.724 E7.42277
G1 X90.079 Y127.865 E7.44611
G1 X89.84 Y127.116 E7.46573
G1 X89.69 Y126.546 E7.48043
G1 X89.58 Y126.005 E7.4942
G1 X89.489 Y125.409 E7.50924
G1 X89.433 Y124.747 E7.52581
G1 X89.412 Y123.972 E7.54515
G1 X89.446 Y123.112 E7.56662
G1 X89.546 Y121.222 E7.61383
G1 X89.613 Y118.505 E7.68163
G1 X89.602 Y115.765 E7.74998
G1 X89.516 Y113.055 E7.81762
G1 X89.441 Y111.715 E7.85109
G1 X89.413 Y110.992 E7.86914
G1 X89.428 Y110.328 E7.88571
G1 X89.494 Y109.486 E7.90678
G1 X89.71 Y108.342 E7.93582
G1 X89.966 Y107.469 E7.95851
G1 X90.182 Y106.894 E7.97384
G1 X90.507 Y106.143 E7.99425
G1 X90.998 Y105.264 E8.01936
G1 X91.522 Y104.486 E8.04276
G1 X91.927 Y103.972 E8.05909
G1 X92.455 Y103.367 E8.07912
G1 X93.357 Y102.531 E8.1098
G0 F3600 X93.116 Y102.211
G1 F2100 X93.771 Y101.718 E8.13025
G1 X94.293 Y101.367 E8.14594
G1 X95.09 Y100.892 E8.16908
G1 X96.228 Y100.368 E8.20033
G1 X97.19 Y100.027 E8.22579
G1 X98.536 Y99.704 E8.26032
G1 X99.657 Y99.555 E8.28853
G1 X100.867 Y99.517 E8.31873
G1 X101.739 Y99.573 E8.34053
G1 X102.346 Y99.641 E8.35577
G1 X104.637 Y99.977 E8.41353
G1 X107.366 Y100.307 E8.4821
G1 X110.002 Y100.55 E8.54813
G1 X112.757 Y100.725 E8.61699
G1 X115.471 Y100.821 E8.68474
G1 X118.183 Y100.84 E8.75239
G1 X120.874 Y100.782 E8.81953
G1 X123.625 Y100.646 E8.88824
G1 X126.294 Y100.438 E8.95502
G1 X129.017 Y100.148 E9.02333
G1 X133.043 Y99.593 E9.12471
G1 X133.684 Y99.541 E9.14075
G1 X134.543 Y99.518 E9.16219
G1 X135.694 Y99.591 E9.19096
G1 X136.599 Y99.737 E9.21382
G1 X137.224 Y99.876 E9.2298
G1 X137.782 Y100.028 E9.24422
G1 X138.38 Y100.227 E9.25994
G1 X139.151 Y100.526 E9.28057
G1 X140.344 Y101.135 E9.31398
G1 X141.212 Y101.697 E9.33978
G1 X142.27 Y102.546 E9.37362
G1 X142.872 Y103.145 E9.3948
G1 X143.309 Y103.63 E9.41109
G1 X143.865 Y104.321 E9.43321
G1 X144.566 Y105.423 E9.46579
G1 X145.012 Y106.324 E9.49087
G1 X145.366 Y107.211 E9.51469
G1 X145.572 Y107.874 E9.53201
G1 X145.755 Y108.61 E9.55093
G1 X145.91 Y109.556 E9.57484
G1 X145.967 Y110.239 E9.59194
G1 X145.988 Y111.031 E9.6117
G1 X145.953 Y111.909 E9.63362
G1 X145.854 Y113.788 E9.68056
G1 X145.787 Y116.505 E9.74836
G1 X145.798 Y119.211 E9.81586
G1 X145.884 Y121.932 E9.88377
G1 X145.959 Y123.268 E9.91715
G1 X145.987 Y124.014 E9.93577
G1 X145.96 Y125.029 E9.9611
G1 X145.808 Y126.168 E9.98976
G1 X145.587 Y127.071 E10.01295
G1 X145.345 Y127.872 E10.03382
G1 X144.958 Y128.804 E10.059
G1 X144.691 Y129.329 E10.07369
G1 X144.28 Y130.061 E10.09463
G1 X143.545 Y131.098 E10.12634
G1 X142.837 Y131.9 E10.15302
G1 X141.981 Y132.706 E10.18235
G1 X141.216 Y133.291 E10.20638
G1 X140.745 Y133.609 E10.22055
G1 X139.883 Y134.121 E10.24556
G1 X138.755 Y134.64 E10.27654
G1 X137.639 Y135.022 E10.30596
G1 X136.642 Y135.264 E10.33155
G1 X135.264 Y135.451 E10.36624
G1 X134.137 Y135.483 E10.39437
G1 X132.073 Y135.354 E10.44595
G1 X129.285 Y135.215 E10.51559
G1 X126.596 Y135.156 E10.58268
G1 X123.882 Y135.175 E10.65038
G1 X121.176 Y135.269 E10.71793
G1 X119.535 Y135.38 E10.75895
G1 X119.398 Y135.38 E10.76237
G1 X118.123 Y135.459 E10.79424
G1 X117.394 Y135.486 E10.81243
G1 X115.397 Y135.358 E10.86235
G1 X112.639 Y135.217 E10.93124
G1 X109.925 Y135.154 E10.99896
G1 X107.21 Y135.169 E11.06669
G1 X104.508 Y135.259 E11.13413
G1 X101.435 Y135.454 E11.21094
G1 X100.759 Y135.477 E11.22781
G1 X100.156 Y135.466 E11.24285
G1 X99.305 Y135.409 E11.26413
G1 X98.401 Y135.263 E11.28697
G1 X97.766 Y135.121 E11.3032
G1 X96.9 Y134.878 E11.32564
G1 X95.724 Y134.418 E11.35714
G1 X94.999 Y134.049 E11.37743
G1 X94.399 Y133.7 E11.39475
G1 X93.649 Y133.194 E11.41732
G1 X92.739 Y132.463 E11.44643
G1 X91.84 Y131.555 E11.47831
G1 X91.138 Y130.682 E11.50625
G1 X90.562 Y129.787 E11.5328
G1 X90.083 Y128.883 E11.55832
G1 X89.698 Y127.987 E11.58265
G1 X89.453 Y127.218 E11.60278
G1 X89.298 Y126.626 E11.61805
G1 X89.188 Y126.085 E11.63182
G1 X89.09 Y125.443 E11.64802
G1 X89.033 Y124.758 E11.66516
G1 X89.012 Y123.956 E11.68518
G1 X89.047 Y123.091 E11.70677
G1 X89.146 Y121.212 E11.75371
G1 X89.213 Y118.495 E11.82151
G1 X89.202 Y115.767 E11.88956
G1 X89.116 Y113.068 E11.95692
G1 X89.041 Y111.73 E11.99035
G1 X89.013 Y110.983 E12.00899
G1 X89.029 Y110.297 E12.02611
G1 X89.095 Y109.455 E12.04718
G1 X89.326 Y108.229 E12.0783
G1 X89.582 Y107.356 E12.10099
G1 X89.815 Y106.735 E12.11754
G1 X90.14 Y105.984 E12.13795
G1 X90.666 Y105.041 E12.16489
G1 X91.208 Y104.238 E12.18905
G1 X91.626 Y103.709 E12.20587
G1 X92.183 Y103.074 E12.22694
G1 X93.116 Y102.211 E12.25865
G1 F1500 E11.25865
;MESH:NO_TXT_Kostka (1).stl
G0 F3600 X115.51 Y124.777
G0 X115.036 Y126.116
G0 X114.955 Y127.462
G0 X115.399 Y128.465
G0 X116.22 Y129.2
G0 X118.35 Y129.57
;TYPE:WALL-INNER
G1 F1500 E12.25865
G1 F2100 X117.553 Y129.69 E12.27875
G1 X116.898 Y129.633 E12.29515
G1 X116.205 Y129.366 E12.31368
G1 X115.738 Y129.051 E12.32773
G1 X115.279 Y128.567 E12.34437
G1 X114.979 Y128.059 E12.35909
G1 X114.794 Y127.484 E12.37415
G1 X114.753 Y126.69 E12.39399
G1 X114.884 Y126.066 E12.40989
G1 X115.237 Y125.363 E12.42951
G1 X115.671 Y124.882 E12.44568
G1 X116.138 Y124.547 E12.46001
G1 X116.645 Y124.323 E12.47384
G1 X117.236 Y124.196 E12.48892
G1 X118.058 Y124.233 E12.50944
G1 X118.696 Y124.461 E12.52634
G1 X119.316 Y124.862 E12.54476
G1 X119.722 Y125.312 E12.55988
G1 X120.014 Y125.82 E12.5745
G1 X120.164 Y126.266 E12.58624
G1 X120.252 Y126.924 E12.6028
G1 X120.183 Y127.55 E12.61851
G1 X119.968 Y128.149 E12.63438
G1 X119.698 Y128.603 E12.64756
G1 X119.133 Y129.172 E12.66756
G1 X118.35 Y129.57 E12.68947
G0 F3600 X118.232 Y129.182
G1 F2100 X117.532 Y129.29 E12.70714
G1 X116.99 Y129.241 E12.72071
G1 X116.372 Y129.003 E12.73723
G1 X115.973 Y128.727 E12.74934
G1 X115.6 Y128.329 E12.76294
G1 X115.377 Y127.947 E12.77398
G1 X115.191 Y127.416 E12.78801
G1 X115.155 Y126.714 E12.80555
G1 X115.266 Y126.19 E12.81891
G1 X115.576 Y125.581 E12.83595
G1 X115.933 Y125.184 E12.84927
G1 X116.347 Y124.889 E12.86195
G1 X116.769 Y124.703 E12.87346
G1 X117.279 Y124.594 E12.88647
G1 X117.966 Y124.633 E12.90363
G1 X118.486 Y124.799 E12.91725
G1 X119.056 Y125.17 E12.93421
G1 X119.401 Y125.55 E12.94702
G1 X119.648 Y125.984 E12.95947
G1 X119.784 Y126.39 E12.97015
G1 X119.852 Y126.93 E12.98373
G1 X119.795 Y127.451 E12.9968
G1 X119.62 Y127.951 E13.01002
G1 X119.389 Y128.347 E13.02146
G1 X118.891 Y128.848 E13.03908
G1 X118.232 Y129.182 E13.05751
G1 F1500 E12.05751
G0 F3600 X118.367 Y129.45
G0 X119.537 Y128.536
G0 X120.433 Y126.921
G0 X122.567 Y125.941
G0 X123.625 Y125.176
G0 X136.761 Y117.273
G0 X137.152 Y117.273
G1 F1500 E13.05751
G1 F2100 X137.34 Y117.006 E13.06565
G1 X137.876 Y116.727 E13.08073
G1 X138.5 Y116.337 E13.09908
G1 X139.056 Y115.907 E13.11661
G1 X139.599 Y115.387 E13.13537
G1 X140.061 Y114.836 E13.15331
G1 X140.455 Y114.25 E13.17092
G1 X140.794 Y113.611 E13.18897
G1 X141.056 Y112.952 E13.20666
G1 X141.251 Y112.252 E13.22478
G1 X141.362 Y111.567 E13.24209
G1 X141.399 Y110.87 E13.2595
G1 X141.36 Y110.164 E13.27714
G1 X141.246 Y109.469 E13.29471
G1 X141.056 Y108.796 E13.31215
G1 X140.79 Y108.128 E13.33009
G1 X140.455 Y107.498 E13.34789
G1 X140.056 Y106.904 E13.36574
G1 X139.593 Y106.354 E13.38367
G1 X139.056 Y105.84 E13.40222
G1 X138.5 Y105.41 E13.41975
G1 X137.876 Y105.02 E13.43811
G1 X137.241 Y104.709 E13.45574
G1 X136.532 Y104.446 E13.47461
G1 X135.847 Y104.265 E13.49228
G1 X135.088 Y104.149 E13.51143
G1 X134.344 Y104.112 E13.53002
G1 X133.599 Y104.149 E13.54862
G1 X132.841 Y104.265 E13.56775
G1 X132.155 Y104.446 E13.58545
G1 X131.464 Y104.702 E13.60383
G1 X130.812 Y105.02 E13.62193
G1 X130.188 Y105.411 E13.6403
G1 X129.632 Y105.84 E13.65781
G1 X129.089 Y106.36 E13.67657
G1 X128.626 Y106.912 E13.69454
G1 X128.232 Y107.497 E13.71213
G1 X127.893 Y108.137 E13.7302
G1 X127.563 Y108.948 E13.75204
G1 X127.336 Y109.184 E13.76021
G1 X127.091 Y109.263 E13.76663
G1 X107.908 Y109.263 E14.24515
G1 X107.714 Y109.21 E14.25017
G1 X107.537 Y109.086 E14.25556
G1 X107.436 Y108.948 E14.25983
G1 X107.103 Y108.129 E14.28188
G1 X106.768 Y107.498 E14.2997
G1 X106.368 Y106.905 E14.31755
G1 X105.905 Y106.354 E14.3355
G1 X105.369 Y105.84 E14.35402
G1 X104.812 Y105.411 E14.37156
G1 X104.188 Y105.02 E14.38993
G1 X103.553 Y104.709 E14.40757
G1 X102.845 Y104.446 E14.42641
G1 X102.159 Y104.265 E14.44411
G1 X101.401 Y104.149 E14.46324
G1 X100.656 Y104.112 E14.48184
G1 X99.912 Y104.149 E14.50042
G1 X99.153 Y104.265 E14.51958
G1 X98.468 Y104.446 E14.53725
G1 X97.776 Y104.702 E14.55566
G1 X97.124 Y105.02 E14.57375
G1 X96.5 Y105.411 E14.59212
G1 X95.944 Y105.84 E14.60964
