;FLAVOR:Marlin
;TIME:7932
;Filament used: 18.4271m
;Layer height: 0.25
;MINX:70.95
;MINY:70.95
;MINZ:0.3
;MAXX:154.05
;MAXY:154.05
;MAXZ:45.8
;TARGET_MACHINE.NAME:Unknown
;Generated with Cura_SteamEngine 5.6.0
M140 S70
M105
M190 S70
M104 S210
M105
M109 S210
M82 ;absolute extrusion mode
G90
G92 E0 ; Reset Extruder
G28 ; Home all axes
G1 Z2.0 F3000
G1 X5.1 Y20 Z0.3 F5000.0
G1 X5.1 Y200.0 Z0.3 F1000.0 E15
G1 X5.4 Y200.0 Z0.3 F5000.0
G1 X5.4 Y20 Z0.3 F1000.0 E30
G92 E0
G1 Z2.0 F3000
G1 X5 Y20 Z0.3 F5000.0
G92 E0
G92 E0
G1 F2400 E-6
;LAYER_COUNT:183
;LAYER:0
M107
M204 S1000
;MESH:2x2x6_Post-it.3mf
G0 F3900 X74.549 Y76.904 Z0.3
;TYPE:WALL-INNER
G1 F2400 E0
G1 F3600 X74.965 Y76.129 E0.04388
G1 X75.494 Y75.494 E0.08512
G1 X76.129 Y74.965 E0.12635
G1 X76.904 Y74.549 E0.17023
G1 X74.549 Y74.549 E0.28772
G1 X74.549 Y76.904 E0.40522
G0 F3900 X74.433 Y78.196
G0 X74.421 Y79.272
G0 X74.678 Y79.248
G1 F3000 X74.623 Y78.501 E0.45006
G1 F3018.9 X74.673 Y77.8 E0.49187
G1 F3257.9 X74.967 Y76.972 E0.54031
G1 F3600 X75.292 Y76.363 E0.57475
G1 X75.777 Y75.777 E0.6127
G1 X76.363 Y75.292 E0.65065
G1 X76.972 Y74.967 E0.68509
G1 F3243.2 X77.752 Y74.678 E0.73115
G1 F3000 X78.499 Y74.623 E0.77599
G1 F3018.9 X79.2 Y74.673 E0.8178
G1 F3257.9 X80.028 Y74.967 E0.86624
G1 F3600 X80.636 Y75.292 E0.90064
G1 X81.222 Y75.772 E0.93843
G1 X81.71 Y76.366 E0.97678
G1 X82.06 Y77.022 E1.01388
G1 X82.279 Y77.746 E1.05161
G1 X82.353 Y78.5 E1.08941
G1 X82.279 Y79.255 E1.12726
G1 X82.06 Y79.97 E1.16457
G1 X81.719 Y80.614 E1.20092
G1 X81.223 Y81.223 E1.24011
G1 X80.614 Y81.719 E1.27929
G1 X79.97 Y82.06 E1.31565
G1 X79.255 Y82.279 E1.35296
G1 X78.5 Y82.353 E1.3908
G1 X77.746 Y82.279 E1.4286
G1 X77.022 Y82.06 E1.46634
G1 X76.366 Y81.71 E1.50343
G1 X75.772 Y81.222 E1.54179
G1 X75.292 Y80.636 E1.57958
G1 X74.967 Y80.028 E1.61397
G1 F3243.2 X74.678 Y79.248 E1.66004
G0 F3900 X74.421 Y79.272
G0 X74.737 Y102.115
G0 X77.637 Y100.168
G0 X79.298 Y100.484
G0 X80.067 Y100.718
G0 X80.775 Y101.097
G0 X81.394 Y101.606
G0 X81.903 Y102.225
G0 X82.282 Y102.933
G0 X82.516 Y103.702
G0 X82.594 Y104.5
G0 X82.516 Y105.298
G0 X82.282 Y106.067
G0 X81.903 Y106.775
G0 X81.394 Y107.394
G0 X80.775 Y107.903
G0 X79.272 Y108.579
G0 X79.248 Y108.322
G1 F3000 X78.501 Y108.377 E1.70488
G1 F3018.9 X77.8 Y108.327 E1.74669
G1 F3257.9 X76.972 Y108.033 E1.79513
G1 F3600 X76.363 Y107.708 E1.82957
G1 X75.777 Y107.223 E1.86752
G1 X75.292 Y106.637 E1.90547
G1 X74.967 Y106.028 E1.93991
G1 F3243.2 X74.678 Y105.248 E1.98597
G1 F3000 X74.623 Y104.501 E2.03081
G1 F3018.9 X74.673 Y103.8 E2.07263
G1 F3257.9 X74.967 Y102.972 E2.12106
G1 F3600 X75.292 Y102.364 E2.15546
G1 X75.772 Y101.778 E2.19325
G1 X76.366 Y101.29 E2.2316
G1 X77.022 Y100.94 E2.2687
G1 X77.746 Y100.721 E2.30644
G1 X78.5 Y100.647 E2.34423
G1 X79.255 Y100.721 E2.38208
G1 X79.97 Y100.94 E2.41939
G1 X80.614 Y101.281 E2.45574
G1 X81.223 Y101.777 E2.49493
G1 X81.719 Y102.386 E2.53411
G1 X82.06 Y103.03 E2.57047
G1 X82.279 Y103.745 E2.60778
G1 X82.353 Y104.5 E2.64562
G1 X82.279 Y105.254 E2.68342
G1 X82.06 Y105.978 E2.72116
G1 X81.71 Y106.634 E2.75825
G1 X81.222 Y107.228 E2.79661
G1 X80.636 Y107.708 E2.8344
G1 X80.028 Y108.033 E2.86879
G1 F3243.2 X79.248 Y108.322 E2.91486
G0 F3900 X79.272 Y108.579
G0 X105.272 Y108.579
G0 X105.248 Y108.322
G1 F3000 X104.501 Y108.377 E2.9597
G1 F3018.9 X103.8 Y108.327 E3.00151
G1 F3257.9 X102.972 Y108.033 E3.04995
G1 F3600 X102.364 Y107.708 E3.08435
G1 X101.778 Y107.228 E3.12214
G1 X101.29 Y106.634 E3.16049
G1 X100.94 Y105.978 E3.19758
G1 X100.721 Y105.254 E3.23532
G1 X100.647 Y104.5 E3.27312
G1 X100.721 Y103.746 E3.31092
G1 X100.94 Y103.021 E3.3487
G1 X101.281 Y102.386 E3.38466
G1 X101.777 Y101.777 E3.42385
G1 X102.386 Y101.281 E3.46303
G1 X103.03 Y100.94 E3.49939
G1 X103.745 Y100.721 E3.53669
G1 X104.5 Y100.647 E3.57454
G1 X105.254 Y100.721 E3.61234
G1 X105.974 Y100.939 E3.64987
G1 X106.635 Y101.292 E3.68726
G1 X107.228 Y101.778 E3.72551
G1 X107.705 Y102.361 E3.76309
G1 X108.033 Y102.972 E3.79769
G1 F3257.9 X108.327 Y103.8 E3.84613
G1 F3025.2 X108.377 Y104.5 E3.88779
G1 F3012.6 X108.323 Y105.248 E3.9325
G1 F3243.2 X108.033 Y106.028 E3.97858
G1 F3600 X107.704 Y106.64 E4.01325
G1 X107.223 Y107.223 E4.05096
G1 X106.637 Y107.708 E4.08891
G1 X106.028 Y108.033 E4.12335
G1 F3243.2 X105.248 Y108.322 E4.16941
G0 F3900 X105.272 Y108.579
G0 X108.515 Y108.533
G0 X108.632 Y108.813
G1 F3600 X108.741 Y108.741 E4.17593
G1 X108.813 Y108.632 E4.18244
G1 X108.85 Y108.443 E4.19205
G1 X108.851 Y106.033 E4.31229
G1 F3243.2 X108.807 Y105.29 E4.35351
G1 F3070.4 X108.826 Y104.5 E4.39973
G1 F3083.5 X108.809 Y103.777 E4.44186
G1 F3096.8 X108.828 Y103.602 E4.45207
G1 F3404.3 X108.851 Y102.967 E4.48559
G1 F3600 X108.851 Y80.033 E5.62977
G1 F3243.2 X108.807 Y79.29 E5.67099
G1 F3070.4 X108.826 Y78.5 E5.71721
G1 F3083.5 X108.809 Y77.777 E5.75934
G1 F3096.8 X108.828 Y77.602 E5.76955
G1 F3404.3 X108.851 Y76.967 E5.80307
G1 F3600 X108.851 Y74.556 E5.92336
G1 X108.814 Y74.368 E5.93292
G1 X108.632 Y74.186 E5.94576
G1 X108.444 Y74.149 E5.95532
G1 X106.033 Y74.149 E6.0756
G1 F3404.3 X105.398 Y74.172 E6.10913
G1 F3096.8 X105.223 Y74.191 E6.11933
G1 F3083.5 X104.5 Y74.174 E6.16146
G1 F3063.8 X103.71 Y74.193 E6.20778
G1 F3243.2 X102.967 Y74.149 E6.249
G1 F3600 X80.033 Y74.149 E7.39318
G1 F3404.3 X79.398 Y74.172 E7.42671
G1 F3096.8 X79.223 Y74.191 E7.43692
G1 F3083.5 X78.5 Y74.174 E7.47904
G1 F3063.8 X77.71 Y74.193 E7.52536
G1 F3243.2 X76.967 Y74.149 E7.56658
G1 F3600 X74.556 Y74.149 E7.68687
G1 X74.368 Y74.186 E7.69643
G1 X74.186 Y74.368 E7.70927
G1 X74.149 Y74.556 E7.71883
G1 X74.149 Y76.967 E7.83911
G1 F3404.3 X74.172 Y77.602 E7.87264
G1 F3096.8 X74.191 Y77.777 E7.88285
G1 F3083.5 X74.174 Y78.5 E7.92497
G1 F3063.8 X74.193 Y79.29 E7.97129
G1 F3243.2 X74.149 Y80.033 E8.01251
G1 F3600 X74.149 Y102.967 E9.15669
G1 F3404.3 X74.172 Y103.602 E9.19022
G1 F3096.8 X74.191 Y103.777 E9.20043
G1 F3083.5 X74.174 Y104.5 E9.24255
G1 F3063.8 X74.193 Y105.29 E9.28887
G1 F3243.2 X74.149 Y106.033 E9.33009
G1 F3600 X74.149 Y108.443 E9.45033
G1 X74.187 Y108.632 E9.45995
G1 X74.259 Y108.741 E9.46646
G1 X74.368 Y108.813 E9.47298
G1 X74.556 Y108.851 E9.48255
G1 X76.967 Y108.851 E9.60283
G1 F3404.3 X77.602 Y108.828 E9.63636
G1 F3096.8 X77.777 Y108.809 E9.64657
G1 F3083.5 X78.5 Y108.826 E9.68869
G1 F3063.8 X79.29 Y108.807 E9.73502
G1 F3243.2 X80.033 Y108.851 E9.77623
G1 F3600 X102.967 Y108.851 E10.92042
G1 F3404.3 X103.602 Y108.828 E10.95394
G1 F3096.8 X103.777 Y108.809 E10.96415
G1 F3083.5 X104.5 Y108.826 E11.00627
G1 F3063.8 X105.29 Y108.807 E11.0526
G1 F3243.2 X106.033 Y108.851 E11.09381
G1 F3600 X108.444 Y108.85 E11.2141
G1 X108.632 Y108.813 E11.22366
G0 F3900 X108.515 Y108.533
G0 X108.56 Y106.246
G0 X108.578 Y79.273
G0 X108.323 Y79.248
G1 F3243.2 X108.033 Y80.028 E11.26974
G1 F3600 X107.705 Y80.639 E11.30434
G1 X107.228 Y81.222 E11.34192
G1 X106.635 Y81.708 E11.38017
G1 X105.974 Y82.061 E11.41756
G1 X105.254 Y82.279 E11.45509
G1 X104.5 Y82.353 E11.49289
G1 X103.745 Y82.279 E11.53074
G1 X103.03 Y82.06 E11.56804
G1 X102.386 Y81.719 E11.6044
G1 X101.777 Y81.223 E11.64358
G1 X101.281 Y80.614 E11.68277
G1 X100.94 Y79.97 E11.71912
G1 X100.721 Y79.255 E11.75643
G1 X100.647 Y78.5 E11.79428
G1 X100.721 Y77.747 E11.83203
G1 X100.94 Y77.022 E11.86981
G1 X101.29 Y76.366 E11.90691
G1 X101.778 Y75.772 E11.94526
G1 X102.364 Y75.292 E11.98305
G1 X102.972 Y74.967 E12.01745
G1 F3243.2 X103.752 Y74.678 E12.06351
G1 F3000 X104.499 Y74.623 E12.10835
G1 F3018.9 X105.2 Y74.673 E12.15016
G1 F3257.9 X106.028 Y74.967 E12.1986
G1 F3600 X106.637 Y75.292 E12.23304
G1 X107.223 Y75.777 E12.27099
G1 X107.704 Y76.36 E12.3087
G1 X108.033 Y76.972 E12.34336
G1 F3257.9 X108.327 Y77.8 E12.3918
G1 F3025.2 X108.377 Y78.5 E12.43347
G1 F3012.6 X108.323 Y79.248 E12.47818
G0 F3900 X108.578 Y79.273
G0 X108.451 Y76.904
G1 F3600 X108.451 Y74.549 E12.59567
G1 X106.096 Y74.549 E12.71316
G1 X106.871 Y74.965 E12.75704
G1 X107.506 Y75.494 E12.79828
G1 X108.039 Y76.136 E12.83991
G1 X108.451 Y76.904 E12.88339
G0 F3900 X108.594 Y78.5
G0 X108.594 Y104.5
G0 X108.516 Y105.298
G0 X108.282 Y106.067
G0 X107.903 Y106.775
G0 X106.096 Y108.451
G1 F3600 X108.45 Y108.449 E13.00083
G1 X108.451 Y106.096 E13.11822
G1 X108.039 Y106.864 E13.1617
G1 X107.506 Y107.506 E13.20333
G1 X106.871 Y108.035 E13.24456
G1 X106.096 Y108.451 E13.28845
G0 F3900 X104.66 Y108.58
G0 X102.904 Y108.451
G1 F3600 X102.132 Y108.037 E13.33215
G1 X101.49 Y107.509 E13.37362
G1 X100.958 Y106.861 E13.41545
G1 X100.568 Y106.131 E13.45674
G1 X100.327 Y105.333 E13.49833
G1 X100.246 Y104.5 E13.54008
G1 X100.327 Y103.664 E13.58199
G1 X100.569 Y102.881 E13.62288
G1 X100.964 Y102.132 E13.66512
G1 X101.494 Y101.494 E13.7065
G1 X102.13 Y100.965 E13.74777
G1 X102.878 Y100.565 E13.79009
G1 X103.663 Y100.333 E13.83093
G1 X104.496 Y100.245 E13.87272
G1 X105.335 Y100.327 E13.91478
G1 X106.132 Y100.57 E13.95635
G1 X106.86 Y100.959 E13.99753
G1 X107.509 Y101.491 E14.03939
G1 X108.04 Y102.139 E14.08119
G1 X108.451 Y102.904 E14.12452
G1 X108.451 Y80.096 E15.26241
G1 X108.04 Y80.861 E15.30574
G1 X107.51 Y81.509 E15.3475
G1 X106.86 Y82.041 E15.38941
G1 X106.132 Y82.43 E15.43059
G1 X105.334 Y82.673 E15.4722
G1 X104.5 Y82.754 E15.51401
G1 X103.664 Y82.673 E15.55591
G1 X102.881 Y82.431 E15.5968
G1 X102.132 Y82.036 E15.63904
G1 X101.494 Y81.506 E15.68043
G1 X100.965 Y80.87 E15.7217
G1 X100.565 Y80.122 E15.76402
G1 X100.333 Y79.337 E15.80485
G1 X100.245 Y78.504 E15.84664
G1 X100.327 Y77.666 E15.88865
G1 X100.568 Y76.869 E15.93019
G1 X100.958 Y76.139 E15.97148
G1 X101.49 Y75.491 E16.01331
G1 X102.132 Y74.963 E16.05478
G1 X102.904 Y74.549 E16.09849
G1 X80.096 Y74.549 E17.23638
G1 X80.868 Y74.963 E17.28009
G1 X81.51 Y75.491 E17.32156
G1 X82.042 Y76.139 E17.36338
G1 X82.432 Y76.869 E17.40468
G1 X82.673 Y77.667 E17.44626
G1 X82.754 Y78.5 E17.48802
G1 X82.673 Y79.336 E17.52992
G1 X82.431 Y80.119 E17.57081
G1 X82.036 Y80.868 E17.61306
G1 X81.506 Y81.506 E17.65444
G1 X80.87 Y82.035 E17.69571
G1 X80.122 Y82.435 E17.73803
G1 X79.337 Y82.667 E17.77886
G1 X78.504 Y82.755 E17.82065
G1 X77.666 Y82.673 E17.86266
G1 X76.869 Y82.432 E17.9042
G1 X76.139 Y82.042 E17.94549
G1 X75.491 Y81.51 E17.98732
G1 X74.963 Y80.868 E18.02879
G1 X74.549 Y80.096 E18.0725
G1 X74.549 Y102.904 E19.21039
G1 X74.963 Y102.132 E19.2541
G1 X75.491 Y101.49 E19.29557
G1 X76.139 Y100.958 E19.33739
G1 X76.869 Y100.568 E19.37869
G1 X77.667 Y100.327 E19.42027
G1 X78.5 Y100.246 E19.46203
G1 X79.336 Y100.327 E19.50393
G1 X80.119 Y100.569 E19.54482
G1 X80.868 Y100.964 E19.58707
G1 X81.506 Y101.494 E19.62845
G1 X82.035 Y102.13 E19.66972
G1 X82.435 Y102.878 E19.71204
G1 X82.667 Y103.663 E19.75287
G1 X82.755 Y104.496 E19.79466
G1 X82.673 Y105.334 E19.83667
G1 X82.432 Y106.131 E19.87821
G1 X82.042 Y106.861 E19.9195
G1 X81.51 Y107.509 E19.96133
G1 X80.868 Y108.037 E20.0028
G1 X80.096 Y108.451 E20.04651
G1 X102.904 Y108.451 E21.1844
G0 F3900 X78.5 Y108.594
G0 X76.904 Y108.451
G1 F3600 X76.129 Y108.035 E21.22828
G1 X75.494 Y107.506 E21.26952
G1 X74.965 Y106.871 E21.31075
G1 X74.549 Y106.096 E21.35463
G1 X74.549 Y108.451 E21.47213
G1 X76.904 Y108.451 E21.58962
G0 F3900 X78.412 Y108.645
G0 X78.48 Y107.949
;TYPE:WALL-OUTER
G1 F3600 X77.843 Y107.887 E21.62155
G1 X77.16 Y107.68 E21.65715
G1 X76.57 Y107.36 E21.69064
G1 X76.06 Y106.94 E21.7236
G1 X75.618 Y106.397 E21.75853
G1 X75.305 Y105.803 E21.79203
G1 X75.115 Y105.172 E21.82491
G1 X75.051 Y104.48 E21.85958
G1 X75.113 Y103.843 E21.89151
G1 X75.32 Y103.16 E21.92711
G1 X75.64 Y102.57 E21.9606
G1 X76.075 Y102.047 E21.99454
G1 X76.603 Y101.618 E22.02848
G1 X77.197 Y101.305 E22.06197
G1 X77.843 Y101.113 E22.0956
G1 X78.52 Y101.051 E22.12951
G1 X79.157 Y101.113 E22.16144
G1 X79.82 Y101.311 E22.19597
G1 X80.406 Y101.623 E22.22909
G1 X80.94 Y102.06 E22.26351
G1 X81.371 Y102.585 E22.2974
G1 X81.683 Y103.166 E22.3303
G1 X81.887 Y103.843 E22.36558
G1 X81.949 Y104.52 E22.39949
G1 X81.887 Y105.157 E22.43142
G1 X81.68 Y105.84 E22.46703
G1 X81.382 Y106.397 E22.49855
G1 X80.925 Y106.953 E22.53445
G1 X80.397 Y107.382 E22.56839
G1 X79.803 Y107.695 E22.60189
G1 X79.172 Y107.885 E22.63477
G1 X78.48 Y107.949 E22.66944
G0 F3900 X78.281 Y107.93
G0 X78.213 Y108.626
G0 X104.412 Y108.645
G0 X104.48 Y107.949
G1 F3600 X103.843 Y107.887 E22.70137
G1 X103.16 Y107.68 E22.73697
G1 X102.57 Y107.36 E22.77046
G1 X102.047 Y106.925 E22.8044
G1 X101.618 Y106.397 E22.83834
G1 X101.305 Y105.803 E22.87184
G1 X101.113 Y105.157 E22.90546
G1 X101.051 Y104.48 E22.93938
G1 X101.113 Y103.843 E22.97131
G1 X101.305 Y103.197 E23.00493
G1 X101.623 Y102.594 E23.03894
G1 X102.06 Y102.06 E23.07337
G1 X102.585 Y101.629 E23.10725
G1 X103.166 Y101.317 E23.14015
G1 X103.843 Y101.113 E23.17543
G1 X104.52 Y101.051 E23.20935
G1 X105.157 Y101.113 E23.24128
G1 X105.84 Y101.32 E23.27688
G1 X106.397 Y101.618 E23.3084
G1 X106.953 Y102.075 E23.34431
G1 X107.382 Y102.603 E23.37825
G1 X107.695 Y103.197 E23.41174
G1 X107.887 Y103.843 E23.44537
G1 X107.949 Y104.52 E23.47928
G1 X107.885 Y105.172 E23.51197
G1 X107.68 Y105.84 E23.54683
G1 X107.382 Y106.397 E23.57834
G1 X106.94 Y106.94 E23.61328
G1 X106.397 Y107.382 E23.64821
G1 X105.803 Y107.695 E23.6817
G1 X105.172 Y107.885 E23.71458
G1 X104.48 Y107.949 E23.74925
G0 F3900 X104.281 Y107.93
G0 X104.213 Y108.626
G0 X108.526 Y108.526
G0 X109.029 Y109.029
G1 F3600 X109.191 Y108.788 E23.76374
G1 X109.25 Y108.481 E23.77934
G1 X109.251 Y74.518 E25.47376
G1 X109.191 Y74.212 E25.48931
G1 X109.029 Y73.971 E25.5038
G1 X108.788 Y73.809 E25.51829
G1 X108.482 Y73.749 E25.53385
G1 X74.518 Y73.749 E27.22832
G1 X74.212 Y73.809 E27.24387
G1 X73.971 Y73.971 E27.25836
G1 X73.809 Y74.212 E27.27285
G1 X73.749 Y74.518 E27.28841
G1 X73.749 Y108.481 E28.98283
G1 X73.809 Y108.788 E28.99843
G1 X73.971 Y109.029 E29.01292
G1 X74.212 Y109.191 E29.02741
G1 X74.518 Y109.251 E29.04297
G1 X108.482 Y109.25 E30.73744
G1 X108.788 Y109.191 E30.75298
G1 X109.029 Y109.029 E30.76747
G0 F3900 X109.14 Y108.863
G0 X108.533 Y108.515
G0 X108.594 Y104.5
G0 X108.264 Y80.883
G0 X105.914 Y82.462
G0 X104.412 Y82.645
G0 X104.48 Y81.949
G1 F3600 X103.843 Y81.887 E30.7994
G1 X103.18 Y81.689 E30.83392
G1 X102.594 Y81.377 E30.86704
G1 X102.06 Y80.94 E30.90147
G1 X101.629 Y80.415 E30.93536
G1 X101.317 Y79.834 E30.96826
G1 X101.113 Y79.157 E31.00353
G1 X101.051 Y78.48 E31.03745
G1 X101.113 Y77.843 E31.06938
G1 X101.32 Y77.16 E31.10499
G1 X101.618 Y76.603 E31.1365
G1 X102.075 Y76.047 E31.17241
G1 X102.603 Y75.618 E31.20635
G1 X103.197 Y75.305 E31.23985
G1 X103.828 Y75.115 E31.27272
G1 X104.52 Y75.051 E31.3074
G1 X105.157 Y75.113 E31.33933
G1 X105.84 Y75.32 E31.37493
G1 X106.43 Y75.64 E31.40842
G1 X106.94 Y76.06 E31.44138
G1 X107.382 Y76.603 E31.47631
G1 X107.695 Y77.197 E31.50981
G1 X107.887 Y77.843 E31.54343
G1 X107.949 Y78.52 E31.57735
G1 X107.885 Y79.172 E31.61003
G1 X107.68 Y79.84 E31.64489
G1 X107.382 Y80.397 E31.67641
G1 X106.925 Y80.953 E31.71231
G1 X106.397 Y81.382 E31.74625
G1 X105.803 Y81.695 E31.77975
G1 X105.157 Y81.887 E31.81337
G1 X104.48 Y81.949 E31.84729
G0 F3900 X104.281 Y81.93
G0 X104.213 Y82.626
G0 X102.049 Y82.173
G0 X100.176 Y79.37
G0 X100.823 Y76.051
G0 X102.115 Y74.737
G0 X80.885 Y74.737
G0 X82.832 Y77.637
G0 X82.173 Y80.951
G0 X80.467 Y82.322
G0 X78.412 Y82.645
G0 X78.48 Y81.949
G1 F3600 X77.843 Y81.887 E31.87922
G1 X77.16 Y81.68 E31.91483
G1 X76.603 Y81.382 E31.94634
G1 X76.047 Y80.925 E31.98225
G1 X75.618 Y80.397 E32.01619
G1 X75.305 Y79.803 E32.04969
G1 X75.115 Y79.172 E32.08257
G1 X75.051 Y78.48 E32.11724
G1 X75.113 Y77.843 E32.14917
G1 X75.32 Y77.16 E32.18477
G1 X75.64 Y76.57 E32.21826
G1 X76.06 Y76.06 E32.25122
