;FLAVOR:Marlin
;TIME:6861
;Filament used: 17.7203m
;Layer height: 0.25
;MINX:70.95
;MINY:70.95
;MINZ:0.3
;MAXX:154.05
;MAXY:154.05
;MAXZ:45.8
;TARGET_MACHINE.NAME:Unknown
;Generated with Cura_SteamEngine 5.6.0
M140 S50
M105
M190 S50
M104 S205
M105
M109 S205
M82 ;absolute extrusion mode
G90
G92 E0 ; Reset Extruder
G28 ; Home all axes
G1 Z2.0 F3000
G1 X5.1 Y20 Z0.3 F5000.0
G1 X5.1 Y200.0 Z0.3 F1000.0 E15
G1 X5.4 Y200.0 Z0.3 F5000.0
G1 X5.4 Y20 Z0.3 F1000.0 E30
G92 E0
G1 Z2.0 F3000
G1 X5 Y20 Z0.3 F5000.0
G92 E0
G92 E0
G1 F2400 E-6
;LAYER_COUNT:183
;LAYER:0
M107
M204 S1000
;MESH:2x2x6_Post-it.3mf
G0 F3900 X74.549 Y76.904 Z0.3
;TYPE:WALL-INNER
G1 F2400 E0
G1 F3600 X74.965 Y76.129 E0.04388
G1 X75.494 Y75.494 E0.08512
G1 X76.129 Y74.965 E0.12635
G1 X76.904 Y74.549 E0.17023
G1 X74.549 Y74.549 E0.28772
G1 X74.549 Y76.904 E0.40522
G0 F3900 X74.406 Y78.5
G0 X74.484 Y79.298
G0 X74.718 Y80.067
G0 X75.097 Y80.775
G0 X75.606 Y81.394
G0 X76.225 Y81.903
G0 X76.933 Y82.282
G0 X77.702 Y82.516
G0 X79.342 Y82.566
G0 X79.255 Y82.279
G1 F3600 X78.5 Y82.353 E0.44306
G1 X77.746 Y82.279 E0.48086
G1 X77.022 Y82.06 E0.5186
G1 X76.366 Y81.71 E0.55569
G1 X75.772 Y81.222 E0.59405
G1 X75.292 Y80.636 E0.63184
G1 X74.967 Y80.028 E0.66623
G1 F3243.2 X74.678 Y79.248 E0.7123
G1 F3012.6 X74.623 Y78.501 E0.75695
G1 F3025.2 X74.673 Y77.8 E0.79868
G1 F3257.9 X74.967 Y76.972 E0.84711
G1 F3600 X75.292 Y76.363 E0.88155
G1 X75.777 Y75.777 E0.9195
G1 X76.363 Y75.292 E0.95745
G1 X76.972 Y74.967 E0.99189
G1 F3243.2 X77.752 Y74.678 E1.03796
G1 F3000 X78.499 Y74.623 E1.0828
G1 F3018.9 X79.2 Y74.673 E1.12461
G1 F3257.9 X80.028 Y74.967 E1.17305
G1 F3600 X80.636 Y75.292 E1.20744
G1 X81.222 Y75.772 E1.24524
G1 X81.71 Y76.366 E1.28359
G1 X82.06 Y77.022 E1.32068
G1 X82.279 Y77.746 E1.35842
G1 X82.353 Y78.5 E1.39622
G1 X82.279 Y79.255 E1.43407
G1 X82.06 Y79.97 E1.47137
G1 X81.719 Y80.614 E1.50773
G1 X81.223 Y81.223 E1.54691
G1 X80.614 Y81.719 E1.5861
G1 X79.97 Y82.06 E1.62245
G1 X79.255 Y82.279 E1.65976
G0 F3900 X79.342 Y82.566
G0 X76.805 Y82.581
G0 X74.737 Y80.885
G0 X74.737 Y102.115
G0 X77.637 Y100.168
G0 X79.298 Y100.484
G0 X80.067 Y100.718
G0 X80.775 Y101.097
G0 X81.394 Y101.606
G0 X81.903 Y102.225
G0 X82.282 Y102.933
G0 X82.516 Y103.702
G0 X82.594 Y104.5
G0 X82.516 Y105.298
G0 X82.282 Y106.067
G0 X81.903 Y106.775
G0 X81.394 Y107.394
G0 X80.775 Y107.903
G0 X80.067 Y108.282
G0 X79.298 Y108.516
G0 X78.474 Y108.591
G0 X78.5 Y108.377
G1 F3031.6 X77.8 Y108.326 E1.70134
G1 F3265.3 X76.971 Y108.033 E1.74971
G1 F3600 X76.365 Y107.709 E1.78399
G1 X75.777 Y107.223 E1.82205
G1 X75.292 Y106.637 E1.86
G1 X74.967 Y106.028 E1.89444
G1 F3243.2 X74.678 Y105.248 E1.9405
G1 F3000 X74.623 Y104.501 E1.98534
G1 F3018.9 X74.673 Y103.8 E2.02716
G1 F3257.9 X74.967 Y102.972 E2.07559
G1 F3600 X75.292 Y102.364 E2.10999
G1 X75.772 Y101.778 E2.14778
G1 X76.366 Y101.29 E2.18613
G1 X77.022 Y100.94 E2.22323
G1 X77.746 Y100.721 E2.26097
G1 X78.5 Y100.647 E2.29876
G1 X79.255 Y100.721 E2.33661
G1 X79.97 Y100.94 E2.37392
G1 X80.614 Y101.281 E2.41027
G1 X81.223 Y101.777 E2.44946
G1 X81.719 Y102.386 E2.48864
G1 X82.061 Y103.025 E2.5248
G1 X82.275 Y103.743 E2.56218
G1 X82.353 Y104.498 E2.60005
G1 X82.279 Y105.254 E2.63795
G1 X82.06 Y105.978 E2.67568
G1 X81.71 Y106.634 E2.71278
G1 X81.225 Y107.225 E2.75092
G1 X80.634 Y107.71 E2.78906
G1 X80.029 Y108.033 E2.82328
G1 F3265.3 X79.2 Y108.326 E2.87164
G1 F3031.6 X78.5 Y108.377 E2.91322
G0 F3900 X78.473 Y108.651
G0 X104.473 Y108.651
G0 X104.5 Y108.377
G1 F3031.6 X103.8 Y108.326 E2.9548
G1 F3265.3 X102.971 Y108.033 E3.00317
G1 F3600 X102.366 Y107.71 E3.03738
G1 X101.775 Y107.225 E3.07552
G1 X101.29 Y106.634 E3.11367
G1 X100.94 Y105.978 E3.15076
G1 X100.721 Y105.254 E3.1885
G1 X100.647 Y104.5 E3.2263
G1 X100.721 Y103.745 E3.26414
G1 X100.94 Y103.03 E3.30145
G1 X101.281 Y102.386 E3.33781
G1 X101.777 Y101.777 E3.37699
G1 X102.386 Y101.281 E3.41618
G1 X103.03 Y100.94 E3.45253
G1 X103.745 Y100.721 E3.48984
G1 X104.5 Y100.647 E3.52769
G1 X105.254 Y100.721 E3.56549
G1 X105.974 Y100.939 E3.60302
G1 X106.635 Y101.292 E3.6404
G1 X107.228 Y101.778 E3.67865
G1 X107.705 Y102.361 E3.71623
G1 X108.033 Y102.972 E3.75083
G1 F3257.9 X108.327 Y103.8 E3.79927
G1 F3025.2 X108.377 Y104.5 E3.84093
G1 F3012.6 X108.323 Y105.248 E3.88565
G1 F3243.2 X108.033 Y106.028 E3.93173
G1 F3600 X107.705 Y106.639 E3.96633
G1 X107.228 Y107.222 E4.00391
G1 X106.634 Y107.71 E4.04226
G1 X106.029 Y108.033 E4.07648
G1 F3265.3 X105.2 Y108.326 E4.12484
G1 F3031.6 X104.5 Y108.377 E4.16642
G0 F3900 X104.473 Y108.651
G0 X108.515 Y108.533
G0 X108.633 Y108.813
G1 F3600 X108.813 Y108.633 E4.17912
G1 X108.85 Y108.443 E4.18878
G1 X108.851 Y106.033 E4.30901
G1 F3243.2 X108.807 Y105.29 E4.35023
G1 F3070.4 X108.826 Y104.5 E4.39646
G1 F3083.5 X108.809 Y103.777 E4.43858
G1 F3096.8 X108.828 Y103.602 E4.44879
G1 F3404.3 X108.851 Y102.967 E4.48231
G1 F3600 X108.851 Y80.033 E5.6265
G1 F3243.2 X108.807 Y79.29 E5.66771
G1 F3070.4 X108.826 Y78.5 E5.71394
G1 F3083.5 X108.809 Y77.777 E5.75606
G1 F3096.8 X108.828 Y77.602 E5.76627
G1 F3404.3 X108.851 Y76.967 E5.7998
G1 F3600 X108.851 Y74.557 E5.92003
G1 X108.814 Y74.368 E5.92964
G1 X108.632 Y74.187 E5.94245
G1 X108.443 Y74.149 E5.95206
G1 X106.033 Y74.149 E6.0723
G1 F3404.3 X105.398 Y74.172 E6.10582
G1 F3096.8 X105.223 Y74.191 E6.11603
G1 F3083.5 X104.5 Y74.174 E6.15816
G1 F3063.8 X103.71 Y74.193 E6.20448
G1 F3243.2 X102.967 Y74.149 E6.2457
G1 F3600 X80.033 Y74.149 E7.38988
G1 F3404.3 X79.398 Y74.172 E7.4234
G1 F3096.8 X79.223 Y74.191 E7.43361
G1 F3083.5 X78.5 Y74.174 E7.47574
G1 F3063.8 X77.71 Y74.193 E7.52206
G1 F3243.2 X76.967 Y74.149 E7.56328
G1 F3600 X74.556 Y74.149 E7.68356
G1 X74.368 Y74.186 E7.69312
G1 X74.186 Y74.368 E7.70596
G1 X74.149 Y74.556 E7.71552
G1 X74.149 Y76.967 E7.83581
G1 F3404.3 X74.172 Y77.602 E7.86933
G1 F3096.8 X74.191 Y77.777 E7.87954
G1 F3083.5 X74.174 Y78.5 E7.92167
G1 F3063.8 X74.193 Y79.29 E7.96799
G1 F3243.2 X74.149 Y80.033 E8.00921
G1 F3600 X74.149 Y102.967 E9.15339
G1 F3404.3 X74.172 Y103.602 E9.18691
G1 F3096.8 X74.191 Y103.777 E9.19712
G1 F3083.5 X74.174 Y104.5 E9.23925
G1 F3063.8 X74.193 Y105.29 E9.28557
G1 F3243.2 X74.149 Y106.033 E9.32679
G1 F3600 X74.149 Y108.443 E9.44702
G1 X74.187 Y108.633 E9.45669
G1 X74.367 Y108.813 E9.46939
G1 X74.556 Y108.85 E9.479
G1 X76.967 Y108.849 E9.59929
G1 F3404.3 X77.602 Y108.826 E9.63281
G1 F3103.4 X77.777 Y108.808 E9.64299
G1 F3083.5 X78.5 Y108.825 E9.68511
G1 X79.223 Y108.808 E9.72724
G1 F3103.4 X79.398 Y108.826 E9.73742
G1 F3404.3 X80.033 Y108.849 E9.77094
G1 F3600 X102.967 Y108.849 E10.91513
G1 F3404.3 X103.602 Y108.826 E10.94865
G1 F3103.4 X103.777 Y108.808 E10.95883
G1 F3083.5 X104.5 Y108.825 E11.00095
G1 X105.223 Y108.808 E11.04308
G1 F3103.4 X105.398 Y108.826 E11.05326
G1 F3404.3 X106.033 Y108.849 E11.08678
G1 F3600 X108.443 Y108.849 E11.20702
G1 X108.633 Y108.813 E11.21667
G0 F3900 X108.515 Y108.533
G0 X108.56 Y106.246
G0 X108.578 Y79.273
G0 X108.323 Y79.248
G1 F3243.2 X108.033 Y80.028 E11.26275
G1 F3600 X107.705 Y80.639 E11.29735
G1 X107.228 Y81.222 E11.33493
G1 X106.635 Y81.708 E11.37318
G1 X105.974 Y82.061 E11.41057
G1 X105.254 Y82.279 E11.4481
G1 X104.498 Y82.353 E11.48599
G1 X103.743 Y82.275 E11.52386
G1 X103.03 Y82.06 E11.56102
G1 X102.386 Y81.719 E11.59737
G1 X101.777 Y81.223 E11.63656
G1 X101.281 Y80.614 E11.67574
G1 X100.94 Y79.97 E11.7121
G1 X100.721 Y79.255 E11.7494
G1 X100.647 Y78.5 E11.78725
G1 X100.721 Y77.746 E11.82505
G1 X100.94 Y77.022 E11.86279
G1 X101.29 Y76.366 E11.89988
G1 X101.778 Y75.772 E11.93823
G1 X102.364 Y75.292 E11.97603
G1 X102.972 Y74.967 E12.01042
G1 F3243.2 X103.752 Y74.678 E12.05649
G1 F3000 X104.499 Y74.623 E12.10133
G1 F3018.9 X105.2 Y74.673 E12.14314
G1 F3257.9 X106.028 Y74.967 E12.19158
G1 F3600 X106.637 Y75.292 E12.22602
G1 X107.223 Y75.777 E12.26397
G1 X107.704 Y76.36 E12.30167
G1 X108.033 Y76.972 E12.33634
G1 F3257.9 X108.327 Y77.8 E12.38478
G1 F3025.2 X108.377 Y78.5 E12.42644
G1 F3012.6 X108.323 Y79.248 E12.47115
G0 F3900 X108.578 Y79.273
G0 X108.451 Y76.904
G1 F3600 X108.451 Y74.549 E12.58864
G1 X106.096 Y74.549 E12.70614
G1 X106.871 Y74.965 E12.75002
G1 X107.506 Y75.494 E12.79125
G1 X108.039 Y76.136 E12.83288
G1 X108.451 Y76.904 E12.87636
G0 F3900 X108.594 Y78.5
G0 X108.594 Y104.5
G0 X108.516 Y105.298
G0 X108.282 Y106.067
G0 X107.903 Y106.775
G0 X107.491 Y107.276
G0 X106.1 Y108.449
G1 F3600 X108.45 Y108.442 E12.99361
G1 X108.451 Y106.096 E13.11065
G1 X108.039 Y106.864 E13.15413
G1 X107.506 Y107.505 E13.19572
G1 X106.868 Y108.037 E13.23716
G1 X106.1 Y108.449 E13.28064
G0 F3900 X104.66 Y108.579
G0 X102.9 Y108.449
G1 F3600 X102.135 Y108.038 E13.32397
G1 X101.491 Y107.509 E13.36555
G1 X100.959 Y106.861 E13.40738
G1 X100.568 Y106.132 E13.44865
G1 X100.327 Y105.333 E13.49028
G1 X100.246 Y104.5 E13.53204
G1 X100.327 Y103.664 E13.57394
G1 X100.569 Y102.881 E13.61483
G1 X100.964 Y102.132 E13.65708
G1 X101.494 Y101.494 E13.69846
G1 X102.13 Y100.965 E13.73973
G1 X102.878 Y100.565 E13.78205
G1 X103.663 Y100.333 E13.82288
G1 X104.496 Y100.245 E13.86467
G1 X105.335 Y100.327 E13.90673
G1 X106.132 Y100.57 E13.9483
G1 X106.86 Y100.959 E13.98948
G1 X107.509 Y101.491 E14.03135
G1 X108.04 Y102.139 E14.07314
G1 X108.451 Y102.904 E14.11647
G1 X108.451 Y80.096 E15.25437
G1 X108.04 Y80.861 E15.29769
G1 X107.51 Y81.509 E15.33946
G1 X106.86 Y82.041 E15.38136
G1 X106.132 Y82.43 E15.42254
G1 X105.334 Y82.673 E15.46416
G1 X104.5 Y82.754 E15.50596
G1 X103.664 Y82.673 E15.54787
G1 X102.881 Y82.431 E15.58875
G1 X102.132 Y82.036 E15.631
G1 X101.494 Y81.506 E15.67238
G1 X100.965 Y80.87 E15.71365
G1 X100.565 Y80.122 E15.75597
G1 X100.333 Y79.337 E15.79681
G1 X100.245 Y78.504 E15.8386
G1 X100.327 Y77.666 E15.88061
G1 X100.568 Y76.869 E15.92215
G1 X100.958 Y76.139 E15.96344
G1 X101.49 Y75.491 E16.00527
G1 X102.132 Y74.963 E16.04674
G1 X102.904 Y74.549 E16.09044
G1 X80.096 Y74.549 E17.22834
G1 X80.868 Y74.963 E17.27204
G1 X81.51 Y75.491 E17.31351
G1 X82.042 Y76.139 E17.35534
G1 X82.432 Y76.869 E17.39663
G1 X82.673 Y77.667 E17.43822
G1 X82.754 Y78.5 E17.47997
G1 X82.673 Y79.336 E17.52188
G1 X82.431 Y80.119 E17.56276
G1 X82.036 Y80.868 E17.60501
G1 X81.506 Y81.506 E17.64639
G1 X80.87 Y82.035 E17.68766
G1 X80.122 Y82.435 E17.72998
G1 X79.337 Y82.667 E17.77082
G1 X78.504 Y82.755 E17.81261
G1 X77.666 Y82.673 E17.85462
G1 X76.869 Y82.432 E17.89616
G1 X76.139 Y82.042 E17.93745
G1 X75.491 Y81.51 E17.97928
G1 X74.963 Y80.868 E18.02075
G1 X74.549 Y80.096 E18.06445
G1 X74.549 Y102.904 E19.20235
G1 X74.963 Y102.132 E19.24605
G1 X75.491 Y101.49 E19.28752
G1 X76.139 Y100.958 E19.32935
G1 X76.869 Y100.568 E19.37064
G1 X77.667 Y100.327 E19.41223
G1 X78.5 Y100.246 E19.45398
G1 X79.336 Y100.327 E19.49589
G1 X80.119 Y100.569 E19.53677
G1 X80.868 Y100.964 E19.57902
G1 X81.506 Y101.494 E19.6204
G1 X82.035 Y102.13 E19.66167
G1 X82.435 Y102.875 E19.70386
G1 X82.667 Y103.663 E19.74484
G1 X82.755 Y104.496 E19.78663
G1 X82.673 Y105.334 E19.82864
G1 X82.432 Y106.131 E19.87018
G1 X82.042 Y106.861 E19.91147
G1 X81.509 Y107.51 E19.95337
G1 X80.865 Y108.038 E19.99492
G1 X80.1 Y108.449 E20.03824
G1 X102.9 Y108.449 E21.17574
G0 F3900 X78.5 Y108.594
G0 X76.9 Y108.449
G1 F3600 X76.133 Y108.037 E21.21917
G1 X75.494 Y107.506 E21.26062
G1 X74.965 Y106.871 E21.30186
G1 X74.549 Y106.096 E21.34574
G1 X74.549 Y108.45 E21.46318
G1 X76.9 Y108.449 E21.58047
G0 F3900 X78.412 Y108.645
G0 X78.48 Y107.949
;TYPE:WALL-OUTER
G1 F3600 X77.843 Y107.887 E21.6124
G1 X77.16 Y107.68 E21.64801
G1 X76.603 Y107.382 E21.67953
G1 X76.06 Y106.94 E21.71446
G1 X75.618 Y106.397 E21.74939
G1 X75.305 Y105.803 E21.78289
G1 X75.115 Y105.172 E21.81576
G1 X75.051 Y104.48 E21.85043
G1 X75.113 Y103.843 E21.88236
G1 X75.32 Y103.16 E21.91797
G1 X75.64 Y102.57 E21.95146
G1 X76.075 Y102.047 E21.98539
G1 X76.603 Y101.618 E22.01933
G1 X77.197 Y101.305 E22.05283
G1 X77.843 Y101.113 E22.08645
G1 X78.52 Y101.051 E22.12037
G1 X79.157 Y101.113 E22.1523
G1 X79.82 Y101.311 E22.18682
G1 X80.406 Y101.623 E22.21994
G1 X80.94 Y102.06 E22.25437
G1 X81.371 Y102.585 E22.28826
G1 X81.683 Y103.165 E22.32111
G1 X81.887 Y103.843 E22.35644
G1 X81.949 Y104.52 E22.39035
G1 X81.887 Y105.157 E22.42228
G1 X81.68 Y105.84 E22.45789
G1 X81.382 Y106.397 E22.48941
G1 X80.925 Y106.953 E22.52531
G1 X80.397 Y107.382 E22.55925
G1 X79.803 Y107.695 E22.59275
G1 X79.172 Y107.885 E22.62563
G1 X78.48 Y107.949 E22.6603
G0 F3900 X78.281 Y107.93
G0 X78.213 Y108.626
G0 X104.412 Y108.645
G0 X104.48 Y107.949
G1 F3600 X103.843 Y107.887 E22.69223
G1 X103.16 Y107.68 E22.72784
G1 X102.603 Y107.382 E22.75935
G1 X102.047 Y106.925 E22.79526
G1 X101.618 Y106.397 E22.8292
G1 X101.305 Y105.803 E22.8627
G1 X101.113 Y105.157 E22.89632
G1 X101.051 Y104.48 E22.93024
G1 X101.113 Y103.843 E22.96217
G1 X101.311 Y103.18 E22.99669
G1 X101.623 Y102.594 E23.02981
G1 X102.06 Y102.06 E23.06423
G1 X102.585 Y101.629 E23.09812
G1 X103.166 Y101.317 E23.13102
G1 X103.843 Y101.113 E23.1663
G1 X104.52 Y101.051 E23.20021
G1 X105.157 Y101.113 E23.23215
G1 X105.84 Y101.32 E23.26775
G1 X106.397 Y101.618 E23.29927
G1 X106.953 Y102.075 E23.33517
G1 X107.382 Y102.603 E23.36911
G1 X107.695 Y103.197 E23.40261
G1 X107.887 Y103.843 E23.43623
G1 X107.949 Y104.52 E23.47015
G1 X107.885 Y105.172 E23.50284
G1 X107.68 Y105.84 E23.5377
G1 X107.382 Y106.397 E23.56921
G1 X106.94 Y106.94 E23.60414
G1 X106.397 Y107.382 E23.63907
G1 X105.803 Y107.695 E23.67257
G1 X105.172 Y107.885 E23.70545
G1 X104.48 Y107.949 E23.74012
G0 F3900 X104.281 Y107.93
G0 X104.213 Y108.626
G0 X108.526 Y108.526
G0 X109.029 Y109.029
G1 F3600 X109.191 Y108.788 E23.75461
G1 X109.25 Y108.481 E23.7702
G1 X109.251 Y74.518 E25.46462
G1 X109.191 Y74.212 E25.48018
G1 X109.029 Y73.971 E25.49467
G1 X108.788 Y73.809 E25.50916
G1 X108.481 Y73.749 E25.52476
G1 X74.518 Y73.749 E27.21918
G1 X74.212 Y73.809 E27.23474
G1 X73.971 Y73.971 E27.24923
G1 X73.809 Y74.212 E27.26372
G1 X73.749 Y74.518 E27.27927
G1 X73.749 Y108.481 E28.97369
G1 X73.809 Y108.788 E28.9893
G1 X73.971 Y109.029 E29.00379
G1 X74.212 Y109.191 E29.01827
G1 X74.518 Y109.25 E29.03382
G1 X108.481 Y109.249 E30.72824
G1 X108.788 Y109.191 E30.74383
G1 X109.029 Y109.029 E30.75832
G0 F3900 X109.14 Y108.863
G0 X108.533 Y108.515
G0 X108.594 Y104.5
G0 X108.264 Y80.883
G0 X105.914 Y82.462
G0 X104.412 Y82.645
G0 X104.48 Y81.949
G1 F3600 X103.843 Y81.887 E30.79025
G1 X103.18 Y81.689 E30.82477
G1 X102.594 Y81.377 E30.85789
G1 X102.06 Y80.94 E30.89232
G1 X101.629 Y80.415 E30.9262
G1 X101.317 Y79.834 E30.9591
G1 X101.113 Y79.157 E30.99438
G1 X101.051 Y78.48 E31.0283
G1 X101.113 Y77.843 E31.06023
G1 X101.32 Y77.16 E31.09583
G1 X101.618 Y76.603 E31.12735
G1 X102.075 Y76.047 E31.16326
G1 X102.603 Y75.618 E31.1972
G1 X103.197 Y75.305 E31.23069
G1 X103.828 Y75.115 E31.26357
G1 X104.52 Y75.051 E31.29824
G1 X105.157 Y75.113 E31.33017
G1 X105.84 Y75.32 E31.36578
G1 X106.43 Y75.64 E31.39926
G1 X106.94 Y76.06 E31.43223
G1 X107.382 Y76.603 E31.46716
G1 X107.695 Y77.197 E31.50065
G1 X107.887 Y77.843 E31.53428
G1 X107.949 Y78.52 E31.56819
G1 X107.885 Y79.172 E31.60088
G1 X107.68 Y79.84 E31.63574
G1 X107.382 Y80.397 E31.66725
G1 X106.925 Y80.953 E31.70316
G1 X106.397 Y81.382 E31.7371
G1 X105.803 Y81.695 E31.7706
G1 X105.157 Y81.887 E31.80422
G1 X104.48 Y81.949 E31.83814
G0 F3900 X104.281 Y81.93
G0 X104.213 Y82.626
G0 X102.049 Y82.173
G0 X100.176 Y79.37
G0 X100.823 Y76.051
G0 X102.115 Y74.737
G0 X80.885 Y74.737
G0 X82.832 Y77.637
G0 X82.173 Y80.951
G0 X80.467 Y82.322
G0 X78.412 Y82.645
G0 X78.48 Y81.949
G1 F3600 X77.843 Y81.887 E31.87007
G1 X77.16 Y81.68 E31.90567
G1 X76.603 Y81.382 E31.93719
