;FLAVOR:Marlin
;TIME:4995
;Filament used: 12.7416m
;Layer height: 0.3
;MINX:80.527
;MINY:80.533
;MINZ:0.3
;MAXX:154.472
;MAXY:154.467
;MAXZ:50.1
;POSTPROCESSED
;Generated with Cura_SteamEngine 5.3.1
M82 ;absolute extrusion mode
; Ender 3 Custom Start G-code
G92 E0 ; Reset Extruder

M140 S50 ; set bed temp
M190 S50 ; wait for bed temp

G28 ; Home all axes
BED_MESH_CALIBRATE  AREA_START=80.527,80.533 AREA_END=154.472,154.467
M104 S205 ; set extruder temp 

G1 Z2.0 F3000 ; Move Z Axis up little to prevent scratching of Heat Bed
M109 S205 ; wait for extruder temp
G1 X0.1 Y20 Z0.3 F5000.0 ; Move to start position

G1 X0.1 Y200.0 Z0.3 F1500.0 E15 ; Draw the first line
G1 X0.4 Y200.0 Z0.3 F5000.0 ; Move to side a little
G1 X0.4 Y20 Z0.3 F1500.0 E30 ; Draw the second line
G92 E0 ; Reset Extruder
G1 Z2.0 F3000 ; Move Z Axis up little to prevent scratching of Heat Bed
G1 X5 Y20 Z0.3 F5000.0 ; Move over to prevent blob squish
G92 E0
G92 E0
G1 F1500 E-1
;LAYER_COUNT:167
;LAYER:0
M107
G0 F3600 X83.699 Y83.728 Z0.3
;TYPE:SKIRT
G1 F1500 E0
G1 F2100 X84.183 Y83.289 E0.0326
G1 X85.062 Y82.625 E0.08756
G1 X85.604 Y82.312 E0.11878
G1 X86.56 Y81.864 E0.17146
G1 X87.181 Y81.659 E0.20408
G1 X88.203 Y81.42 E0.25645
G1 X88.853 Y81.349 E0.28907
G1 X89.933 Y81.329 E0.34296
G1 X90.559 Y81.393 E0.37435
G1 X91.356 Y81.546 E0.41484
G1 X92.792 Y81.872 E0.48831
G1 X95.507 Y82.45 E0.62679
G1 X98.199 Y82.945 E0.76335
G1 X100.879 Y83.359 E0.89864
G1 X103.615 Y83.704 E1.03622
G1 X106.357 Y83.97 E1.17366
G1 X109.066 Y84.157 E1.30914
G1 X111.782 Y84.266 E1.44475
G1 X114.382 Y84.3 E1.57447
G1 X120.674 Y84.3 E1.88838
G1 X123.471 Y84.26 E2.02794
G1 X126.188 Y84.145 E2.16361
G1 X128.934 Y83.95 E2.30096
G1 X131.64 Y83.682 E2.43662
G1 X134.363 Y83.334 E2.57358
G1 X137.064 Y82.909 E2.70999
G1 X139.766 Y82.407 E2.8471
G1 X142.745 Y81.761 E2.99918
G1 X144.228 Y81.416 E3.07514
G1 X144.857 Y81.349 E3.1067
G1 X145.933 Y81.329 E3.16039
G1 X146.559 Y81.393 E3.19178
G1 X147.624 Y81.597 E3.24588
G1 X148.242 Y81.797 E3.27829
G1 X149.216 Y82.211 E3.33109
G1 X149.78 Y82.533 E3.36349
G1 X150.657 Y83.148 E3.41693
G1 X151.117 Y83.559 E3.4477
G1 X151.856 Y84.344 E3.50149
G1 X152.241 Y84.872 E3.53409
G1 X152.786 Y85.773 E3.58663
G1 X153.053 Y86.368 E3.61916
G1 X153.401 Y87.372 E3.67218
G1 X153.541 Y88.014 E3.70496
G1 X153.671 Y89.057 E3.7574
G1 X153.673 Y89.719 E3.79043
G1 X153.564 Y90.983 E3.85372
G1 X153.289 Y92.146 E3.91334
G1 X152.701 Y94.804 E4.04916
G1 X152.182 Y97.516 E4.18691
G1 X151.743 Y100.221 E4.32363
G1 X151.38 Y102.943 E4.46064
G1 X151.097 Y105.625 E4.59519
G1 X150.886 Y108.397 E4.73388
G1 X150.757 Y111.084 E4.86809
G1 X150.7 Y114.441 E5.0356
G1 X150.7 Y120.584 E5.34207
G1 X150.74 Y123.381 E5.48163
G1 X150.855 Y126.098 E5.6173
G1 X151.05 Y128.844 E5.75465
G1 X151.318 Y131.548 E5.89021
G1 X151.666 Y134.272 E6.02721
G1 X152.091 Y136.972 E6.16358
G1 X152.589 Y139.655 E6.29972
G1 X153.166 Y142.337 E6.43659
G1 X153.51 Y143.774 E6.5103
G1 X153.671 Y145.078 E6.57585
G1 X153.674 Y145.716 E6.60768
G1 X153.585 Y146.764 E6.66016
G1 X153.451 Y147.408 E6.69297
G1 X153.143 Y148.425 E6.74599
G1 X152.883 Y149.015 E6.77816
G1 X152.372 Y149.944 E6.83105
G1 X151.984 Y150.482 E6.86415
G1 X151.302 Y151.27 E6.91614
G1 X150.817 Y151.711 E6.94884
G1 X149.941 Y152.372 E7.00359
G1 X149.396 Y152.688 E7.03502
G1 X148.424 Y153.142 E7.08854
G1 X147.819 Y153.341 E7.12032
G1 X146.778 Y153.582 E7.17363
G1 X146.147 Y153.651 E7.2053
G1 X145.067 Y153.671 E7.25919
G1 X144.441 Y153.607 E7.29058
G1 X143.644 Y153.454 E7.33107
G1 X142.208 Y153.128 E7.40454
G1 X139.493 Y152.55 E7.54302
G1 X136.801 Y152.055 E7.67958
G1 X134.121 Y151.641 E7.81487
G1 X131.385 Y151.296 E7.95245
G1 X128.643 Y151.03 E8.08989
G1 X125.934 Y150.843 E8.22537
G1 X123.218 Y150.734 E8.36098
G1 X120.618 Y150.7 E8.4907
G1 X114.326 Y150.7 E8.80461
G1 X111.529 Y150.74 E8.94417
G1 X108.812 Y150.855 E9.07984
G1 X106.066 Y151.05 E9.21719
G1 X103.36 Y151.318 E9.35285
G1 X100.637 Y151.666 E9.4898
G1 X97.936 Y152.091 E9.62622
G1 X95.234 Y152.593 E9.76333
G1 X92.255 Y153.239 E9.9154
G1 X90.772 Y153.584 E9.99137
G1 X90.143 Y153.651 E10.02292
G1 X89.067 Y153.671 E10.07662
G1 X88.441 Y153.607 E10.10801
G1 X87.376 Y153.403 E10.16211
G1 X86.758 Y153.203 E10.19452
G1 X85.784 Y152.789 E10.24732
G1 X85.22 Y152.467 E10.27972
G1 X84.343 Y151.852 E10.33316
G1 X83.883 Y151.441 E10.36393
G1 X83.144 Y150.656 E10.41772
G1 X82.759 Y150.128 E10.45032
G1 X82.214 Y149.227 E10.50286
G1 X81.947 Y148.632 E10.53539
G1 X81.599 Y147.628 E10.58841
G1 X81.459 Y146.984 E10.62129
G1 X81.329 Y145.935 E10.67402
G1 X81.327 Y145.281 E10.70665
G1 X81.439 Y144 E10.7708
G1 X81.711 Y142.852 E10.82966
G1 X82.299 Y140.196 E10.96538
G1 X82.818 Y137.484 E11.10314
G1 X83.257 Y134.779 E11.23985
G1 X83.62 Y132.057 E11.37686
G1 X83.903 Y129.375 E11.51141
G1 X84.114 Y126.603 E11.6501
G1 X84.243 Y123.916 E11.78431
G1 X84.3 Y120.559 E11.95182
G1 X84.3 Y114.416 E12.25829
G1 X84.26 Y111.619 E12.39785
G1 X84.145 Y108.902 E12.53352
G1 X83.95 Y106.156 E12.67087
G1 X83.682 Y103.45 E12.80653
G1 X83.334 Y100.728 E12.94344
G1 X82.909 Y98.027 E13.07985
G1 X82.411 Y95.345 E13.21594
G1 X81.834 Y92.663 E13.35281
G1 X81.49 Y91.227 E13.42648
G1 X81.328 Y89.915 E13.49243
G1 X81.327 Y89.281 E13.52406
G1 X81.42 Y88.211 E13.57764
G1 X81.55 Y87.59 E13.6093
G1 X81.866 Y86.554 E13.66333
G1 X82.118 Y85.984 E13.69443
G1 X82.636 Y85.043 E13.74802
G1 X83.016 Y84.518 E13.78035
G1 X83.699 Y83.728 E13.83245
G0 F3600 X83.396 Y83.466
G1 F2100 X83.942 Y82.97 E13.86925
G1 X84.821 Y82.306 E13.92421
G1 X85.434 Y81.95 E13.95958
G1 X86.435 Y81.484 E14.01466
G1 X87.056 Y81.279 E14.04729
G1 X88.16 Y81.022 E14.10384
G1 X88.81 Y80.951 E14.13646
G1 X89.974 Y80.931 E14.19454
G1 X90.634 Y81 E14.22765
G1 X91.445 Y81.156 E14.26885
G1 X92.881 Y81.482 E14.34232
G1 X95.591 Y82.059 E14.48055
G1 X98.26 Y82.55 E14.61594
G1 X100.929 Y82.962 E14.75068
G1 X103.665 Y83.307 E14.88826
G1 X106.387 Y83.571 E15.0247
G1 X109.082 Y83.757 E15.15947
G1 X111.798 Y83.866 E15.29508
G1 X114.387 Y83.9 E15.42426
G1 X120.668 Y83.9 E15.73762
G1 X123.454 Y83.86 E15.87663
G1 X126.171 Y83.745 E16.0123
G1 X128.903 Y83.551 E16.14894
G1 X131.589 Y83.285 E16.2836
G1 X134.312 Y82.937 E16.42056
G1 X137.002 Y82.514 E16.55641
G1 X139.681 Y82.016 E16.69236
G1 X142.654 Y81.371 E16.84413
G1 X144.137 Y81.026 E16.9201
G1 X144.815 Y80.951 E16.95413
G1 X145.974 Y80.931 E17.01196
G1 X146.634 Y81 E17.04507
G1 X147.747 Y81.216 E17.10163
G1 X148.365 Y81.416 E17.13404
G1 X149.372 Y81.843 E17.18861
G1 X150.01 Y82.206 E17.22523
G1 X150.924 Y82.85 E17.28101
G1 X151.384 Y83.261 E17.31179
G1 X152.179 Y84.108 E17.36974
G1 X152.564 Y84.636 E17.40234
G1 X153.151 Y85.609 E17.45903
G1 X153.431 Y86.237 E17.49334
G1 X153.792 Y87.287 E17.54873
G1 X153.938 Y87.965 E17.58333
G1 X154.068 Y89.008 E17.63577
G1 X154.072 Y89.753 E17.67294
G1 X153.963 Y91.017 E17.73624
G1 X153.68 Y92.232 E17.79848
G1 X153.092 Y94.89 E17.93429
G1 X152.575 Y97.591 E18.07149
G1 X152.138 Y100.285 E18.20765
G1 X151.778 Y102.985 E18.34355
G1 X151.495 Y105.667 E18.47809
G1 X151.285 Y108.427 E18.61619
G1 X151.157 Y111.103 E18.74985
G1 X151.1 Y114.448 E18.91675
G1 X151.1 Y120.584 E19.22288
G1 X151.14 Y123.364 E19.36159
G1 X151.255 Y126.081 E19.49726
G1 X151.448 Y128.805 E19.6335
G1 X151.715 Y131.497 E19.76847
G1 X152.063 Y134.221 E19.90547
G1 X152.484 Y136.899 E20.04072
G1 X152.98 Y139.571 E20.1763
G1 X153.555 Y142.244 E20.31271
G1 X153.907 Y143.725 E20.38866
G1 X154.071 Y145.076 E20.45655
G1 X154.073 Y145.75 E20.49018
G1 X153.984 Y146.798 E20.54265
G1 X153.834 Y147.524 E20.57964
G1 X153.526 Y148.541 E20.63265
G1 X153.249 Y149.176 E20.66722
G1 X152.722 Y150.137 E20.7219
G1 X152.286 Y150.744 E20.75918
G1 X151.571 Y151.566 E20.81353
G1 X151.058 Y152.03 E20.84804
G1 X150.142 Y152.718 E20.9052
G1 X149.597 Y153.034 E20.93663
G1 X148.549 Y153.522 E20.9943
G1 X147.909 Y153.731 E21.02789
G1 X146.868 Y153.972 E21.0812
G1 X146.19 Y154.049 E21.11525
G1 X145.026 Y154.069 E21.17333
G1 X144.366 Y154 E21.20643
G1 X143.555 Y153.844 E21.24764
G1 X142.119 Y153.518 E21.3211
G1 X139.41 Y152.941 E21.45929
G1 X136.74 Y152.45 E21.59473
G1 X134.071 Y152.038 E21.72946
G1 X131.335 Y151.693 E21.86704
G1 X128.613 Y151.429 E22.00348
G1 X125.918 Y151.243 E22.13825
G1 X123.202 Y151.134 E22.27386
G1 X120.613 Y151.1 E22.40304
G1 X114.332 Y151.1 E22.7164
G1 X111.546 Y151.14 E22.85541
G1 X108.829 Y151.255 E22.99108
G1 X106.097 Y151.449 E23.12773
G1 X103.411 Y151.715 E23.26239
G1 X100.688 Y152.063 E23.39934
G1 X97.998 Y152.486 E23.5352
G1 X95.319 Y152.984 E23.67114
G1 X92.346 Y153.629 E23.82292
G1 X90.863 Y153.974 E23.89888
G1 X90.185 Y154.049 E23.93291
G1 X89.026 Y154.069 E23.99074
G1 X88.366 Y154 E24.02385
G1 X87.253 Y153.784 E24.08041
G1 X86.635 Y153.584 E24.11282
G1 X85.628 Y153.157 E24.16739
G1 X84.99 Y152.794 E24.20401
G1 X84.076 Y152.15 E24.25979
G1 X83.616 Y151.739 E24.29057
G1 X82.821 Y150.892 E24.34852
G1 X82.436 Y150.364 E24.38112
G1 X81.849 Y149.391 E24.43782
G1 X81.569 Y148.763 E24.47212
G1 X81.208 Y147.713 E24.52752
G1 X81.062 Y147.033 E24.56221
G1 X80.929 Y145.936 E24.61734
G1 X80.927 Y145.282 E24.64997
G1 X81.05 Y143.908 E24.7188
G1 X81.32 Y142.766 E24.77734
G1 X81.908 Y140.11 E24.91306
G1 X82.425 Y137.409 E25.05026
G1 X82.862 Y134.715 E25.18642
G1 X83.222 Y132.015 E25.32231
G1 X83.505 Y129.333 E25.45686
G1 X83.715 Y126.573 E25.59496
G1 X83.843 Y123.897 E25.72862
G1 X83.9 Y120.552 E25.89552
G1 X83.9 Y114.416 E26.20165
G1 X83.86 Y111.625 E26.34091
G1 X83.745 Y108.919 E26.47603
G1 X83.551 Y106.184 E26.61282
G1 X83.285 Y103.501 E26.74734
G1 X82.937 Y100.779 E26.88424
G1 X82.514 Y98.089 E27.0201
G1 X82.018 Y95.418 E27.15563
G1 X81.443 Y92.747 E27.29194
G1 X81.093 Y91.276 E27.36738
G1 X80.928 Y89.916 E27.43573
G1 X80.927 Y89.282 E27.46736
G1 X81.028 Y88.129 E27.5251
G1 X81.167 Y87.473 E27.55856
G1 X81.483 Y86.437 E27.61259
G1 X81.752 Y85.822 E27.64608
G1 X82.312 Y84.808 E27.70387
G1 X82.713 Y84.256 E27.73791
G1 X83.396 Y83.466 E27.79001
G0 F3600 X83.093 Y83.204
G1 F2100 X83.701 Y82.651 E27.83102
G1 X84.62 Y81.96 E27.88838
G1 X85.265 Y81.587 E27.92555
G1 X86.266 Y81.121 E27.98064
G1 X86.965 Y80.889 E28.01738
G1 X88.069 Y80.632 E28.07393
G1 X88.767 Y80.553 E28.10898
G1 X90.016 Y80.533 E28.1713
G1 X90.71 Y80.607 E28.20612
G1 X91.534 Y80.766 E28.24799
G1 X92.97 Y81.092 E28.32145
G1 X95.675 Y81.668 E28.45943
G1 X98.321 Y82.155 E28.59366
G1 X100.979 Y82.565 E28.72784
G1 X103.715 Y82.91 E28.86542
G1 X106.417 Y83.172 E29.00085
G1 X109.098 Y83.357 E29.13493
G1 X111.814 Y83.466 E29.27054
G1 X114.392 Y83.5 E29.39916
G1 X120.662 Y83.5 E29.71198
G1 X123.437 Y83.46 E29.85044
G1 X126.154 Y83.345 E29.98611
G1 X128.872 Y83.152 E30.12205
G1 X131.538 Y82.888 E30.25571
G1 X134.261 Y82.54 E30.39267
G1 X136.94 Y82.119 E30.52796
G1 X139.596 Y81.625 E30.66274
G1 X142.563 Y80.981 E30.81421
G1 X144.046 Y80.636 E30.89018
G1 X144.771 Y80.553 E30.92658
G1 X146.016 Y80.533 E30.9887
G1 X146.71 Y80.607 E31.02352
G1 X147.87 Y80.835 E31.0825
G1 X148.488 Y81.035 E31.11491
G1 X149.57 Y81.495 E31.17357
G1 X150.208 Y81.858 E31.21019
G1 X151.191 Y82.552 E31.27022
G1 X151.676 Y82.987 E31.30273
G1 X152.471 Y83.834 E31.36068
G1 X152.887 Y84.4 E31.39572
G1 X153.516 Y85.446 E31.45662
G1 X153.809 Y86.107 E31.49269
G1 X154.183 Y87.203 E31.55047
G1 X154.335 Y87.916 E31.58684
G1 X154.468 Y89.006 E31.64162
G1 X154.471 Y89.787 E31.68059
G1 X154.353 Y91.108 E31.74675
G1 X154.07 Y92.323 E31.80899
G1 X153.483 Y94.976 E31.94455
G1 X152.968 Y97.666 E32.08119
G1 X152.533 Y100.349 E32.2168
G1 X152.176 Y103.027 E32.35158
G1 X151.893 Y105.709 E32.48613
G1 X151.684 Y108.457 E32.62363
G1 X151.557 Y111.122 E32.75674
G1 X151.5 Y114.455 E32.92304
G1 X151.5 Y120.584 E33.22882
G1 X151.54 Y123.347 E33.36668
G1 X151.655 Y126.064 E33.50236
G1 X151.846 Y128.766 E33.6375
G1 X152.112 Y131.446 E33.77186
G1 X152.46 Y134.17 E33.90886
G1 X152.877 Y136.826 E34.04299
G1 X153.371 Y139.487 E34.17802
G1 X153.944 Y142.152 E34.31402
G1 X154.304 Y143.677 E34.39219
G1 X154.471 Y145.075 E34.46243
G1 X154.472 Y145.784 E34.49781
G1 X154.383 Y146.832 E34.55028
G1 X154.217 Y147.64 E34.59143
G1 X153.893 Y148.701 E34.64678
G1 X153.616 Y149.336 E34.68134
G1 X153.073 Y150.329 E34.73781
G1 X152.588 Y151.007 E34.77939
G1 X151.873 Y151.829 E34.83375
G1 X151.298 Y152.35 E34.87246
G1 X150.343 Y153.064 E34.93195
G1 X149.766 Y153.397 E34.96518
G1 X148.718 Y153.885 E35.02286
G1 X147.999 Y154.121 E35.06061
G1 X146.958 Y154.362 E35.11392
G1 X146.197 Y154.449 E35.15214
G1 X144.984 Y154.467 E35.21266
G1 X144.29 Y154.393 E35.24748
G1 X143.466 Y154.234 E35.28935
G1 X142.03 Y153.908 E35.36281
G1 X139.327 Y153.332 E35.50069
G1 X136.679 Y152.845 E35.63502
G1 X134.021 Y152.435 E35.7692
G1 X131.285 Y152.09 E35.90678
G1 X128.583 Y151.828 E36.04221
G1 X125.902 Y151.643 E36.17629
G1 X123.186 Y151.534 E36.3119
G1 X120.608 Y151.5 E36.44053
G1 X114.338 Y151.5 E36.75334
G1 X111.563 Y151.54 E36.8918
G1 X108.846 Y151.655 E37.02747
G1 X106.128 Y151.848 E37.16341
G1 X103.462 Y152.112 E37.29707
G1 X100.739 Y152.46 E37.43403
G1 X98.06 Y152.881 E37.56932
G1 X95.404 Y153.375 E37.7041
G1 X92.437 Y154.019 E37.85557
G1 X90.954 Y154.364 E37.93154
G1 X90.229 Y154.447 E37.96794
G1 X88.984 Y154.467 E38.03007
G1 X88.29 Y154.393 E38.06489
G1 X87.13 Y154.165 E38.12387
G1 X86.512 Y153.965 E38.15627
G1 X85.43 Y153.505 E38.21493
G1 X84.792 Y153.142 E38.25155
G1 X83.809 Y152.448 E38.31158
G1 X83.324 Y152.013 E38.34409
G1 X82.529 Y151.166 E38.40204
G1 X82.113 Y150.6 E38.43709
G1 X81.484 Y149.554 E38.49798
G1 X81.191 Y148.893 E38.53405
G1 X80.817 Y147.797 E38.59183
G1 X80.665 Y147.081 E38.62834
G1 X80.529 Y145.937 E38.68582
G1 X80.527 Y145.283 E38.71845
G1 X80.661 Y143.816 E38.79194
G1 X80.929 Y142.68 E38.85017
G1 X81.517 Y140.024 E38.98589
G1 X82.032 Y137.334 E39.12253
G1 X82.467 Y134.651 E39.25814
G1 X82.824 Y131.973 E39.39292
G1 X83.107 Y129.291 E39.52747
G1 X83.316 Y126.543 E39.66497
G1 X83.443 Y123.878 E39.79807
G1 X83.5 Y120.545 E39.96438
G1 X83.5 Y114.416 E40.27016
G1 X83.46 Y111.631 E40.40912
G1 X83.345 Y108.936 E40.5437
G1 X83.152 Y106.212 E40.67994
G1 X82.888 Y103.552 E40.8133
G1 X82.54 Y100.83 E40.9502
G1 X82.119 Y98.151 E41.0855
G1 X81.625 Y95.491 E41.22048
G1 X81.052 Y92.831 E41.35623
G1 X80.704 Y91.369 E41.43121
G1 X80.528 Y89.917 E41.50418
G1 X80.527 Y89.283 E41.53581
G1 X80.637 Y88.046 E41.59776
G1 X80.784 Y87.356 E41.63296
G1 X81.1 Y86.32 E41.687
G1 X81.402 Y85.629 E41.72462
G1 X81.988 Y84.573 E41.78487
G1 X82.41 Y83.994 E41.82062
G1 X83.093 Y83.204 E41.87272
G1 F1500 E40.87272
;MESH:square_tower (1).stl
G0 F3600 X91.319 Y92.501
G0 X91.672 Y91.672
G0 X115.672 Y91.672
G0 X119.328 Y91.172
G0 X143.328 Y91.672
G0 X143.328 Y115.672
G0 X143.828 Y119.328
G0 X143.328 Y143.328
G0 X119.328 Y143.328
G0 X119.1 Y143.8
;TYPE:WALL-INNER
G1 F1500 E41.87272
G1 F2100 X118.825 Y143.947 E41.88828
G1 X118.618 Y144 E41.89894
G1 X116.5 Y144 E42.0046
G1 X116.175 Y143.947 E42.02103
G1 X115.9 Y143.8 E42.03659
G1 X115.75 Y143.5 E42.05332
G1 X92.5 Y143.5 E43.21327
G1 X92.081 Y143.409 E43.23466
G1 X91.864 Y143.273 E43.24744
G1 X91.598 Y142.934 E43.26894
G1 X91.5 Y142.629 E43.28492
G1 X91.5 Y115.25 E44.65086
G1 X91.2 Y115.1 E44.6676
G1 X91.053 Y114.825 E44.68315
G1 X91 Y114.618 E44.69381
G1 X91 Y112.5 E44.79948
G1 X91.053 Y112.175 E44.81591
G1 X91.2 Y111.9 E44.83147
G1 X91.5 Y111.75 E44.8482
G1 X91.5 Y92.371 E45.81502
G1 X91.598 Y92.066 E45.83101
G1 X91.864 Y91.727 E45.8525
G1 X92.082 Y91.591 E45.86532
G1 X92.5 Y91.5 E45.88666
G1 X115.75 Y91.5 E47.04661
G1 X115.9 Y91.2 E47.06335
G1 X116.175 Y91.053 E47.0789
G1 X116.382 Y91 E47.08956
G1 X118.5 Y91 E47.19523
G1 X118.825 Y91.053 E47.21166
G1 X119.1 Y91.2 E47.22722
G1 X119.25 Y91.5 E47.24395
G1 X142.5 Y91.5 E48.4039
G1 X142.741 Y91.529 E48.41601
G1 X143.066 Y91.674 E48.43376
G1 X143.281 Y91.873 E48.44838
G1 X143.402 Y92.066 E48.45974
G1 X143.5 Y92.367 E48.47554
G1 X143.5 Y115.75 E49.64212
G1 X143.8 Y115.9 E49.65885
G1 X143.947 Y116.175 E49.67441
G1 X144 Y116.5 E49.69084
G1 X144 Y118.618 E49.7965
G1 X143.947 Y118.825 E49.80716
G1 X143.8 Y119.1 E49.82272
G1 X143.5 Y119.25 E49.83946
G1 X143.5 Y142.5 E50.9994
G1 X143.448 Y142.82 E51.01558
