;FLAVOR:Marlin
;TIME:1582
;Filament used: 1.75853m
;Layer height: 0.15
;MINX:108.9
;MINY:70.225
;MINZ:0.3
;MAXX:155.3
;MAXY:166.184
;MAXZ:5.55
;POSTPROCESSED
;Generated with Cura_SteamEngine 5.3.1
M140 S45
M105
M190 S45
M104 S200
M105
M109 S200
M82 ;absolute extrusion mode
G90
G92 E0 ; Reset Extruder
G28 ; Home all axes
BED_MESH_CALIBRATE
G1 Z2.0 F3000
G1 X5.1 Y20 Z0.3 F5000.0
G1 X5.1 Y200.0 Z0.3 F1500.0 E15
G1 X5.4 Y200.0 Z0.3 F5000.0
G1 X5.4 Y20 Z0.3 F1500.0 E30
G92 E0
G1 Z2.0 F3000
G1 X5 Y20 Z0.3 F5000.0
G92 E0
G92 E0
G1 F1500 E-1
;LAYER_COUNT:36
;LAYER:0
M107
M204 S1000
G0 F3600 X109.558 Y71.503 Z0.3
;TYPE:SKIRT
G1 F1500 E0
G1 F2100 X109.894 Y71.126 E0.02519
G1 X110.285 Y70.805 E0.05043
G1 X110.722 Y70.551 E0.07565
G1 X111.193 Y70.368 E0.10086
G1 X111.688 Y70.262 E0.12612
G1 X112.13 Y70.226 E0.14824
G1 X115.68 Y70.225 E0.32535
G1 X116.386 Y70.235 E0.36058
G1 X117.616 Y70.286 E0.42199
G1 X118.087 Y70.313 E0.44553
G1 X120.837 Y70.394 E0.58279
G1 X123.555 Y70.396 E0.71839
G1 X126.315 Y70.321 E0.85614
G1 X128.235 Y70.226 E0.95204
G1 X135.438 Y70.225 E1.3114
G1 X136.144 Y70.235 E1.34663
G1 X137.667 Y70.295 E1.42267
G1 X138.697 Y70.345 E1.47412
G1 X141.418 Y70.401 E1.6099
G1 X144.156 Y70.379 E1.7465
G1 X147.439 Y70.252 E1.91041
G1 X148.843 Y70.225 E1.98047
G1 X151.439 Y70.225 E2.10999
G1 X152.137 Y70.235 E2.14482
G1 X152.64 Y70.282 E2.17002
G1 X153.13 Y70.408 E2.19526
G1 X153.594 Y70.61 E2.22051
G1 X154.02 Y70.882 E2.24572
G1 X154.398 Y71.217 E2.27092
G1 X154.718 Y71.608 E2.29613
G1 X154.973 Y72.045 E2.32137
G1 X155.156 Y72.516 E2.34658
G1 X155.263 Y73.01 E2.3718
G1 X155.299 Y73.665 E2.40453
G1 X155.3 Y87.642 E3.10184
G1 X155.29 Y88.37 E3.13817
G1 X155.254 Y88.911 E3.16522
G1 X154.918 Y91.928 E3.31667
G1 X154.686 Y94.69 E3.45495
G1 X154.535 Y97.406 E3.59066
G1 X154.46 Y100.157 E3.72796
G1 X154.462 Y102.877 E3.86366
G1 X154.543 Y105.628 E4.00097
G1 X154.701 Y108.373 E4.13814
G1 X154.934 Y111.07 E4.2732
G1 X155.248 Y113.845 E4.41253
G1 X155.291 Y114.487 E4.44463
G1 X155.298 Y115.131 E4.47676
G1 X155.287 Y115.86 E4.51313
G1 X155.214 Y118.488 E4.64429
G1 X155.214 Y121.196 E4.7794
G1 X155.279 Y123.406 E4.8897
G1 X155.291 Y124.611 E4.94982
G1 X155.227 Y125.502 E4.99439
G1 X155.013 Y126.856 E5.06278
G1 X154.626 Y129.549 E5.19851
G1 X154.31 Y132.292 E5.33627
G1 X154.076 Y134.995 E5.47162
G1 X153.917 Y137.746 E5.6091
G1 X153.835 Y140.498 E5.74646
G1 X153.831 Y143.217 E5.88211
G1 X153.905 Y145.967 E6.01936
G1 X154.055 Y148.681 E6.15497
G1 X154.285 Y151.431 E6.29265
G1 X154.588 Y154.13 E6.42815
G1 X155.029 Y157.224 E6.58407
G1 X155.209 Y158.35 E6.64096
G1 X155.288 Y159.264 E6.68672
G1 X155.292 Y160.053 E6.72609
G1 X155.237 Y160.737 E6.76032
G1 X155.147 Y161.278 E6.78769
G1 X155.022 Y161.765 E6.81277
G1 X154.837 Y162.289 E6.84049
G1 X154.617 Y162.775 E6.86711
G1 X154.34 Y163.266 E6.89523
G1 X154.051 Y163.687 E6.92071
G1 X153.696 Y164.118 E6.94857
G1 X153.316 Y164.505 E6.97563
G1 X152.883 Y164.874 E7.00401
G1 X152.468 Y165.168 E7.02938
G1 X151.996 Y165.445 E7.05669
G1 X151.514 Y165.675 E7.08333
G1 X150.767 Y165.956 E7.12315
G1 X149.976 Y166.104 E7.1633
G1 X149.29 Y166.171 E7.19768
G1 X148.399 Y166.184 E7.24214
G1 X115.761 Y166.184 E8.87046
G1 X115.066 Y166.174 E8.90514
G1 X114.351 Y166.122 E8.9409
G1 X113.822 Y166.034 E8.96766
G1 X113.309 Y165.903 E8.99407
G1 X112.77 Y165.712 E9.0226
G1 X112.302 Y165.498 E9.04827
G1 X111.817 Y165.223 E9.07609
G1 X111.37 Y164.915 E9.10317
G1 X110.749 Y164.399 E9.14345
G1 X110.239 Y163.802 E9.18263
G1 X109.927 Y163.368 E9.20929
G1 X109.635 Y162.875 E9.23788
G1 X109.409 Y162.4 E9.26412
G1 X109.216 Y161.881 E9.29175
G1 X109.078 Y161.384 E9.31748
G1 X108.975 Y160.823 E9.34594
G1 X108.914 Y160.163 E9.37901
G1 X108.909 Y159.349 E9.41962
G1 X108.974 Y158.453 E9.46444
G1 X109.188 Y157.111 E9.53223
G1 X109.574 Y154.419 E9.66791
G1 X109.89 Y151.676 E9.80567
G1 X110.124 Y148.973 E9.94102
G1 X110.283 Y146.222 E10.0785
G1 X110.365 Y143.47 E10.21586
G1 X110.369 Y140.751 E10.35151
G1 X110.295 Y138.001 E10.48876
G1 X110.145 Y135.286 E10.62442
G1 X109.915 Y132.537 E10.76205
G1 X109.612 Y129.837 E10.89759
G1 X109.168 Y126.726 E11.05438
G1 X108.991 Y125.616 E11.11045
G1 X108.912 Y124.708 E11.15592
G1 X108.907 Y124.148 E11.18386
G1 X108.984 Y121.234 E11.32929
G1 X108.984 Y118.498 E11.46579
G1 X108.952 Y117.514 E11.51491
G1 X108.904 Y114.88 E11.64635
G1 X108.922 Y114.145 E11.68303
G1 X109.282 Y110.917 E11.84507
G1 X109.514 Y108.16 E11.9831
G1 X109.665 Y105.444 E12.11881
G1 X109.74 Y102.693 E12.25611
G1 X109.738 Y99.973 E12.39181
G1 X109.657 Y97.222 E12.52912
G1 X109.499 Y94.476 E12.66635
G1 X109.269 Y91.807 E12.8
G1 X108.96 Y89.09 E12.93642
G1 X108.91 Y88.471 E12.96741
G1 X108.9 Y87.638 E13.00897
G1 X108.9 Y74.051 E13.68682
G1 X108.91 Y73.386 E13.72001
G1 X108.958 Y72.883 E13.74521
G1 X109.084 Y72.393 E13.77046
G1 X109.286 Y71.929 E13.7957
G1 X109.558 Y71.503 E13.82092
G1 F1500 E12.82092
;MESH:Z-SpacerSide_v2.STL
G0 F3600 X136.622 Y72.797
G0 X145.588 Y73.769
G0 X146.398 Y74.486
G0 X151.1 Y74.425
;TYPE:WALL-INNER
G1 F1500 E13.82092
G1 F2100 X147.945 Y74.425 E13.97832
G1 X147.425 Y74.547 E14.00497
G1 X146.859 Y74.844 E14.03686
G1 X146.46 Y75.294 E14.06686
G1 X146.238 Y75.72 E14.09083
G1 X146.1 Y76.293 E14.12024
G1 X146.1 Y85.584 E14.58377
G1 X145.999 Y85.866 E14.59871
G1 X145.884 Y86.046 E14.60937
G1 X145.68 Y86.241 E14.62345
G1 X145.49 Y86.347 E14.6343
G1 X145.132 Y86.425 E14.65258
G1 X139.01 Y86.425 E14.95801
G1 X138.628 Y86.308 E14.97794
G1 X138.446 Y86.182 E14.98898
G1 X138.248 Y85.951 E15.00416
G1 X138.128 Y85.662 E15.01977
G1 X138.102 Y85.491 E15.0284
G1 X138.1 Y76.459 E15.47901
G1 X138.015 Y75.858 E15.50929
G1 X137.776 Y75.339 E15.5378
G1 X137.403 Y74.912 E15.56609
G1 X136.924 Y74.607 E15.59442
G1 X136.302 Y74.425 E15.62675
G1 X127.898 Y74.425 E16.04603
G1 X127.276 Y74.607 E16.07836
G1 X126.797 Y74.912 E16.10669
G1 X126.424 Y75.339 E16.13498
G1 X126.186 Y75.858 E16.16346
G1 X126.1 Y76.464 E16.194
G1 X126.101 Y85.425 E16.64107
G1 X126.028 Y85.8 E16.66013
G1 X125.872 Y86.062 E16.67534
G1 X125.607 Y86.288 E16.69271
G1 X125.406 Y86.378 E16.7037
G1 X125.1 Y86.425 E16.71915
G1 X119.08 Y86.425 E17.01949
G1 X118.727 Y86.354 E17.03745
G1 X118.534 Y86.251 E17.04836
G1 X118.315 Y86.046 E17.06333
G1 X118.126 Y85.654 E17.08504
G1 X118.1 Y85.425 E17.09654
G1 X118.1 Y76.293 E17.55214
G1 X117.963 Y75.72 E17.58153
G1 X117.682 Y75.186 E17.61163
G1 X117.231 Y74.785 E17.64174
G1 X116.776 Y74.547 E17.66736
G1 X116.255 Y74.425 E17.69406
G1 X113.1 Y74.425 E17.85146
G1 X113.1 Y88.289 E18.54314
G1 X113.131 Y88.652 E18.56131
G1 X113.217 Y88.989 E18.57867
G1 X113.347 Y89.281 E18.59461
G1 X113.537 Y89.568 E18.61178
G1 X113.767 Y89.813 E18.62855
G1 X114.702 Y90.529 E18.6873
G1 X115.392 Y91.288 E18.73848
G1 X116.01 Y92.192 E18.79311
G1 X116.57 Y93.286 E18.85443
G1 X117.005 Y94.378 E18.91307
G1 X117.412 Y95.725 E18.98327
G1 X117.7 Y97.018 E19.04936
G1 X117.93 Y98.513 E19.12482
G1 X118.056 Y99.924 E19.1955
G1 X118.101 Y101.468 E19.27256
G1 X118.05 Y103.005 E19.34929
G1 X117.916 Y104.454 E19.42189
G1 X117.703 Y105.814 E19.49056
G1 X117.386 Y107.23 E19.56296
G1 X116.987 Y108.517 E19.63018
G1 X116.553 Y109.599 E19.68834
G1 X115.99 Y110.692 E19.74968
G1 X115.37 Y111.597 E19.80441
G1 X114.676 Y112.341 E19.85517
G1 X113.767 Y113.037 E19.91229
G1 X113.537 Y113.282 E19.92905
G1 X113.347 Y113.569 E19.94623
G1 X113.217 Y113.86 E19.96213
G1 X113.1 Y114.318 E19.98571
G1 X113.101 Y115.53 E20.04618
G1 X113.238 Y115.921 E20.06685
G1 X113.46 Y116.186 E20.08409
G1 X113.765 Y116.363 E20.10169
G1 X114.148 Y116.425 E20.12104
G1 X150.052 Y116.425 E21.9123
G1 X150.435 Y116.363 E21.93166
G1 X150.74 Y116.186 E21.94925
G1 X150.962 Y115.922 E21.96646
G1 X151.1 Y115.531 E21.98715
G1 X151.1 Y114.318 E22.04766
G1 X150.983 Y113.86 E22.07125
G1 X150.853 Y113.569 E22.08715
G1 X150.663 Y113.281 E22.10436
G1 X150.433 Y113.037 E22.12109
G1 X149.499 Y112.321 E22.1798
G1 X148.805 Y111.562 E22.23111
G1 X148.189 Y110.656 E22.28577
G1 X147.631 Y109.563 E22.347
G1 X147.167 Y108.39 E22.40993
G1 X146.788 Y107.125 E22.47581
G1 X146.499 Y105.826 E22.54221
G1 X146.269 Y104.332 E22.61762
G1 X146.144 Y102.921 E22.68829
G1 X146.1 Y101.368 E22.7658
G1 X146.148 Y99.872 E22.84047
G1 X146.277 Y98.46 E22.91121
G1 X146.497 Y97.036 E22.9831
G1 X146.801 Y95.674 E23.05272
G1 X147.213 Y94.333 E23.12271
G1 X147.649 Y93.246 E23.18114
G1 X148.228 Y92.134 E23.24369
G1 X148.83 Y91.253 E23.29692
G1 X149.526 Y90.507 E23.34783
G1 X150.433 Y89.813 E23.4048
G1 X150.663 Y89.568 E23.42157
G1 X150.852 Y89.281 E23.43871
G1 X150.982 Y88.988 E23.4547
G1 X151.068 Y88.654 E23.47191
G1 X151.1 Y88.281 E23.49059
G1 X151.1 Y74.425 E24.18187
G0 F3600 X151.5 Y74.025
G1 F2100 X147.909 Y74.025 E24.36102
G1 X147.271 Y74.176 E24.39373
G1 X146.72 Y74.465 E24.42477
G1 X146.53 Y74.613 E24.43679
G1 X146.128 Y75.065 E24.46697
G1 X145.86 Y75.578 E24.49584
G1 X145.7 Y76.246 E24.53011
G1 X145.7 Y85.532 E24.99339
G1 X145.571 Y85.798 E25.00814
G1 X145.448 Y85.915 E25.01661
G1 X145.21 Y86.025 E25.02969
G1 X139.022 Y86.021 E25.33841
G1 X138.734 Y85.902 E25.35396
G1 X138.589 Y85.741 E25.36477
G1 X138.501 Y85.531 E25.37613
G1 X138.5 Y76.444 E25.82948
G1 X138.399 Y75.745 E25.86472
G1 X138.113 Y75.123 E25.89887
G1 X137.666 Y74.609 E25.93286
G1 X137.401 Y74.411 E25.94936
G1 X136.777 Y74.125 E25.98361
G1 X136.074 Y74.025 E26.01903
G1 X128.126 Y74.025 E26.41556
G1 X127.423 Y74.125 E26.45098
G1 X126.799 Y74.411 E26.48523
G1 X126.534 Y74.609 E26.50173
G1 X126.087 Y75.123 E26.53572
G1 X125.801 Y75.745 E26.56987
G1 X125.726 Y76.091 E26.58754
G1 X125.7 Y76.45 E26.60549
G1 X125.7 Y85.457 E27.05485
G1 X125.657 Y85.65 E27.06472
G1 X125.564 Y85.807 E27.07382
G1 X125.404 Y85.943 E27.0843
G1 X125.1 Y86.025 E27.10001
G1 X118.994 Y86.025 E27.40464
G1 X118.76 Y85.921 E27.41741
G1 X118.629 Y85.798 E27.42638
G1 X118.5 Y85.532 E27.44113
G1 X118.5 Y76.246 E27.90441
G1 X118.34 Y75.579 E27.93863
G1 X118.058 Y75.042 E27.96889
G1 X117.912 Y74.855 E27.98072
G1 X117.46 Y74.453 E28.0109
G1 X116.93 Y74.176 E28.04074
G1 X116.291 Y74.025 E28.0735
G1 X112.7 Y74.025 E28.25265
G1 X112.7 Y88.305 E28.96508
G1 X112.735 Y88.719 E28.98581
G1 X112.838 Y89.121 E29.00652
G1 X112.995 Y89.474 E29.02579
G1 X113.222 Y89.817 E29.04631
G1 X113.497 Y90.111 E29.0664
G1 X114.431 Y90.825 E29.12505
G1 X115.078 Y91.536 E29.17301
G1 X115.685 Y92.434 E29.22709
G1 X116.174 Y93.381 E29.28026
G1 X116.633 Y94.526 E29.3418
G1 X117.021 Y95.812 E29.40882
G1 X117.317 Y97.144 E29.47689
G1 X117.527 Y98.509 E29.54579
G1 X117.657 Y99.959 E29.61842
G1 X117.701 Y101.461 E29.69339
G1 X117.653 Y102.942 E29.76732
G1 X117.52 Y104.392 E29.83996
G1 X117.3 Y105.791 E29.91062
G1 X117.001 Y107.121 E29.97863
G1 X116.632 Y108.321 E30.04126
G1 X116.157 Y109.503 E30.10481
G1 X115.626 Y110.516 E30.16188
G1 X115.059 Y111.344 E30.21194
G1 X114.405 Y112.044 E30.25974
G1 X113.497 Y112.739 E30.31678
G1 X113.222 Y113.033 E30.33687
G1 X112.995 Y113.376 E30.35739
G1 X112.838 Y113.728 E30.37662
G1 X112.735 Y114.13 E30.39732
G1 X112.7 Y114.552 E30.41845
G1 X112.701 Y115.583 E30.46988
G1 X112.89 Y116.122 E30.49838
G1 X113.202 Y116.494 E30.5226
G1 X113.403 Y116.635 E30.53485
G1 X113.92 Y116.825 E30.56233
G1 X150.28 Y116.825 E32.37634
G1 X150.797 Y116.635 E32.40382
G1 X151.169 Y116.323 E32.42804
G1 X151.415 Y115.895 E32.45267
G1 X151.5 Y115.583 E32.4688
G1 X151.5 Y114.267 E32.53446
G1 X151.362 Y113.728 E32.56222
G1 X151.205 Y113.376 E32.58145
G1 X150.978 Y113.033 E32.60197
G1 X150.702 Y112.739 E32.62208
G1 X149.771 Y112.026 E32.68059
G1 X149.097 Y111.28 E32.73075
G1 X148.515 Y110.416 E32.78272
G1 X148.026 Y109.468 E32.83594
G1 X147.567 Y108.324 E32.89743
G1 X147.19 Y107.081 E32.96224
G1 X146.882 Y105.7 E33.03283
G1 X146.672 Y104.335 E33.10173
G1 X146.543 Y102.885 E33.17436
G1 X146.5 Y101.381 E33.24942
G1 X146.547 Y99.908 E33.32295
G1 X146.675 Y98.496 E33.39368
G1 X146.9 Y97.059 E33.46625
G1 X147.191 Y95.761 E33.53261
G1 X147.568 Y94.529 E33.59689
G1 X148.045 Y93.341 E33.66076
G1 X148.538 Y92.395 E33.71398
G1 X149.14 Y91.507 E33.7675
G1 X149.796 Y90.807 E33.81536
G1 X150.702 Y90.111 E33.87236
G1 X150.978 Y89.817 E33.89248
G1 X151.204 Y89.474 E33.91297
G1 X151.362 Y89.12 E33.93231
G1 X151.464 Y88.72 E33.95291
G1 X151.5 Y88.298 E33.97404
G1 X151.5 Y74.025 E34.68612
G1 F1500 E33.68612
G0 F3600 X151.23 Y74.295
G0 X147.959 Y74.586
G0 X146.962 Y74.973
G0 X146.39 Y75.776
G0 X145.527 Y80.039
G0 X145.528 Y85.853
G0 X139.754 Y85.854
G0 X138.989 Y86.625
G0 X136.346 Y92.417
G0 X137.348 Y96.134
G0 X137.625 Y97.508
G0 X137.815 Y98.943
G0 X137.919 Y100.417
G0 X137.935 Y101.906
G0 X137.862 Y103.389
G0 X137.701 Y104.84
G0 X137.456 Y106.238
G0 X137.126 Y107.561
G0 X136.718 Y108.789
G0 X136.232 Y109.904
G0 X135.674 Y110.891
G0 X135.044 Y111.736
G0 X134.354 Y112.406
G0 X133.256 Y113.04
G0 X132.169 Y113.322
G0 X132.147 Y113.023
G1 F1500 E34.68612
G1 F2100 X131.647 Y112.987 E34.71113
G1 X131.081 Y112.844 E34.74026
G1 X130.524 Y112.584 E34.77092
G1 X129.926 Y112.161 E34.80747
G1 X129.267 Y111.496 E34.85418
G1 X128.642 Y110.625 E34.90766
G1 X128.111 Y109.653 E34.96292
G1 X127.65 Y108.551 E35.02251
G1 X127.26 Y107.338 E35.08608
G1 X126.951 Y106.053 E35.15202
G1 X126.715 Y104.661 E35.22246
G1 X126.563 Y103.183 E35.29658
G1 X126.502 Y101.756 E35.36784
G1 X126.528 Y100.244 E35.44329
G1 X126.642 Y98.781 E35.5165
G1 X126.835 Y97.41 E35.58557
G1 X127.115 Y96.064 E35.65416
G1 X127.492 Y94.75 E35.72236
G1 X127.908 Y93.649 E35.78108
G1 X128.412 Y92.616 E35.83842
G1 X129.006 Y91.687 E35.89344
G1 X129.645 Y90.946 E35.94225
G1 X130.269 Y90.43 E35.98265
G1 X130.839 Y90.105 E36.01538
G1 X131.37 Y89.914 E36.04354
G1 X131.879 Y89.831 E36.06927
G1 X132.433 Y89.845 E36.09692
G1 X132.897 Y89.934 E36.12049
G1 X133.425 Y90.134 E36.14865
G1 X133.998 Y90.473 E36.18187
G1 X134.631 Y91.023 E36.22371
G1 X135.268 Y91.786 E36.27329
G1 X135.849 Y92.725 E36.32838
G1 X136.343 Y93.768 E36.38596
G1 X136.771 Y94.943 E36.44835
G1 X137.121 Y96.214 E36.51412
G1 X137.384 Y97.525 E36.58083
G1 X137.579 Y98.981 E36.65412
G1 X137.679 Y100.405 E36.72534
G1 X137.696 Y101.919 E36.80088
G1 X137.624 Y103.377 E36.8737
G1 X137.464 Y104.823 E36.94629
G1 X137.216 Y106.211 E37.01663
G1 X136.888 Y107.521 E37.084
G1 X136.488 Y108.725 E37.1473
G1 X136.027 Y109.776 E37.20456
G1 X135.455 Y110.788 E37.26255
G1 X134.865 Y111.577 E37.3117
G1 X134.203 Y112.22 E37.35775
G1 X133.652 Y112.592 E37.39091
G1 X133.114 Y112.843 E37.42053
G1 X132.562 Y112.989 E37.44902
G1 X132.147 Y113.023 E37.46979
G0 F3600 X132.101 Y113.424
G1 F2100 X131.526 Y113.379 E37.49857
G1 X130.941 Y113.22 E37.52881
G1 X130.319 Y112.93 E37.56305
G1 X129.666 Y112.466 E37.60302
G1 X128.965 Y111.759 E37.65269
G1 X128.32 Y110.869 E37.70752
G1 X127.788 Y109.902 E37.76259
G1 X127.28 Y108.705 E37.82746
G1 X126.868 Y107.418 E37.89488
G1 X126.548 Y106.079 E37.96356
G1 X126.32 Y104.728 E38.03192
G1 X126.166 Y103.24 E38.10655
G1 X126.102 Y101.773 E38.17981
G1 X126.129 Y100.214 E38.2576
G1 X126.239 Y98.788 E38.32896
G1 X126.45 Y97.289 E38.40448
G1 X126.723 Y95.982 E38.47109
G1 X127.092 Y94.687 E38.53827
G1 X127.534 Y93.508 E38.60109
G1 X128.079 Y92.386 E38.66332
G1 X128.685 Y91.448 E38.71903
G1 X129.365 Y90.661 E38.77092
G1 X130.042 Y90.101 E38.81476
G1 X130.674 Y89.741 E38.85104
G1 X131.253 Y89.531 E38.88177
G1 X131.857 Y89.429 E38.91233
G1 X132.506 Y89.452 E38.94473
G1 X133.011 Y89.551 E38.97041
G1 X133.597 Y89.773 E39.00167
G1 X134.229 Y90.15 E39.03838
G1 X134.899 Y90.725 E39.08243
G1 X135.592 Y91.547 E39.13607
G1 X136.185 Y92.5 E39.19207
G1 X136.719 Y93.631 E39.25447
G1 X137.157 Y94.836 E39.31843
G1 X137.497 Y96.066 E39.3821
G1 X137.787 Y97.511 E39.45563
G1 X137.979 Y98.953 E39.52821
G1 X138.078 Y100.377 E39.59942
G1 X138.095 Y101.939 E39.67735
G1 X138.022 Y103.411 E39.75088
G1 X137.862 Y104.867 E39.82396
G1 X137.618 Y106.243 E39.89368
G1 X137.289 Y107.573 E39.96203
G1 X136.862 Y108.865 E40.02992
G1 X136.393 Y109.937 E40.0883
G1 X135.815 Y110.974 E40.14753
G1 X135.165 Y111.843 E40.20167
G1 X134.456 Y112.531 E40.25096
G1 X133.876 Y112.924 E40.28591
G1 X133.278 Y113.208 E40.31894
G1 X132.631 Y113.383 E40.35238
G1 X132.101 Y113.424 E40.3789
