;FLAVOR:Marlin
;TIME:1256
;Filament used: 1.5061m
;Layer height: 0.2
;MINX:31.244
;MINY:30.7
;MINZ:0.2
;MAXX:203.756
;MAXY:204.3
;MAXZ:0.4
;POSTPROCESSED
;Generated with Cura_SteamEngine 5.3.1
M82 ;absolute extrusion mode
G90
M117 ; Heating Bed
M140 S45 ; Set Heat Bed temperature
M117 ; Preheat e to 160 and Autohome
M104 S160; start warming extruder to 160
G92 E0 ; Reset Extruder
G28 ; Home all axes
BED_MESH_CALIBRATE PRINT_MIN=31.244,30.7 PRINT_MAX=203.756,204.3
G92 E0 ; Reset Extruder
G1 X0.1 Y.1 Z3.0 F5000.0 ; move to off the edge
M117 Heat E to temp
M104 S205 ; Set Extruder temperature
G1 X0.1 Y20 Z3.0 F5000.0 ; move to start-line position
M190 S45 ; Wait for Heat Bed temperature
M109 S205 ; Wait for Extruder temperature
G1 Z3.0 F3000 ; move z up little to prevent scratching of surface
G1 Z0.3 F3000 ; move z back down a bit
M117 Draw Line
G1 X0.1 Y200.0 Z0.3 F1500.0 E15 ; draw 1st line
G1 X0.4 Y200.0 Z0.3 F5000.0 ; move to side a little
G1 X0.4 Y20 Z0.3 F1500.0 E30 ; draw 2nd line
G92 E0 ; reset extruder
G1 Z2.0 F3000 ; move z up little to prevent scratching of surface
M117 Begin Print
; End of custom start GCode
G92 E0
G92 E0
G1 F1500 E-0.75
;LAYER_COUNT:2
;LAYER:0
M107
;MESH:Bed_Level_test_Speed_Print_Test_1.stl
G0 F3600 X91.25 Y71.248 Z0.2
;TYPE:WALL-OUTER
G1 F1500 E0
G1 F1690.1 X90.539 Y71.155 E0.02963
G1 F1693.5 X89.875 Y70.879 E0.05929
G1 F1690.1 X89.307 Y70.443 E0.08888
G1 X88.871 Y69.875 E0.11847
G1 F1693.5 X88.595 Y69.211 E0.14813
G1 F1690.1 X88.502 Y68.5 E0.17776
G1 X88.595 Y67.789 E0.20739
G1 F1693.5 X88.871 Y67.125 E0.23705
G1 F1690.1 X89.307 Y66.557 E0.26664
G1 X89.875 Y66.121 E0.29623
G1 F1693.5 X90.539 Y65.845 E0.32589
G1 X91.25 Y65.752 E0.35546
G1 F1690.1 X91.961 Y65.845 E0.3851
G1 X92.625 Y66.121 E0.41481
G1 X93.193 Y66.557 E0.4444
G1 X93.629 Y67.125 E0.47399
G1 F1686.7 X93.905 Y67.789 E0.50377
G1 F1690.1 X93.998 Y68.5 E0.5334
G1 X93.905 Y69.211 E0.56304
G1 X93.629 Y69.875 E0.59275
G1 X93.193 Y70.443 E0.62234
G1 X92.625 Y70.879 E0.65193
G1 F1686.7 X91.961 Y71.155 E0.68171
G1 X91.25 Y71.248 E0.7114
G0 F3600 X91.448 Y71.223
G0 X91.25 Y70.748
G1 F1686.7 X91.832 Y70.673 E0.7357
G1 X92.376 Y70.447 E0.7601
G1 F1690.1 X92.84 Y70.09 E0.78429
G1 X93.197 Y69.626 E0.80848
G1 X93.423 Y69.082 E0.83283
G1 X93.498 Y68.5 E0.85708
G1 X93.423 Y67.918 E0.88133
G1 F1686.7 X93.197 Y67.374 E0.90572
G1 F1690.1 X92.84 Y66.91 E0.92991
G1 X92.376 Y66.553 E0.95411
G1 X91.832 Y66.327 E0.97845
G1 X91.25 Y66.252 E1.0027
G1 F1693.5 X90.668 Y66.327 E1.0269
G1 X90.124 Y66.553 E1.0512
G1 F1690.1 X89.66 Y66.91 E1.07539
G1 X89.303 Y67.374 E1.09959
G1 F1693.5 X89.077 Y67.918 E1.12388
G1 F1690.1 X89.002 Y68.5 E1.14813
G1 X89.077 Y69.082 E1.17238
G1 F1693.5 X89.303 Y69.626 E1.19668
G1 F1690.1 X89.66 Y70.09 E1.22087
G1 X90.124 Y70.447 E1.24507
G1 F1693.5 X90.668 Y70.673 E1.26936
G1 F1690.1 X91.25 Y70.748 E1.29361
G0 F3600 X91.052 Y70.723
G1 F1500 E0.54361
G0 F3600 X91.02 Y70.973
G0 X89.961 Y70.731
G0 X70.981 Y93.211
G0 X68.75 Y97.248
G1 F1500 E1.29361
G1 F1690.1 X68.039 Y97.155 E1.32325
G1 F1693.5 X67.375 Y96.879 E1.3529
G1 F1690.1 X66.807 Y96.443 E1.38249
G1 X66.371 Y95.875 E1.41208
G1 F1693.5 X66.095 Y95.211 E1.44174
G1 F1690.1 X66.002 Y94.5 E1.47137
G1 X66.095 Y93.789 E1.50101
G1 F1693.5 X66.371 Y93.125 E1.53066
G1 F1690.1 X66.807 Y92.557 E1.56025
G1 X67.375 Y92.121 E1.58984
G1 F1693.5 X68.039 Y91.845 E1.6195
G1 X68.75 Y91.752 E1.64907
G1 F1690.1 X69.461 Y91.845 E1.67871
G1 X70.125 Y92.121 E1.70842
G1 X70.693 Y92.557 E1.73801
G1 X71.129 Y93.125 E1.76761
G1 F1686.7 X71.405 Y93.789 E1.79738
G1 F1690.1 X71.498 Y94.5 E1.82702
G1 X71.405 Y95.211 E1.85665
G1 X71.129 Y95.875 E1.88636
G1 X70.693 Y96.443 E1.91596
G1 X70.125 Y96.879 E1.94555
G1 F1686.7 X69.461 Y97.155 E1.97532
G1 X68.75 Y97.248 E2.00502
G0 F3600 X68.948 Y97.223
G0 X68.75 Y96.748
G1 F1686.7 X69.332 Y96.673 E2.02931
G1 X69.876 Y96.447 E2.05371
G1 F1690.1 X70.34 Y96.09 E2.0779
G1 X70.697 Y95.626 E2.1021
G1 X70.923 Y95.082 E2.12644
G1 X70.998 Y94.5 E2.15069
G1 X70.923 Y93.918 E2.17494
G1 F1686.7 X70.697 Y93.374 E2.19933
G1 F1690.1 X70.34 Y92.91 E2.22353
G1 X69.876 Y92.553 E2.24772
G1 X69.332 Y92.327 E2.27206
G1 X68.75 Y92.252 E2.29632
G1 F1693.5 X68.168 Y92.327 E2.32052
G1 X67.624 Y92.553 E2.34481
G1 F1690.1 X67.16 Y92.91 E2.36901
G1 X66.803 Y93.374 E2.3932
G1 F1693.5 X66.577 Y93.918 E2.4175
G1 F1690.1 X66.502 Y94.5 E2.44175
G1 X66.577 Y95.082 E2.466
G1 F1693.5 X66.803 Y95.626 E2.49029
G1 F1690.1 X67.16 Y96.09 E2.51448
G1 X67.624 Y96.447 E2.53868
G1 F1693.5 X68.168 Y96.673 E2.56297
G1 F1690.1 X68.75 Y96.748 E2.58722
G0 F3600 X68.552 Y96.723
G1 F1500 E1.83722
G0 F3600 X68.52 Y96.973
G0 X67.75 Y144.674
G0 X67.75 Y149.998
G1 F1500 E2.58722
G1 F1690.1 X67.039 Y149.905 E2.61686
G1 F1693.5 X66.375 Y149.629 E2.64651
G1 F1690.1 X65.807 Y149.193 E2.6761
G1 X65.371 Y148.625 E2.7057
G1 F1693.5 X65.095 Y147.961 E2.73535
G1 F1690.1 X65.002 Y147.25 E2.76499
G1 X65.095 Y146.539 E2.79462
G1 F1693.5 X65.371 Y145.875 E2.82427
G1 F1690.1 X65.807 Y145.307 E2.85387
G1 X66.375 Y144.871 E2.88346
G1 F1693.5 X67.039 Y144.595 E2.91311
G1 X67.75 Y144.502 E2.94269
G1 F1690.1 X68.461 Y144.595 E2.97232
G1 X69.125 Y144.871 E3.00204
G1 X69.693 Y145.307 E3.03163
G1 X70.129 Y145.875 E3.06122
G1 F1686.7 X70.405 Y146.539 E3.09099
G1 F1690.1 X70.498 Y147.25 E3.12063
G1 X70.405 Y147.961 E3.15026
G1 X70.129 Y148.625 E3.17998
G1 X69.693 Y149.193 E3.20957
G1 X69.125 Y149.629 E3.23916
G1 F1686.7 X68.461 Y149.905 E3.26893
G1 X67.75 Y149.998 E3.29863
G0 F3600 X67.948 Y149.973
G0 X67.75 Y149.498
G1 F1686.7 X68.332 Y149.423 E3.32293
G1 X68.876 Y149.197 E3.34732
G1 F1690.1 X69.34 Y148.84 E3.37151
G1 X69.697 Y148.376 E3.39571
G1 X69.923 Y147.832 E3.42005
G1 X69.998 Y147.25 E3.4443
G1 X69.923 Y146.668 E3.46855
G1 F1686.7 X69.697 Y146.124 E3.49295
G1 F1690.1 X69.34 Y145.66 E3.51714
G1 X68.876 Y145.303 E3.54133
G1 X68.332 Y145.077 E3.56568
G1 X67.75 Y145.002 E3.58993
G1 F1693.5 X67.168 Y145.077 E3.61413
G1 X66.624 Y145.303 E3.63842
G1 F1690.1 X66.16 Y145.66 E3.66262
G1 X65.803 Y146.124 E3.68681
G1 F1693.5 X65.577 Y146.668 E3.71111
G1 F1690.1 X65.502 Y147.25 E3.73536
G1 X65.577 Y147.832 E3.75961
G1 F1693.5 X65.803 Y148.376 E3.7839
G1 F1690.1 X66.16 Y148.84 E3.8081
G1 X66.624 Y149.197 E3.83229
G1 F1693.5 X67.168 Y149.423 E3.85659
G1 F1690.1 X67.75 Y149.498 E3.88084
G0 F3600 X67.552 Y149.473
G1 F1500 E3.13084
G0 F3600 X67.52 Y149.723
G0 X69.039 Y149.481
G0 X91.261 Y169.083
G0 X93.75 Y172.498
G1 F1500 E3.88084
G1 F1690.1 X93.039 Y172.405 E3.91047
G1 F1693.5 X92.375 Y172.129 E3.94013
G1 F1690.1 X91.807 Y171.693 E3.96972
G1 X91.371 Y171.125 E3.99931
G1 F1693.5 X91.095 Y170.461 E4.02896
G1 F1690.1 X91.002 Y169.75 E4.0586
G1 X91.095 Y169.039 E4.08823
G1 F1693.5 X91.371 Y168.375 E4.11789
G1 F1690.1 X91.807 Y167.807 E4.14748
G1 X92.375 Y167.371 E4.17707
G1 F1693.5 X93.039 Y167.095 E4.20673
G1 X93.75 Y167.002 E4.2363
G1 F1690.1 X94.461 Y167.095 E4.26593
G1 X95.125 Y167.371 E4.29565
G1 X95.693 Y167.807 E4.32524
G1 X96.129 Y168.375 E4.35483
G1 F1686.7 X96.405 Y169.039 E4.38461
G1 F1690.1 X96.498 Y169.75 E4.41424
G1 X96.405 Y170.461 E4.44387
G1 X96.129 Y171.125 E4.47359
G1 X95.693 Y171.693 E4.50318
G1 X95.125 Y172.129 E4.53277
G1 F1686.7 X94.461 Y172.405 E4.56255
G1 X93.75 Y172.498 E4.59224
G0 F3600 X93.948 Y172.473
G0 X93.75 Y171.998
G1 F1686.7 X94.332 Y171.923 E4.61654
G1 X94.876 Y171.697 E4.64093
G1 F1690.1 X95.34 Y171.34 E4.66513
G1 X95.697 Y170.876 E4.68932
G1 X95.923 Y170.332 E4.71366
G1 X95.998 Y169.75 E4.73791
G1 X95.923 Y169.168 E4.76216
G1 F1686.7 X95.697 Y168.624 E4.78656
G1 F1690.1 X95.34 Y168.16 E4.81075
G1 X94.876 Y167.803 E4.83495
G1 X94.332 Y167.577 E4.85929
G1 X93.75 Y167.502 E4.88354
G1 F1693.5 X93.168 Y167.577 E4.90774
G1 X92.624 Y167.803 E4.93204
G1 F1690.1 X92.16 Y168.16 E4.95623
G1 X91.803 Y168.624 E4.98042
G1 F1693.5 X91.577 Y169.168 E5.00472
G1 F1690.1 X91.502 Y169.75 E5.02897
G1 X91.577 Y170.332 E5.05322
G1 F1693.5 X91.803 Y170.876 E5.07752
G1 F1690.1 X92.16 Y171.34 E5.10171
G1 X92.624 Y171.697 E5.1259
G1 F1693.5 X93.168 Y171.923 E5.1502
G1 F1690.1 X93.75 Y171.998 E5.17445
G0 F3600 X93.552 Y171.973
G1 F1500 E4.42445
G0 F3600 X93.52 Y172.223
G0 X95.039 Y171.981
G0 X143.678 Y173.322
G0 X145.5 Y174.248
G1 F1500 E5.17445
G1 F1690.1 X144.789 Y174.155 E5.20408
G1 F1693.5 X144.125 Y173.879 E5.23374
G1 F1690.1 X143.557 Y173.443 E5.26333
G1 X143.121 Y172.875 E5.29292
G1 F1693.5 X142.845 Y172.211 E5.32258
G1 F1690.1 X142.752 Y171.5 E5.35221
G1 X142.845 Y170.789 E5.38184
G1 F1693.5 X143.121 Y170.125 E5.4115
G1 F1690.1 X143.557 Y169.557 E5.44109
G1 X144.125 Y169.121 E5.47068
G1 F1693.5 X144.789 Y168.845 E5.50034
G1 X145.5 Y168.752 E5.52991
G1 F1690.1 X146.211 Y168.845 E5.55954
G1 X146.875 Y169.121 E5.58926
G1 X147.443 Y169.557 E5.61885
G1 X147.879 Y170.125 E5.64844
G1 F1686.7 X148.155 Y170.789 E5.67822
G1 F1690.1 X148.248 Y171.5 E5.70785
G1 X148.155 Y172.211 E5.73748
G1 X147.879 Y172.875 E5.7672
G1 X147.443 Y173.443 E5.79679
G1 X146.875 Y173.879 E5.82638
G1 F1686.7 X146.211 Y174.155 E5.85616
G1 X145.5 Y174.248 E5.88585
G0 F3600 X145.698 Y174.223
G0 X145.5 Y173.748
G1 F1686.7 X146.082 Y173.673 E5.91015
G1 X146.626 Y173.447 E5.93454
G1 F1690.1 X147.09 Y173.09 E5.95874
G1 X147.447 Y172.626 E5.98293
G1 X147.673 Y172.082 E6.00728
G1 X147.748 Y171.5 E6.03153
G1 X147.673 Y170.918 E6.05578
G1 F1686.7 X147.447 Y170.374 E6.08017
G1 F1690.1 X147.09 Y169.91 E6.10436
G1 X146.626 Y169.553 E6.12856
G1 X146.082 Y169.327 E6.1529
G1 X145.5 Y169.252 E6.17715
G1 F1693.5 X144.918 Y169.327 E6.20135
G1 X144.374 Y169.553 E6.22565
G1 F1690.1 X143.91 Y169.91 E6.24984
G1 X143.553 Y170.374 E6.27404
G1 F1693.5 X143.327 Y170.918 E6.29833
G1 F1690.1 X143.252 Y171.5 E6.32258
G1 X143.327 Y172.082 E6.34683
G1 F1693.5 X143.553 Y172.626 E6.37113
G1 F1690.1 X143.91 Y173.09 E6.39532
G1 X144.374 Y173.447 E6.41952
G1 F1693.5 X144.918 Y173.673 E6.44381
G1 F1690.1 X145.5 Y173.748 E6.46806
G0 F3600 X145.302 Y173.723
G1 F1500 E5.71806
G0 F3600 X145.27 Y173.973
G0 X146.132 Y173.86
G0 X147.227 Y173.227
G0 X147.86 Y172.132
G0 X147.731 Y170.211
G0 X166.711 Y147.731
G0 X168 Y147.748
G1 F1500 E6.46806
G1 F1686.7 X168.582 Y147.673 E6.49236
G1 X169.126 Y147.447 E6.51675
G1 F1690.1 X169.59 Y147.09 E6.54095
G1 X169.947 Y146.626 E6.56514
G1 X170.173 Y146.082 E6.58948
G1 X170.248 Y145.5 E6.61374
G1 X170.173 Y144.918 E6.63799
G1 F1686.7 X169.947 Y144.374 E6.66238
G1 F1690.1 X169.59 Y143.91 E6.68657
G1 X169.126 Y143.553 E6.71077
G1 X168.582 Y143.327 E6.73511
G1 X168 Y143.252 E6.75936
G1 F1693.5 X167.418 Y143.327 E6.78356
G1 X166.874 Y143.553 E6.80786
G1 F1690.1 X166.41 Y143.91 E6.83205
G1 X166.053 Y144.374 E6.85625
G1 F1693.5 X165.827 Y144.918 E6.88054
G1 F1690.1 X165.752 Y145.5 E6.90479
G1 X165.827 Y146.082 E6.92904
G1 F1693.5 X166.053 Y146.626 E6.95334
G1 F1690.1 X166.41 Y147.09 E6.97753
G1 X166.874 Y147.447 E7.00172
G1 F1693.5 X167.418 Y147.673 E7.02602
G1 F1690.1 X168 Y147.748 E7.05027
G0 F3600 X167.802 Y147.723
G0 X168 Y148.248
G1 F1690.1 X167.289 Y148.155 E7.0799
G1 F1693.5 X166.625 Y147.879 E7.10956
G1 F1690.1 X166.057 Y147.443 E7.13915
G1 X165.621 Y146.875 E7.16874
G1 F1693.5 X165.345 Y146.211 E7.1984
G1 F1690.1 X165.252 Y145.5 E7.22803
G1 X165.345 Y144.789 E7.25766
G1 F1693.5 X165.621 Y144.125 E7.28732
G1 F1690.1 X166.057 Y143.557 E7.31691
G1 X166.625 Y143.121 E7.3465
G1 F1693.5 X167.289 Y142.845 E7.37616
G1 X168 Y142.752 E7.40573
G1 F1690.1 X168.711 Y142.845 E7.43537
G1 X169.375 Y143.121 E7.46508
G1 X169.943 Y143.557 E7.49467
G1 X170.379 Y144.125 E7.52426
G1 F1686.7 X170.655 Y144.789 E7.55404
G1 F1690.1 X170.748 Y145.5 E7.58367
G1 X170.655 Y146.211 E7.61331
G1 X170.379 Y146.875 E7.64302
G1 X169.943 Y147.443 E7.67261
G1 X169.375 Y147.879 E7.7022
G1 F1686.7 X168.711 Y148.155 E7.73198
G1 X168 Y148.248 E7.76167
G0 F3600 X168.198 Y148.223
G1 F1500 E7.01167
G0 F3600 X168.167 Y147.973
G0 X169.222 Y147.615
G0 X170.115 Y146.722
G0 X170.443 Y145.5
G0 X170.115 Y144.278
G0 X169.319 Y143.459
G0 X168 Y142.924
G0 X169 Y95.326
G0 X169 Y94.998
G1 F1500 E7.76167
G1 F1686.7 X169.582 Y94.923 E7.78597
G1 X170.126 Y94.697 E7.81037
G1 F1690.1 X170.59 Y94.34 E7.83456
G1 X170.947 Y93.876 E7.85875
G1 X171.173 Y93.332 E7.8831
G1 X171.248 Y92.75 E7.90735
G1 X171.173 Y92.168 E7.9316
G1 F1686.7 X170.947 Y91.624 E7.95599
G1 F1690.1 X170.59 Y91.16 E7.98018
G1 X170.126 Y90.803 E8.00438
G1 X169.582 Y90.577 E8.02872
G1 X169 Y90.502 E8.05297
G1 F1693.5 X168.418 Y90.577 E8.07717
G1 X167.874 Y90.803 E8.10147
G1 F1690.1 X167.41 Y91.16 E8.12566
G1 X167.053 Y91.624 E8.14986
G1 F1693.5 X166.827 Y92.168 E8.17415
G1 F1690.1 X166.752 Y92.75 E8.1984
G1 X166.827 Y93.332 E8.22265
G1 F1693.5 X167.053 Y93.876 E8.24695
G1 F1690.1 X167.41 Y94.34 E8.27114
G1 X167.874 Y94.697 E8.29534
G1 F1693.5 X168.418 Y94.923 E8.31963
G1 F1690.1 X169 Y94.998 E8.34388
G0 F3600 X168.802 Y94.973
G0 X169 Y95.498
G1 F1690.1 X168.289 Y95.405 E8.37351
G1 F1693.5 X167.625 Y95.129 E8.40317
G1 F1690.1 X167.057 Y94.693 E8.43276
G1 X166.621 Y94.125 E8.46235
G1 F1693.5 X166.345 Y93.461 E8.49201
G1 F1690.1 X166.252 Y92.75 E8.52164
G1 X166.345 Y92.039 E8.55128
G1 F1693.5 X166.621 Y91.375 E8.58093
G1 F1690.1 X167.057 Y90.807 E8.61052
G1 X167.625 Y90.371 E8.64011
G1 F1693.5 X168.289 Y90.095 E8.66977
G1 X169 Y90.002 E8.69934
G1 F1690.1 X169.711 Y90.095 E8.72898
G1 X170.375 Y90.371 E8.75869
G1 X170.943 Y90.807 E8.78828
G1 X171.379 Y91.375 E8.81788
G1 F1686.7 X171.655 Y92.039 E8.84765
G1 F1690.1 X171.748 Y92.75 E8.87728
G1 X171.655 Y93.461 E8.90692
G1 X171.379 Y94.125 E8.93663
G1 X170.943 Y94.693 E8.96623
G1 X170.375 Y95.129 E8.99582
G1 F1686.7 X169.711 Y95.405 E9.02559
G1 X169 Y95.498 E9.05529
G0 F3600 X169.198 Y95.473
G1 F1500 E8.30529
G0 F3600 X169.167 Y95.223
G0 X168.368 Y95.11
G0 X167.273 Y94.477
G0 X166.424 Y92.75
G0 X143.667 Y72.739
G0 X143 Y72.498
G1 F1500 E9.05529
G1 F1686.7 X143.582 Y72.423 E9.07958
G1 X144.126 Y72.197 E9.10398
G1 F1690.1 X144.59 Y71.84 E9.12817
G1 X144.947 Y71.376 E9.15237
G1 X145.173 Y70.832 E9.17671
G1 X145.248 Y70.25 E9.20096
G1 X145.173 Y69.668 E9.22521
G1 F1686.7 X144.947 Y69.124 E9.2496
G1 F1690.1 X144.59 Y68.66 E9.2738
G1 X144.126 Y68.303 E9.29799
G1 X143.582 Y68.077 E9.32233
G1 X143 Y68.002 E9.34659
G1 F1693.5 X142.418 Y68.077 E9.37079
G1 X141.874 Y68.303 E9.39508
G1 F1690.1 X141.41 Y68.66 E9.41928
G1 X141.053 Y69.124 E9.44347
G1 F1693.5 X140.827 Y69.668 E9.46776
G1 F1690.1 X140.752 Y70.25 E9.49202
G1 X140.827 Y70.832 E9.51627
G1 F1693.5 X141.053 Y71.376 E9.54056
G1 F1690.1 X141.41 Y71.84 E9.56475
G1 X141.874 Y72.197 E9.58895
G1 F1693.5 X142.418 Y72.423 E9.61324
G1 F1690.1 X143 Y72.498 E9.63749
G0 F3600 X142.802 Y72.473
G0 X143 Y72.998
G1 F1690.1 X142.289 Y72.905 E9.66713
G1 F1693.5 X141.625 Y72.629 E9.69678
G1 F1690.1 X141.057 Y72.193 E9.72637
G1 X140.621 Y71.625 E9.75597
G1 F1693.5 X140.345 Y70.961 E9.78562
G1 F1690.1 X140.252 Y70.25 E9.81526
G1 X140.345 Y69.539 E9.84489
G1 F1693.5 X140.621 Y68.875 E9.87454
G1 F1690.1 X141.057 Y68.307 E9.90414
G1 X141.625 Y67.871 E9.93373
G1 F1693.5 X142.289 Y67.595 E9.96338
G1 X143 Y67.502 E9.99296
G1 F1690.1 X143.711 Y67.595 E10.02259
G1 X144.375 Y67.871 E10.05231
G1 X144.943 Y68.307 E10.0819
G1 X145.379 Y68.875 E10.11149
G1 F1686.7 X145.655 Y69.539 E10.14126
G1 F1690.1 X145.748 Y70.25 E10.1709
G1 X145.655 Y70.961 E10.20053
G1 X145.379 Y71.625 E10.23025
G1 X144.943 Y72.193 E10.25984
G1 X144.375 Y72.629 E10.28943
G1 F1686.7 X143.711 Y72.905 E10.3192
G1 X143 Y72.998 E10.3489
G0 F3600 X143.198 Y72.973
G1 F1500 E9.5989
G0 F3600 X143.167 Y72.723
G0 X144.109 Y72.412
G0 X145.231 Y71.539
G0 X146.091 Y72.198
G0 X153.378 Y79.687
G0 X154.131 Y80.44
G0 X167.542 Y68.001
;TYPE:WALL-INNER
G1 F1500 E10.3489
G1 F1724.8 X168.155 Y67.781 E10.37527
G1 F2100 X168.494 Y67.786 E10.38655
G1 X168.66 Y67.832 E10.39228
G1 X168.933 Y67.986 E10.4027
G1 X169.343 Y68.386 E10.42175
G1 X172.091 Y69.787 E10.52434
G1 X175.139 Y70.269 E10.62698
G1 X178.185 Y69.787 E10.72955
G1 X180.932 Y68.386 E10.83211
G1 X183.118 Y66.2 E10.93494
G1 X184.517 Y63.454 E11.03744
G1 X185.001 Y60.407 E11.14005
G1 X184.517 Y57.36 E11.24267
G1 X183.118 Y54.611 E11.34526
G1 X182.696 Y54.173 E11.36549
