;FLAVOR:Marlin
;TIME:1161
;Filament used: 0.904519m
;Layer height: 0.15
;MINX:99.7
;MINY:99.7
;MINZ:0.3
;MAXX:135.3
;MAXY:135.3
;MAXZ:19.95
;POSTPROCESSED
;Generated with Cura_SteamEngine 5.3.1
M82 ;absolute extrusion mode
; Ender 3 Custom Start G-code
G92 E0 ; Reset Extruder

M140 S50 ; set bed temp
M190 S50 ; wait for bed temp

G28 ; Home all axes
BED_MESH_CALIBRATE  AREA_START=99.7,99.7 AREA_END=135.3,135.3
M104 S205 ; set extruder temp 

G1 Z2.0 F3000 ; Move Z Axis up little to prevent scratching of Heat Bed
M109 S205 ; wait for extruder temp
G1 X0.1 Y20 Z0.3 F5000.0 ; Move to start position

G1 X0.1 Y200.0 Z0.3 F1500.0 E15 ; Draw the first line
G1 X0.4 Y200.0 Z0.3 F5000.0 ; Move to side a little
G1 X0.4 Y20 Z0.3 F1500.0 E30 ; Draw the second line
G92 E0 ; Reset Extruder
G1 Z2.0 F3000 ; Move Z Axis up little to prevent scratching of Heat Bed
G1 X5 Y20 Z0.3 F5000.0 ; Move over to prevent blob squish
G92 E0
G92 E0
G1 F2400 E-1.6
;LAYER_COUNT:132
;LAYER:0
M107
G0 X101.774 Y102.151 Z0.3
;TYPE:SKIRT
G1 F2400 E0
G1 F1800 X103.258 Y100.95 E0.08466
G1 X105.223 Y99.974 E0.18196
G1 X106.746 Y99.752 E0.25022
G1 X127.995 Y99.7 E1.19256
G1 X130.033 Y100.05 E1.28426
G1 X131.558 Y100.86 E1.36084
G1 X132.849 Y101.774 E1.43099
G1 X134.05 Y103.258 E1.51565
G1 X135.026 Y105.223 E1.61295
G1 X135.248 Y106.746 E1.68121
G1 X135.3 Y127.995 E2.62355
G1 X134.95 Y130.033 E2.71525
G1 X134.14 Y131.558 E2.79183
G1 X133.226 Y132.849 E2.86198
G1 X131.742 Y134.05 E2.94664
G1 X129.777 Y135.026 E3.04394
G1 X128.254 Y135.248 E3.11219
G1 X107.005 Y135.3 E4.05454
G1 X104.967 Y134.95 E4.14624
G1 X103.442 Y134.14 E4.22282
G1 X102.151 Y133.226 E4.29296
G1 X100.95 Y131.742 E4.37763
G1 X99.974 Y129.777 E4.47493
G1 X99.752 Y128.254 E4.54318
G1 X99.7 Y107.005 E5.48552
G1 X100.05 Y104.967 E5.57723
G1 X100.86 Y103.442 E5.6538
G1 X101.774 Y102.151 E5.72395
G0 F2400 X102.07 Y102.425
G1 F1800 X103.475 Y101.289 E5.80408
G1 X105.343 Y100.361 E5.89658
G1 X106.804 Y100.148 E5.96206
G1 X127.962 Y100.1 E6.90036
G1 X129.9 Y100.433 E6.98757
G1 X131.327 Y101.187 E7.05914
G1 X132.575 Y102.07 E7.12694
G1 X133.711 Y103.475 E7.20707
G1 X134.639 Y105.343 E7.29957
G1 X134.852 Y106.804 E7.36504
G1 X134.9 Y127.962 E8.30335
G1 X134.567 Y129.9 E8.39055
G1 X133.813 Y131.327 E8.46213
G1 X132.93 Y132.575 E8.52992
G1 X131.525 Y133.711 E8.61005
G1 X129.657 Y134.639 E8.70255
G1 X128.196 Y134.852 E8.76803
G1 X107.038 Y134.9 E9.70633
G1 X105.1 Y134.567 E9.79354
G1 X103.673 Y133.813 E9.86511
G1 X102.425 Y132.93 E9.93291
G1 X101.289 Y131.525 E10.01304
G1 X100.361 Y129.657 E10.10554
G1 X100.148 Y128.196 E10.17101
G1 X100.1 Y107.038 E11.10932
G1 X100.433 Y105.1 E11.19652
G1 X101.187 Y103.673 E11.2681
G1 X102.07 Y102.425 E11.3359
G0 F2400 X102.366 Y102.7
G1 F1800 X103.692 Y101.628 E11.41151
G1 X105.463 Y100.748 E11.49921
G1 X106.862 Y100.544 E11.56191
G1 X127.929 Y100.5 E12.49618
G1 X129.768 Y100.816 E12.57893
G1 X131.14 Y101.541 E12.64775
G1 X132.3 Y102.366 E12.71087
G1 X133.372 Y103.692 E12.78649
G1 X134.252 Y105.463 E12.87419
G1 X134.456 Y106.862 E12.93689
G1 X134.5 Y127.929 E13.87116
G1 X134.184 Y129.768 E13.95391
G1 X133.459 Y131.14 E14.02273
G1 X132.634 Y132.3 E14.08585
G1 X131.308 Y133.372 E14.16147
G1 X129.537 Y134.252 E14.24917
G1 X128.138 Y134.456 E14.31187
G1 X107.071 Y134.5 E15.24614
G1 X105.232 Y134.184 E15.32889
G1 X103.86 Y133.459 E15.39771
G1 X102.7 Y132.634 E15.46083
G1 X101.628 Y131.308 E15.53645
G1 X100.748 Y129.537 E15.62415
G1 X100.544 Y128.138 E15.68685
G1 X100.5 Y107.071 E16.62112
G1 X100.816 Y105.232 E16.70387
G1 X101.541 Y103.86 E16.77269
G1 X102.366 Y102.7 E16.83581
G0 F2400 X102.661 Y102.976
G1 F1800 X103.909 Y101.967 E16.90698
G1 X105.583 Y101.135 E16.98989
G1 X106.92 Y100.94 E17.04981
G1 X127.896 Y100.9 E17.98004
G1 X129.636 Y101.199 E18.05833
G1 X130.953 Y101.895 E18.12439
G1 X132.024 Y102.661 E18.18279
G1 X133.033 Y103.909 E18.25396
G1 X133.865 Y105.583 E18.33686
G1 X134.06 Y106.92 E18.39678
G1 X134.1 Y127.896 E19.32701
G1 X133.801 Y129.636 E19.40531
G1 X133.105 Y130.953 E19.47137
G1 X132.339 Y132.024 E19.52976
G1 X131.091 Y133.033 E19.60093
G1 X129.417 Y133.865 E19.68383
G1 X128.08 Y134.06 E19.74375
G1 X107.104 Y134.1 E20.67399
G1 X105.364 Y133.801 E20.75228
G1 X104.047 Y133.105 E20.81834
G1 X102.976 Y132.339 E20.87674
G1 X101.967 Y131.091 E20.94791
G1 X101.135 Y129.417 E21.03081
G1 X100.94 Y128.08 E21.09073
G1 X100.9 Y107.104 E22.02096
G1 X101.199 Y105.364 E22.09926
G1 X101.895 Y104.047 E22.16532
G1 X102.661 Y102.976 E22.22371
G0 F2400 X102.955 Y103.252
G1 F1800 X104.126 Y102.306 E22.29047
G1 X105.703 Y101.522 E22.36857
G1 X106.978 Y101.336 E22.42571
G1 X127.863 Y101.3 E23.35191
G1 X129.504 Y101.582 E23.42575
G1 X130.766 Y102.249 E23.48905
G1 X131.748 Y102.955 E23.54269
G1 X132.694 Y104.126 E23.60945
G1 X133.478 Y105.703 E23.68755
G1 X133.664 Y106.978 E23.74469
G1 X133.7 Y127.863 E24.67089
G1 X133.418 Y129.504 E24.74473
G1 X132.751 Y130.766 E24.80803
G1 X132.045 Y131.748 E24.86167
G1 X130.874 Y132.694 E24.92843
G1 X129.297 Y133.478 E25.00653
G1 X128.022 Y133.664 E25.06367
G1 X107.137 Y133.7 E25.98987
G1 X105.496 Y133.418 E26.06371
G1 X104.234 Y132.751 E26.12701
G1 X103.252 Y132.045 E26.18065
G1 X102.306 Y130.874 E26.24741
G1 X101.522 Y129.297 E26.32551
G1 X101.336 Y128.022 E26.38265
G1 X101.3 Y107.137 E27.30885
G1 X101.582 Y105.496 E27.38269
G1 X102.249 Y104.234 E27.44599
G1 X102.955 Y103.252 E27.49962
G0 F2400 X103.25 Y103.528
G1 F1800 X104.343 Y102.645 E27.56194
G1 X105.823 Y101.909 E27.63524
G1 X107.036 Y101.732 E27.6896
G1 X127.83 Y101.7 E28.61176
G1 X129.372 Y101.965 E28.68115
G1 X130.579 Y102.603 E28.7417
G1 X131.472 Y103.25 E28.7906
G1 X132.355 Y104.343 E28.85291
G1 X133.091 Y105.823 E28.92621
G1 X133.268 Y107.036 E28.98058
G1 X133.3 Y127.83 E29.90274
G1 X133.035 Y129.372 E29.97212
G1 X132.397 Y130.579 E30.03267
G1 X131.75 Y131.472 E30.08157
G1 X130.657 Y132.355 E30.14389
G1 X129.177 Y133.091 E30.21719
G1 X127.964 Y133.268 E30.27155
G1 X107.17 Y133.3 E31.19371
G1 X105.628 Y133.035 E31.2631
G1 X104.421 Y132.397 E31.32364
G1 X103.528 Y131.75 E31.37255
G1 X102.645 Y130.657 E31.43486
G1 X101.909 Y129.177 E31.50816
G1 X101.732 Y127.964 E31.56253
G1 X101.7 Y107.17 E32.48469
G1 X101.965 Y105.628 E32.55407
G1 X102.603 Y104.421 E32.61462
G1 X103.25 Y103.528 E32.66352
G0 F2400 X103.544 Y103.805
G1 F1800 X104.56 Y102.984 E32.72145
G1 X105.943 Y102.296 E32.78995
G1 X107.094 Y102.128 E32.84154
G1 X127.797 Y102.1 E33.75966
G1 X129.24 Y102.348 E33.8246
G1 X130.392 Y102.957 E33.88238
G1 X131.195 Y103.544 E33.92649
G1 X132.016 Y104.56 E33.98442
G1 X132.704 Y105.943 E34.05293
G1 X132.872 Y107.094 E34.10451
G1 X132.9 Y127.797 E35.02264
G1 X132.652 Y129.24 E35.08757
G1 X132.043 Y130.392 E35.14535
G1 X131.456 Y131.195 E35.18947
G1 X130.44 Y132.016 E35.24739
G1 X129.057 Y132.704 E35.3159
G1 X127.906 Y132.872 E35.36748
G1 X107.203 Y132.9 E36.28561
G1 X105.76 Y132.652 E36.35054
G1 X104.608 Y132.043 E36.40833
G1 X103.805 Y131.456 E36.45244
G1 X102.984 Y130.44 E36.51037
G1 X102.296 Y129.057 E36.57887
G1 X102.128 Y127.906 E36.63045
G1 X102.1 Y107.203 E37.54858
G1 X102.348 Y105.76 E37.61351
G1 X102.957 Y104.608 E37.6713
G1 X103.544 Y103.805 E37.71541
G0 F2400 X103.836 Y104.083
G1 F1800 X104.777 Y103.323 E37.76905
G1 X106.063 Y102.683 E37.83275
G1 X107.152 Y102.524 E37.88156
G1 X127.764 Y102.5 E38.79565
G1 X129.108 Y102.731 E38.85613
G1 X130.205 Y103.311 E38.91116
G1 X130.917 Y103.836 E38.95039
G1 X131.677 Y104.777 E39.00403
G1 X132.317 Y106.063 E39.06773
G1 X132.476 Y107.152 E39.11654
G1 X132.5 Y127.764 E40.03063
G1 X132.269 Y129.108 E40.0911
G1 X131.689 Y130.205 E40.14614
G1 X131.164 Y130.917 E40.18537
G1 X130.223 Y131.677 E40.23901
G1 X128.937 Y132.317 E40.30271
G1 X127.848 Y132.476 E40.35152
G1 X107.236 Y132.5 E41.26561
G1 X105.892 Y132.269 E41.32608
G1 X104.795 Y131.689 E41.38111
G1 X104.083 Y131.164 E41.42034
G1 X103.323 Y130.223 E41.47399
G1 X102.683 Y128.937 E41.53769
G1 X102.524 Y127.848 E41.5865
G1 X102.5 Y107.236 E42.50058
G1 X102.731 Y105.892 E42.56106
G1 X103.311 Y104.795 E42.61609
G1 X103.836 Y104.083 E42.65532
G0 F2400 X104.129 Y104.36
G1 F1800 X104.994 Y103.662 E42.70461
G1 X106.183 Y103.07 E42.76352
G1 X107.21 Y102.92 E42.80955
G1 X127.731 Y102.9 E43.7196
G1 X128.976 Y103.114 E43.77562
G1 X130.018 Y103.665 E43.82789
G1 X130.64 Y104.129 E43.86231
G1 X131.338 Y104.994 E43.9116
G1 X131.93 Y106.183 E43.9705
G1 X132.08 Y107.21 E44.01653
G1 X132.1 Y127.731 E44.92659
G1 X131.886 Y128.976 E44.98261
G1 X131.335 Y130.018 E45.03488
G1 X130.871 Y130.64 E45.06929
G1 X130.006 Y131.338 E45.11859
G1 X128.817 Y131.93 E45.17749
G1 X127.79 Y132.08 E45.22352
G1 X107.269 Y132.1 E46.13357
G1 X106.024 Y131.886 E46.18959
G1 X104.982 Y131.335 E46.24187
G1 X104.36 Y130.871 E46.27628
G1 X103.662 Y130.006 E46.32557
G1 X103.07 Y128.817 E46.38448
G1 X102.92 Y127.79 E46.4305
G1 X102.9 Y107.269 E47.34056
G1 X103.114 Y106.024 E47.39658
G1 X103.665 Y104.982 E47.44885
G1 X104.129 Y104.36 E47.48327
G0 F2400 X104.42 Y104.639
G1 F1800 X105.211 Y104.001 E47.52833
G1 X106.303 Y103.457 E47.58244
G1 X107.268 Y103.316 E47.62569
G1 X127.698 Y103.3 E48.5317
G1 X128.844 Y103.497 E48.58327
G1 X129.831 Y104.019 E48.63279
G1 X130.361 Y104.42 E48.66226
G1 X130.999 Y105.211 E48.70733
G1 X131.543 Y106.303 E48.76143
G1 X131.684 Y107.268 E48.80468
G1 X131.7 Y127.698 E49.7107
G1 X131.503 Y128.844 E49.76227
G1 X130.981 Y129.831 E49.81178
G1 X130.58 Y130.361 E49.84126
G1 X129.789 Y130.999 E49.88632
G1 X128.697 Y131.543 E49.94043
G1 X127.732 Y131.684 E49.98368
G1 X107.302 Y131.7 E50.88969
G1 X106.156 Y131.503 E50.94126
G1 X105.169 Y130.981 E50.99078
G1 X104.639 Y130.58 E51.02025
G1 X104.001 Y129.789 E51.06532
G1 X103.457 Y128.697 E51.11942
G1 X103.316 Y127.732 E51.16267
G1 X103.3 Y107.302 E52.06869
G1 X103.497 Y106.156 E52.12026
G1 X104.019 Y105.169 E52.16977
G1 X104.42 Y104.639 E52.19925
G0 F2400 X104.706 Y104.922
G1 F1800 X105.431 Y104.338 E52.24053
G1 X106.423 Y103.844 E52.28968
G1 X107.326 Y103.712 E52.33015
G1 X127.665 Y103.7 E53.23213
G1 X128.712 Y103.88 E53.27924
G1 X129.644 Y104.373 E53.326
G1 X130.078 Y104.706 E53.35026
G1 X130.662 Y105.431 E53.39155
G1 X131.156 Y106.423 E53.44069
G1 X131.288 Y107.326 E53.48116
G1 X131.3 Y127.665 E54.38314
G1 X131.12 Y128.712 E54.43026
G1 X130.627 Y129.644 E54.47702
G1 X130.294 Y130.078 E54.50128
G1 X129.569 Y130.662 E54.54256
G1 X128.577 Y131.156 E54.59171
G1 X127.674 Y131.288 E54.63218
G1 X107.335 Y131.3 E55.53416
G1 X106.288 Y131.12 E55.58127
G1 X105.356 Y130.627 E55.62803
G1 X104.922 Y130.294 E55.65229
G1 X104.338 Y129.569 E55.69358
G1 X103.844 Y128.577 E55.74272
G1 X103.712 Y127.674 E55.78319
G1 X103.7 Y107.335 E56.68517
G1 X103.88 Y106.288 E56.73229
G1 X104.373 Y105.356 E56.77905
G1 X104.706 Y104.922 E56.8033
G0 F2400 X104.957 Y105.234
G1 F1800 X105.651 Y104.675 E56.84282
G1 X106.543 Y104.231 E56.88701
G1 X107.384 Y104.108 E56.9247
G1 X127.632 Y104.1 E57.82265
G1 X128.58 Y104.263 E57.86531
G1 X129.457 Y104.727 E57.90931
G1 X129.766 Y104.957 E57.92639
G1 X130.325 Y105.651 E57.96591
G1 X130.769 Y106.543 E58.0101
G1 X130.892 Y107.384 E58.04779
G1 X130.9 Y127.632 E58.94574
G1 X130.737 Y128.58 E58.9884
G1 X130.273 Y129.457 E59.0324
G1 X130.043 Y129.766 E59.04948
G1 X129.349 Y130.325 E59.089
G1 X128.457 Y130.769 E59.13319
G1 X127.616 Y130.892 E59.17088
G1 X107.368 Y130.9 E60.06883
G1 X106.42 Y130.737 E60.11148
G1 X105.543 Y130.273 E60.15549
G1 X105.234 Y130.043 E60.17257
G1 X104.675 Y129.349 E60.21209
G1 X104.231 Y128.457 E60.25628
G1 X104.108 Y127.616 E60.29397
G1 X104.1 Y107.368 E61.19191
G1 X104.263 Y106.42 E61.23457
G1 X104.727 Y105.543 E61.27857
G1 X104.957 Y105.234 E61.29566
G0 F2400 X105.248 Y105.513
G1 F1800 X105.867 Y105.014 E61.33092
G1 X106.663 Y104.618 E61.37034
G1 X107.442 Y104.504 E61.40526
G1 X127.599 Y104.5 E62.29917
G1 X128.448 Y104.646 E62.33737
G1 X129.27 Y105.081 E62.37862
G1 X129.487 Y105.248 E62.39076
G1 X129.986 Y105.867 E62.42602
G1 X130.382 Y106.663 E62.46545
G1 X130.496 Y107.442 E62.50036
G1 X130.5 Y127.599 E63.39427
G1 X130.354 Y128.448 E63.43248
G1 X129.919 Y129.27 E63.47372
G1 X129.752 Y129.487 E63.48586
G1 X129.133 Y129.986 E63.52112
G1 X128.337 Y130.382 E63.56055
G1 X127.558 Y130.496 E63.59546
G1 X107.401 Y130.5 E64.48937
G1 X106.552 Y130.354 E64.52758
G1 X105.73 Y129.919 E64.56882
G1 X105.513 Y129.752 E64.58096
G1 X105.014 Y129.133 E64.61622
G1 X104.618 Y128.337 E64.65565
G1 X104.504 Y127.558 E64.69057
G1 X104.5 Y107.401 E65.58448
G1 X104.646 Y106.552 E65.62268
G1 X105.081 Y105.73 E65.66392
G1 X105.248 Y105.513 E65.67607
G0 F2400 X105.538 Y105.793
G1 F1800 X106.083 Y105.353 E65.70713
G1 X106.783 Y105.005 E65.7418
G1 X107.5 Y104.9 E65.77393
G1 X127.566 Y104.9 E66.66381
G1 X128.316 Y105.029 E66.69756
G1 X129.083 Y105.435 E66.73604
G1 X129.207 Y105.538 E66.74319
G1 X129.647 Y106.083 E66.77426
G1 X129.995 Y106.783 E66.80892
G1 X130.1 Y107.5 E66.84106
G1 X130.1 Y127.566 E67.73094
G1 X129.971 Y128.316 E67.76468
G1 X129.565 Y129.083 E67.80317
G1 X129.462 Y129.207 E67.81032
G1 X128.917 Y129.647 E67.84138
G1 X128.217 Y129.995 E67.87605
G1 X127.5 Y130.1 E67.90819
G1 X107.434 Y130.1 E68.79806
G1 X106.684 Y129.971 E68.83181
G1 X105.917 Y129.565 E68.8703
G1 X105.793 Y129.462 E68.87744
G1 X105.353 Y128.917 E68.90851
G1 X105.005 Y128.217 E68.94317
G1 X104.9 Y127.5 E68.97531
G1 X104.9 Y107.434 E69.86519
G1 X105.029 Y106.684 E69.89894
G1 X105.435 Y105.917 E69.93742
G1 X105.538 Y105.793 E69.94457
G0 F2400 X105.789 Y106.104
G1 F1800 X106.299 Y105.692 E69.97365
G1 X106.905 Y105.391 E70.00365
G1 X107.5 Y105.3 E70.03035
G1 X127.533 Y105.3 E70.91876
G1 X128.184 Y105.412 E70.94805
G1 X128.896 Y105.789 E70.98378
G1 X129.308 Y106.299 E71.01286
G1 X129.609 Y106.905 E71.04286
G1 X129.7 Y107.5 E71.06956
G1 X129.7 Y127.533 E71.95797
G1 X129.588 Y128.184 E71.98726
G1 X129.211 Y128.896 E72.02299
G1 X128.701 Y129.308 E72.05207
G1 X128.095 Y129.609 E72.08207
G1 X127.5 Y129.7 E72.10877
G1 X107.467 Y129.7 E72.99718
G1 X106.816 Y129.588 E73.02647
G1 X106.104 Y129.211 E73.0622
G1 X105.692 Y128.701 E73.09128
G1 X105.391 Y128.095 E73.12128
G1 X105.3 Y127.5 E73.14798
G1 X105.3 Y107.467 E74.03639
G1 X105.412 Y106.816 E74.06568
G1 X105.789 Y106.104 E74.10141
G0 F2400 X106.105 Y106.362
G1 F1800 X106.477 Y106.05 E74.12294
G1 X107.026 Y105.777 E74.15013
G1 X107.5 Y105.7 E74.17143
G1 X127.5 Y105.7 E75.05838
G1 X128.052 Y105.795 E75.08322
G1 X128.638 Y106.105 E75.11262
G1 X128.95 Y106.477 E75.13415
G1 X129.223 Y107.026 E75.16134
G1 X129.3 Y107.5 E75.18263
G1 X129.3 Y127.5 E76.06958
G1 X129.205 Y128.052 E76.09442
G1 X128.895 Y128.638 E76.12382
G1 X128.523 Y128.95 E76.14535
G1 X127.974 Y129.223 E76.17254
G1 X127.5 Y129.3 E76.19384
G1 X107.5 Y129.3 E77.08079
G1 X106.948 Y129.205 E77.10563
G1 X106.362 Y128.895 E77.13503
G1 X106.05 Y128.523 E77.15656
G1 X105.777 Y127.974 E77.18375
G1 X105.7 Y127.5 E77.20505
G1 X105.7 Y107.5 E78.09199
G1 X105.795 Y106.948 E78.11683
G1 X106.105 Y106.362 E78.14623
G0 F2400 X106.423 Y106.617
G1 F1800 X106.655 Y106.408 E78.16008
G1 X107.149 Y106.162 E78.18456
G1 X107.5 Y106.1 E78.20036
G1 X127.5 Y106.1 E79.08731
G1 X127.919 Y106.178 E79.10621
G1 X128.383 Y106.423 E79.12948
G1 X128.592 Y106.655 E79.14333
G1 X128.838 Y107.149 E79.1678
G1 X128.9 Y107.5 E79.18361
G1 X128.9 Y127.5 E80.07056
G1 X128.822 Y127.919 E80.08946
G1 X128.577 Y128.383 E80.11273
G1 X128.345 Y128.592 E80.12658
G1 X127.851 Y128.838 E80.15105
G1 X127.5 Y128.9 E80.16686
G1 X107.5 Y128.9 E81.0538
G1 X107.081 Y128.822 E81.07271
G1 X106.617 Y128.577 E81.09597
G1 X106.408 Y128.345 E81.10982
G1 X106.162 Y127.851 E81.1343
G1 X106.1 Y127.5 E81.1501
G1 X106.1 Y107.5 E82.03705
G1 X106.178 Y107.081 E82.05595
G1 X106.423 Y106.617 E82.07922
G0 F2400 X106.845 Y106.76
G1 F1800 X107.227 Y106.554 E82.09847
G1 X107.5 Y106.5 E82.11081
G1 X127.5 Y106.5 E82.99776
G1 X127.838 Y106.57 E83.01307
G1 X128.101 Y106.707 E83.02622
G1 X128.24 Y106.845 E83.0349
G1 X128.446 Y107.227 E83.05415
G1 X128.5 Y107.5 E83.06649
G1 X128.5 Y127.5 E83.95344
G1 X128.43 Y127.838 E83.96875
G1 X128.293 Y128.101 E83.9819
G1 X128.155 Y128.24 E83.99058
G1 X127.773 Y128.446 E84.00983
G1 X127.5 Y128.5 E84.02217
