;FLAVOR:Marlin
;TIME:5895
;Filament used: 17.5047m
;Layer height: 0.3
;MINX:75.429
;MINY:75.42
;MINZ:0.3
;MAXX:159.583
;MAXY:159.581
;MAXZ:196.8
;POSTPROCESSED
;Generated with Cura_SteamEngine 5.3.1
M82 ;absolute extrusion mode
; Ender 3 Custom Start G-code
G92 E0 ; Reset Extruder

M140 S75 ; set bed temp
M190 S75 ; wait for bed temp

G28 ; Home all axes
BED_MESH_CALIBRATE  AREA_START=75.429,75.42 AREA_END=159.583,159.581
M104 S235 ; set extruder temp 

G1 Z2.0 F3000 ; Move Z Axis up little to prevent scratching of Heat Bed
M109 S235 ; wait for extruder temp
G1 X0.1 Y20 Z0.3 F5000.0 ; Move to start position

G1 X0.1 Y200.0 Z0.3 F1500.0 E15 ; Draw the first line
G1 X0.4 Y200.0 Z0.3 F5000.0 ; Move to side a little
G1 X0.4 Y20 Z0.3 F1500.0 E30 ; Draw the second line
G92 E0 ; Reset Extruder
G1 Z2.0 F3000 ; Move Z Axis up little to prevent scratching of Heat Bed
G1 X5 Y20 Z0.3 F5000.0 ; Move over to prevent blob squish
G92 E0
G92 E0
G1 F1500 E-1
;LAYER_COUNT:656
;LAYER:0
M107
M204 S1000
G0 F3600 X88.05 Y88.579 Z0.3
;TYPE:SKIRT
G1 F1500 E0
G1 F2100 X88.664 Y87.988 E0.04252
G1 X90.012 Y86.725 E0.13468
G1 X90.658 Y86.144 E0.17802
G1 X91.274 Y85.644 E0.2176
G1 X92.732 Y84.495 E0.31022
G1 X93.321 Y84.046 E0.34717
G1 X94.104 Y83.509 E0.39454
G1 X95.705 Y82.458 E0.49008
G1 X96.43 Y82.003 E0.53279
G1 X97.135 Y81.61 E0.57305
G1 X98.794 Y80.715 E0.6671
G1 X99.39 Y80.404 E0.70064
G1 X100.266 Y80.004 E0.74868
G1 X102.036 Y79.238 E0.8449
G1 X102.812 Y78.92 E0.88674
G1 X103.577 Y78.652 E0.92718
G1 X105.363 Y78.054 E1.02115
G1 X106.015 Y77.847 E1.05528
G1 X106.994 Y77.59 E1.10577
G1 X108.758 Y77.164 E1.19631
G1 X109.633 Y76.972 E1.241
G1 X110.464 Y76.833 E1.28304
G1 X112.294 Y76.556 E1.37538
G1 X113.168 Y76.441 E1.41936
G1 X113.92 Y76.382 E1.45699
G1 X115.839 Y76.258 E1.55293
G1 X116.702 Y76.22 E1.59603
G1 X117.529 Y76.226 E1.63729
G1 X119.412 Y76.266 E1.73125
G1 X120.075 Y76.29 E1.76435
G1 X121.024 Y76.374 E1.81188
G1 X122.922 Y76.579 E1.90712
G1 X123.613 Y76.664 E1.94186
G1 X124.571 Y76.832 E1.99038
G1 X126.393 Y77.189 E2.08301
G1 X127.092 Y77.336 E2.11864
G1 X128.073 Y77.598 E2.1693
G1 X129.835 Y78.105 E2.26078
G1 X130.51 Y78.309 E2.29596
G1 X131.457 Y78.651 E2.34619
G1 X133.142 Y79.297 E2.43622
G1 X134.011 Y79.649 E2.483
G1 X134.727 Y79.984 E2.52243
G1 X136.421 Y80.807 E2.61639
G1 X137.202 Y81.205 E2.66013
G1 X137.833 Y81.57 E2.69649
G1 X139.503 Y82.566 E2.7935
G1 X140.241 Y83.026 E2.83689
G1 X140.922 Y83.504 E2.8784
G1 X142.429 Y84.588 E2.97101
G1 X142.97 Y84.989 E3.00461
G1 X143.753 Y85.637 E3.05532
G1 X145.193 Y86.874 E3.15003
G1 X145.657 Y87.284 E3.18092
G1 X146.414 Y88.029 E3.23391
G1 X147.693 Y89.336 E3.32514
G1 X148.287 Y89.966 E3.36834
G1 X148.819 Y90.595 E3.40944
G1 X150.014 Y92.047 E3.50326
G1 X150.543 Y92.717 E3.54585
G1 X151.005 Y93.37 E3.58575
G1 X152.069 Y94.918 E3.67947
G1 X152.448 Y95.484 E3.71345
G1 X152.976 Y96.374 E3.76508
G1 X153.879 Y97.965 E3.85635
G1 X154.223 Y98.593 E3.89207
G1 X154.636 Y99.449 E3.93949
G1 X155.425 Y101.168 E4.03385
G1 X155.776 Y101.973 E4.07767
G1 X156.057 Y102.724 E4.11767
G1 X156.688 Y104.482 E4.21086
G1 X156.917 Y105.147 E4.24595
G1 X157.184 Y106.086 E4.29465
G1 X157.658 Y107.882 E4.38732
G1 X157.871 Y108.761 E4.43244
G1 X158.017 Y109.531 E4.47154
G1 X158.347 Y111.435 E4.56795
G1 X158.472 Y112.252 E4.60918
G1 X158.552 Y113.051 E4.64925
G1 X158.71 Y114.876 E4.74064
G1 X158.764 Y115.617 E4.7777
G1 X158.783 Y116.564 E4.82496
G1 X158.783 Y118.479 E4.9205
G1 X158.773 Y119.164 E4.95468
G1 X158.705 Y120.178 E5.00538
G1 X158.545 Y122.034 E5.09832
G1 X158.453 Y122.892 E5.14137
G1 X158.331 Y123.66 E5.18017
G1 X158.006 Y125.531 E5.27491
G1 X157.88 Y126.2 E5.30887
G1 X157.636 Y127.203 E5.36037
G1 X157.166 Y128.981 E5.45212
G1 X156.929 Y129.811 E5.49519
G1 X156.654 Y130.613 E5.53749
G1 X156.042 Y132.319 E5.62791
G1 X155.788 Y132.999 E5.66412
G1 X155.397 Y133.894 E5.71285
G1 X154.61 Y135.609 E5.80699
G1 X154.233 Y136.388 E5.85017
G1 X153.847 Y137.092 E5.89022
G1 X152.931 Y138.705 E5.98277
G1 X152.472 Y139.477 E6.02758
G1 X152.03 Y140.14 E6.06733
G1 X150.978 Y141.669 E6.15992
G1 X150.454 Y142.4 E6.2048
G1 X149.944 Y143.038 E6.24554
G1 X148.771 Y144.462 E6.33759
G1 X148.185 Y145.146 E6.38252
G1 X147.655 Y145.703 E6.42088
G1 X146.352 Y147.034 E6.51381
G1 X145.694 Y147.68 E6.55981
G1 X145.105 Y148.202 E6.59908
G1 X143.651 Y149.451 E6.69471
G1 X142.989 Y149.996 E6.73749
G1 X142.374 Y150.451 E6.77565
G1 X140.849 Y151.549 E6.86941
G1 X140.108 Y152.061 E6.91434
G1 X139.461 Y152.459 E6.95224
G1 X137.783 Y153.46 E7.04972
G1 X137.071 Y153.865 E7.09058
G1 X136.352 Y154.226 E7.13072
G1 X134.659 Y155.049 E7.22464
G1 X134.04 Y155.339 E7.25874
G1 X133.11 Y155.716 E7.30881
G1 X131.349 Y156.391 E7.4029
G1 X130.716 Y156.623 E7.43653
G1 X129.794 Y156.908 E7.48468
G1 X127.993 Y157.425 E7.57816
G1 X127.299 Y157.613 E7.61403
G1 X126.348 Y157.819 E7.66258
G1 X124.489 Y158.184 E7.75709
G1 X123.644 Y158.332 E7.79989
G1 X122.851 Y158.43 E7.83976
G1 X120.933 Y158.636 E7.936
G1 X120.121 Y158.707 E7.97666
G1 X119.288 Y158.736 E8.01824
G1 X117.416 Y158.776 E8.11166
G1 X116.748 Y158.781 E8.14499
G1 X115.744 Y158.736 E8.19513
G1 X113.897 Y158.616 E8.28747
G1 X113.008 Y158.542 E8.33198
G1 X112.221 Y158.434 E8.37161
G1 X110.364 Y158.151 E8.46532
G1 X109.49 Y158.001 E8.50956
G1 X108.748 Y157.834 E8.54751
G1 X106.931 Y157.395 E8.64077
G1 X106.047 Y157.162 E8.68638
G1 X105.295 Y156.923 E8.72574
G1 X103.475 Y156.314 E8.82149
G1 X102.857 Y156.098 E8.85415
G1 X101.957 Y155.729 E8.90268
G1 X100.194 Y154.965 E8.99854
G1 X99.591 Y154.693 E9.03154
G1 X98.704 Y154.237 E9.0813
G1 X97.013 Y153.323 E9.1772
G1 X96.318 Y152.929 E9.21706
G1 X95.609 Y152.48 E9.25893
G1 X94.019 Y151.435 E9.35385
G1 X93.338 Y150.967 E9.39508
G1 X92.699 Y150.478 E9.43522
G1 X91.213 Y149.307 E9.52961
G1 X90.528 Y148.745 E9.57381
G1 X89.965 Y148.231 E9.61185
G1 X88.563 Y146.917 E9.70771
G1 X88.094 Y146.464 E9.74024
G1 X87.398 Y145.719 E9.79111
G1 X86.172 Y144.353 E9.88268
G1 X85.585 Y143.672 E9.92754
G1 X85.088 Y143.031 E9.968
G1 X83.974 Y141.552 E10.06038
G1 X83.566 Y140.993 E10.09491
G1 X83.002 Y140.13 E10.14634
G1 X82.041 Y138.595 E10.23669
G1 X81.572 Y137.812 E10.28223
G1 X81.197 Y137.104 E10.3222
G1 X80.354 Y135.458 E10.41446
G1 X79.96 Y134.649 E10.45935
G1 X79.654 Y133.929 E10.49838
G1 X78.939 Y132.174 E10.59293
G1 X78.628 Y131.366 E10.63612
G1 X78.373 Y130.586 E10.67707
G1 X77.832 Y128.847 E10.76793
G1 X77.577 Y127.959 E10.81402
G1 X77.401 Y127.204 E10.8527
G1 X76.994 Y125.342 E10.94778
G1 X76.828 Y124.507 E10.99026
G1 X76.718 Y123.751 E11.02837
G1 X76.473 Y121.856 E11.1237
G1 X76.377 Y120.981 E11.16762
G1 X76.328 Y120.127 E11.21029
G1 X76.251 Y118.332 E11.29993
G1 X76.229 Y117.602 E11.33636
G1 X76.252 Y116.633 E11.38472
G1 X76.332 Y114.781 E11.4772
G1 X76.373 Y114.061 E11.51318
G1 X76.483 Y113.068 E11.56303
G1 X76.725 Y111.199 E11.65705
G1 X76.822 Y110.531 E11.69073
G1 X77.011 Y109.579 E11.73915
G1 X77.414 Y107.733 E11.83342
G1 X77.575 Y107.048 E11.86852
G1 X77.839 Y106.132 E11.91608
G1 X78.408 Y104.301 E12.01174
G1 X78.614 Y103.671 E12.04481
G1 X78.97 Y102.748 E12.09416
G1 X79.671 Y101.029 E12.18678
G1 X79.952 Y100.368 E12.22262
G1 X80.374 Y99.502 E12.27068
G1 X81.222 Y97.847 E12.36345
G1 X81.664 Y97.023 E12.4101
G1 X82.056 Y96.38 E12.44767
G1 X83.048 Y94.798 E12.54083
G1 X83.551 Y94.028 E12.58672
G1 X84.008 Y93.403 E12.62535
G1 X85.119 Y91.928 E12.71747
G1 X85.566 Y91.349 E12.75397
G1 X86.227 Y90.585 E12.80437
G1 X87.481 Y89.189 E12.89799
G1 X88.05 Y88.579 E12.93961
G0 F3600 X87.757 Y88.306
G1 F2100 X88.391 Y87.696 E12.9835
G1 X89.745 Y86.428 E13.07605
G1 X90.406 Y85.833 E13.12042
G1 X91.026 Y85.33 E13.16025
G1 X92.49 Y84.177 E13.25322
G1 X93.095 Y83.716 E13.29117
G1 X93.884 Y83.175 E13.3389
G1 X95.492 Y82.119 E13.43487
G1 X96.217 Y81.664 E13.47758
G1 X96.945 Y81.258 E13.51916
G1 X98.609 Y80.36 E13.6135
G1 X99.224 Y80.04 E13.64809
G1 X100.107 Y79.637 E13.69651
G1 X101.884 Y78.868 E13.79311
G1 X102.68 Y78.542 E13.83602
G1 X103.45 Y78.273 E13.87672
G1 X105.242 Y77.673 E13.971
G1 X105.913 Y77.46 E14.00612
G1 X106.9 Y77.201 E14.05703
G1 X108.672 Y76.773 E14.14798
G1 X109.567 Y76.577 E14.19369
G1 X110.404 Y76.438 E14.23602
G1 X112.242 Y76.159 E14.32877
G1 X113.137 Y76.042 E14.3738
G1 X113.894 Y75.983 E14.41168
G1 X115.821 Y75.858 E14.50802
G1 X116.705 Y75.82 E14.55216
G1 X117.537 Y75.826 E14.59367
G1 X119.426 Y75.866 E14.68794
G1 X120.089 Y75.89 E14.72103
G1 X121.067 Y75.976 E14.77002
G1 X122.971 Y76.182 E14.86556
G1 X123.682 Y76.27 E14.9013
G1 X124.648 Y76.439 E14.95023
G1 X126.475 Y76.798 E15.04312
G1 X127.195 Y76.95 E15.07983
G1 X128.184 Y77.214 E15.1309
G1 X129.951 Y77.722 E15.22263
G1 X130.646 Y77.933 E15.25887
G1 X131.6 Y78.278 E15.30948
G1 X133.292 Y78.926 E15.39987
G1 X134.181 Y79.287 E15.44774
G1 X134.902 Y79.624 E15.48745
G1 X136.603 Y80.451 E15.58181
G1 X137.402 Y80.859 E15.62657
G1 X138.038 Y81.226 E15.6632
G1 X139.715 Y82.227 E15.76064
G1 X140.471 Y82.699 E15.8051
G1 X141.156 Y83.179 E15.84683
G1 X142.667 Y84.267 E15.93973
G1 X143.225 Y84.681 E15.97439
G1 X144.014 Y85.334 E16.02549
G1 X145.458 Y86.574 E16.12045
G1 X145.938 Y86.999 E16.15243
G1 X146.7 Y87.749 E16.20577
G1 X147.984 Y89.062 E16.29739
G1 X148.592 Y89.708 E16.34165
G1 X149.128 Y90.341 E16.38303
G1 X150.328 Y91.799 E16.47724
G1 X150.87 Y92.486 E16.5209
G1 X151.335 Y93.143 E16.56106
G1 X152.401 Y94.695 E16.65499
G1 X152.792 Y95.28 E16.6901
G1 X153.324 Y96.177 E16.74213
G1 X154.23 Y97.773 E16.83369
G1 X154.583 Y98.419 E16.87041
G1 X155 Y99.282 E16.91823
G1 X155.792 Y101.008 E17.01297
G1 X156.151 Y101.833 E17.05786
G1 X156.433 Y102.589 E17.09812
G1 X157.066 Y104.352 E17.19157
G1 X157.302 Y105.038 E17.22776
G1 X157.571 Y105.984 E17.27683
G1 X158.047 Y107.788 E17.36991
G1 X158.264 Y108.686 E17.41601
G1 X158.411 Y109.463 E17.45546
G1 X158.742 Y111.375 E17.55227
G1 X158.87 Y112.212 E17.59451
G1 X158.951 Y113.016 E17.63482
G1 X159.109 Y114.847 E17.72651
G1 X159.164 Y115.609 E17.76463
G1 X159.183 Y116.556 E17.81188
G1 X159.183 Y118.485 E17.90812
G1 X159.172 Y119.191 E17.94335
G1 X159.104 Y120.212 E17.9944
G1 X158.943 Y122.077 E18.08779
G1 X158.848 Y122.955 E18.13185
G1 X158.725 Y123.728 E18.1709
G1 X158.399 Y125.605 E18.26595
G1 X158.269 Y126.295 E18.30098
G1 X158.023 Y127.305 E18.35284
G1 X157.551 Y129.091 E18.445
G1 X157.314 Y129.921 E18.48807
G1 X157.031 Y130.748 E18.53167
G1 X156.417 Y132.459 E18.62237
G1 X156.155 Y133.159 E18.65965
G1 X155.761 Y134.061 E18.70876
G1 X154.97 Y135.783 E18.8033
G1 X154.584 Y136.58 E18.84748
G1 X154.195 Y137.29 E18.88787
G1 X153.275 Y138.909 E18.98078
G1 X152.805 Y139.699 E19.02664
G1 X152.36 Y140.367 E19.06668
G1 X151.303 Y141.902 E19.15966
G1 X150.766 Y142.65 E19.2056
G1 X150.253 Y143.292 E19.2466
G1 X149.075 Y144.722 E19.33903
G1 X148.475 Y145.422 E19.38503
G1 X147.941 Y145.983 E19.42367
G1 X146.632 Y147.319 E19.51699
G1 X145.959 Y147.979 E19.56401
G1 X145.366 Y148.505 E19.60356
G1 X143.905 Y149.76 E19.69965
G1 X143.227 Y150.318 E19.74346
G1 X142.608 Y150.776 E19.78187
G1 X141.076 Y151.878 E19.87602
G1 X140.318 Y152.402 E19.922
G1 X139.666 Y152.803 E19.96019
G1 X137.981 Y153.808 E20.05807
G1 X137.269 Y154.213 E20.09893
G1 X136.527 Y154.586 E20.14037
G1 X134.829 Y155.411 E20.23455
G1 X134.19 Y155.71 E20.26975
G1 X133.253 Y156.09 E20.32019
G1 X131.487 Y156.767 E20.41455
G1 X130.854 Y156.999 E20.44819
G1 X129.904 Y157.292 E20.49778
G1 X128.098 Y157.811 E20.59153
G1 X127.384 Y158.004 E20.62843
G1 X126.425 Y158.212 E20.67739
G1 X124.558 Y158.578 E20.77231
G1 X123.693 Y158.729 E20.81612
G1 X122.894 Y158.828 E20.85628
G1 X120.968 Y159.034 E20.95292
G1 X120.135 Y159.107 E20.99464
G1 X119.297 Y159.136 E21.03647
G1 X117.419 Y159.176 E21.13019
G1 X116.73 Y159.181 E21.16456
G1 X115.718 Y159.135 E21.2151
G1 X113.864 Y159.015 E21.30779
G1 X112.975 Y158.941 E21.3523
G1 X112.161 Y158.829 E21.39329
G1 X110.296 Y158.545 E21.48741
G1 X109.402 Y158.391 E21.53267
G1 X108.654 Y158.223 E21.57091
G1 X106.829 Y157.782 E21.66458
G1 X105.926 Y157.543 E21.71119
G1 X105.168 Y157.302 E21.75087
G1 X103.343 Y156.692 E21.84687
G1 X102.705 Y156.468 E21.8806
G1 X101.798 Y156.096 E21.92951
G1 X100.03 Y155.33 E22.02564
G1 X99.408 Y155.049 E22.05969
G1 X98.514 Y154.589 E22.10985
G1 X96.816 Y153.671 E22.20615
G1 X96.104 Y153.267 E22.247
G1 X95.389 Y152.814 E22.28922
G1 X93.792 Y151.765 E22.38455
G1 X93.095 Y151.285 E22.42677
G1 X92.451 Y150.792 E22.46724
G1 X90.959 Y149.616 E22.56201
G1 X90.258 Y149.04 E22.60728
G1 X89.691 Y148.523 E22.64556
G1 X88.285 Y147.205 E22.74171
G1 X87.816 Y146.752 E22.77424
G1 X87.1 Y145.986 E22.82655
G1 X85.869 Y144.614 E22.91851
G1 X85.269 Y143.917 E22.96439
G1 X84.768 Y143.272 E23.00514
G1 X83.651 Y141.788 E23.09781
G1 X83.231 Y141.212 E23.13337
G1 X82.663 Y140.342 E23.18521
G1 X81.698 Y138.801 E23.27592
G1 X81.229 Y138.018 E23.32145
G1 X80.841 Y137.286 E23.36279
G1 X79.994 Y135.633 E23.45545
G1 X79.6 Y134.824 E23.50035
G1 X79.284 Y134.08 E23.54067
G1 X78.566 Y132.318 E23.6356
G1 X78.248 Y131.49 E23.67985
G1 X77.991 Y130.705 E23.72106
G1 X77.448 Y128.957 E23.81238
G1 X77.187 Y128.05 E23.85946
G1 X77.01 Y127.289 E23.89844
G1 X76.602 Y125.42 E23.99388
G1 X76.432 Y124.565 E24.03738
G1 X76.321 Y123.802 E24.07584
G1 X76.075 Y121.9 E24.17152
G1 X75.979 Y121.025 E24.21544
G1 X75.928 Y120.144 E24.25947
G1 X75.851 Y118.344 E24.34935
G1 X75.829 Y117.593 E24.38683
G1 X75.852 Y116.616 E24.43559
G1 X75.933 Y114.758 E24.52837
G1 X75.975 Y114.017 E24.5654
G1 X76.086 Y113.017 E24.6156
G1 X76.329 Y111.142 E24.70993
G1 X76.43 Y110.453 E24.74467
G1 X76.62 Y109.494 E24.79344
G1 X77.025 Y107.641 E24.88807
G1 X77.191 Y106.937 E24.92416
G1 X77.457 Y106.013 E24.97213
G1 X78.028 Y104.177 E25.06805
G1 X78.241 Y103.527 E25.10218
G1 X78.6 Y102.597 E25.15191
G1 X79.303 Y100.873 E25.2448
G1 X79.592 Y100.193 E25.28166
G1 X80.018 Y99.32 E25.33013
G1 X80.87 Y97.658 E25.4233
G1 X81.322 Y96.815 E25.47103
G1 X81.717 Y96.168 E25.50884
G1 X82.713 Y94.579 E25.60241
G1 X83.228 Y93.792 E25.64933
G1 X83.688 Y93.162 E25.68825
G1 X84.802 Y91.684 E25.78058
G1 X85.264 Y91.087 E25.81824
G1 X85.929 Y90.318 E25.86897
G1 X87.188 Y88.916 E25.96298
G1 X87.757 Y88.306 E26.00459
G0 F3600 X87.464 Y88.033
G1 F2100 X88.118 Y87.404 E26.04986
G1 X89.477 Y86.131 E26.14276
G1 X90.154 Y85.522 E26.18819
G1 X90.779 Y85.016 E26.22831
G1 X92.248 Y83.859 E26.3216
G1 X92.869 Y83.386 E26.36055
G1 X93.664 Y82.841 E26.40864
G1 X95.279 Y81.78 E26.50504
G1 X96.004 Y81.325 E26.54775
G1 X96.755 Y80.906 E26.59065
G1 X98.424 Y80.005 E26.68528
G1 X99.058 Y79.676 E26.72091
G1 X99.948 Y79.27 E26.76972
G1 X101.732 Y78.498 E26.8667
G1 X102.548 Y78.164 E26.91068
G1 X103.323 Y77.894 E26.95163
G1 X105.121 Y77.292 E27.04623
G1 X105.811 Y77.073 E27.08234
G1 X106.806 Y76.812 E27.13366
G1 X108.586 Y76.382 E27.22502
G1 X109.501 Y76.182 E27.27175
G1 X110.344 Y76.043 E27.31437
G1 X112.19 Y75.762 E27.40753
G1 X113.106 Y75.643 E27.45362
G1 X113.868 Y75.584 E27.49175
G1 X115.804 Y75.458 E27.58854
G1 X116.708 Y75.42 E27.63368
G1 X117.545 Y75.426 E27.67544
G1 X119.44 Y75.466 E27.77
G1 X120.103 Y75.49 E27.8031
G1 X121.11 Y75.578 E27.85353
G1 X123.02 Y75.785 E27.94938
G1 X123.751 Y75.876 E27.98613
G1 X124.725 Y76.047 E28.03547
G1 X126.558 Y76.407 E28.12866
G1 X127.298 Y76.564 E28.1664
G1 X128.295 Y76.83 E28.21788
G1 X130.067 Y77.339 E28.30986
G1 X130.782 Y77.557 E28.34716
G1 X131.743 Y77.904 E28.39813
G1 X133.442 Y78.555 E28.4889
G1 X134.331 Y78.916 E28.53677
G1 X135.077 Y79.264 E28.57784
G1 X136.785 Y80.095 E28.6726
G1 X137.602 Y80.513 E28.71839
G1 X138.243 Y80.883 E28.75531
G1 X139.927 Y81.888 E28.85315
G1 X140.701 Y82.371 E28.89867
G1 X141.39 Y82.854 E28.94065
G1 X142.905 Y83.946 E29.03382
G1 X143.48 Y84.373 E29.06955
G1 X144.275 Y85.031 E29.12104
G1 X145.723 Y86.275 E29.21628
G1 X146.219 Y86.714 E29.24932
G1 X146.986 Y87.469 E29.30302
G1 X148.275 Y88.788 E29.39503
G1 X148.897 Y89.45 E29.44035
G1 X149.437 Y90.087 E29.48201
G1 X150.642 Y91.551 E29.57661
G1 X151.184 Y92.238 E29.62026
G1 X151.665 Y92.917 E29.66178
G1 X152.734 Y94.473 E29.75596
G1 X153.136 Y95.076 E29.79212
G1 X153.672 Y95.98 E29.84455
G1 X154.581 Y97.581 E29.9364
