;FLAVOR:Marlin
;TIME:673
;Filament used: 0.519695m
;Layer height: 0.15
;MINX:101
;MINY:105.1
;MINZ:0.3
;MAXX:134
;MAXY:129.9
;MAXZ:6
;POSTPROCESSED
;Generated with Cura_SteamEngine 5.3.1
M82 ;absolute extrusion mode
; Ender 3 Custom Start G-code
G92 E0 ; Reset Extruder

M140 S70 ; set bed temp
M190 S70 ; wait for bed temp

G28 ; Home all axes
BED_MESH_CALIBRATE  AREA_START=101,105.1 AREA_END=134,129.9
M104 S200 ; set extruder temp 

G1 Z2.0 F3000 ; Move Z Axis up little to prevent scratching of Heat Bed
M109 S200 ; wait for extruder temp
G1 X0.1 Y20 Z0.3 F5000.0 ; Move to start position

G1 X0.1 Y200.0 Z0.3 F1500.0 E15 ; Draw the first line
G1 X0.4 Y200.0 Z0.3 F5000.0 ; Move to side a little
G1 X0.4 Y20 Z0.3 F1500.0 E30 ; Draw the second line
G92 E0 ; Reset Extruder
G1 Z2.0 F3000 ; Move Z Axis up little to prevent scratching of Heat Bed
G1 X5 Y20 Z0.3 F5000.0 ; Move over to prevent blob squish
G92 E0
G92 E0
G1 F1500 E-1
;LAYER_COUNT:39
;LAYER:0
M107
M204 S1000
G0 F3600 X105.291 Y107.283 Z0.3
;TYPE:SKIRT
G1 F1500 E0
G1 F2100 X105.777 Y106.812 E0.03376
G1 X106.167 Y106.49 E0.059
G1 X106.602 Y106.233 E0.0842
G1 X107.073 Y106.048 E0.10945
G1 X107.678 Y105.916 E0.14034
G1 X108.562 Y105.9 E0.18445
G1 X126.339 Y105.9 E1.07135
G1 X127.041 Y105.91 E1.10638
G1 X127.544 Y105.957 E1.13158
G1 X128.034 Y106.083 E1.15682
G1 X128.497 Y106.285 E1.18203
G1 X128.924 Y106.556 E1.20726
G1 X129.258 Y106.837 E1.22903
G1 X131.815 Y109.389 E1.40927
G1 X132.287 Y109.875 E1.44307
G1 X132.609 Y110.264 E1.46826
G1 X132.866 Y110.699 E1.49347
G1 X133.052 Y111.17 E1.51873
G1 X133.187 Y111.779 E1.54985
G1 X133.2 Y112.61 E1.59132
G1 X133.2 Y122.239 E2.07171
G1 X133.19 Y122.941 E2.10673
G1 X133.143 Y123.444 E2.13194
G1 X133.017 Y123.934 E2.15718
G1 X132.815 Y124.397 E2.18238
G1 X132.544 Y124.824 E2.20761
G1 X132.114 Y125.308 E2.23991
G1 X129.717 Y127.708 E2.40914
G1 X129.223 Y128.187 E2.44347
G1 X128.833 Y128.51 E2.46873
G1 X128.397 Y128.766 E2.49396
G1 X127.927 Y128.951 E2.51916
G1 X127.324 Y129.084 E2.54996
G1 X126.438 Y129.1 E2.59417
G1 X108.661 Y129.1 E3.48107
G1 X107.959 Y129.09 E3.5161
G1 X107.456 Y129.043 E3.5413
G1 X106.966 Y128.917 E3.56654
G1 X106.503 Y128.715 E3.59175
G1 X106.076 Y128.444 E3.61698
G1 X105.742 Y128.163 E3.63875
G1 X103.188 Y125.614 E3.81878
G1 X102.718 Y125.131 E3.8524
G1 X102.395 Y124.742 E3.87762
G1 X102.137 Y124.307 E3.90286
G1 X101.951 Y123.836 E3.92812
G1 X101.817 Y123.231 E3.95904
G1 X101.8 Y122.338 E4.0036
G1 X101.8 Y112.761 E4.48139
G1 X101.81 Y112.059 E4.51642
G1 X101.857 Y111.556 E4.54163
G1 X101.983 Y111.066 E4.56687
G1 X102.185 Y110.603 E4.59207
G1 X102.456 Y110.176 E4.6173
G1 X102.737 Y109.842 E4.63908
G1 X105.291 Y107.283 E4.81945
G0 F3600 X105.013 Y106.996
G1 F2100 X105.522 Y106.504 E4.85477
G1 X105.912 Y106.182 E4.88
G1 X106.456 Y105.861 E4.91151
G1 X106.988 Y105.657 E4.93994
G1 X107.631 Y105.517 E4.97277
G1 X108.555 Y105.5 E5.01888
G1 X126.345 Y105.5 E5.90642
G1 X127.047 Y105.51 E5.94145
G1 X127.644 Y105.57 E5.97139
G1 X128.194 Y105.716 E5.99978
G1 X128.657 Y105.918 E6.02498
G1 X129.182 Y106.25 E6.05597
G1 X129.541 Y106.554 E6.07944
G1 X132.102 Y109.11 E6.25995
G1 X132.574 Y109.596 E6.29375
G1 X132.917 Y110.009 E6.32054
G1 X133.238 Y110.552 E6.35201
G1 X133.443 Y111.083 E6.3804
G1 X133.586 Y111.73 E6.41346
G1 X133.6 Y112.604 E6.45707
G1 X133.6 Y122.245 E6.93806
G1 X133.59 Y122.947 E6.97309
G1 X133.53 Y123.544 E7.00302
G1 X133.384 Y124.094 E7.03141
G1 X133.182 Y124.557 E7.05662
G1 X132.882 Y125.038 E7.0849
G1 X132.397 Y125.591 E7.12159
G1 X129.995 Y127.995 E7.29114
G1 X129.478 Y128.495 E7.32702
G1 X129.036 Y128.855 E7.35546
G1 X128.6 Y129.111 E7.38069
G1 X128.013 Y129.342 E7.41216
G1 X127.373 Y129.483 E7.44485
G1 X126.445 Y129.5 E7.49116
G1 X108.655 Y129.5 E8.37871
G1 X107.953 Y129.49 E8.41373
G1 X107.356 Y129.43 E8.44367
G1 X106.806 Y129.284 E8.47206
G1 X106.343 Y129.082 E8.49726
G1 X105.818 Y128.75 E8.52825
G1 X105.459 Y128.446 E8.55172
G1 X102.901 Y125.893 E8.73202
G1 X102.41 Y125.387 E8.7672
G1 X102.087 Y124.998 E8.79242
G1 X101.765 Y124.454 E8.82396
G1 X101.56 Y123.922 E8.85241
G1 X101.418 Y123.28 E8.88521
G1 X101.4 Y122.346 E8.93182
G1 X101.4 Y112.755 E9.41031
G1 X101.41 Y112.053 E9.44534
G1 X101.47 Y111.456 E9.47527
G1 X101.616 Y110.906 E9.50366
G1 X101.818 Y110.443 E9.52887
G1 X102.15 Y109.918 E9.55986
G1 X102.454 Y109.559 E9.58333
G1 X105.013 Y106.996 E9.76402
G0 F3600 X104.735 Y106.708
G1 F2100 X105.244 Y106.216 E9.79934
G1 X105.657 Y105.874 E9.82609
G1 X106.282 Y105.5 E9.86243
G1 X106.903 Y105.266 E9.89553
G1 X107.584 Y105.118 E9.9303
G1 X108.548 Y105.1 E9.9784
G1 X126.351 Y105.1 E10.8666
G1 X127.053 Y105.11 E10.90163
G1 X127.747 Y105.183 E10.93644
G1 X128.297 Y105.329 E10.96483
G1 X128.817 Y105.551 E10.99304
G1 X129.396 Y105.912 E11.02708
G1 X129.824 Y106.271 E11.05495
G1 X132.389 Y108.831 E11.23575
G1 X132.882 Y109.34 E11.2711
G1 X133.225 Y109.753 E11.29789
G1 X133.599 Y110.376 E11.33414
G1 X133.834 Y110.997 E11.36726
G1 X133.985 Y111.682 E11.40226
G1 X134 Y112.598 E11.44796
G1 X134 Y122.251 E11.92956
G1 X133.99 Y122.953 E11.96458
G1 X133.917 Y123.647 E11.9994
G1 X133.771 Y124.197 E12.02779
G1 X133.549 Y124.717 E12.05599
G1 X133.183 Y125.302 E12.09042
G1 X132.68 Y125.874 E12.12842
G1 X130.273 Y128.283 E12.29832
G1 X129.756 Y128.783 E12.3342
G1 X129.239 Y129.2 E12.36734
G1 X128.803 Y129.456 E12.39257
G1 X128.099 Y129.733 E12.43031
G1 X127.422 Y129.882 E12.46489
G1 X126.452 Y129.9 E12.51329
G1 X108.649 Y129.9 E13.40149
G1 X107.947 Y129.89 E13.43652
G1 X107.253 Y129.817 E13.47133
G1 X106.703 Y129.671 E13.49972
G1 X106.183 Y129.449 E13.52793
G1 X105.604 Y129.088 E13.56197
G1 X105.176 Y128.729 E13.58984
G1 X102.614 Y126.172 E13.77043
G1 X102.102 Y125.643 E13.80716
G1 X101.779 Y125.254 E13.83238
G1 X101.404 Y124.63 E13.8687
G1 X101.169 Y124.008 E13.90188
G1 X101.019 Y123.329 E13.93657
G1 X101 Y122.354 E13.98522
G1 X101 Y112.749 E14.46441
G1 X101.01 Y112.047 E14.49944
G1 X101.083 Y111.353 E14.53426
G1 X101.229 Y110.803 E14.56265
G1 X101.451 Y110.283 E14.59085
G1 X101.812 Y109.704 E14.6249
G1 X102.171 Y109.276 E14.65277
G1 X104.735 Y106.708 E14.83381
G1 F1500 E13.83381
;MESH:Square_18mm_Bowden_StockNut_45deg.stl
G0 F3600 X107.093 Y109.067
G0 X107.86 Y109.834
G0 X106.164 Y112.584
G0 X106 Y116.139
;TYPE:WALL-INNER
G1 F1500 E14.83381
G1 F2100 X106.243 Y115.762 E14.85619
G1 X106.673 Y115.317 E14.88706
G1 X107.033 Y115.06 E14.90913
G1 X107.286 Y114.93 E14.92332
G1 X107.852 Y114.733 E14.95322
G1 X108.153 Y114.678 E14.96848
G1 X108.816 Y114.658 E15.00158
G1 F2024.1 X109.589 Y114.832 E15.04259
G1 F1838.1 X110.151 Y115.131 E15.07887
G1 F1900.5 X110.358 Y115.349 E15.09545
G1 F2100 X110.807 Y115.831 E15.12831
G1 X111.101 Y116.333 E15.15733
G1 X111.272 Y115.641 E15.1929
G1 X111.44 Y115.145 E15.21902
G1 X111.579 Y114.831 E15.23616
G1 X111.006 Y114.812 E15.26476
G1 F1900.5 X110.355 Y114.695 E15.30122
G1 F1775.9 X109.816 Y114.429 E15.33668
G1 F1879.2 X109.322 Y114.047 E15.3715
G1 F1985.8 X108.882 Y113.604 E15.40444
G1 F2063.9 X108.4 Y112.802 E15.45194
G1 F2100 X108.164 Y111.887 E15.49908
G1 X108.164 Y111.259 E15.53041
G1 X108.263 Y110.653 E15.56105
G1 X108.469 Y110.101 E15.59044
G1 X108.416 Y110.1 E15.59309
G1 X106 Y112.516 E15.76355
G1 X106 Y116.139 E15.9443
G0 F3600 X105.831 Y117.12
G0 X106.016 Y118.554
G0 X106.754 Y119.552
G0 X107.696 Y120.069
G0 X108.761 Y120.171
G0 X109.849 Y119.898
G0 X109.73 Y119.627
G1 F2100 X109.205 Y119.846 E15.97268
G1 X108.879 Y119.921 E15.98937
G1 X108.336 Y119.942 E16.01648
G1 X107.774 Y119.84 E16.04498
G1 X107.333 Y119.651 E16.06891
G1 X106.957 Y119.401 E16.09144
G1 X106.609 Y119.069 E16.11544
G1 F2058.8 X106.242 Y118.467 E16.15131
G1 F1976.5 X106.047 Y117.757 E16.19034
G1 F1917.8 X106.052 Y117.12 E16.22514
G1 F1940 X106.292 Y116.429 E16.26465
G1 F2038.8 X106.542 Y116.029 E16.28889
G1 F2100 X106.806 Y115.732 E16.30871
G1 X107.329 Y115.339 E16.34135
G1 X108.07 Y115.081 E16.3805
G1 X108.786 Y115.06 E16.41623
G1 X109.421 Y115.232 E16.44906
G1 X110.002 Y115.554 E16.4822
G1 X110.5 Y116.087 E16.51859
G1 X110.744 Y116.511 E16.54299
G1 F2014.4 X110.932 Y117.104 E16.57535
G1 F1944.4 X110.962 Y117.499 E16.59669
G1 F1976.5 X110.941 Y117.91 E16.61851
G1 F2048.8 X110.71 Y118.543 E16.65297
G1 F2100 X110.348 Y119.119 E16.68691
G1 X109.73 Y119.627 E16.72682
G0 F3600 X109.849 Y119.898
G0 X111.811 Y120.331
G0 X112.291 Y120.667
G1 F2100 X112.056 Y120.254 E16.75053
G1 X111.841 Y119.782 E16.7764
G1 X111.595 Y119.077 E16.81365
G1 X111.466 Y118.399 E16.84809
G1 F1995.2 X111.385 Y117.804 E16.87962
G1 F1896.2 X111.386 Y117.186 E16.91376
G1 F1990.5 X111.473 Y116.501 E16.95011
G1 F2100 X111.645 Y115.787 E16.98675
G1 X111.818 Y115.278 E17.01357
G1 X112.05 Y114.76 E17.04189
G1 X112.293 Y114.329 E17.06657
G1 X111.888 Y114.425 E17.08734
G1 X111.145 Y114.434 E17.12441
G1 X110.498 Y114.277 E17.15762
G1 X110.003 Y114.041 E17.18498
G1 X109.584 Y113.742 E17.21066
G1 X109.161 Y113.292 E17.24147
G1 X108.771 Y112.641 E17.27934
G1 X108.565 Y111.84 E17.3206
G1 X108.559 Y111.324 E17.34634
G1 X108.67 Y110.644 E17.38072
G1 X108.92 Y110.061 E17.41237
G1 X109.164 Y109.701 E17.43406
G1 X108.25 Y109.7 E17.47966
G1 X105.6 Y112.35 E17.66663
G1 X105.602 Y116.414 E17.86939
G1 F1976.5 X105.626 Y117.009 E17.90095
G1 F1900.5 X105.617 Y117.232 E17.91326
G1 F1940 X105.617 Y117.794 E17.94361
G1 F2014.4 X105.6 Y118.444 E17.97743
G1 F2100 X105.601 Y122.65 E18.18726
G1 X108.25 Y125.3 E18.3742
G1 X109.188 Y125.3 E18.421
G1 X108.841 Y124.779 E18.45223
G1 X108.68 Y124.353 E18.47495
G1 X108.546 Y123.603 E18.51296
G1 X108.621 Y122.836 E18.55141
G1 X108.836 Y122.23 E18.58349
G1 X109.248 Y121.598 E18.62113
G1 X109.593 Y121.247 E18.64568
G1 X110.069 Y120.915 E18.67463
G1 X110.843 Y120.618 E18.71599
G1 X111.608 Y120.557 E18.75428
G1 X112.291 Y120.667 E18.7888
G1 F1500 E17.7888
G0 F3600 X111.811 Y120.331
G0 X112.809 Y121.082
G0 X113.688 Y120.473
G0 X118.582 Y122.213
G0 X118.823 Y123.27
G0 X120.341 Y123.176
G0 X120.664 Y122.713
G1 F1500 E18.7888
G1 F2100 X120.189 Y122.976 E18.81588
G1 X119.561 Y123.251 E18.85009
G1 X118.839 Y123.451 E18.88746
G1 X118.322 Y123.545 E18.91368
G1 X117.574 Y123.61 E18.95114
G1 X116.884 Y123.569 E18.98562
G1 X116.314 Y123.484 E19.01438
G1 X115.762 Y123.347 E19.04275
G1 X115.218 Y123.158 E19.07148
G1 X114.694 Y122.917 E19.10026
G1 X114.334 Y122.708 E19.12102
G1 X114.403 Y122.991 E19.13556
G1 X114.452 Y123.541 E19.16311
G1 X114.396 Y124.049 E19.1886
G1 X114.26 Y124.536 E19.21383
G1 X114.013 Y125.041 E19.24188
G1 X113.813 Y125.298 E19.25812
G1 X121.188 Y125.3 E19.62606
G1 X120.841 Y124.779 E19.65729
G1 X120.681 Y124.353 E19.68
G1 X120.546 Y123.603 E19.71802
G1 X120.614 Y122.908 E19.75285
G1 X120.664 Y122.713 E19.7629
G1 F1500 E18.7629
G0 F3600 X120.341 Y123.176
G0 X121.098 Y122.183
G0 X122.213 Y121.068
G0 X123.172 Y120.34
G0 X122.738 Y120.66
G1 F1500 E19.7629
G1 F2100 X122.863 Y120.615 E19.76953
G1 X123.635 Y120.556 E19.80815
G1 X124.162 Y120.627 E19.83468
G1 X124.688 Y120.799 E19.86229
G1 X125.031 Y120.976 E19.88155
G1 X125.544 Y121.367 E19.91373
G1 X126.002 Y121.941 E19.95036
G1 X126.263 Y122.475 E19.98002
G1 X126.397 Y122.931 E20.00373
G1 X126.453 Y123.553 E20.03489
G1 X126.396 Y124.049 E20.0598
G1 X126.242 Y124.599 E20.08829
G1 X126.013 Y125.041 E20.11313
G1 X125.813 Y125.298 E20.12937
G1 X126.75 Y125.299 E20.17612
G1 X129.4 Y122.65 E20.36306
G1 X129.4 Y118.492 E20.5705
G1 F1985.8 X129.377 Y117.994 E20.5968
G1 F1922.2 X129.387 Y117.482 E20.62471
G1 F1931 X129.379 Y117.087 E20.64615
G1 F1995.2 X129.4 Y116.449 E20.67967
G1 F2100 X129.4 Y112.35 E20.88417
G1 X126.75 Y109.7 E21.07114
G1 X125.824 Y109.701 E21.11734
G1 X125.974 Y109.899 E21.12973
G1 X126.215 Y110.35 E21.15524
G1 X126.384 Y110.886 E21.18328
G1 X126.451 Y111.363 E21.20731
G1 X126.414 Y111.991 E21.2387
G1 X126.299 Y112.436 E21.26163
G1 X126.078 Y112.93 E21.28863
G1 X125.724 Y113.446 E21.31985
G1 X125.094 Y113.989 E21.36134
G1 X124.526 Y114.27 E21.39296
G1 X123.896 Y114.428 E21.42536
G1 X123.216 Y114.432 E21.45929
G1 X122.741 Y114.338 E21.48345
G1 X123.102 Y115.085 E21.52484
G1 X123.303 Y115.617 E21.55321
G1 X123.489 Y116.305 E21.58877
G1 F1981.1 X123.61 Y117.087 E21.63061
G1 F1913.4 X123.612 Y117.669 E21.66248
G1 F2024.1 X123.563 Y118.179 E21.689
G1 F2100 X123.469 Y118.756 E21.71817
G1 X123.31 Y119.365 E21.74957
G1 X123.118 Y119.876 E21.7768
G1 X122.738 Y120.66 E21.82027
G0 F3600 X123.172 Y120.34
G0 X126.881 Y120.167
G0 X127.764 Y119.87
G0 X128.594 Y119.288
G0 X128.341 Y119.128
G1 F2100 X127.735 Y119.623 E21.85931
G1 X127.23 Y119.839 E21.88671
G1 X126.838 Y119.927 E21.90675
G1 X126.313 Y119.942 E21.93296
G1 F2105.3 X125.817 Y119.85 E21.95806
G1 X125.342 Y119.658 E21.98356
G1 F2100 X124.888 Y119.348 E22.01098
G1 X124.607 Y119.063 E22.03095
G1 F2063.9 X124.238 Y118.462 E22.06675
G1 F1990.5 X124.041 Y117.675 E22.10945
G1 F1913.4 X124.055 Y117.127 E22.13947
G1 F1926.6 X124.289 Y116.434 E22.17924
G1 F2038.8 X124.472 Y116.123 E22.19779
G1 F2100 X124.85 Y115.682 E22.22676
G1 X125.349 Y115.336 E22.25706
G1 X126.069 Y115.081 E22.29517
G1 X126.786 Y115.061 E22.33095
G1 X127.377 Y115.206 E22.36131
G1 X128.003 Y115.556 E22.39709
G1 X128.476 Y116.061 E22.43161
G1 F2048.8 X128.732 Y116.478 E22.45663
G1 F1944.4 X128.936 Y117.104 E22.49211
G1 F1931 X128.96 Y117.613 E22.51976
G1 F1922.2 X128.932 Y117.956 E22.53851
G1 F1985.8 X128.71 Y118.543 E22.57162
G1 F2100 X128.341 Y119.128 E22.60613
G1 F1500 E21.60613
G0 F3600 X128.594 Y119.288
G0 X126.829 Y119.768
G0 X125.458 Y119.54
G0 X124.735 Y118.961
G0 X124.038 Y116.603
G0 X122.201 Y113.918
G0 X121.111 Y112.824
G0 X120.311 Y111.819
G0 X120.682 Y112.296
G1 F1500 E22.60613
G1 F2100 X120.564 Y111.779 E22.63259
G1 X120.559 Y111.324 E22.65529
G1 X120.67 Y110.645 E22.68961
G1 X120.899 Y110.111 E22.7186
G1 X121.164 Y109.701 E22.74296
G1 X113.824 Y109.701 E23.10915
G1 X113.974 Y109.899 E23.12154
G1 X114.245 Y110.409 E23.15036
G1 X114.384 Y110.887 E23.17519
G1 X114.45 Y111.36 E23.19902
G1 X114.411 Y111.995 E23.23076
G1 X114.339 Y112.288 E23.24581
G1 X114.659 Y112.099 E23.26435
G1 X115.199 Y111.848 E23.29406
G1 X115.748 Y111.657 E23.32306
G1 X116.301 Y111.518 E23.35151
G1 X116.871 Y111.432 E23.38027
G1 X117.561 Y111.389 E23.41476
G1 X118.255 Y111.446 E23.4495
G1 X118.827 Y111.547 E23.47848
G1 X119.364 Y111.691 E23.50622
G1 X120.043 Y111.947 E23.54242
G1 X120.682 Y112.296 E23.57875
G0 F3600 X120.155 Y111.562
G1 F2100 X120.164 Y111.26 E23.59382
G1 X120.263 Y110.652 E23.62455
G1 X120.468 Y110.101 E23.65388
G1 X114.534 Y110.1 E23.94993
G1 X114.645 Y110.353 E23.96371
G1 X114.785 Y110.842 E23.98909
G1 X114.839 Y111.55 E24.02452
G1 X115.649 Y111.269 E24.06729
G1 X116.144 Y111.142 E24.09278
G1 X116.846 Y111.033 E24.12823
G1 X117.569 Y110.988 E24.16437
G1 X118.288 Y111.047 E24.20036
G1 X118.899 Y111.153 E24.2313
G1 X119.47 Y111.305 E24.26078
G1 X120.155 Y111.562 E24.29728
G1 F1500 E23.29728
G0 F3600 X121.111 Y112.824
G0 X122.201 Y113.918
G0 X127.317 Y115.358
G0 X129 Y116.139
G1 F1500 E24.29728
G1 F2100 X129 Y112.516 E24.47803
G1 X126.584 Y110.1 E24.64849
G1 X126.533 Y110.1 E24.65104
G1 X126.768 Y110.774 E24.68665
G1 X126.852 Y111.343 E24.71534
G1 X126.81 Y112.054 E24.75088
G1 X126.672 Y112.58 E24.77801
G1 X126.408 Y113.172 E24.81035
G1 F2009.6 X126.023 Y113.715 E24.84505
G1 F1846.2 X125.223 Y114.414 E24.90534
G1 F1779.7 X124.758 Y114.642 E24.93583
G1 F1931 X124.001 Y114.813 E24.97793
G1 F2100 X123.431 Y114.831 E25.00638
G1 X123.678 Y115.477 E25.04089
G1 X123.908 Y116.322 E25.08458
G1 X124.128 Y115.92 E25.10744
G1 X124.508 Y115.466 E25.13698
G1 F1931 X124.995 Y115.045 E25.17191
G1 F1779.7 X125.404 Y114.849 E25.19861
G1 F1922.2 X126.153 Y114.678 E25.24048
G1 F2100 X126.826 Y114.659 E25.27407
G1 X127.524 Y114.831 E25.30994
G1 X128.116 Y115.161 E25.34375
G1 X128.357 Y115.349 E25.359
G1 X128.767 Y115.787 E25.38893
G1 X129 Y116.139 E25.40999
G0 F3600 X129.191 Y117.558
G0 X129 Y118.833
G1 F2100 X128.733 Y119.258 E25.43503
G1 X128.519 Y119.5 E25.45115
G1 X127.943 Y119.971 E25.48827
G1 X127.338 Y120.225 E25.521
G1 X126.883 Y120.325 E25.54425
G1 F2058.8 X126.238 Y120.344 E25.57708
G1 F1976.5 X125.508 Y120.207 E25.61645
