; generated by PrusaSlicer 2.7.1+win64 on 2024-02-23 at 13:57:17 UTC


;
;

;
;
; 

; external perimeters extrusion width = 0.42mm
; perimeters extrusion width = 0.44mm
; infill extrusion width = 0.44mm
; solid infill extrusion width = 0.44mm
; top infill extrusion width = 0.40mm
; first layer extrusion width = 0.42mm


; printing object Scalono id:0 copy 0
; stop printing object Scalono id:0 copy 0

;TYPE:Custom
; Ender 3 Custom Start G-code
G92 E0 ; Reset Extruder

M140 S55 ; set bed temp
M104 S160 ; set extruder temp
M109 S160 ; wait for extruder temp
M190 S55 ; wait for bed temp

G28 ; Home all axes
M104 S210 ; set extruder temp 
BED_MESH_CALIBRATE AREA_START=86.7087,93.2185 AREA_END=154.758,136.883

G1 Z2.0 F3000 ; Move Z Axis up little to prevent scratching of Heat Bed
M109 S210 ; wait for extruder temp
G1 X0.1 Y20 Z0.3 F5000.0 ; Move to start position

G1 X0.1 Y200.0 Z0.3 F1500.0 E15 ; Draw the first line
G1 X0.4 Y200.0 Z0.3 F5000.0 ; Move to side a little
G1 X0.4 Y20 Z0.3 F1500.0 E30 ; Draw the second line
G92 E0 ; Reset Extruder
G1 Z2.0 F3000 ; Move Z Axis up little to prevent scratching of Heat Bed
G1 X5 Y20 Z0.3 F5000.0 ; Move over to prevent blob squish
G21 ; set units to millimeters
G90 ; use absolute coordinates
M83 ; use relative distances for extrusion
; Filament gcode
M107
;LAYER_CHANGE
;Z:0.2
;HEIGHT:0.2
;BEFORE_LAYER_CHANGE
G92 E0
;0.2


G1 E-1.6 F2400
G1 Z.2 F6000
;AFTER_LAYER_CHANGE
;0.2
G1 X91.687 Y97.911
G1 Z.2
G1 E1.6 F2400
M204 S500
;TYPE:Skirt/Brim
;WIDTH:0.42
G1 F1200
G1 X92.517 Y97.134 E.03351
G1 X93.649 Y96.264 E.04208
G1 X94.837 Y95.508 E.0415
G1 X96.298 Y94.768 E.04827
G1 X97.596 Y94.259 E.04109
G1 X99.174 Y93.809 E.04836
G1 X100.546 Y93.556 E.04112
G1 X102.133 Y93.417 E.04695
G1 X138.767 Y93.407 E1.07972
G1 X140.433 Y93.496 E.04917
G1 X142.067 Y93.758 E.04877
G1 X143.652 Y94.185 E.04838
G1 X145.199 Y94.781 E.04886
G1 X146.629 Y95.507 E.04727
G1 X148.065 Y96.439 E.05046
G1 X149.353 Y97.486 E.04892
G1 X150.531 Y98.668 E.04918
G1 X151.562 Y99.946 E.0484
G1 X152.56 Y101.51 E.05468
G1 X153.3 Y103.016 E.04946
G1 X153.869 Y104.569 E.04875
G1 X154.275 Y106.187 E.04917
G1 X154.508 Y107.829 E.04888
G1 X154.568 Y109.533 E.05025
G1 X154.454 Y111.139 E.04745
G1 X153.97 Y113.543 E.07227
G1 X153.216 Y115.632 E.06546
G1 X152.041 Y117.807 E.07286
G1 X150.708 Y119.584 E.06547
G1 X138.06 Y132.466 E.53208
G1 X136.106 Y134.014 E.07347
G1 X134.942 Y134.724 E.04019
G1 X133.712 Y135.335 E.04048
G1 X131.949 Y135.995 E.05548
G1 X130.278 Y136.411 E.05075
G1 X128.384 Y136.658 E.05629
G1 X126.428 Y136.673 E.05765
G1 X108.622 Y134.538 E.52856
G1 X107.064 Y134.207 E.04694
G1 X105.611 Y133.693 E.04542
G1 X104.536 Y133.17 E.03523
G1 X103.582 Y132.585 E.03298
G1 X102.585 Y131.828 E.03689
G1 X101.688 Y130.99 E.03618
G1 X90.789 Y119.621 E.46418
G1 X89.431 Y117.818 E.06653
G1 X88.257 Y115.648 E.07272
G1 X87.748 Y114.349 E.04112
G1 X87.298 Y112.771 E.04836
G1 X87.045 Y111.4 E.04109
G1 X86.904 Y109.728 E.04945
G1 X86.933 Y108.144 E.04669
G1 X87.13 Y106.522 E.04816
G1 X87.498 Y104.905 E.04888
G1 X87.951 Y103.548 E.04216
G1 X88.629 Y102.029 E.04903
G1 X89.425 Y100.648 E.04698
G1 X90.277 Y99.452 E.04328
G1 X91.313 Y98.262 E.0465
G1 X91.644 Y97.952 E.01337
G1 X91.899 Y98.227 F6000
G1 F1200
G1 X92.803 Y97.387 E.03637
G1 X94.052 Y96.443 E.04614
G1 X95.247 Y95.711 E.0413
G1 X96.657 Y95.023 E.04624
G1 X97.97 Y94.532 E.04132
G1 X99.474 Y94.128 E.0459
G1 X100.839 Y93.899 E.04079
G1 X102.225 Y93.791 E.04097
G1 X138.78 Y93.784 E1.07739
G1 X140.389 Y93.87 E.04749
G1 X141.985 Y94.126 E.04764
G1 X143.75 Y94.615 E.05398
G1 X145.247 Y95.217 E.04756
G1 X146.511 Y95.875 E.042
G1 X148.021 Y96.876 E.0534
G1 X149.263 Y97.914 E.04771
G1 X150.394 Y99.083 E.04794
G1 X151.403 Y100.374 E.04829
G1 X152.266 Y101.756 E.04802
G1 X153.057 Y103.413 E.05412
G1 X153.584 Y104.934 E.04744
G1 X153.958 Y106.544 E.04872
G1 X154.156 Y108.159 E.04796
G1 X154.185 Y109.745 E.04675
G1 X154.048 Y111.342 E.04724
G1 X153.595 Y113.484 E.06453
G1 X152.845 Y115.537 E.06442
G1 X151.721 Y117.608 E.06945
G1 X150.399 Y119.365 E.06481
G1 X137.806 Y132.188 E.52971
G1 X136.796 Y133.048 E.0391
G1 X135.713 Y133.821 E.03922
G1 X134.56 Y134.502 E.03947
G1 X133.358 Y135.078 E.03928
G1 X131.585 Y135.71 E.05548
G1 X129.936 Y136.09 E.04987
G1 X128.081 Y136.299 E.05502
G1 X126.232 Y136.282 E.0545
G1 X108.679 Y134.165 E.52109
G1 X107.102 Y133.826 E.04754
G1 X105.62 Y133.286 E.04649
G1 X103.854 Y132.314 E.05941
G1 X102.269 Y131.037 E.05999
G1 X91.592 Y119.94 E.45387
G1 X90.711 Y118.942 E.03924
G1 X89.893 Y117.836 E.04054
G1 X89.196 Y116.691 E.03951
G1 X88.514 Y115.294 E.04582
G1 X88.021 Y113.975 E.0415
G1 X87.617 Y112.472 E.04587
G1 X87.361 Y110.879 E.04755
G1 X87.276 Y109.467 E.04169
G1 X87.333 Y107.881 E.04677
G1 X87.55 Y106.317 E.04654
G1 X87.88 Y104.942 E.04168
G1 X88.38 Y103.485 E.0454
G1 X88.964 Y102.203 E.04152
G1 X89.767 Y100.813 E.04731
G1 X90.571 Y99.689 E.04073
G1 X91.634 Y98.473 E.0476
G1 X91.855 Y98.268 E.00888
G1 X92.127 Y98.52 F6000
G1 F1200
G1 X92.227 Y98.413 E.00432
G1 X93.414 Y97.375 E.04647
G1 X94.503 Y96.597 E.03945
G1 X95.663 Y95.914 E.03967
G1 X97.049 Y95.267 E.04508
G1 X98.312 Y94.82 E.03949
G1 X99.599 Y94.487 E.03918
G1 X100.883 Y94.273 E.03837
G1 X102.232 Y94.168 E.03988
G1 X138.777 Y94.161 E1.07709
G1 X140.345 Y94.245 E.04628
G1 X141.903 Y94.494 E.0465
G1 X143.631 Y94.973 E.05285
G1 X145.091 Y95.56 E.04638
G1 X146.317 Y96.198 E.04073
G1 X147.82 Y97.196 E.05317
G1 X149.041 Y98.223 E.04702
G1 X150.131 Y99.355 E.04632
G1 X151.093 Y100.588 E.04609
G1 X151.935 Y101.936 E.04684
G1 X152.709 Y103.558 E.05297
G1 X153.229 Y105.062 E.0469
G1 X153.586 Y106.609 E.04679
G1 X153.78 Y108.183 E.04674
G1 X153.807 Y109.777 E.04699
G1 X153.665 Y111.36 E.04684
G1 X153.223 Y113.412 E.06187
G1 X152.416 Y115.569 E.06788
G1 X151.258 Y117.628 E.06962
G1 X149.965 Y119.287 E.06199
G1 X137.387 Y132.06 E.52835
G1 X136.345 Y132.919 E.0398
G1 X135.297 Y133.638 E.03746
G1 X134.15 Y134.29 E.03889
G1 X132.962 Y134.835 E.03852
G1 X131.409 Y135.368 E.04839
G1 X129.636 Y135.758 E.0535
G1 X127.842 Y135.932 E.05312
G1 X126.256 Y135.906 E.04675
G1 X108.737 Y133.793 E.52008
G1 X107.21 Y133.465 E.04603
G1 X105.735 Y132.925 E.04629
G1 X104.011 Y131.965 E.05816
G1 X102.528 Y130.763 E.05626
G1 X91.718 Y119.526 E.45956
G1 X90.825 Y118.481 E.04051
G1 X90.068 Y117.413 E.03858
G1 X89.404 Y116.282 E.03865
G1 X88.757 Y114.898 E.04503
G1 X88.243 Y113.413 E.04632
G1 X87.931 Y112.121 E.03917
G1 X87.729 Y110.77 E.04026
G1 X87.651 Y109.198 E.04639
G1 X87.735 Y107.632 E.04622
G1 X87.974 Y106.12 E.04512
G1 X88.317 Y104.797 E.04028
G1 X88.842 Y103.355 E.04523
G1 X89.527 Y101.944 E.04623
G1 X90.242 Y100.778 E.04031
G1 X91.161 Y99.56 E.04497
G1 X92.086 Y98.564 E.04006
; printing object Scalono id:0 copy 0
G1 E-1.12 F2400
;WIPE_START
G1 F4800
G1 X92.127 Y98.52 E-.02857
G1 X92.227 Y98.413 E-.06957
G1 X92.832 Y97.884 E-.38186
;WIPE_END
G1 X111.682 Y121.956 F6000
G1 E1.6 F2400
;TYPE:Perimeter
G1 F1200
G1 X111.56 Y122.029 E.00419
G1 X111.31 Y122.051 E.0074
G1 X111.205 Y122.03 E.00316
G1 X111.088 Y121.959 E.00403
G1 X110.978 Y121.766 E.00655
G1 X110.93 Y121.581 E.00563
G1 X110.902 Y121.332 E.00739
G1 X110.902 Y121.048 E.00837
G1 X110.934 Y120.821 E.00676
G1 X110.985 Y120.66 E.00498
G1 X111.042 Y120.555 E.00352
G1 X111.157 Y120.448 E.00463
G1 X111.324 Y120.401 E.00511
G1 X111.58 Y120.422 E.00757
G1 X111.713 Y120.495 E.00447
G1 X111.77 Y120.582 E.00307
G1 X111.82 Y120.713 E.00413
G1 X111.859 Y120.913 E.00601
G1 X111.875 Y121.185 E.00803
G1 X111.86 Y121.452 E.00788
G1 X111.788 Y121.774 E.00972
G1 X111.712 Y121.904 E.00444
G1 X111.954 Y122.221 F6000
;TYPE:External perimeter
G1 F1200
G1 X111.828 Y122.322 E.00476
G1 X111.676 Y122.391 E.00492
G1 X111.488 Y122.428 E.00565
G1 X111.272 Y122.428 E.00637
G1 X111.088 Y122.391 E.00553
G1 X110.938 Y122.323 E.00485
G1 X110.815 Y122.223 E.00467
G1 X110.709 Y122.083 E.00518
G1 X110.622 Y121.893 E.00616
G1 X110.558 Y121.65 E.00741
G1 X110.524 Y121.353 E.00881
G1 X110.525 Y121.021 E.00979
G1 X110.565 Y120.737 E.00845
G1 X110.636 Y120.511 E.00698
G1 X110.731 Y120.338 E.00582
G1 X110.843 Y120.21 E.00501
G1 X110.972 Y120.117 E.00469
G1 X111.12 Y120.055 E.00473
G1 X111.288 Y120.024 E.00504
G1 X111.481 Y120.023 E.00569
G1 X111.682 Y120.057 E.00601
G1 X111.835 Y120.118 E.00485
G1 X112.009 Y120.259 E.0066
G1 X112.108 Y120.41 E.00532
G1 X112.184 Y120.609 E.00628
G1 X112.234 Y120.866 E.00772
G1 X112.252 Y121.184 E.00939
G1 X112.235 Y121.503 E.00942
G1 X112.147 Y121.896 E.01187
G1 X112.061 Y122.081 E.00601
G1 X111.99 Y122.174 E.00345
G1 X111.742 Y120.971 F6000
;TYPE:Solid infill
;WIDTH:0.465204
G1 F1200
G1 X111.476 Y120.705 E.01242
G1 X111.353 Y120.694 E.00408
G1 X111.304 Y120.708 E.00168
G1 X111.253 Y120.774 E.00275
G1 X111.199 Y121.025 E.00847
G1 X111.572 Y121.398 E.01741
G1 X111.515 Y121.666 E.00904
G1 X111.468 Y121.746 E.00306
G1 X111.334 Y121.757 E.00444
G1 X111.038 Y121.461 E.01382
G1 E-1.12 F2400
;WIPE_START
G1 F4800
G1 X111.334 Y121.757 E-.19884
G1 X111.468 Y121.746 E-.06386
G1 X111.515 Y121.666 E-.04407
G1 X111.572 Y121.398 E-.13015
G1 X111.508 Y121.334 E-.04308
;WIPE_END
G1 X123.614 Y104.361 F6000
G1 E1.6 F2400
;TYPE:Perimeter
;WIDTH:0.42
G1 F1200
G1 X123.502 Y104.28 E.00407
G1 X123.454 Y104.215 E.00238
G1 X123.389 Y104.018 E.00611
G1 X123.378 Y103.861 E.00464
G1 X123.42 Y103.563 E.00887
G1 X123.514 Y103.396 E.00565
G1 X123.575 Y103.339 E.00246
G1 X123.678 Y103.289 E.00337
G1 X123.812 Y103.296 E.00395
G1 X123.935 Y103.347 E.00392
G1 X124.016 Y103.418 E.00317
G1 X124.095 Y103.542 E.00433
G1 X124.152 Y103.711 E.00526
G1 X124.172 Y103.904 E.00572
G1 X124.137 Y104.127 E.00665
G1 X124.046 Y104.269 E.00497
G1 X123.918 Y104.36 E.00463
G1 X123.764 Y104.389 E.00462
G1 X123.673 Y104.372 E.00273
G1 X123.463 Y104.71 F6000
;TYPE:External perimeter
G1 F1200
G1 X123.337 Y104.638 E.00428
G1 X123.222 Y104.536 E.00453
G1 X123.127 Y104.408 E.0047
G1 X123.059 Y104.257 E.00488
G1 X123.015 Y104.075 E.00552
G1 X123 Y103.861 E.00632
G1 X123.016 Y103.636 E.00665
G1 X123.06 Y103.444 E.00581
G1 X123.131 Y103.282 E.00521
G1 X123.229 Y103.146 E.00494
G1 X123.345 Y103.037 E.00469
G1 X123.467 Y102.962 E.00422
G1 X123.597 Y102.918 E.00405
G1 X123.736 Y102.904 E.00412
G1 X123.914 Y102.929 E.0053
G1 X124.137 Y103.023 E.00713
G1 X124.305 Y103.169 E.00656
G1 X124.438 Y103.378 E.0073
G1 X124.522 Y103.629 E.0078
G1 X124.551 Y103.898 E.00797
G1 X124.536 Y104.091 E.00571
G1 X124.492 Y104.26 E.00515
G1 X124.42 Y104.405 E.00477
G1 X124.319 Y104.532 E.00478
G1 X124.198 Y104.636 E.0047
G1 X124.067 Y104.709 E.00442
G1 X123.924 Y104.753 E.00441
G1 X123.764 Y104.768 E.00474
G1 X123.604 Y104.753 E.00474
G1 X123.521 Y104.727 E.00256
G1 X124.047 Y103.865 F6000
;TYPE:Solid infill
;WIDTH:0.426635
G1 F1200
G1 X123.778 Y103.596 E.01141
G1 X123.741 Y103.583 E.00118
G1 X123.7 Y103.657 E.00254
G1 X123.67 Y103.87 E.00645
G1 X123.676 Y103.962 E.00277
G1 X123.713 Y104.074 E.00354
G1 X123.879 Y104.24 E.00704
G1 E-1.12 F2400
;WIPE_START
G1 F4800
G1 X123.713 Y104.074 E-.11151
G1 X123.676 Y103.962 E-.05603
G1 X123.67 Y103.87 E-.04379
G1 X123.7 Y103.657 E-.10217
G1 X123.741 Y103.583 E-.04018
G1 X123.778 Y103.596 E-.01863
G1 X123.938 Y103.756 E-.10769
;WIPE_END
G1 X118.254 Y104.197 F6000
G1 E1.6 F2400
;TYPE:Perimeter
;WIDTH:0.42
G1 F1200
G1 X118.208 Y104.269 E.00252
G1 X118.08 Y104.36 E.00463
G1 X117.926 Y104.389 E.00462
G1 X117.776 Y104.361 E.0045
G1 X117.664 Y104.28 E.00407
G1 X117.616 Y104.215 E.00238
G1 X117.551 Y104.018 E.00611
G1 X117.54 Y103.861 E.00464
G1 X117.582 Y103.563 E.00887
G1 X117.676 Y103.396 E.00565
G1 X117.737 Y103.339 E.00246
G1 X117.84 Y103.289 E.00337
G1 X117.974 Y103.296 E.00395
G1 X118.097 Y103.347 E.00392
G1 X118.178 Y103.418 E.00317
G1 X118.257 Y103.542 E.00433
G1 X118.314 Y103.711 E.00526
G1 X118.335 Y103.904 E.00572
G1 X118.299 Y104.127 E.00666
G1 X118.286 Y104.146 E.00068
G1 X117.499 Y104.638 F6000
;TYPE:External perimeter
G1 F1200
G1 X117.385 Y104.536 E.00451
G1 X117.29 Y104.408 E.0047
G1 X117.221 Y104.257 E.00489
G1 X117.178 Y104.075 E.00551
G1 X117.162 Y103.861 E.00632
G1 X117.178 Y103.636 E.00665
G1 X117.222 Y103.444 E.00581
G1 X117.293 Y103.282 E.00521
G1 X117.391 Y103.146 E.00494
G1 X117.507 Y103.037 E.00469
G1 X117.629 Y102.962 E.00422
G1 X117.759 Y102.918 E.00405
G1 X117.898 Y102.904 E.00412
G1 X118.076 Y102.929 E.0053
G1 X118.299 Y103.023 E.00713
G1 X118.467 Y103.169 E.00656
G1 X118.6 Y103.378 E.0073
G1 X118.684 Y103.629 E.0078
G1 X118.713 Y103.898 E.00797
G1 X118.698 Y104.091 E.00571
G1 X118.654 Y104.26 E.00515
G1 X118.582 Y104.405 E.00477
G1 X118.481 Y104.532 E.00478
G1 X118.36 Y104.636 E.0047
G1 X118.229 Y104.709 E.00442
G1 X118.086 Y104.753 E.00441
G1 X117.926 Y104.768 E.00474
G1 X117.766 Y104.753 E.00474
G1 X117.625 Y104.71 E.00434
G1 X117.552 Y104.668 E.00248
G1 X118.209 Y103.865 F6000
;TYPE:Solid infill
;WIDTH:0.426635
G1 F1200
G1 X117.94 Y103.596 E.01141
G1 X117.904 Y103.583 E.00115
G1 X117.862 Y103.657 E.00255
G1 X117.832 Y103.87 E.00645
G1 X117.839 Y103.962 E.00277
G1 X117.875 Y104.074 E.00353
G1 X118.041 Y104.24 E.00704
G1 E-1.12 F2400
;WIPE_START
G1 F4800
G1 X117.875 Y104.074 E-.11151
G1 X117.839 Y103.962 E-.05588
G1 X117.832 Y103.87 E-.04383
G1 X117.862 Y103.657 E-.10217
G1 X117.904 Y103.583 E-.04042
G1 X117.94 Y103.596 E-.01818
G1 X118.101 Y103.757 E-.10801
;WIPE_END
G1 X110.513 Y104.127 F6000
G1 E1.6 F2400
;TYPE:Perimeter
;WIDTH:0.42
G1 F1200
G1 X110.422 Y104.269 E.00497
G1 X110.294 Y104.36 E.00463
G1 X110.14 Y104.389 E.00462
G1 X109.99 Y104.361 E.0045
G1 X109.878 Y104.28 E.00407
G1 X109.83 Y104.215 E.00238
G1 X109.765 Y104.018 E.00611
G1 X109.754 Y103.861 E.00464
G1 X109.796 Y103.563 E.00887
G1 X109.89 Y103.396 E.00565
G1 X109.951 Y103.339 E.00246
G1 X110.054 Y103.289 E.00337
G1 X110.188 Y103.296 E.00395
G1 X110.311 Y103.347 E.00392
G1 X110.392 Y103.418 E.00317
G1 X110.471 Y103.542 E.00433
G1 X110.528 Y103.711 E.00526
G1 X110.548 Y103.904 E.00572
G1 X110.522 Y104.068 E.00489
G1 X109.843 Y102.962 F6000
;TYPE:External perimeter
G1 F1200
G1 X109.973 Y102.918 E.00405
G1 X110.112 Y102.904 E.00412
G1 X110.29 Y102.929 E.0053
G1 X110.513 Y103.023 E.00713
G1 X110.681 Y103.169 E.00656
G1 X110.814 Y103.378 E.0073
G1 X110.898 Y103.629 E.0078
G1 X110.927 Y103.898 E.00797
G1 X110.912 Y104.091 E.00571
G1 X110.868 Y104.26 E.00515
G1 X110.796 Y104.405 E.00477
G1 X110.695 Y104.532 E.00478
G1 X110.574 Y104.636 E.0047
G1 X110.443 Y104.709 E.00442
G1 X110.3 Y104.753 E.00441
G1 X110.14 Y104.768 E.00474
G1 X109.98 Y104.753 E.00474
G1 X109.839 Y104.71 E.00434
G1 X109.713 Y104.638 E.00428
G1 X109.598 Y104.536 E.00453
G1 X109.503 Y104.408 E.0047
G1 X109.435 Y104.257 E.00488
G1 X109.391 Y104.075 E.00552
G1 X109.376 Y103.861 E.00632
G1 X109.392 Y103.636 E.00665
G1 X109.436 Y103.444 E.00581
G1 X109.507 Y103.282 E.00521
G1 X109.605 Y103.146 E.00494
G1 X109.721 Y103.037 E.00469
G1 X109.792 Y102.993 E.00246
G1 X110.423 Y103.865 F6000
;TYPE:Solid infill
;WIDTH:0.426635
G1 F1200
G1 X110.154 Y103.596 E.01141
G1 X110.117 Y103.583 E.00118
G1 X110.076 Y103.657 E.00254
G1 X110.046 Y103.87 E.00645
G1 X110.052 Y103.962 E.00277
G1 X110.089 Y104.074 E.00354
G1 X110.255 Y104.24 E.00704
G1 E-1.12 F2400
;WIPE_START
G1 F4800
G1 X110.089 Y104.074 E-.11151
G1 X110.052 Y103.962 E-.05603
G1 X110.046 Y103.87 E-.04379
G1 X110.076 Y103.657 E-.10217
G1 X110.117 Y103.583 E-.04018
G1 X110.154 Y103.596 E-.01863
G1 X110.314 Y103.756 E-.10769
;WIPE_END
G1 X110.007 Y111.361 F6000
G1 E1.6 F2400
;TYPE:Perimeter
;WIDTH:0.42
G1 F1200
G1 X110.054 Y111.338 E.00154
G1 X110.188 Y111.345 E.00395
G1 X110.311 Y111.397 E.00394
G1 X110.392 Y111.467 E.00316
G1 X110.471 Y111.591 E.00433
G1 X110.528 Y111.76 E.00526
G1 X110.548 Y111.953 E.00572
G1 X110.513 Y112.176 E.00665
G1 X110.422 Y112.319 E.005
G1 X110.294 Y112.41 E.00463
G1 X110.14 Y112.438 E.00461
G1 X109.99 Y112.411 E.00449
G1 X109.878 Y112.329 E.00409
G1 X109.83 Y112.265 E.00236
G1 X109.765 Y112.067 E.00614
G1 X109.754 Y111.91 E.00464
G1 X109.796 Y111.612 E.00887
G1 X109.89 Y111.445 E.00565
G1 X109.951 Y111.388 E.00246
G1 X109.953 Y111.387 E.00007
G1 X109.843 Y111.012 F6000
;TYPE:External perimeter
