; generated by PrusaSlicer 2.7.2+win64 on 2024-03-15 at 20:15:54 UTC

; 

; external perimeters extrusion width = 0.42mm
; perimeters extrusion width = 0.44mm
; infill extrusion width = 0.44mm
; solid infill extrusion width = 0.44mm
; top infill extrusion width = 0.40mm
; first layer extrusion width = 0.42mm


; printing object Scalono id:0 copy 0
; stop printing object Scalono id:0 copy 0

;TYPE:Custom
; Ender 3 Custom Start G-code
G92 E0 ; Reset Extruder

M140 S55 ; set bed temp
M104 S160 ; set extruder temp
M109 S160 ; wait for extruder temp
M190 S55 ; wait for bed temp

G28 ; Home all axes
M104 S215 ; set extruder temp 
BED_MESH_CALIBRATE AREA_START=92.4134,96.658 AREA_END=149.053,133.444

G1 Z2.0 F3000 ; Move Z Axis up little to prevent scratching of Heat Bed
M109 S215 ; wait for extruder temp
G1 X0.1 Y20 Z0.3 F5000.0 ; Move to start position

G1 X0.1 Y200.0 Z0.3 F1500.0 E15 ; Draw the first line
G1 X0.4 Y200.0 Z0.3 F5000.0 ; Move to side a little
G1 X0.4 Y20 Z0.3 F1500.0 E30 ; Draw the second line
G92 E0 ; Reset Extruder
G1 Z2.0 F3000 ; Move Z Axis up little to prevent scratching of Heat Bed
G1 X5 Y20 Z0.3 F5000.0 ; Move over to prevent blob squish
G21 ; set units to millimeters
G90 ; use absolute coordinates
M83 ; use relative distances for extrusion
; Filament gcode
M107
;LAYER_CHANGE
;Z:0.2
;HEIGHT:0.2
G1 E-1.6 F2400
G1 Z.2 F6000
G1 X97.083 Y100.28
G1 Z.2
G1 E1.6 F2400
M204 S500
;TYPE:Skirt/Brim
;WIDTH:0.42
G1 F1200
G1 X98.172 Y99.402 E.04386
G1 X99.287 Y98.676 E.04172
G1 X100.4 Y98.096 E.03935
G1 X101.66 Y97.587 E.04261
G1 X103.007 Y97.198 E.04396
G1 X104.224 Y96.973 E.0388
G1 X105.563 Y96.855 E.04215
G1 X135.422 Y96.847 E.93621
G1 X136.842 Y96.923 E.04459
G1 X138.23 Y97.146 E.04408
G1 X139.579 Y97.51 E.04381
G1 X140.896 Y98.018 E.04426
G1 X142.098 Y98.629 E.04228
G1 X143.34 Y99.434 E.04641
G1 X144.428 Y100.32 E.04399
G1 X145.432 Y101.328 E.04461
G1 X146.309 Y102.416 E.04382
G1 X147.063 Y103.581 E.04351
G1 X147.709 Y104.851 E.04468
G1 X148.215 Y106.177 E.0445
G1 X148.578 Y107.541 E.04426
G1 X148.796 Y108.945 E.04455
G1 X148.864 Y110.489 E.04846
G1 X148.788 Y111.75 E.03961
G1 X148.413 Y113.769 E.06439
G1 X147.783 Y115.597 E.06062
G1 X146.839 Y117.411 E.06412
G1 X145.694 Y118.989 E.06113
G1 X135.239 Y129.655 E.46829
G1 X133.569 Y130.977 E.06678
G1 X131.738 Y132.006 E.06585
G1 X130.256 Y132.59 E.04994
G1 X128.664 Y133.005 E.05158
G1 X126.999 Y133.224 E.05265
G1 X125.391 Y133.239 E.05042
G1 X110.776 Y131.491 E.46151
G1 X109.45 Y131.209 E.04251
G1 X108.234 Y130.783 E.0404
G1 X107.268 Y130.315 E.03366
G1 X106.438 Y129.806 E.03053
G1 X105.578 Y129.153 E.03386
G1 X104.807 Y128.431 E.03312
G1 X96.035 Y119.291 E.39721
G1 X94.88 Y117.806 E.05899
G1 X93.854 Y115.981 E.06564
G1 X93.342 Y114.714 E.04285
G1 X92.955 Y113.379 E.04358
G1 X92.727 Y112.151 E.03916
G1 X92.61 Y110.812 E.04214
G1 X92.621 Y109.57 E.03894
G1 X92.765 Y108.219 E.0426
G1 X93.01 Y107.017 E.03846
G1 X93.427 Y105.667 E.0443
G1 X93.969 Y104.398 E.04327
G1 X94.627 Y103.208 E.04264
G1 X95.43 Y102.052 E.04413
G1 X96.197 Y101.15 E.03712
G1 X97.04 Y100.322 E.03705
G1 X97.04 Y100.322 F6000
G1 X97.307 Y100.607
G1 F1200
G1 X97.627 Y100.307 E.01375
G1 X98.565 Y99.585 E.03711
G1 X99.548 Y98.961 E.03651
G1 X100.757 Y98.348 E.0425
G1 X101.83 Y97.927 E.03614
G1 X103.095 Y97.565 E.04126
G1 X104.272 Y97.347 E.03753
G1 X105.58 Y97.232 E.04117
G1 X135.419 Y97.224 E.93558
G1 X136.798 Y97.297 E.0433
G1 X138.148 Y97.514 E.04287
G1 X139.459 Y97.868 E.04258
G1 X140.74 Y98.361 E.04304
G1 X141.914 Y98.957 E.04128
G1 X143.115 Y99.737 E.0449
G1 X144.174 Y100.598 E.04279
G1 X145.149 Y101.577 E.04332
G1 X146.002 Y102.635 E.04261
G1 X146.735 Y103.768 E.04231
G1 X147.363 Y105.002 E.04341
G1 X147.855 Y106.29 E.04323
G1 X148.208 Y107.616 E.04302
G1 X148.421 Y108.979 E.04325
G1 X148.487 Y110.489 E.04739
G1 X148.414 Y111.706 E.03823
G1 X148.048 Y113.674 E.06276
G1 X147.437 Y115.447 E.0588
G1 X146.517 Y117.215 E.06249
G1 X145.408 Y118.743 E.0592
G1 X134.984 Y129.377 E.4669
G1 X133.362 Y130.662 E.06488
G1 X131.381 Y131.754 E.07092
G1 X129.89 Y132.31 E.04989
G1 X128.369 Y132.676 E.04905
G1 X126.79 Y132.86 E.04984
G1 X125.357 Y132.86 E.04493
G1 X110.834 Y131.119 E.45862
G1 X109.549 Y130.845 E.0412
G1 X108.338 Y130.417 E.04027
G1 X106.652 Y129.496 E.06024
G1 X105.823 Y128.867 E.03263
G1 X105.078 Y128.17 E.03199
G1 X96.199 Y118.907 E.40231
G1 X95.074 Y117.413 E.05864
G1 X94.103 Y115.618 E.06399
G1 X93.682 Y114.544 E.03617
G1 X93.31 Y113.238 E.04258
G1 X93.101 Y112.103 E.03619
G1 X92.984 Y110.72 E.04352
G1 X93.009 Y109.414 E.04096
G1 X93.171 Y108.073 E.04235
G1 X93.476 Y106.736 E.043
G1 X93.851 Y105.611 E.03718
G1 X94.413 Y104.353 E.0432
G1 X95.069 Y103.213 E.04124
G1 X95.776 Y102.222 E.03817
G1 X96.631 Y101.24 E.04083
G1 X97.263 Y100.648 E.02715
G1 X97.263 Y100.648 F6000
G1 X97.52 Y100.924
G1 F1200
G1 X97.907 Y100.564 E.01657
G1 X98.932 Y99.79 E.04027
G1 X99.919 Y99.185 E.0363
G1 X101.077 Y98.62 E.0404
G1 X102.159 Y98.216 E.03621
G1 X103.395 Y97.884 E.04013
G1 X104.52 Y97.695 E.03577
G1 X105.661 Y97.607 E.03588
G1 X135.416 Y97.601 E.93295
G1 X136.754 Y97.672 E.04201
G1 X138.066 Y97.882 E.04166
G1 X139.516 Y98.284 E.04718
G1 X140.748 Y98.779 E.04163
G1 X141.785 Y99.319 E.03666
G1 X143.031 Y100.145 E.04687
G1 X144.053 Y100.999 E.04176
G1 X144.984 Y101.961 E.04198
G1 X145.82 Y103.03 E.04255
G1 X146.526 Y104.163 E.04186
G1 X147.176 Y105.524 E.04729
G1 X147.61 Y106.776 E.04155
G1 X147.914 Y108.081 E.04201
G1 X148.078 Y109.391 E.04139
G1 X148.104 Y110.734 E.04212
G1 X147.992 Y112.043 E.04119
G1 X147.613 Y113.832 E.05734
G1 X147.007 Y115.491 E.05538
G1 X146.078 Y117.204 E.0611
G1 X144.984 Y118.657 E.05703
G1 X134.729 Y129.099 E.45889
G1 X133.004 Y130.446 E.06862
G1 X131.066 Y131.48 E.06887
G1 X129.607 Y132.001 E.04858
G1 X128.261 Y132.312 E.04331
G1 X126.722 Y132.486 E.04856
G1 X125.202 Y132.472 E.04766
G1 X110.892 Y130.746 E.45193
G1 X109.595 Y130.466 E.0416
G1 X108.374 Y130.022 E.04074
G1 X106.916 Y129.219 E.05219
G1 X105.606 Y128.164 E.05274
G1 X96.908 Y119.124 E.39334
G1 X95.511 Y117.392 E.06977
G1 X94.94 Y116.456 E.03438
G1 X94.377 Y115.303 E.04023
G1 X93.97 Y114.216 E.03639
G1 X93.629 Y112.935 E.04156
G1 X93.428 Y111.67 E.04016
G1 X93.358 Y110.505 E.03659
G1 X93.404 Y109.199 E.04097
G1 X93.583 Y107.916 E.04062
G1 X93.855 Y106.782 E.03656
G1 X94.266 Y105.584 E.03971
G1 X94.747 Y104.527 E.03641
G1 X95.408 Y103.384 E.0414
G1 X96.07 Y102.458 E.03569
G1 X96.935 Y101.467 E.04124
G1 X97.476 Y100.965 E.02314
; printing object Scalono id:0 copy 0
G1 E-1.12 F2400
;WIPE_START
G1 F4800
G1 X97.52 Y100.924 E-.02857
G1 X97.907 Y100.564 E-.25106
G1 X98.244 Y100.31 E-.20037
;WIPE_END
G1 X101.422 Y105.945 F6000
G1 E1.6 F2400
;TYPE:Perimeter
G1 F1200
G1 X101.445 Y105.941 E.00073
G1 X101.524 Y106.006 E.00321
G1 X101.561 Y106.081 E.00262
G1 X101.636 Y106.441 E.01153
G1 X101.661 Y106.798 E.01122
G1 X101.661 Y107.23 E.01355
G1 X101.607 Y107.772 E.01708
G1 X101.521 Y108.041 E.00885
G1 X101.485 Y108.085 E.00178
G1 X101.445 Y108.097 E.00131
G1 X101.4 Y108.082 E.00149
G1 X101.325 Y107.983 E.00389
G1 X101.283 Y107.864 E.00396
G1 X101.238 Y107.607 E.00818
G1 X101.212 Y107.239 E.01157
G1 X101.212 Y106.799 E.0138
G1 X101.238 Y106.433 E.0115
G1 X101.283 Y106.173 E.00827
G1 X101.352 Y106.008 E.00561
G1 X101.377 Y105.982 E.00113
G1 X101.377 Y105.982 F6000
G1 X101.325 Y105.574
;TYPE:External perimeter
G1 F1200
G1 X101.437 Y105.56 E.00354
G1 X101.537 Y105.573 E.00316
G1 X101.652 Y105.617 E.00386
G1 X101.749 Y105.69 E.00381
G1 X101.841 Y105.797 E.00442
G1 X101.92 Y105.958 E.00562
G1 X102.011 Y106.389 E.01381
G1 X102.038 Y106.785 E.01245
G1 X102.038 Y107.249 E.01455
G1 X101.979 Y107.832 E.01837
G1 X101.863 Y108.203 E.01219
G1 X101.74 Y108.367 E.00643
G1 X101.653 Y108.428 E.00333
G1 X101.557 Y108.464 E.00321
G1 X101.443 Y108.477 E.0036
G1 X101.327 Y108.463 E.00366
G1 X101.224 Y108.421 E.00349
G1 X101.131 Y108.352 E.00363
G1 X100.989 Y108.163 E.00741
G1 X100.917 Y107.96 E.00675
G1 X100.863 Y107.653 E.00977
G1 X100.835 Y107.253 E.01257
G1 X100.835 Y106.786 E.01464
G1 X100.863 Y106.387 E.01254
G1 X100.915 Y106.087 E.00955
G1 X100.95 Y105.968 E.00389
G1 X101.034 Y105.799 E.00592
G1 X101.127 Y105.69 E.00449
G1 X101.224 Y105.616 E.00383
G1 X101.269 Y105.597 E.00153
G1 X101.269 Y105.597 F6000
G1 X101.437 Y106.625
;TYPE:Gap fill
;WIDTH:0.115171
G1 F1200
G1 X101.433 Y107.376 E.00451
G1 E-1.12 F2400
;WIPE_START
G1 F4800
G1 X101.437 Y106.625 E-.35673
;WIPE_END
G1 E-.12327 F2400
G1 X101.359 Y112.502 F6000
G1 E1.6 F2400
;TYPE:Perimeter
;WIDTH:0.42
G1 F1200
G1 X101.421 Y112.501 E.00194
G1 X101.528 Y112.566 E.00393
G1 X101.576 Y112.642 E.00282
G1 X101.614 Y112.756 E.00377
G1 X101.629 Y112.891 E.00426
G1 X101.587 Y113.074 E.00589
G1 X101.52 Y113.143 E.00302
G1 X101.406 Y113.175 E.00371
G1 X101.327 Y113.162 E.00251
G1 X101.248 Y113.088 E.00339
G1 X101.209 Y112.966 E.00402
G1 X101.201 Y112.854 E.00352
G1 X101.209 Y112.733 E.0038
G1 X101.254 Y112.591 E.00467
G1 X101.312 Y112.532 E.00259
G1 X101.312 Y112.532 F6000
G1 X101.088 Y112.215
;TYPE:External perimeter
G1 F1200
G1 X101.278 Y112.126 E.00658
G1 X101.382 Y112.115 E.00328
G1 X101.524 Y112.135 E.0045
G1 X101.688 Y112.206 E.0056
G1 X101.816 Y112.317 E.00531
G1 X101.919 Y112.479 E.00602
G1 X101.985 Y112.675 E.00648
G1 X102.008 Y112.886 E.00665
G1 X101.996 Y113.036 E.00472
G1 X101.962 Y113.166 E.00421
G1 X101.907 Y113.277 E.00388
G1 X101.736 Y113.454 E.00772
G1 X101.528 Y113.543 E.00709
G1 X101.283 Y113.543 E.00768
G1 X101.081 Y113.456 E.0069
G1 X100.921 Y113.28 E.00746
G1 X100.868 Y113.164 E.004
G1 X100.835 Y113.023 E.00454
G1 X100.835 Y112.678 E.01082
G1 X100.87 Y112.528 E.00483
G1 X100.924 Y112.403 E.00427
G1 X101.049 Y112.26 E.00596
G1 E-1.12 F2400
;WIPE_START
G1 F4800
G1 X101.088 Y112.215 E-.02829
G1 X101.278 Y112.126 E-.09966
G1 X101.382 Y112.115 E-.04968
G1 X101.524 Y112.135 E-.06812
G1 X101.688 Y112.206 E-.08489
G1 X101.816 Y112.317 E-.08048
G1 X101.894 Y112.439 E-.06888
;WIPE_END
G1 X123.584 Y114.65 F6000
G1 E1.6 F2400
;TYPE:Perimeter
G1 F1200
G1 X123.505 Y114.597 E.00298
G1 X123.45 Y114.502 E.00344
G1 X123.422 Y114.305 E.00624
G1 X123.43 Y114.189 E.00365
G1 X123.471 Y114.06 E.00424
G1 X123.521 Y114.004 E.00235
G1 X123.576 Y113.981 E.00187
G1 X123.675 Y113.98 E.0031
G1 X123.785 Y114.037 E.00388
G1 X123.833 Y114.115 E.00287
G1 X123.856 Y114.264 E.00473
G1 X123.848 Y114.377 E.00355
G1 X123.827 Y114.461 E.00271
G1 X123.758 Y114.577 E.00423
G1 X123.678 Y114.64 E.00319
G1 X123.643 Y114.643 E.0011
G1 X123.643 Y114.643 F6000
G1 X123.504 Y115.021
;TYPE:External perimeter
G1 F1200
G1 X123.311 Y114.932 E.00666
G1 X123.146 Y114.746 E.0078
G1 X123.091 Y114.624 E.0042
G1 X123.056 Y114.478 E.00471
G1 X123.056 Y114.132 E.01085
G1 X123.09 Y113.988 E.00464
G1 X123.143 Y113.869 E.00408
G1 X123.301 Y113.695 E.00737
G1 X123.504 Y113.609 E.00691
G1 X123.744 Y113.608 E.00753
G1 X123.868 Y113.643 E.00404
G1 X123.967 Y113.697 E.00354
G1 X124.059 Y113.775 E.00378
G1 X124.134 Y113.872 E.00384
G1 X124.189 Y113.983 E.00388
G1 X124.223 Y114.113 E.00421
G1 X124.222 Y114.437 E.01016
G1 X124.184 Y114.587 E.00485
G1 X124.124 Y114.716 E.00446
G1 X124.04 Y114.829 E.00441
G1 X123.941 Y114.921 E.00424
G1 X123.839 Y114.983 E.00374
G1 X123.732 Y115.02 E.00355
G1 X123.564 Y115.02 E.00527
G1 X123.564 Y115.02 F6000
G1 X123.638 Y114.347
;TYPE:Gap fill
;WIDTH:0.0961166
G1 F1200
G1 X123.64 Y114.221 E.00056
G1 E-1.12 F2400
;WIPE_START
G1 F4800
G1 X123.638 Y114.347 E-.05986
;WIPE_END
G1 E-.42014 F2400
G1 X118.81 Y113.207 F6000
G1 E1.6 F2400
;TYPE:External perimeter
;WIDTH:0.42
G1 F1200
G1 X119.476 Y113.207 E.02088
G1 X118.81 Y114.166 E.03661
G1 X118.81 Y113.267 E.02819
G1 E-1.12 F2400
;WIPE_START
G1 F4800
G1 X118.81 Y113.207 E-.0285
G1 X119.476 Y113.207 E-.31635
G1 X119.314 Y113.441 E-.13515
;WIPE_END
G1 X113.136 Y113.207 F6000
G1 E1.6 F2400
G1 F1200
G1 X112.47 Y114.166 E.03661
G1 X112.47 Y113.207 E.03007
G1 X113.076 Y113.207 E.019
G1 E-1.12 F2400
;WIPE_START
G1 F4800
G1 X113.136 Y113.207 E-.0285
G1 X112.594 Y113.988 E-.4515
;WIPE_END
G1 X107.836 Y114.573 F6000
G1 E1.6 F2400
;TYPE:Perimeter
G1 F1200
G1 X107.843 Y114.625 E.00165
G1 X107.82 Y114.647 E.001
G1 X107.741 Y114.647 E.00248
G1 X107.71 Y114.617 E.00135
G1 X107.728 Y114.564 E.00176
G1 X107.783 Y114.564 E.00172
G1 X107.783 Y114.564 F6000
G1 X107.333 Y114.498
;TYPE:External perimeter
G1 F1200
G1 X107.353 Y114.431 E.00219
G1 X107.386 Y114.371 E.00215
G1 X107.52 Y114.24 E.00588
G1 X107.584 Y114.208 E.00224
G1 X107.661 Y114.187 E.0025
G1 X107.876 Y114.186 E.00674
G1 X107.967 Y114.209 E.00294
G1 X108.107 Y114.3 E.00524
G1 X108.199 Y114.437 E.00517
G1 X108.22 Y114.513 E.00247
G1 X108.22 Y114.714 E.0063
G1 X108.2 Y114.777 E.00207
G1 X108.167 Y114.836 E.00212
G1 X108.029 Y114.969 E.00601
G1 X107.963 Y115.003 E.00233
G1 X107.886 Y115.024 E.0025
G1 X107.67 Y115.024 E.00677
G1 X107.595 Y115.003 E.00244
G1 X107.529 Y114.968 E.00234
G1 X107.389 Y114.83 E.00616
G1 X107.354 Y114.767 E.00226
G1 X107.333 Y114.696 E.00232
G1 X107.333 Y114.558 E.00433
G1 X107.333 Y114.558 F6000
G1 X107.977 Y112.872
;TYPE:Perimeter
G1 F1200
G1 X107.954 Y112.906 E.00129
G1 X107.89 Y112.95 E.00244
G1 X107.785 Y112.967 E.00334
G1 X107.67 Y112.948 E.00365
G1 X107.597 Y112.899 E.00276
G1 X107.549 Y112.83 E.00264
G1 X107.531 Y112.721 E.00346
G1 X107.548 Y112.615 E.00337
G1 X107.59 Y112.554 E.00232
G1 X107.655 Y112.511 E.00244
G1 X107.757 Y112.493 E.00325
G1 X107.834 Y112.503 E.00243
G1 X107.914 Y112.532 E.00267
G1 X107.979 Y112.601 E.00297
G1 X108.013 Y112.748 E.00473
G1 X108.001 Y112.819 E.00226
G1 X108.001 Y112.819 F6000
G1 X107.422 Y112.22
;TYPE:External perimeter
G1 F1200
G1 X107.517 Y112.158 E.00356
G1 X107.764 Y112.114 E.00787
G1 X107.924 Y112.134 E.00506
G1 X108.097 Y112.198 E.00578
G1 X108.223 Y112.293 E.00495
G1 X108.316 Y112.423 E.00501
G1 X108.372 Y112.577 E.00514
G1 X108.392 Y112.742 E.00521
G1 X108.349 Y112.982 E.00764
G1 X108.223 Y113.174 E.0072
G1 X108.03 Y113.302 E.00726
G1 X107.785 Y113.346 E.0078
G1 X107.531 Y113.301 E.00809
G1 X107.332 Y113.169 E.00749
G1 X107.198 Y112.973 E.00744
G1 X107.152 Y112.721 E.00803
G1 X107.196 Y112.475 E.00784
G1 X107.324 Y112.284 E.00721
G1 X107.372 Y112.253 E.00179
G1 E-1.12 F2400
;WIPE_START
G1 F4800
G1 X107.422 Y112.22 E-.02846
G1 X107.517 Y112.158 E-.05388
G1 X107.764 Y112.114 E-.11917
G1 X107.924 Y112.134 E-.07659
G1 X108.097 Y112.198 E-.08762
G1 X108.223 Y112.293 E-.07496
G1 X108.271 Y112.36 E-.03932
;WIPE_END
G1 X107.735 Y108.093 F6000
G1 E1.6 F2400
;TYPE:Perimeter
G1 F1200
G1 X107.705 Y108.063 E.00133
G1 X107.723 Y108.009 E.00178
G1 X107.829 Y108.01 E.00332
G1 X107.837 Y108.07 E.0019
G1 X107.814 Y108.093 E.00102
G1 X107.795 Y108.093 E.0006
G1 X107.795 Y108.093 F6000
G1 X107.327 Y107.943
;TYPE:External perimeter
G1 F1200
G1 X107.347 Y107.877 E.00216
G1 X107.38 Y107.817 E.00215
G1 X107.514 Y107.686 E.00588
G1 X107.578 Y107.653 E.00226
G1 X107.656 Y107.632 E.00253
G1 X107.87 Y107.632 E.00671
G1 X107.961 Y107.655 E.00294
G1 X108.102 Y107.745 E.00524
G1 X108.193 Y107.883 E.00518
G1 X108.214 Y107.959 E.00247
G1 X108.214 Y108.16 E.0063
G1 X108.195 Y108.222 E.00203
G1 X108.162 Y108.282 E.00215
G1 X108.023 Y108.415 E.00603
G1 X107.957 Y108.449 E.00233
G1 X107.88 Y108.47 E.0025
G1 X107.664 Y108.47 E.00677
G1 X107.589 Y108.448 E.00245
G1 X107.524 Y108.413 E.00231
G1 X107.383 Y108.275 E.00619
G1 X107.349 Y108.212 E.00224
G1 X107.328 Y108.142 E.00229
G1 X107.328 Y108.003 E.00436
G1 X107.328 Y108.003 F6000
G1 X107.592 Y106.345
;TYPE:Perimeter
G1 F1200
G1 X107.544 Y106.275 E.00266
G1 X107.525 Y106.167 E.00344
G1 X107.543 Y106.061 E.00337
G1 X107.585 Y105.999 E.00235
G1 X107.65 Y105.956 E.00244
G1 X107.752 Y105.939 E.00324
G1 X107.829 Y105.948 E.00243
G1 X107.909 Y105.978 E.00268
G1 X107.974 Y106.046 E.00295
G1 X108.007 Y106.193 E.00472
G1 X107.991 Y106.288 E.00302
G1 X107.948 Y106.352 E.00242
G1 X107.884 Y106.395 E.00242
G1 X107.779 Y106.413 E.00334
G1 X107.665 Y106.394 E.00362
G1 X107.642 Y106.378 E.00088
G1 X107.642 Y106.378 F6000
G1 X107.191 Y105.92
;TYPE:External perimeter
G1 F1200
G1 X107.318 Y105.73 E.00717
G1 X107.512 Y105.603 E.00727
