; generated by PrusaSlicer 2.7.1+win64 on 2024-02-16 at 12:43:34 UTC


;
;

;
;
; 

; external perimeters extrusion width = 0.42mm
; perimeters extrusion width = 0.44mm
; infill extrusion width = 0.44mm
; solid infill extrusion width = 0.44mm
; top infill extrusion width = 0.40mm
; first layer extrusion width = 0.42mm


; printing object Terrific Leelo-Duup.stl id:0 copy 0
; stop printing object Terrific Leelo-Duup.stl id:0 copy 0

;TYPE:Custom
; Ender 3 Custom Start G-code
G92 E0 ; Reset Extruder

M140 S50 ; set bed temp
M104 S160 ; set extruder temp
M109 S160 ; wait for extruder temp
M190 S50 ; wait for bed temp

G28 ; Home all axes
M104 S205 ; set extruder temp 
BED_MESH_CALIBRATE AREA_START=82.0347,119.897 AREA_END=140.429,159.43

G1 Z2.0 F3000 ; Move Z Axis up little to prevent scratching of Heat Bed
M109 S205 ; wait for extruder temp
G1 X0.1 Y20 Z0.3 F5000.0 ; Move to start position

G1 X0.1 Y200.0 Z0.3 F1500.0 E15 ; Draw the first line
G1 X0.4 Y200.0 Z0.3 F5000.0 ; Move to side a little
G1 X0.4 Y20 Z0.3 F1500.0 E30 ; Draw the second line
G92 E0 ; Reset Extruder
G1 Z2.0 F3000 ; Move Z Axis up little to prevent scratching of Heat Bed
G1 X5 Y20 Z0.3 F5000.0 ; Move over to prevent blob squish
G21 ; set units to millimeters
G90 ; use absolute coordinates
M83 ; use relative distances for extrusion
; Filament gcode
M107
;LAYER_CHANGE
;Z:0.2
;HEIGHT:0.2
;BEFORE_LAYER_CHANGE
G92 E0
;0.2


G1 E-1.6 F2400
G1 Z.2 F6000
;AFTER_LAYER_CHANGE
;0.2
G1 X87.952 Y122.944
G1 Z.2
G1 E1.6 F2400
M204 S500
;TYPE:Skirt/Brim
;WIDTH:0.42
G1 F1200
G1 X89.804 Y121.769 E.06464
G1 X91.441 Y121.026 E.05298
G1 X93.159 Y120.493 E.05302
G1 X94.541 Y120.229 E.04147
G1 X96.336 Y120.092 E.05306
G1 X126.128 Y120.092 E.87806
G1 X127.923 Y120.229 E.05306
G1 X129.305 Y120.493 E.04147
G1 X131.023 Y121.026 E.05302
G1 X132.66 Y121.769 E.05298
G1 X134.512 Y122.944 E.06464
G1 X135.595 Y123.84 E.04143
G1 X136.844 Y125.134 E.05301
G1 X138.132 Y126.907 E.06459
G1 X138.977 Y128.495 E.05302
G1 X139.617 Y130.177 E.05304
G1 X139.967 Y131.539 E.04145
G1 X140.216 Y133.322 E.05306
G1 X140.216 Y135.512 E.06455
G1 X139.967 Y137.295 E.05306
G1 X139.495 Y139.031 E.05302
G1 X138.81 Y140.694 E.05301
G1 X138.132 Y141.926 E.04145
G1 X137.095 Y143.396 E.05302
G1 X135.813 Y144.795 E.05593
G1 X125.313 Y155.295 E.43765
G1 X123.693 Y156.621 E.0617
G1 X122.16 Y157.565 E.05306
G1 X120.523 Y158.308 E.05298
G1 X118.805 Y158.84 E.05301
G1 X117.032 Y159.154 E.05307
G1 X115.236 Y159.242 E.053
G1 X113.577 Y159.127 E.04901
G1 X99.403 Y157.06 E.42217
G1 X98.023 Y156.775 E.04153
G1 X96.822 Y156.359 E.03746
G1 X96.026 Y155.984 E.02593
G1 X94.939 Y155.323 E.0375
G1 X93.945 Y154.532 E.03744
G1 X93.056 Y153.622 E.03749
G1 X85.369 Y143.396 E.37705
G1 X84.542 Y142.258 E.04146
G1 X83.654 Y140.694 E.05301
G1 X82.847 Y138.657 E.06458
G1 X82.497 Y137.295 E.04145
G1 X82.248 Y135.512 E.05306
G1 X82.248 Y133.322 E.06455
G1 X82.497 Y131.539 E.05306
G1 X82.847 Y130.177 E.04145
G1 X83.487 Y128.495 E.05304
G1 X84.332 Y126.907 E.05302
G1 X85.62 Y125.134 E.06459
G1 X86.869 Y123.84 E.05301
G1 X87.906 Y122.982 E.03967
G1 X88.146 Y123.272 F6000
G1 F1200
G1 X88.193 Y123.234 E.00178
G1 X89.964 Y122.11 E.06182
G1 X91.558 Y121.384 E.05162
G1 X93.23 Y120.864 E.05161
G1 X94.612 Y120.6 E.04147
G1 X96.359 Y120.468 E.05164
G1 X126.105 Y120.468 E.87671
G1 X127.852 Y120.6 E.05164
G1 X129.234 Y120.864 E.04147
G1 X130.906 Y121.384 E.05161
G1 X132.5 Y122.11 E.05162
G1 X134.271 Y123.234 E.06182
G1 X135.355 Y124.131 E.04147
G1 X136.569 Y125.392 E.05159
G1 X137.802 Y127.089 E.06182
G1 X138.627 Y128.634 E.05162
G1 X139.251 Y130.271 E.05163
G1 X139.602 Y131.633 E.04145
G1 X139.842 Y133.369 E.05165
G1 X139.842 Y135.464 E.06175
G1 X139.602 Y137.201 E.05168
G1 X139.145 Y138.892 E.05163
G1 X138.48 Y140.512 E.05161
G1 X137.802 Y141.745 E.04147
G1 X136.79 Y143.175 E.05163
G1 X135.547 Y144.528 E.05415
G1 X125.047 Y155.028 E.43765
G1 X123.491 Y156.303 E.05929
G1 X122 Y157.224 E.05165
G1 X120.406 Y157.949 E.05161
G1 X118.734 Y158.47 E.05162
G1 X117.008 Y158.777 E.05167
G1 X115.259 Y158.866 E.05162
G1 X113.631 Y158.754 E.0481
G1 X99.458 Y156.687 E.42214
G1 X98.14 Y156.416 E.03966
G1 X96.983 Y156.017 E.03607
G1 X95.883 Y155.476 E.03613
G1 X94.862 Y154.802 E.03606
G1 X93.933 Y154.005 E.03608
G1 X93.135 Y153.13 E.0349
G1 X84.847 Y142.036 E.40814
G1 X83.985 Y140.512 E.0516
G1 X83.213 Y138.563 E.06179
G1 X82.863 Y137.201 E.04145
G1 X82.622 Y135.464 E.05169
G1 X82.622 Y133.369 E.06175
G1 X82.863 Y131.633 E.05166
G1 X83.213 Y130.271 E.04145
G1 X83.838 Y128.634 E.05164
G1 X84.662 Y127.089 E.05161
G1 X85.895 Y125.392 E.06182
G1 X87.109 Y124.131 E.05159
G1 X88.1 Y123.311 E.03791
G1 X88.346 Y123.615 F6000
G1 F1200
G1 X88.675 Y123.349 E.01247
G1 X90.125 Y122.451 E.05027
G1 X91.397 Y121.853 E.04143
G1 X93.301 Y121.234 E.05901
G1 X94.979 Y120.933 E.05025
G1 X96.532 Y120.84 E.04585
G1 X126.081 Y120.844 E.8709
G1 X127.782 Y120.97 E.05027
G1 X129.163 Y121.234 E.04144
G1 X130.79 Y121.743 E.05024
G1 X132.339 Y122.451 E.0502
G1 X134.031 Y123.525 E.05907
G1 X135.115 Y124.421 E.04145
G1 X136.294 Y125.65 E.05019
G1 X137.472 Y127.271 E.05906
G1 X138.276 Y128.773 E.05021
G1 X138.886 Y130.364 E.05022
G1 X139.236 Y131.727 E.04148
G1 X139.468 Y133.416 E.05025
G1 X139.487 Y135.12 E.05023
G1 X139.292 Y136.812 E.0502
G1 X138.886 Y138.469 E.05028
G1 X138.276 Y140.061 E.05025
G1 X137.312 Y141.815 E.05899
G1 X136.294 Y143.183 E.05026
G1 X124.615 Y154.912 E.48784
G1 X123.289 Y155.985 E.05027
G1 X122.101 Y156.739 E.04147
G1 X120.567 Y157.481 E.05022
G1 X118.952 Y158.025 E.05023
G1 X117.282 Y158.363 E.05022
G1 X115.581 Y158.489 E.05027
G1 X113.879 Y158.401 E.05023
G1 X99.41 Y156.297 E.43093
G1 X98.257 Y156.058 E.0347
G1 X97.143 Y155.676 E.03471
G1 X96.347 Y155.302 E.02592
G1 X95.102 Y154.511 E.04347
G1 X94.208 Y153.747 E.03466
G1 X93.436 Y152.904 E.03369
G1 X85.152 Y141.815 E.40795
G1 X84.188 Y140.061 E.05899
G1 X83.67 Y138.753 E.04146
G1 X83.228 Y137.107 E.05023
G1 X82.977 Y135.12 E.05903
G1 X82.977 Y133.713 E.04147
G1 X83.172 Y132.021 E.0502
G1 X83.67 Y130.081 E.05903
G1 X84.315 Y128.503 E.05024
G1 X84.993 Y127.271 E.04145
G1 X86.17 Y125.65 E.05904
G1 X87.349 Y124.421 E.05019
G1 X88.3 Y123.653 E.03603
; printing object Terrific Leelo-Duup.stl id:0 copy 0
G1 E-1.12 F2400
;WIPE_START
G1 F4800
G1 X88.346 Y123.615 E-.02834
G1 X88.675 Y123.349 E-.20096
G1 X89.124 Y123.071 E-.2507
;WIPE_END
G1 X108.981 Y130.005 F6000
G1 E1.6 F2400
;TYPE:Perimeter
G1 F1200
G1 X109.014 Y129.971 E.0014
G1 X109.053 Y129.972 E.00115
G1 X109.119 Y130 E.00211
G1 X109.168 Y130.078 E.00271
G1 X109.212 Y130.287 E.00629
G1 X109.18 Y130.43 E.00432
G1 X109.132 Y130.481 E.00206
G1 X109.053 Y130.502 E.00241
G1 X108.999 Y130.493 E.00161
G1 X108.948 Y130.444 E.00208
G1 X108.911 Y130.253 E.00573
G1 X108.918 Y130.148 E.0031
G1 X108.947 Y130.054 E.0029
G1 X108.7 Y129.759 F6000
;TYPE:External perimeter
G1 F1200
G1 X108.771 Y129.677 E.0032
G1 X108.939 Y129.598 E.00547
G1 X109.031 Y129.588 E.00273
G1 X109.156 Y129.606 E.00372
G1 X109.365 Y129.713 E.00692
G1 X109.511 Y129.914 E.00732
G1 X109.57 Y130.091 E.0055
G1 X109.591 Y130.282 E.00566
G1 X109.58 Y130.417 E.00399
G1 X109.501 Y130.633 E.00678
G1 X109.348 Y130.792 E.0065
G1 X109.163 Y130.87 E.00592
G1 X108.943 Y130.87 E.00648
G1 X108.764 Y130.793 E.00574
G1 X108.621 Y130.637 E.00624
G1 X108.544 Y130.406 E.00718
G1 X108.544 Y130.092 E.00925
G1 X108.624 Y129.845 E.00765
G1 X108.66 Y129.804 E.00161
G1 E-1.12 F2400
;WIPE_START
G1 F4800
G1 X108.7 Y129.759 E-.0286
G1 X108.771 Y129.677 E-.05152
G1 X108.939 Y129.598 E-.08818
G1 X109.031 Y129.588 E-.04396
G1 X109.156 Y129.606 E-.05999
G1 X109.365 Y129.713 E-.11153
G1 X109.484 Y129.877 E-.09622
;WIPE_END
G1 X113.86 Y130.464 F6000
G1 E1.6 F2400
;TYPE:Perimeter
G1 F1200
G1 X113.839 Y130.444 E.00085
G1 X113.802 Y130.253 E.00573
G1 X113.809 Y130.148 E.0031
G1 X113.845 Y130.033 E.00355
G1 X113.905 Y129.971 E.00254
G1 X113.944 Y129.972 E.00115
G1 X114.01 Y130 E.00211
G1 X114.059 Y130.078 E.00271
G1 X114.103 Y130.287 E.00629
G1 X114.071 Y130.43 E.00432
G1 X114.023 Y130.481 E.00206
G1 X113.944 Y130.502 E.00241
G1 X113.908 Y130.496 E.00108
G1 X113.585 Y130.716 F6000
;TYPE:External perimeter
G1 F1200
G1 X113.512 Y130.637 E.00317
G1 X113.435 Y130.406 E.00718
G1 X113.435 Y130.092 E.00925
G1 X113.515 Y129.845 E.00765
G1 X113.662 Y129.677 E.00658
G1 X113.831 Y129.598 E.0055
G1 X113.922 Y129.588 E.0027
G1 X114.047 Y129.606 E.00372
G1 X114.256 Y129.713 E.00692
G1 X114.402 Y129.914 E.00732
G1 X114.462 Y130.091 E.00551
G1 X114.482 Y130.282 E.00566
G1 X114.471 Y130.417 E.00399
G1 X114.392 Y130.633 E.00678
G1 X114.239 Y130.792 E.0065
G1 X114.054 Y130.87 E.00592
G1 X113.834 Y130.87 E.00648
G1 X113.655 Y130.793 E.00574
G1 X113.625 Y130.761 E.00129
G1 E-1.12 F2400
;WIPE_START
G1 F4800
G1 X113.585 Y130.716 E-.0286
G1 X113.512 Y130.637 E-.05109
G1 X113.435 Y130.406 E-.11566
G1 X113.435 Y130.092 E-.14915
G1 X113.515 Y129.845 E-.12333
G1 X113.532 Y129.826 E-.01217
;WIPE_END
G1 X113.915 Y136.095 F6000
G1 E1.6 F2400
;TYPE:Perimeter
G1 F1200
G1 X113.944 Y136.096 E.00086
G1 X114.01 Y136.124 E.00211
G1 X114.059 Y136.201 E.00269
G1 X114.103 Y136.411 E.00632
G1 X114.071 Y136.553 E.00429
G1 X114.023 Y136.604 E.00206
G1 X113.944 Y136.625 E.00241
G1 X113.89 Y136.616 E.00161
G1 X113.839 Y136.567 E.00208
G1 X113.802 Y136.376 E.00573
G1 X113.809 Y136.271 E.0031
G1 X113.845 Y136.156 E.00355
G1 X113.87 Y136.13 E.00106
G1 X113.922 Y135.712 F6000
;TYPE:External perimeter
G1 F1200
G1 X114.047 Y135.73 E.00372
G1 X114.256 Y135.836 E.00691
G1 X114.402 Y136.037 E.00732
G1 X114.462 Y136.214 E.00551
G1 X114.482 Y136.405 E.00566
G1 X114.471 Y136.54 E.00399
G1 X114.392 Y136.756 E.00678
G1 X114.239 Y136.915 E.0065
G1 X114.054 Y136.994 E.00593
G1 X113.834 Y136.994 E.00648
G1 X113.655 Y136.917 E.00574
G1 X113.512 Y136.76 E.00626
G1 X113.435 Y136.529 E.00718
G1 X113.435 Y136.216 E.00923
G1 X113.515 Y135.969 E.00765
G1 X113.662 Y135.801 E.00658
G1 X113.831 Y135.721 E.00551
G1 X113.863 Y135.718 E.00095
G1 E-1.12 F2400
;WIPE_START
G1 F4800
G1 X113.922 Y135.712 E-.02817
G1 X114.047 Y135.73 E-.05999
G1 X114.256 Y135.836 E-.11131
G1 X114.402 Y136.037 E-.118
G1 X114.462 Y136.214 E-.08877
G1 X114.478 Y136.369 E-.07376
;WIPE_END
G1 X108.981 Y136.129 F6000
G1 E1.6 F2400
;TYPE:Perimeter
G1 F1200
G1 X109.014 Y136.094 E.00142
G1 X109.053 Y136.096 E.00115
G1 X109.11 Y136.12 E.00182
G1 X109.163 Y136.186 E.00249
G1 X109.2 Y136.295 E.00339
G1 X109.212 Y136.411 E.00344
G1 X109.18 Y136.553 E.00429
G1 X109.132 Y136.604 E.00206
G1 X109.053 Y136.625 E.00241
G1 X108.999 Y136.616 E.00161
G1 X108.948 Y136.567 E.00208
G1 X108.911 Y136.376 E.00573
G1 X108.918 Y136.271 E.0031
G1 X108.947 Y136.177 E.0029
G1 X108.7 Y135.882 F6000
;TYPE:External perimeter
G1 F1200
G1 X108.771 Y135.801 E.00317
G1 X108.939 Y135.721 E.00548
G1 X109.031 Y135.712 E.00272
G1 X109.156 Y135.73 E.00372
G1 X109.359 Y135.831 E.00668
G1 X109.509 Y136.032 E.00739
G1 X109.57 Y136.214 E.00566
G1 X109.591 Y136.405 E.00566
G1 X109.58 Y136.54 E.00399
G1 X109.501 Y136.756 E.00678
G1 X109.348 Y136.915 E.0065
G1 X109.163 Y136.994 E.00593
G1 X108.943 Y136.994 E.00648
G1 X108.764 Y136.917 E.00574
G1 X108.621 Y136.76 E.00626
G1 X108.544 Y136.529 E.00718
G1 X108.544 Y136.216 E.00923
G1 X108.624 Y135.969 E.00765
G1 X108.66 Y135.928 E.00161
G1 E-1.12 F2400
;WIPE_START
G1 F4800
G1 X108.7 Y135.882 E-.02896
G1 X108.771 Y135.801 E-.05116
G1 X108.939 Y135.721 E-.08839
G1 X109.031 Y135.712 E-.04391
G1 X109.156 Y135.73 E-.05999
G1 X109.359 Y135.831 E-.1077
G1 X109.485 Y135.999 E-.09989
;WIPE_END
G1 X102.671 Y136.095 F6000
G1 E1.6 F2400
;TYPE:Perimeter
G1 F1200
G1 X102.701 Y136.096 E.00088
G1 X102.758 Y136.12 E.00182
G1 X102.811 Y136.186 E.00249
G1 X102.848 Y136.295 E.00339
G1 X102.86 Y136.411 E.00344
G1 X102.828 Y136.553 E.00429
G1 X102.779 Y136.604 E.00208
G1 X102.701 Y136.625 E.00238
G1 X102.647 Y136.616 E.00161
G1 X102.596 Y136.567 E.00208
G1 X102.559 Y136.376 E.00573
G1 X102.566 Y136.271 E.0031
G1 X102.602 Y136.156 E.00355
G1 X102.627 Y136.13 E.00106
G1 X102.348 Y135.882 F6000
;TYPE:External perimeter
G1 F1200
G1 X102.419 Y135.801 E.00317
G1 X102.587 Y135.721 E.00548
G1 X102.679 Y135.712 E.00272
G1 X102.804 Y135.73 E.00372
G1 X103.007 Y135.831 E.00668
G1 X103.157 Y136.032 E.00739
G1 X103.218 Y136.214 E.00566
G1 X103.239 Y136.405 E.00566
G1 X103.228 Y136.54 E.00399
G1 X103.148 Y136.756 E.00679
G1 X102.996 Y136.915 E.00648
G1 X102.811 Y136.994 E.00593
G1 X102.591 Y136.994 E.00648
G1 X102.412 Y136.917 E.00574
G1 X102.269 Y136.76 E.00626
G1 X102.192 Y136.529 E.00718
G1 X102.192 Y136.216 E.00923
G1 X102.272 Y135.969 E.00765
G1 X102.308 Y135.928 E.00161
G1 E-1.12 F2400
;WIPE_START
G1 F4800
G1 X102.348 Y135.882 E-.02896
G1 X102.419 Y135.801 E-.05116
G1 X102.587 Y135.721 E-.08839
G1 X102.679 Y135.712 E-.04391
G1 X102.804 Y135.73 E-.05999
G1 X103.007 Y135.831 E-.1077
G1 X103.133 Y135.999 E-.09989
;WIPE_END
G1 X102.636 Y130.482 F6000
G1 E1.6 F2400
;TYPE:Perimeter
G1 F1200
G1 X102.596 Y130.444 E.00163
G1 X102.559 Y130.253 E.00573
G1 X102.566 Y130.148 E.0031
G1 X102.602 Y130.033 E.00355
G1 X102.662 Y129.971 E.00254
G1 X102.701 Y129.972 E.00115
G1 X102.767 Y130 E.00211
G1 X102.816 Y130.078 E.00271
G1 X102.86 Y130.287 E.00629
G1 X102.828 Y130.43 E.00432
G1 X102.779 Y130.481 E.00208
G1 X102.701 Y130.502 E.00238
G1 X102.691 Y130.5 E.0003
G1 X102.412 Y130.793 F6000
;TYPE:External perimeter
G1 F1200
G1 X102.269 Y130.637 E.00624
G1 X102.192 Y130.406 E.00718
G1 X102.192 Y130.092 E.00925
G1 X102.272 Y129.845 E.00765
G1 X102.419 Y129.677 E.00658
G1 X102.587 Y129.598 E.00547
G1 X102.679 Y129.588 E.00273
G1 X102.804 Y129.606 E.00372
G1 X103.013 Y129.713 E.00692
G1 X103.159 Y129.914 E.00732
G1 X103.218 Y130.091 E.0055
G1 X103.239 Y130.282 E.00566
G1 X103.228 Y130.417 E.00399
G1 X103.148 Y130.633 E.00679
G1 X102.996 Y130.792 E.00648
G1 X102.811 Y130.87 E.00592
G1 X102.591 Y130.87 E.00648
G1 X102.467 Y130.817 E.00397
G1 E-1.12 F2400
;WIPE_START
G1 F4800
G1 X102.412 Y130.793 E-.0285
G1 X102.269 Y130.637 E-.10052
G1 X102.192 Y130.406 E-.11566
G1 X102.192 Y130.092 E-.14915
G1 X102.248 Y129.92 E-.08617
;WIPE_END
G1 X103.688 Y144.94 F6000
G1 E1.6 F2400
G1 F1200
G1 X104.188 Y144.94 E.01474
G1 X103.971 Y145.52 E.01825
G1 X103.939 Y145.624 E.00321
G1 X103.708 Y144.997 E.01969
G1 E-1.12 F2400
;WIPE_START
G1 F4800
G1 X103.688 Y144.94 E-.02869
G1 X104.188 Y144.94 E-.2375
G1 X104.03 Y145.361 E-.21381
;WIPE_END
G1 X114.034 Y145.605 F6000
G1 E1.6 F2400
;TYPE:Perimeter
G1 F1200
G1 X113.871 Y145.71 E.00571
G1 X113.777 Y145.737 E.00288
G1 X113.607 Y145.745 E.00502
G1 X113.399 Y145.675 E.00647
G1 X113.266 Y145.534 E.00571
G1 X113.17 Y145.292 E.00767
G1 X113.144 Y145.012 E.00829
G1 X113.158 Y144.808 E.00603
G1 X113.194 Y144.647 E.00486
G1 X113.245 Y144.532 E.00371
G1 X113.382 Y144.379 E.00605
G1 X113.552 Y144.307 E.00544
G1 X113.769 Y144.305 E.0064
G1 X113.883 Y144.337 E.00349
G1 X114.032 Y144.445 E.00542
G1 X114.145 Y144.638 E.00659
G1 X114.18 Y144.783 E.0044
G1 X114.193 Y144.976 E.0057
G1 X114.178 Y145.235 E.00765
G1 X114.113 Y145.494 E.00787
G1 X114.069 Y145.556 E.00224
G1 X114.303 Y145.872 F6000
;TYPE:External perimeter
G1 F1200
G1 X114.164 Y145.982 E.00522
G1 X114.012 Y146.062 E.00506
G1 X113.846 Y146.11 E.00509
G1 X113.543 Y146.118 E.00893
G1 X113.297 Y146.049 E.00753
G1 X113.197 Y145.994 E.00336
G1 X113.106 Y145.928 E.00331
G1 X112.944 Y145.739 E.00734
G1 X112.831 Y145.488 E.00811
G1 X112.797 Y145.356 E.00402
G1 X112.766 Y145.017 E.01003
G1 X112.784 Y144.753 E.0078
G1 X112.835 Y144.528 E.0068
G1 X112.916 Y144.343 E.00595
G1 X113.027 Y144.19 E.00557
G1 X113.161 Y144.07 E.0053
G1 X113.311 Y143.986 E.00507
G1 X113.479 Y143.935 E.00517
G1 X113.671 Y143.917 E.00568
G1 X113.838 Y143.933 E.00494
G1 X114.028 Y143.986 E.00581
G1 X114.176 Y144.069 E.005
G1 X114.311 Y144.187 E.00528
G1 X114.422 Y144.337 E.0055
G1 X114.503 Y144.515 E.00576
G1 X114.554 Y144.726 E.0064
G1 X114.571 Y144.974 E.00733
G1 X114.552 Y145.286 E.00921
G1 X114.46 Y145.643 E.01087
G1 X114.337 Y145.823 E.00643
G1 X114.07 Y144.95 F6000
;TYPE:Solid infill
;WIDTH:0.495415
G1 F1200
G1 X113.716 Y144.596 E.01771
