; generated by PrusaSlicer 2.7.1+win64 on 2024-02-17 at 11:51:59 UTC

; 

; external perimeters extrusion width = 0.42mm
; perimeters extrusion width = 0.44mm
; infill extrusion width = 0.44mm
; solid infill extrusion width = 0.44mm
; top infill extrusion width = 0.40mm
; first layer extrusion width = 0.42mm


; printing object Terrific Leelo-Duup.stl id:0 copy 0
; stop printing object Terrific Leelo-Duup.stl id:0 copy 0

;TYPE:Custom
; Ender 3 Custom Start G-code
G92 E0 ; Reset Extruder

M140 S50 ; set bed temp
M104 S160 ; set extruder temp
M109 S160 ; wait for extruder temp
M190 S50 ; wait for bed temp

G28 ; Home all axes
M104 S205 ; set extruder temp 
BED_MESH_CALIBRATE AREA_START=94.0267,92.5895 AREA_END=152.421,132.123

G1 Z2.0 F3000 ; Move Z Axis up little to prevent scratching of Heat Bed
M109 S205 ; wait for extruder temp
G1 X0.1 Y20 Z0.3 F5000.0 ; Move to start position

G1 X0.1 Y200.0 Z0.3 F1500.0 E15 ; Draw the first line
G1 X0.4 Y200.0 Z0.3 F5000.0 ; Move to side a little
G1 X0.4 Y20 Z0.3 F1500.0 E30 ; Draw the second line
G92 E0 ; Reset Extruder
G1 Z2.0 F3000 ; Move Z Axis up little to prevent scratching of Heat Bed
G1 X5 Y20 Z0.3 F5000.0 ; Move over to prevent blob squish
G21 ; set units to millimeters
G90 ; use absolute coordinates
M83 ; use relative distances for extrusion
; Filament gcode
M107
;LAYER_CHANGE
;Z:0.2
;HEIGHT:0.2
;BEFORE_LAYER_CHANGE
G92 E0
;0.2


G1 E-1.6 F2400
G1 Z.2 F6000
;AFTER_LAYER_CHANGE
;0.2
G1 X98.861 Y96.533
G1 Z.2
G1 E1.6 F2400
M204 S500
;TYPE:Skirt/Brim
;WIDTH:0.42
G1 F1200
G1 X99.944 Y95.636 E.04145
G1 X101.796 Y94.461 E.06464
G1 X103.433 Y93.718 E.05298
G1 X105.151 Y93.186 E.05301
G1 X106.533 Y92.922 E.04147
G1 X108.328 Y92.784 E.05306
G1 X138.12 Y92.784 E.87806
G1 X139.915 Y92.922 E.05306
G1 X141.297 Y93.186 E.04147
G1 X143.015 Y93.718 E.05301
G1 X144.652 Y94.461 E.05298
G1 X146.504 Y95.636 E.06464
G1 X147.587 Y96.533 E.04145
G1 X148.836 Y97.826 E.05298
G1 X150.124 Y99.6 E.06461
G1 X150.969 Y101.188 E.05302
G1 X151.609 Y102.869 E.05301
G1 X152.033 Y104.619 E.05307
G1 X152.208 Y106.015 E.04147
G1 X152.208 Y108.204 E.06452
G1 X151.959 Y109.987 E.05306
G1 X151.487 Y111.723 E.05302
G1 X150.802 Y113.386 E.05301
G1 X150.124 Y114.619 E.04147
G1 X149.087 Y116.089 E.05302
G1 X147.805 Y117.487 E.05591
G1 X137.305 Y127.987 E.43765
G1 X135.685 Y129.314 E.06172
G1 X134.152 Y130.257 E.05305
G1 X132.515 Y131 E.05298
G1 X130.797 Y131.533 E.05302
G1 X129.024 Y131.846 E.05306
G1 X127.228 Y131.934 E.053
G1 X125.569 Y131.82 E.04901
G1 X111.395 Y129.752 E.42217
G1 X110.015 Y129.467 E.04153
G1 X108.814 Y129.051 E.03746
G1 X108.018 Y128.677 E.02592
G1 X106.931 Y128.016 E.0375
G1 X105.937 Y127.225 E.03744
G1 X105.048 Y126.314 E.03752
G1 X97.361 Y116.089 E.37703
G1 X96.324 Y114.619 E.05302
G1 X95.646 Y113.386 E.04147
G1 X94.839 Y111.349 E.06458
G1 X94.489 Y109.987 E.04145
G1 X94.24 Y108.204 E.05306
G1 X94.24 Y106.015 E.06452
G1 X94.489 Y104.232 E.05306
G1 X94.839 Y102.869 E.04148
G1 X95.479 Y101.188 E.05301
G1 X96.324 Y99.6 E.05302
G1 X97.612 Y97.826 E.06461
G1 X98.819 Y96.576 E.05121
G1 X99.089 Y96.836 F6000
G1 F1200
G1 X99.101 Y96.823 E.00052
G1 X100.185 Y95.927 E.04145
G1 X101.956 Y94.802 E.06184
G1 X103.55 Y94.077 E.05161
G1 X105.222 Y93.556 E.05162
G1 X106.604 Y93.292 E.04147
G1 X108.351 Y93.161 E.05163
G1 X138.097 Y93.161 E.87671
G1 X139.844 Y93.292 E.05163
G1 X141.226 Y93.556 E.04147
G1 X142.898 Y94.077 E.05162
G1 X144.492 Y94.802 E.05161
G1 X146.263 Y95.927 E.06184
G1 X147.347 Y96.823 E.04145
G1 X148.561 Y98.084 E.05159
G1 X149.794 Y99.781 E.06182
G1 X150.619 Y101.327 E.05165
G1 X151.243 Y102.963 E.05161
G1 X151.659 Y104.666 E.05167
G1 X151.834 Y106.062 E.04147
G1 X151.834 Y108.157 E.06175
G1 X151.594 Y109.893 E.05165
G1 X151.137 Y111.584 E.05163
G1 X150.472 Y113.204 E.05161
G1 X149.794 Y114.437 E.04147
G1 X148.782 Y115.867 E.05163
G1 X147.539 Y117.221 E.05417
G1 X137.039 Y127.721 E.43765
G1 X135.483 Y128.995 E.05927
G1 X133.992 Y129.916 E.05165
G1 X132.398 Y130.642 E.05162
G1 X130.726 Y131.162 E.05161
G1 X129 Y131.47 E.05167
G1 X127.251 Y131.558 E.05161
G1 X125.623 Y131.446 E.0481
G1 X111.45 Y129.379 E.42214
G1 X110.132 Y129.109 E.03965
G1 X108.975 Y128.71 E.03607
G1 X107.875 Y128.168 E.03614
G1 X106.854 Y127.494 E.03606
G1 X105.925 Y126.697 E.03608
G1 X105.127 Y125.823 E.03488
G1 X96.839 Y114.729 E.40814
G1 X95.977 Y113.204 E.05163
G1 X95.205 Y111.256 E.06176
G1 X94.855 Y109.893 E.04148
G1 X94.614 Y108.157 E.05166
G1 X94.614 Y106.062 E.06175
G1 X94.855 Y104.325 E.05169
G1 X95.205 Y102.963 E.04145
G1 X95.83 Y101.327 E.05162
G1 X96.654 Y99.781 E.05163
G1 X97.887 Y98.084 E.06182
G1 X99.047 Y96.879 E.0493
G1 X99.318 Y97.139 F6000
G1 F1200
G1 X99.341 Y97.114 E.001
G1 X100.667 Y96.041 E.05027
G1 X102.117 Y95.144 E.05025
G1 X103.389 Y94.545 E.04144
G1 X105.293 Y93.927 E.059
G1 X106.971 Y93.625 E.05025
G1 X108.524 Y93.532 E.04585
G1 X138.073 Y93.537 E.8709
G1 X139.773 Y93.663 E.05024
G1 X141.155 Y93.926 E.04146
G1 X142.782 Y94.435 E.05024
G1 X144.331 Y95.143 E.0502
G1 X146.023 Y96.217 E.05907
G1 X147.107 Y97.114 E.04147
G1 X148.286 Y98.343 E.05019
G1 X149.463 Y99.963 E.05902
G1 X150.268 Y101.465 E.05023
G1 X150.878 Y103.057 E.05025
G1 X151.284 Y104.714 E.05028
G1 X151.46 Y106.109 E.04144
G1 X151.479 Y107.813 E.05023
G1 X151.284 Y109.505 E.0502
G1 X150.878 Y111.162 E.05028
G1 X150.268 Y112.753 E.05022
G1 X149.304 Y114.507 E.05899
G1 X148.286 Y115.876 E.05028
G1 X136.607 Y127.605 E.48784
G1 X135.523 Y128.501 E.04145
G1 X134.122 Y129.413 E.04927
G1 X132.559 Y130.174 E.05124
G1 X130.944 Y130.718 E.05023
G1 X129.273 Y131.056 E.05025
G1 X127.573 Y131.182 E.05024
G1 X125.871 Y131.093 E.05023
G1 X111.402 Y128.989 E.43093
G1 X110.249 Y128.75 E.0347
G1 X109.135 Y128.369 E.0347
G1 X108.339 Y127.994 E.02593
G1 X107.094 Y127.204 E.04346
G1 X106.2 Y126.439 E.03468
G1 X105.428 Y125.597 E.03367
G1 X97.144 Y114.507 E.40798
G1 X96.18 Y112.753 E.05899
G1 X95.57 Y111.162 E.05022
G1 X95.22 Y109.799 E.04148
G1 X94.969 Y107.813 E.059
G1 X94.969 Y106.406 E.04147
G1 X95.164 Y104.714 E.0502
G1 X95.662 Y102.773 E.05906
G1 X96.18 Y101.465 E.04146
G1 X96.985 Y99.963 E.05023
G1 X98.162 Y98.343 E.05902
G1 X99.276 Y97.182 E.04742
; printing object Terrific Leelo-Duup.stl id:0 copy 0
G1 E-1.12 F2400
;WIPE_START
G1 F4800
G1 X99.318 Y97.139 E-.02855
G1 X99.341 Y97.114 E-.01614
G1 X100.053 Y96.538 E-.43531
;WIPE_END
G1 X114.663 Y110.481 F6000
G1 E1.6 F2400
;TYPE:Perimeter
G1 F1200
G1 X114.693 Y110.483 E.00089
G1 X114.759 Y110.511 E.00211
G1 X114.808 Y110.588 E.00269
G1 X114.852 Y110.797 E.00629
G1 X114.82 Y110.94 E.00432
G1 X114.771 Y110.991 E.00208
G1 X114.693 Y111.012 E.00238
G1 X114.639 Y111.003 E.00161
G1 X114.588 Y110.954 E.00208
G1 X114.551 Y110.763 E.00573
G1 X114.558 Y110.658 E.0031
G1 X114.594 Y110.543 E.00355
G1 X114.619 Y110.517 E.00106
G1 X114.671 Y110.098 F6000
;TYPE:External perimeter
G1 F1200
G1 X114.796 Y110.116 E.00372
G1 X115.005 Y110.223 E.00692
G1 X115.151 Y110.424 E.00732
G1 X115.21 Y110.601 E.0055
G1 X115.231 Y110.792 E.00566
G1 X115.22 Y110.927 E.00399
G1 X115.14 Y111.143 E.00679
G1 X114.988 Y111.302 E.00648
G1 X114.803 Y111.381 E.00593
G1 X114.583 Y111.381 E.00648
G1 X114.404 Y111.303 E.00575
G1 X114.261 Y111.147 E.00624
G1 X114.184 Y110.916 E.00718
G1 X114.184 Y110.603 E.00923
G1 X114.264 Y110.356 E.00765
G1 X114.411 Y110.187 E.0066
G1 X114.579 Y110.108 E.00547
G1 X114.611 Y110.105 E.00095
G1 E-1.12 F2400
;WIPE_START
G1 F4800
G1 X114.671 Y110.098 E-.02869
G1 X114.796 Y110.116 E-.05999
G1 X115.005 Y110.223 E-.11153
G1 X115.151 Y110.424 E-.118
G1 X115.21 Y110.601 E-.08862
G1 X115.226 Y110.754 E-.07317
;WIPE_END
G1 X121.016 Y110.481 F6000
G1 E1.6 F2400
;TYPE:Perimeter
G1 F1200
G1 X121.046 Y110.483 E.00089
G1 X121.111 Y110.511 E.00209
G1 X121.16 Y110.588 E.00269
G1 X121.204 Y110.797 E.00629
G1 X121.172 Y110.94 E.00432
G1 X121.124 Y110.991 E.00206
G1 X121.045 Y111.012 E.00241
G1 X120.991 Y111.003 E.00161
G1 X120.94 Y110.954 E.00208
G1 X120.903 Y110.763 E.00573
G1 X120.91 Y110.658 E.0031
G1 X120.946 Y110.543 E.00355
G1 X120.971 Y110.517 E.00106
G1 X121.023 Y110.098 F6000
;TYPE:External perimeter
G1 F1200
G1 X121.148 Y110.116 E.00372
G1 X121.357 Y110.223 E.00692
G1 X121.503 Y110.424 E.00732
G1 X121.562 Y110.601 E.0055
G1 X121.583 Y110.792 E.00566
G1 X121.572 Y110.927 E.00399
G1 X121.493 Y111.143 E.00678
G1 X121.34 Y111.302 E.0065
G1 X121.155 Y111.381 E.00593
G1 X120.935 Y111.381 E.00648
G1 X120.756 Y111.303 E.00575
G1 X120.613 Y111.147 E.00624
G1 X120.536 Y110.916 E.00718
G1 X120.536 Y110.603 E.00923
G1 X120.616 Y110.356 E.00765
G1 X120.763 Y110.187 E.0066
G1 X120.931 Y110.108 E.00547
G1 X120.963 Y110.105 E.00095
G1 E-1.12 F2400
;WIPE_START
G1 F4800
G1 X121.023 Y110.098 E-.02869
G1 X121.148 Y110.116 E-.05999
G1 X121.357 Y110.223 E-.11153
G1 X121.503 Y110.424 E-.118
G1 X121.562 Y110.601 E-.08862
G1 X121.579 Y110.754 E-.07317
;WIPE_END
G1 X125.864 Y110.515 F6000
G1 E1.6 F2400
;TYPE:Perimeter
G1 F1200
G1 X125.897 Y110.481 E.0014
G1 X125.937 Y110.483 E.00118
G1 X126.002 Y110.511 E.00209
G1 X126.051 Y110.588 E.00269
G1 X126.095 Y110.797 E.00629
G1 X126.063 Y110.94 E.00432
G1 X126.015 Y110.991 E.00206
G1 X125.936 Y111.012 E.00241
G1 X125.882 Y111.003 E.00161
G1 X125.831 Y110.954 E.00208
G1 X125.794 Y110.763 E.00573
G1 X125.801 Y110.658 E.0031
G1 X125.831 Y110.564 E.00291
G1 X125.583 Y110.269 F6000
;TYPE:External perimeter
G1 F1200
G1 X125.654 Y110.187 E.0032
G1 X125.822 Y110.108 E.00547
G1 X125.914 Y110.098 E.00273
G1 X126.039 Y110.116 E.00372
G1 X126.248 Y110.223 E.00692
G1 X126.394 Y110.424 E.00732
G1 X126.454 Y110.601 E.00551
G1 X126.474 Y110.792 E.00566
G1 X126.463 Y110.927 E.00399
G1 X126.384 Y111.143 E.00678
G1 X126.231 Y111.302 E.0065
G1 X126.046 Y111.381 E.00593
G1 X125.826 Y111.381 E.00648
G1 X125.647 Y111.303 E.00575
G1 X125.504 Y111.147 E.00624
G1 X125.427 Y110.916 E.00718
G1 X125.427 Y110.603 E.00923
G1 X125.507 Y110.356 E.00765
G1 X125.544 Y110.314 E.00165
G1 E-1.12 F2400
;WIPE_START
G1 F4800
G1 X125.583 Y110.269 E-.02829
G1 X125.654 Y110.187 E-.05152
G1 X125.822 Y110.108 E-.08818
G1 X125.914 Y110.098 E-.04396
G1 X126.039 Y110.116 E-.05999
G1 X126.248 Y110.223 E-.11153
G1 X126.367 Y110.387 E-.09653
;WIPE_END
G1 X125.871 Y103.175 F6000
G1 E1.6 F2400
;TYPE:Perimeter
G1 F1200
G1 X125.831 Y103.136 E.00165
G1 X125.794 Y102.945 E.00573
G1 X125.801 Y102.841 E.00307
G1 X125.837 Y102.725 E.00358
G1 X125.897 Y102.663 E.00254
G1 X125.937 Y102.665 E.00118
G1 X126.002 Y102.693 E.00209
G1 X126.051 Y102.77 E.00269
G1 X126.095 Y102.98 E.00632
G1 X126.063 Y103.122 E.00429
G1 X126.015 Y103.173 E.00206
G1 X125.936 Y103.194 E.00241
G1 X125.926 Y103.193 E.0003
G1 X125.914 Y102.281 F6000
;TYPE:External perimeter
G1 F1200
G1 X126.039 Y102.299 E.00372
G1 X126.248 Y102.405 E.00691
G1 X126.394 Y102.606 E.00732
G1 X126.454 Y102.783 E.00551
G1 X126.474 Y102.974 E.00566
G1 X126.463 Y103.11 E.00402
G1 X126.384 Y103.325 E.00675
G1 X126.231 Y103.484 E.0065
G1 X126.046 Y103.563 E.00593
G1 X125.826 Y103.563 E.00648
G1 X125.647 Y103.486 E.00574
G1 X125.504 Y103.329 E.00626
G1 X125.427 Y103.098 E.00718
G1 X125.427 Y102.785 E.00923
G1 X125.507 Y102.538 E.00765
G1 X125.654 Y102.37 E.00658
G1 X125.822 Y102.29 E.00548
G1 X125.855 Y102.287 E.00098
G1 E-1.12 F2400
;WIPE_START
G1 F4800
G1 X125.914 Y102.281 E-.02817
G1 X126.039 Y102.299 E-.05999
G1 X126.248 Y102.405 E-.11131
G1 X126.394 Y102.606 E-.118
G1 X126.454 Y102.783 E-.08877
G1 X126.47 Y102.938 E-.07376
;WIPE_END
G1 X121.172 Y103.122 F6000
G1 E1.6 F2400
;TYPE:Perimeter
G1 F1200
G1 X121.124 Y103.173 E.00206
G1 X121.045 Y103.194 E.00241
G1 X120.991 Y103.186 E.00161
G1 X120.94 Y103.136 E.00211
G1 X120.903 Y102.945 E.00573
G1 X120.91 Y102.841 E.00307
G1 X120.946 Y102.725 E.00358
G1 X121.006 Y102.663 E.00254
G1 X121.046 Y102.665 E.00118
G1 X121.111 Y102.693 E.00209
G1 X121.16 Y102.77 E.00269
G1 X121.204 Y102.98 E.00632
G1 X121.185 Y103.064 E.00254
G1 X121.493 Y103.325 F6000
;TYPE:External perimeter
G1 F1200
G1 X121.34 Y103.484 E.0065
G1 X121.155 Y103.563 E.00593
G1 X120.935 Y103.563 E.00648
G1 X120.756 Y103.486 E.00574
G1 X120.613 Y103.329 E.00626
G1 X120.536 Y103.098 E.00718
G1 X120.536 Y102.785 E.00923
G1 X120.616 Y102.538 E.00765
G1 X120.763 Y102.37 E.00658
G1 X120.931 Y102.29 E.00548
G1 X121.023 Y102.281 E.00272
G1 X121.148 Y102.299 E.00372
G1 X121.357 Y102.405 E.00691
G1 X121.503 Y102.606 E.00732
G1 X121.562 Y102.783 E.0055
G1 X121.583 Y102.974 E.00566
G1 X121.572 Y103.11 E.00402
G1 X121.513 Y103.269 E.005
G1 E-1.12 F2400
;WIPE_START
G1 F4800
G1 X121.493 Y103.325 E-.02825
G1 X121.34 Y103.484 E-.10481
G1 X121.155 Y103.563 E-.09555
G1 X120.935 Y103.563 E-.1045
G1 X120.756 Y103.486 E-.09256
G1 X120.679 Y103.402 E-.05433
;WIPE_END
G1 X114.771 Y103.173 F6000
G1 E1.6 F2400
;TYPE:Perimeter
G1 F1200
G1 X114.693 Y103.194 E.00238
G1 X114.639 Y103.186 E.00161
G1 X114.588 Y103.136 E.00211
G1 X114.551 Y102.945 E.00573
G1 X114.558 Y102.841 E.00307
G1 X114.594 Y102.725 E.00358
G1 X114.654 Y102.663 E.00254
G1 X114.693 Y102.665 E.00115
G1 X114.759 Y102.693 E.00211
G1 X114.808 Y102.77 E.00269
G1 X114.852 Y102.98 E.00632
G1 X114.82 Y103.122 E.00429
G1 X114.813 Y103.13 E.00031
G1 X114.404 Y103.486 F6000
;TYPE:External perimeter
G1 F1200
G1 X114.261 Y103.329 E.00626
G1 X114.184 Y103.098 E.00718
G1 X114.184 Y102.785 E.00923
G1 X114.264 Y102.538 E.00765
G1 X114.411 Y102.37 E.00658
G1 X114.579 Y102.29 E.00548
G1 X114.671 Y102.281 E.00272
G1 X114.796 Y102.299 E.00372
G1 X115.005 Y102.405 E.00691
G1 X115.151 Y102.606 E.00732
G1 X115.21 Y102.783 E.0055
G1 X115.231 Y102.974 E.00566
G1 X115.22 Y103.11 E.00402
G1 X115.14 Y103.325 E.00676
G1 X114.988 Y103.484 E.00648
G1 X114.802 Y103.563 E.00596
G1 X114.583 Y103.563 E.00645
G1 X114.459 Y103.509 E.00399
G1 E-1.12 F2400
;WIPE_START
G1 F4800
G1 X114.404 Y103.486 E-.02832
G1 X114.261 Y103.329 E-.10087
G1 X114.184 Y103.098 E-.11566
G1 X114.184 Y102.785 E-.14868
G1 X114.24 Y102.612 E-.08647
;WIPE_END
G1 X119.417 Y111.709 F6000
G1 E1.6 F2400
;TYPE:Perimeter
G1 F1200
G1 X118.6 Y111.54 E.02459
G1 X119.051 Y111.148 E.01761
G1 X119.188 Y110.998 E.00599
G1 X119.202 Y111.175 E.00523
G1 X119.321 Y111.548 E.01154
G1 X119.386 Y111.658 E.00377
G1 X117.964 Y112.163 F6000
G1 F1200
G1 X117.955 Y112.231 E.00202
G1 X117.936 Y112.26 E.00102
G1 X117.897 Y112.266 E.00116
G1 X117.931 Y112.214 E.00183
G1 E-1.12 F2400
;WIPE_START
G1 F4800
G1 X117.964 Y112.163 E-.02885
G1 X117.955 Y112.231 E-.03258
G1 X117.936 Y112.26 E-.01647
G1 X117.897 Y112.266 E-.01874
G1 X117.931 Y112.214 E-.02951
;WIPE_END
G1 E-.35385 F2400
G1 X116.6 Y110.668 F6000
G1 E1.6 F2400
G1 F1200
G1 X116.905 Y110.66 E.00899
G1 X116.75 Y110.799 E.00614
G1 X116.624 Y110.949 E.00577
G1 X116.605 Y110.728 E.00654
G1 E-1.12 F2400
;WIPE_START
G1 F4800
G1 X116.6 Y110.668 E-.0286
G1 X116.905 Y110.66 E-.14492
G1 X116.75 Y110.799 E-.09889
G1 X116.624 Y110.949 E-.09305
G1 X116.605 Y110.728 E-.10536
;WIPE_END
G1 E-.00918 F2400
G1 X119.417 Y103.891 F6000
G1 E1.6 F2400
G1 F1200
G1 X118.6 Y103.722 E.02459
G1 X119.051 Y103.331 E.01759
G1 X119.188 Y103.18 E.00601
G1 X119.202 Y103.358 E.00526
G1 X119.321 Y103.73 E.01151
G1 X119.386 Y103.84 E.00377
G1 X117.964 Y104.346 F6000
G1 F1200
G1 X117.955 Y104.413 E.00199
G1 X117.936 Y104.442 E.00102
G1 X117.897 Y104.449 E.00117
G1 X117.931 Y104.396 E.00186
G1 E-1.12 F2400
;WIPE_START
G1 F4800
G1 X117.964 Y104.346 E-.02846
G1 X117.955 Y104.413 E-.03211
G1 X117.936 Y104.442 E-.01647
G1 X117.897 Y104.449 E-.01882
G1 X117.931 Y104.396 E-.02991
;WIPE_END
G1 E-.35423 F2400
G1 X116.6 Y102.85 F6000
G1 E1.6 F2400
G1 F1200
G1 X116.905 Y102.843 E.00899
G1 X116.75 Y102.982 E.00614
G1 X116.624 Y103.132 E.00577
G1 X116.605 Y102.91 E.00657
G1 E-1.12 F2400
;WIPE_START
G1 F4800
G1 X116.6 Y102.85 E-.0286
G1 X116.905 Y102.843 E-.14491
G1 X116.75 Y102.982 E-.09889
G1 X116.624 Y103.132 E-.09305
G1 X116.605 Y102.91 E-.10584
;WIPE_END
G1 E-.00871 F2400
G1 X110.073 Y103.098 F6000
G1 E1.6 F2400
G1 F1200
G1 X109.951 Y103.147 E.00387
G1 X109.798 Y103.143 E.00451
G1 X109.753 Y103.064 E.00268
G1 X109.768 Y102.84 E.00662
G1 X109.819 Y102.767 E.00262
G1 X109.913 Y102.781 E.0028
G1 X109.99 Y102.899 E.00415
