; generated by PrusaSlicer 2.7.1+win64 on 2024-02-16 at 15:27:20 UTC

; 

; external perimeters extrusion width = 0.42mm
; perimeters extrusion width = 0.44mm
; infill extrusion width = 0.44mm
; solid infill extrusion width = 0.44mm
; top infill extrusion width = 0.40mm
; first layer extrusion width = 0.42mm


; printing object Terrific Leelo-Duup.stl id:0 copy 0
; stop printing object Terrific Leelo-Duup.stl id:0 copy 0

;TYPE:Custom
; Ender 3 Custom Start G-code
G92 E0 ; Reset Extruder

M140 S50 ; set bed temp
M104 S160 ; set extruder temp
M109 S160 ; wait for extruder temp
M190 S50 ; wait for bed temp

G28 ; Home all axes
M104 S205 ; set extruder temp 
BED_MESH_CALIBRATE AREA_START=82.0347,119.897 AREA_END=140.429,159.43

G1 Z2.0 F3000 ; Move Z Axis up little to prevent scratching of Heat Bed
M109 S205 ; wait for extruder temp
G1 X0.1 Y20 Z0.3 F5000.0 ; Move to start position

G1 X0.1 Y200.0 Z0.3 F1500.0 E15 ; Draw the first line
G1 X0.4 Y200.0 Z0.3 F5000.0 ; Move to side a little
G1 X0.4 Y20 Z0.3 F1500.0 E30 ; Draw the second line
G92 E0 ; Reset Extruder
G1 Z2.0 F3000 ; Move Z Axis up little to prevent scratching of Heat Bed
G1 X5 Y20 Z0.3 F5000.0 ; Move over to prevent blob squish
G21 ; set units to millimeters
G90 ; use absolute coordinates
M83 ; use relative distances for extrusion
; Filament gcode
M107
;LAYER_CHANGE
;Z:0.2
;HEIGHT:0.2
;BEFORE_LAYER_CHANGE
G92 E0
;0.2


G1 E-1.6 F2400
G1 Z.2 F6000
;AFTER_LAYER_CHANGE
;0.2
G1 X87.952 Y122.944
G1 Z.2
G1 E1.6 F2400
M204 S500
;TYPE:Skirt/Brim
;WIDTH:0.42
G1 F1200
G1 X89.804 Y121.769 E.06464
G1 X91.441 Y121.026 E.05298
G1 X93.159 Y120.493 E.05302
G1 X94.541 Y120.229 E.04147
G1 X96.336 Y120.092 E.05306
G1 X126.128 Y120.092 E.87806
G1 X127.923 Y120.229 E.05306
G1 X129.305 Y120.493 E.04147
G1 X131.023 Y121.026 E.05302
G1 X132.66 Y121.769 E.05298
G1 X134.512 Y122.944 E.06464
G1 X135.595 Y123.84 E.04143
G1 X136.844 Y125.134 E.05301
G1 X138.132 Y126.907 E.06459
G1 X138.977 Y128.495 E.05302
G1 X139.617 Y130.177 E.05304
G1 X140.041 Y131.927 E.05307
G1 X140.216 Y133.322 E.04144
G1 X140.216 Y135.512 E.06455
G1 X139.967 Y137.295 E.05306
G1 X139.495 Y139.031 E.05302
G1 X138.81 Y140.694 E.05301
G1 X138.132 Y141.926 E.04145
G1 X137.095 Y143.396 E.05302
G1 X135.813 Y144.795 E.05593
G1 X125.313 Y155.295 E.43765
G1 X123.693 Y156.621 E.0617
G1 X122.16 Y157.565 E.05306
G1 X120.523 Y158.308 E.05298
G1 X118.805 Y158.84 E.05301
G1 X117.032 Y159.154 E.05307
G1 X115.236 Y159.242 E.053
G1 X113.577 Y159.127 E.04901
G1 X99.403 Y157.06 E.42217
G1 X98.023 Y156.775 E.04153
G1 X96.822 Y156.359 E.03746
G1 X96.026 Y155.984 E.02593
G1 X94.939 Y155.323 E.0375
G1 X93.945 Y154.532 E.03744
G1 X93.056 Y153.622 E.03749
G1 X85.369 Y143.396 E.37705
G1 X84.332 Y141.926 E.05302
G1 X83.654 Y140.694 E.04145
G1 X82.847 Y138.657 E.06458
G1 X82.497 Y137.295 E.04145
G1 X82.248 Y135.511 E.05309
G1 X82.248 Y133.322 E.06452
G1 X82.497 Y131.539 E.05306
G1 X82.847 Y130.177 E.04145
G1 X83.487 Y128.495 E.05304
G1 X84.332 Y126.907 E.05302
G1 X85.62 Y125.134 E.06459
G1 X86.869 Y123.84 E.05301
G1 X87.906 Y122.982 E.03967
G1 X88.146 Y123.272 F6000
G1 F1200
G1 X88.193 Y123.234 E.00178
G1 X89.964 Y122.11 E.06182
G1 X91.558 Y121.384 E.05162
G1 X93.23 Y120.864 E.05161
G1 X94.612 Y120.6 E.04147
G1 X96.359 Y120.468 E.05164
G1 X126.105 Y120.468 E.87671
G1 X127.852 Y120.6 E.05164
G1 X129.234 Y120.864 E.04147
G1 X130.906 Y121.384 E.05161
G1 X132.5 Y122.11 E.05162
G1 X134.271 Y123.234 E.06182
G1 X135.355 Y124.131 E.04147
G1 X136.569 Y125.392 E.05159
G1 X137.802 Y127.089 E.06182
G1 X138.627 Y128.634 E.05162
G1 X139.252 Y130.271 E.05164
G1 X139.667 Y131.974 E.05166
G1 X139.842 Y133.369 E.04144
G1 X139.842 Y135.464 E.06175
G1 X139.602 Y137.201 E.05168
G1 X139.145 Y138.892 E.05163
G1 X138.48 Y140.512 E.05161
G1 X137.802 Y141.745 E.04147
G1 X136.79 Y143.175 E.05163
G1 X135.547 Y144.528 E.05415
G1 X125.047 Y155.028 E.43765
G1 X123.491 Y156.303 E.05929
G1 X122 Y157.224 E.05165
G1 X120.406 Y157.949 E.05161
G1 X118.734 Y158.47 E.05162
G1 X117.008 Y158.777 E.05167
G1 X115.259 Y158.866 E.05162
G1 X113.631 Y158.754 E.0481
G1 X99.458 Y156.687 E.42214
G1 X98.14 Y156.416 E.03966
G1 X96.983 Y156.017 E.03607
G1 X95.883 Y155.476 E.03613
G1 X94.862 Y154.802 E.03606
G1 X93.933 Y154.005 E.03608
G1 X93.135 Y153.13 E.0349
G1 X84.847 Y142.036 E.40814
G1 X83.985 Y140.512 E.0516
G1 X83.213 Y138.563 E.06179
G1 X82.863 Y137.201 E.04145
G1 X82.622 Y135.464 E.05169
G1 X82.622 Y133.369 E.06175
G1 X82.863 Y131.633 E.05166
G1 X83.213 Y130.271 E.04145
G1 X83.838 Y128.634 E.05164
G1 X84.662 Y127.089 E.05161
G1 X85.895 Y125.392 E.06182
G1 X87.109 Y124.131 E.05159
G1 X88.1 Y123.311 E.03791
G1 X88.346 Y123.615 F6000
G1 F1200
G1 X88.675 Y123.349 E.01247
G1 X90.125 Y122.451 E.05027
G1 X91.397 Y121.853 E.04143
G1 X93.301 Y121.234 E.05901
G1 X94.979 Y120.933 E.05025
G1 X96.532 Y120.84 E.04585
G1 X126.081 Y120.844 E.8709
G1 X127.782 Y120.97 E.05027
G1 X129.163 Y121.234 E.04144
G1 X130.79 Y121.743 E.05024
G1 X132.339 Y122.451 E.0502
G1 X134.031 Y123.525 E.05907
G1 X135.115 Y124.421 E.04145
G1 X136.294 Y125.65 E.05019
G1 X137.471 Y127.271 E.05904
G1 X138.276 Y128.773 E.05023
G1 X138.886 Y130.364 E.05022
G1 X139.292 Y132.021 E.05028
G1 X139.468 Y133.416 E.04144
G1 X139.487 Y135.12 E.05023
G1 X139.292 Y136.812 E.0502
G1 X138.886 Y138.469 E.05028
G1 X138.276 Y140.061 E.05025
G1 X137.312 Y141.815 E.05899
G1 X136.294 Y143.183 E.05026
G1 X124.615 Y154.912 E.48784
G1 X123.531 Y155.809 E.04147
G1 X122.13 Y156.721 E.04927
G1 X120.567 Y157.481 E.05122
G1 X118.952 Y158.025 E.05023
G1 X117.282 Y158.363 E.05022
G1 X115.581 Y158.489 E.05027
G1 X113.879 Y158.401 E.05023
G1 X99.41 Y156.297 E.43093
G1 X98.257 Y156.058 E.0347
G1 X97.143 Y155.676 E.03471
G1 X96.347 Y155.302 E.02592
G1 X95.102 Y154.511 E.04347
G1 X94.208 Y153.747 E.03466
G1 X93.436 Y152.904 E.03369
G1 X85.152 Y141.815 E.40795
G1 X84.188 Y140.061 E.05899
G1 X83.578 Y138.469 E.05025
G1 X83.228 Y137.107 E.04145
G1 X82.977 Y135.12 E.05903
G1 X82.977 Y133.713 E.04147
G1 X83.172 Y132.021 E.0502
G1 X83.67 Y130.081 E.05903
G1 X84.188 Y128.773 E.04146
G1 X84.993 Y127.271 E.05023
G1 X86.17 Y125.65 E.05904
G1 X87.349 Y124.421 E.05019
G1 X88.3 Y123.653 E.03603
; printing object Terrific Leelo-Duup.stl id:0 copy 0
G1 E-1.12 F2400
;WIPE_START
G1 F4800
G1 X88.346 Y123.615 E-.02834
G1 X88.675 Y123.349 E-.20096
G1 X89.124 Y123.071 E-.2507
;WIPE_END
G1 X128.353 Y139.226 F6000
G1 E1.6 F2400
;TYPE:External perimeter
G1 F1200
G1 X128.353 Y138.412 E.02399
G1 X128.919 Y138.412 E.01668
G1 X128.388 Y139.176 E.02742
G1 E-1.12 F2400
;WIPE_START
G1 F4800
G1 X128.353 Y139.226 E-.02899
G1 X128.353 Y138.412 E-.38665
G1 X128.488 Y138.412 E-.06436
;WIPE_END
G1 X125.386 Y139.334 F6000
G1 E1.6 F2400
G1 F1200
G1 X125.441 Y139.362 E.00182
G1 X125.553 Y139.472 E.00463
G1 X125.608 Y139.611 E.00441
G1 X125.608 Y139.769 E.00466
G1 X125.554 Y139.893 E.00399
G1 X125.446 Y139.997 E.00442
G1 X125.303 Y140.052 E.00452
G1 X125.131 Y140.052 E.00507
G1 X124.99 Y139.996 E.00447
G1 X124.88 Y139.888 E.00454
G1 X124.824 Y139.753 E.00431
G1 X124.824 Y139.598 E.00457
G1 X124.877 Y139.47 E.00408
G1 X124.981 Y139.368 E.00429
G1 X125.123 Y139.314 E.00448
G1 X125.304 Y139.314 E.00533
G1 X125.328 Y139.319 E.00072
G1 X125.116 Y138.095 F6000
;TYPE:Perimeter
G1 F1200
G1 X125.05 Y138.03 E.00273
G1 X125.036 Y137.948 E.00245
G1 X125.049 Y137.868 E.00239
G1 X125.121 Y137.797 E.00298
G1 X125.257 Y137.792 E.00401
G1 X125.355 Y137.84 E.00322
G1 X125.387 Y137.973 E.00403
G1 X125.375 Y138.042 E.00206
G1 X125.303 Y138.115 E.00302
G1 X125.223 Y138.128 E.00239
G1 X125.168 Y138.119 E.00164
G1 X124.909 Y138.409 F6000
;TYPE:External perimeter
G1 F1200
G1 X124.818 Y138.349 E.00321
G1 X124.698 Y138.173 E.00628
G1 X124.658 Y137.948 E.00674
G1 X124.697 Y137.727 E.00661
G1 X124.811 Y137.557 E.00603
G1 X124.983 Y137.444 E.00607
G1 X125.204 Y137.405 E.00661
G1 X125.346 Y137.423 E.00422
G1 X125.504 Y137.481 E.00496
G1 X125.616 Y137.565 E.00413
G1 X125.695 Y137.673 E.00394
G1 X125.749 Y137.819 E.00459
G1 X125.766 Y137.967 E.00439
G1 X125.728 Y138.182 E.00643
G1 X125.615 Y138.353 E.00604
G1 X125.443 Y138.467 E.00608
G1 X125.224 Y138.506 E.00656
G1 X124.996 Y138.466 E.00682
G1 X124.959 Y138.442 E.0013
G1 E-1.12 F2400
;WIPE_START
G1 F4800
G1 X124.909 Y138.409 E-.02846
G1 X124.818 Y138.349 E-.05178
G1 X124.698 Y138.173 E-.10118
G1 X124.658 Y137.948 E-.10855
G1 X124.697 Y137.727 E-.1066
G1 X124.794 Y137.581 E-.08343
;WIPE_END
G1 X128.353 Y131.408 F6000
G1 E1.6 F2400
G1 F1200
G1 X128.353 Y130.594 E.02399
G1 X128.919 Y130.594 E.01668
G1 X128.388 Y131.359 E.02745
G1 E-1.12 F2400
;WIPE_START
G1 F4800
G1 X128.353 Y131.408 E-.0286
G1 X128.353 Y130.594 E-.38665
G1 X128.489 Y130.594 E-.06475
;WIPE_END
G1 X125.446 Y132.18 F6000
G1 E1.6 F2400
G1 F1200
G1 X125.303 Y132.235 E.00452
G1 X125.131 Y132.235 E.00507
G1 X124.99 Y132.178 E.00448
G1 X124.88 Y132.07 E.00454
G1 X124.824 Y131.935 E.00431
G1 X124.824 Y131.78 E.00457
G1 X124.877 Y131.652 E.00408
G1 X124.981 Y131.551 E.00427
G1 X125.123 Y131.497 E.00448
G1 X125.304 Y131.496 E.00533
G1 X125.386 Y131.516 E.00249
G1 X125.441 Y131.544 E.00182
G1 X125.553 Y131.655 E.00465
G1 X125.608 Y131.794 E.00441
G1 X125.608 Y131.952 E.00466
G1 X125.554 Y132.076 E.00399
G1 X125.49 Y132.138 E.00263
G1 X125.359 Y130.241 F6000
;TYPE:Perimeter
G1 F1200
G1 X125.303 Y130.297 E.00233
G1 X125.223 Y130.31 E.00239
G1 X125.135 Y130.296 E.00263
G1 X125.05 Y130.213 E.0035
G1 X125.036 Y130.13 E.00248
G1 X125.049 Y130.05 E.00239
G1 X125.121 Y129.979 E.00298
G1 X125.257 Y129.974 E.00401
G1 X125.355 Y130.023 E.00323
G1 X125.387 Y130.155 E.004
G1 X125.382 Y130.188 E.00098
G1 X125.672 Y130.448 F6000
;TYPE:External perimeter
G1 F1200
G1 X125.615 Y130.535 E.00307
G1 X125.443 Y130.649 E.00608
G1 X125.224 Y130.689 E.00656
G1 X124.996 Y130.649 E.00682
G1 X124.818 Y130.531 E.00629
G1 X124.698 Y130.355 E.00628
G1 X124.658 Y130.13 E.00674
G1 X124.697 Y129.909 E.00661
G1 X124.811 Y129.74 E.00601
G1 X124.983 Y129.626 E.00608
G1 X125.204 Y129.588 E.00661
G1 X125.346 Y129.605 E.00422
G1 X125.504 Y129.663 E.00496
G1 X125.616 Y129.748 E.00414
G1 X125.695 Y129.856 E.00394
G1 X125.749 Y130.001 E.00456
G1 X125.766 Y130.149 E.00439
G1 X125.728 Y130.364 E.00643
G1 X125.706 Y130.398 E.00119
G1 E-1.12 F2400
;WIPE_START
G1 F4800
G1 X125.672 Y130.448 E-.02872
G1 X125.615 Y130.535 E-.0494
G1 X125.443 Y130.649 E-.09802
G1 X125.224 Y130.689 E-.10575
G1 X124.996 Y130.649 E-.10995
G1 X124.841 Y130.547 E-.08816
;WIPE_END
G1 X107.425 Y139.017 F6000
G1 E1.6 F2400
;TYPE:Perimeter
G1 F1200
G1 X106.608 Y138.847 E.0246
G1 X107.059 Y138.456 E.01759
G1 X107.196 Y138.306 E.00599
G1 X107.21 Y138.483 E.00523
G1 X107.329 Y138.856 E.01154
G1 X107.394 Y138.965 E.00374
G1 X105.972 Y139.471 F6000
G1 F1200
G1 X105.963 Y139.538 E.00199
G1 X105.944 Y139.568 E.00105
G1 X105.905 Y139.574 E.00116
G1 X105.939 Y139.521 E.00186
G1 E-1.12 F2400
;WIPE_START
G1 F4800
G1 X105.972 Y139.471 E-.02846
G1 X105.963 Y139.538 E-.03211
G1 X105.944 Y139.568 E-.01687
G1 X105.905 Y139.574 E-.01874
G1 X105.939 Y139.521 E-.02991
;WIPE_END
G1 E-.35391 F2400
G1 X104.608 Y137.976 F6000
G1 E1.6 F2400
G1 F1200
G1 X104.913 Y137.968 E.00899
G1 X104.758 Y138.107 E.00614
G1 X104.632 Y138.257 E.00577
G1 X104.613 Y138.035 E.00657
G1 E-1.12 F2400
;WIPE_START
G1 F4800
G1 X104.608 Y137.976 E-.02813
G1 X104.913 Y137.968 E-.14492
G1 X104.758 Y138.107 E-.09889
G1 X104.632 Y138.257 E-.09305
G1 X104.613 Y138.035 E-.10584
;WIPE_END
G1 E-.00917 F2400
G1 X107.425 Y131.199 F6000
G1 E1.6 F2400
G1 F1200
G1 X106.608 Y131.03 E.02459
G1 X107.059 Y130.638 E.01761
G1 X107.196 Y130.488 E.00599
G1 X107.21 Y130.665 E.00523
G1 X107.329 Y131.038 E.01154
G1 X107.394 Y131.147 E.00374
G1 X105.972 Y131.653 F6000
G1 F1200
G1 X105.963 Y131.72 E.00199
G1 X105.944 Y131.75 E.00105
G1 X105.905 Y131.756 E.00116
G1 X105.939 Y131.704 E.00183
G1 E-1.12 F2400
;WIPE_START
G1 F4800
G1 X105.972 Y131.653 E-.02885
G1 X105.963 Y131.72 E-.03211
G1 X105.944 Y131.75 E-.01687
G1 X105.905 Y131.756 E-.01874
G1 X105.939 Y131.704 E-.02951
;WIPE_END
G1 E-.35392 F2400
G1 X104.608 Y130.158 F6000
G1 E1.6 F2400
G1 F1200
G1 X104.913 Y130.15 E.00899
G1 X104.758 Y130.289 E.00614
G1 X104.632 Y130.439 E.00577
G1 X104.613 Y130.218 E.00654
G1 E-1.12 F2400
;WIPE_START
G1 F4800
G1 X104.608 Y130.158 E-.0286
G1 X104.913 Y130.15 E-.14492
G1 X104.758 Y130.289 E-.09889
G1 X104.632 Y130.439 E-.09305
G1 X104.613 Y130.218 E-.10536
;WIPE_END
G1 E-.00918 F2400
G1 X98.081 Y130.406 F6000
G1 E1.6 F2400
G1 F1200
G1 X97.959 Y130.454 E.00386
G1 X97.806 Y130.451 E.00451
G1 X97.761 Y130.371 E.00271
G1 X97.776 Y130.148 E.00659
G1 X97.827 Y130.075 E.00262
G1 X97.921 Y130.088 E.0028
G1 X97.998 Y130.207 E.00418
G1 X98.058 Y130.35 E.00457
G1 E-1.12 F2400
;WIPE_START
G1 F4800
G1 X98.081 Y130.406 E-.02876
G1 X97.959 Y130.454 E-.06227
G1 X97.806 Y130.451 E-.07269
G1 X97.761 Y130.371 E-.0436
G1 X97.776 Y130.148 E-.10616
G1 X97.827 Y130.075 E-.0423
G1 X97.921 Y130.088 E-.04507
G1 X97.998 Y130.207 E-.06733
G1 X98.008 Y130.23 E-.01182
;WIPE_END
G1 X96.4 Y131.638 F6000
G1 E1.6 F2400
G1 F1200
G1 X96.214 Y131.62 E.00551
G1 X96.209 Y131.424 E.00578
G1 X96.36 Y131.593 E.00668
G1 E-1.12 F2400
;WIPE_START
G1 F4800
G1 X96.4 Y131.638 E-.0286
G1 X96.214 Y131.62 E-.08876
G1 X96.209 Y131.424 E-.09313
G1 X96.36 Y131.593 E-.10765
;WIPE_END
G1 E-.16186 F2400
G1 X98.081 Y138.223 F6000
G1 E1.6 F2400
G1 F1200
G1 X97.959 Y138.272 E.00387
G1 X97.806 Y138.268 E.00451
G1 X97.761 Y138.189 E.00268
G1 X97.776 Y137.965 E.00662
G1 X97.827 Y137.893 E.0026
G1 X97.921 Y137.906 E.0028
G1 X97.998 Y138.024 E.00415
G1 X98.058 Y138.168 E.0046
G1 E-1.12 F2400
;WIPE_START
G1 F4800
G1 X98.081 Y138.223 E-.02832
G1 X97.959 Y138.272 E-.06245
G1 X97.806 Y138.268 E-.0727
G1 X97.761 Y138.189 E-.04319
G1 X97.776 Y137.965 E-.10664
G1 X97.827 Y137.893 E-.04191
G1 X97.921 Y137.906 E-.04507
G1 X97.998 Y138.024 E-.06693
G1 X98.008 Y138.049 E-.01279
;WIPE_END
G1 X96.4 Y139.456 F6000
G1 E1.6 F2400
G1 F1200
G1 X96.214 Y139.438 E.00551
G1 X96.209 Y139.242 E.00578
G1 X96.36 Y139.411 E.00668
G1 E-1.12 F2400
;WIPE_START
G1 F4800
G1 X96.4 Y139.456 E-.0286
G1 X96.214 Y139.438 E-.08876
G1 X96.209 Y139.242 E-.09313
G1 X96.36 Y139.411 E-.10765
;WIPE_END
G1 E-.16186 F2400
G1 X118.7 Y139.395 F6000
G1 E1.6 F2400
G1 F1200
G1 X118.696 Y139.242 E.00451
G1 X118.887 Y139.456 E.00845
G1 X118.717 Y139.44 E.00503
G1 E-1.12 F2400
;WIPE_START
G1 F4800
G1 X118.7 Y139.395 E-.02285
G1 X118.696 Y139.242 E-.0727
G1 X118.887 Y139.456 E-.13625
G1 X118.717 Y139.44 E-.08111
;WIPE_END
G1 E-.16709 F2400
G1 X120.259 Y138.023 F6000
G1 E1.6 F2400
G1 F1200
G1 X120.263 Y137.965 E.00171
G1 X120.314 Y137.893 E.0026
G1 X120.408 Y137.906 E.0028
G1 X120.485 Y138.024 E.00415
G1 X120.568 Y138.223 E.00635
G1 X120.446 Y138.272 E.00387
G1 X120.292 Y138.268 E.00454
G1 X120.248 Y138.189 E.00267
G1 X120.255 Y138.083 E.00313
G1 E-1.12 F2400
;WIPE_START
G1 F4800
G1 X120.259 Y138.023 E-.02856
G1 X120.263 Y137.965 E-.02762
G1 X120.314 Y137.893 E-.04191
G1 X120.408 Y137.906 E-.04507
G1 X120.485 Y138.024 E-.06693
G1 X120.568 Y138.223 E-.10242
G1 X120.446 Y138.272 E-.06245
G1 X120.292 Y138.268 E-.07317
G1 X120.259 Y138.209 E-.03187
;WIPE_END
G1 X118.7 Y131.577 F6000
G1 E1.6 F2400
G1 F1200
G1 X118.696 Y131.424 E.00451
G1 X118.887 Y131.638 E.00845
G1 X118.717 Y131.622 E.00503
G1 E-1.12 F2400
;WIPE_START
G1 F4800
G1 X118.7 Y131.577 E-.02285
G1 X118.696 Y131.424 E-.0727
G1 X118.887 Y131.638 E-.13625
G1 X118.717 Y131.622 E-.08111
;WIPE_END
G1 E-.16709 F2400
G1 X120.259 Y130.205 F6000
G1 E1.6 F2400
G1 F1200
G1 X120.263 Y130.148 E.00168
G1 X120.314 Y130.075 E.00262
G1 X120.408 Y130.088 E.0028
G1 X120.485 Y130.207 E.00418
G1 X120.568 Y130.406 E.00635
G1 X120.446 Y130.454 E.00386
G1 X120.292 Y130.451 E.00454
G1 X120.248 Y130.371 E.00269
G1 X120.255 Y130.265 E.00313
G1 E-1.12 F2400
;WIPE_START
G1 F4800
G1 X120.259 Y130.205 E-.02856
G1 X120.263 Y130.148 E-.02714
G1 X120.314 Y130.075 E-.0423
G1 X120.408 Y130.088 E-.04507
G1 X120.485 Y130.207 E-.06733
G1 X120.568 Y130.406 E-.10242
G1 X120.446 Y130.454 E-.06227
G1 X120.292 Y130.451 E-.07316
G1 X120.26 Y130.393 E-.03175
;WIPE_END
