; generated by PrusaSlicer 2.7.1+win64 on 2024-02-23 at 15:27:28 UTC


;
;

;
;
; 

; external perimeters extrusion width = 0.42mm
; perimeters extrusion width = 0.44mm
; infill extrusion width = 0.44mm
; solid infill extrusion width = 0.44mm
; top infill extrusion width = 0.40mm
; first layer extrusion width = 0.42mm


; printing object Scalono id:0 copy 0
; stop printing object Scalono id:0 copy 0

;TYPE:Custom
; Ender 3 Custom Start G-code
G92 E0 ; Reset Extruder

M140 S55 ; set bed temp
M104 S160 ; set extruder temp
M109 S160 ; wait for extruder temp
M190 S55 ; wait for bed temp

G28 ; Home all axes
M104 S210 ; set extruder temp 
BED_MESH_CALIBRATE AREA_START=92.4135,96.658 AREA_END=149.053,133.444

G1 Z2.0 F3000 ; Move Z Axis up little to prevent scratching of Heat Bed
M109 S210 ; wait for extruder temp
G1 X0.1 Y20 Z0.3 F5000.0 ; Move to start position

G1 X0.1 Y200.0 Z0.3 F1500.0 E15 ; Draw the first line
G1 X0.4 Y200.0 Z0.3 F5000.0 ; Move to side a little
G1 X0.4 Y20 Z0.3 F1500.0 E30 ; Draw the second line
G92 E0 ; Reset Extruder
G1 Z2.0 F3000 ; Move Z Axis up little to prevent scratching of Heat Bed
G1 X5 Y20 Z0.3 F5000.0 ; Move over to prevent blob squish
G21 ; set units to millimeters
G90 ; use absolute coordinates
M83 ; use relative distances for extrusion
; Filament gcode
M107
;LAYER_CHANGE
;Z:0.2
;HEIGHT:0.2
;BEFORE_LAYER_CHANGE
G92 E0
;0.2


G1 E-1.6 F2400
G1 Z.2 F6000
;AFTER_LAYER_CHANGE
;0.2
G1 X97.083 Y100.28
G1 Z.2
G1 E1.6 F2400
M204 S500
;TYPE:Skirt/Brim
;WIDTH:0.42
G1 F1200
G1 X98.121 Y99.439 E.03937
G1 X99.287 Y98.676 E.04107
G1 X100.393 Y98.1 E.03675
G1 X101.66 Y97.587 E.04029
G1 X103.002 Y97.199 E.04117
G1 X104.223 Y96.973 E.0366
G1 X105.563 Y96.855 E.03965
G1 X135.422 Y96.847 E.88004
G1 X136.841 Y96.923 E.04188
G1 X138.23 Y97.146 E.04146
G1 X139.578 Y97.51 E.04115
G1 X140.895 Y98.018 E.0416
G1 X142.103 Y98.631 E.03993
G1 X143.34 Y99.434 E.04347
G1 X144.428 Y100.32 E.04135
G1 X145.432 Y101.328 E.04193
G1 X146.309 Y102.415 E.04116
G1 X147.062 Y103.58 E.04088
G1 X147.708 Y104.85 E.04199
G1 X148.215 Y106.177 E.04187
G1 X148.578 Y107.541 E.0416
G1 X148.796 Y108.945 E.04188
G1 X148.864 Y110.489 E.04555
G1 X148.787 Y111.757 E.03744
G1 X148.414 Y113.763 E.06014
G1 X147.783 Y115.597 E.05716
G1 X146.84 Y117.41 E.06023
G1 X145.694 Y118.989 E.0575
G1 X135.278 Y129.619 E.43863
G1 X133.635 Y130.933 E.06201
G1 X131.738 Y132.006 E.06423
G1 X130.256 Y132.59 E.04695
G1 X128.664 Y133.005 E.04849
G1 X126.999 Y133.224 E.0495
G1 X125.391 Y133.239 E.04739
G1 X110.783 Y131.492 E.43361
G1 X109.45 Y131.209 E.04016
G1 X108.234 Y130.783 E.03797
G1 X107.268 Y130.315 E.03164
G1 X106.438 Y129.806 E.0287
G1 X105.578 Y129.153 E.03183
G1 X104.807 Y128.432 E.03111
G1 X96.035 Y119.291 E.3734
G1 X94.88 Y117.806 E.05545
G1 X93.854 Y115.982 E.06168
G1 X93.342 Y114.714 E.0403
G1 X92.956 Y113.38 E.04093
G1 X92.727 Y112.151 E.03685
G1 X92.61 Y110.812 E.03961
G1 X92.621 Y109.57 E.03661
G1 X92.765 Y108.22 E.04001
G1 X93.01 Y107.017 E.03618
G1 X93.427 Y105.667 E.04164
G1 X93.969 Y104.399 E.04064
G1 X94.627 Y103.208 E.0401
G1 X95.43 Y102.052 E.04148
G1 X96.197 Y101.15 E.0349
G1 X97.04 Y100.322 E.03483
G1 X97.307 Y100.607 F6000
G1 F1200
G1 X97.626 Y100.308 E.01289
G1 X98.565 Y99.586 E.03491
G1 X99.548 Y98.961 E.03433
G1 X100.756 Y98.349 E.03991
G1 X101.83 Y97.927 E.03401
G1 X103.135 Y97.555 E.03999
G1 X104.271 Y97.347 E.03404
G1 X105.58 Y97.232 E.03873
G1 X135.418 Y97.224 E.87942
G1 X136.797 Y97.297 E.0407
G1 X138.148 Y97.514 E.04033
G1 X139.459 Y97.868 E.04002
G1 X140.739 Y98.361 E.04043
G1 X141.918 Y98.96 E.03898
G1 X143.115 Y99.737 E.04206
G1 X144.174 Y100.598 E.04023
G1 X145.148 Y101.577 E.0407
G1 X146.001 Y102.634 E.04003
G1 X146.735 Y103.768 E.03981
G1 X147.363 Y105.001 E.04078
G1 X147.855 Y106.29 E.04066
G1 X148.208 Y107.616 E.04044
G1 X148.421 Y108.979 E.04066
G1 X148.487 Y110.489 E.04455
G1 X148.413 Y111.713 E.03614
G1 X148.049 Y113.668 E.05861
G1 X147.437 Y115.447 E.05545
G1 X146.518 Y117.214 E.0587
G1 X145.408 Y118.743 E.05569
G1 X134.979 Y129.382 E.43909
G1 X133.362 Y130.662 E.06078
G1 X131.382 Y131.754 E.06664
G1 X129.927 Y132.299 E.04579
G1 X128.542 Y132.644 E.04207
G1 X126.975 Y132.848 E.04657
G1 X125.357 Y132.86 E.04769
G1 X110.84 Y131.12 E.43092
G1 X109.549 Y130.845 E.0389
G1 X108.338 Y130.417 E.03786
G1 X106.652 Y129.496 E.05662
G1 X105.823 Y128.866 E.03069
G1 X105.079 Y128.17 E.03003
G1 X96.199 Y118.907 E.37819
G1 X95.074 Y117.413 E.05512
G1 X94.103 Y115.619 E.06012
G1 X93.682 Y114.544 E.03403
G1 X93.31 Y113.239 E.03999
G1 X93.101 Y112.104 E.03401
G1 X92.984 Y110.72 E.04094
G1 X93.009 Y109.414 E.0385
G1 X93.171 Y108.073 E.03981
G1 X93.476 Y106.736 E.04042
G1 X93.851 Y105.611 E.03495
G1 X94.412 Y104.354 E.04057
G1 X95.069 Y103.214 E.03878
G1 X95.776 Y102.222 E.0359
G1 X96.631 Y101.24 E.03838
G1 X97.263 Y100.648 E.02552
G1 X97.52 Y100.924 F6000
G1 F1200
G1 X97.907 Y100.565 E.01556
G1 X98.932 Y99.79 E.03787
G1 X99.918 Y99.186 E.03408
G1 X101.077 Y98.62 E.03801
G1 X102.159 Y98.216 E.03404
G1 X103.399 Y97.883 E.03784
G1 X104.52 Y97.695 E.0335
G1 X105.661 Y97.607 E.03373
G1 X135.415 Y97.601 E.87694
G1 X136.753 Y97.672 E.03949
G1 X138.066 Y97.882 E.03919
G1 X139.516 Y98.284 E.04435
G1 X140.747 Y98.779 E.0391
G1 X141.791 Y99.322 E.03468
G1 X143.031 Y100.144 E.04385
G1 X144.053 Y100.999 E.03927
G1 X144.984 Y101.961 E.03946
G1 X145.816 Y103.024 E.03979
G1 X146.526 Y104.163 E.03956
G1 X147.176 Y105.524 E.04445
G1 X147.61 Y106.775 E.03903
G1 X147.914 Y108.081 E.03952
G1 X148.078 Y109.39 E.03888
G1 X148.104 Y110.734 E.03962
G1 X147.993 Y112.042 E.03869
G1 X147.613 Y113.831 E.0539
G1 X147.007 Y115.49 E.05206
G1 X146.079 Y117.203 E.05742
G1 X144.989 Y118.652 E.05344
G1 X134.725 Y129.103 E.43173
G1 X133.004 Y130.446 E.06434
G1 X131.067 Y131.48 E.06471
G1 X129.608 Y132.001 E.04566
G1 X128.261 Y132.312 E.04074
G1 X126.722 Y132.486 E.04565
G1 X125.202 Y132.472 E.0448
G1 X110.898 Y130.747 E.42464
G1 X109.596 Y130.467 E.03925
G1 X108.374 Y130.022 E.03833
G1 X106.916 Y129.219 E.04906
G1 X105.606 Y128.164 E.04957
G1 X96.908 Y119.124 E.36974
G1 X95.511 Y117.392 E.06558
G1 X94.94 Y116.457 E.03229
G1 X94.377 Y115.303 E.03784
G1 X93.97 Y114.216 E.03421
G1 X93.638 Y112.976 E.03783
G1 X93.428 Y111.67 E.03899
G1 X93.358 Y110.517 E.03404
G1 X93.404 Y109.199 E.03887
G1 X93.583 Y107.917 E.03815
G1 X93.855 Y106.782 E.0344
G1 X94.266 Y105.585 E.0373
G1 X94.747 Y104.528 E.03423
G1 X95.408 Y103.384 E.03894
G1 X96.07 Y102.458 E.03355
G1 X96.935 Y101.468 E.03875
G1 X97.476 Y100.965 E.02177
; printing object Scalono id:0 copy 0
G1 E-1.12 F2400
;WIPE_START
G1 F4800
G1 X97.52 Y100.924 E-.02857
G1 X97.907 Y100.565 E-.25074
G1 X98.244 Y100.31 E-.20069
;WIPE_END
G1 X102.48 Y106.188 F6000
G1 E1.6 F2400
;TYPE:Perimeter
G1 F1200
G1 X102.497 Y106.191 E.00051
G1 X102.57 Y106.298 E.00382
G1 X102.64 Y106.632 E.01006
G1 X102.663 Y106.968 E.00993
G1 X102.663 Y107.375 E.012
G1 X102.612 Y107.884 E.01508
G1 X102.544 Y108.101 E.0067
G1 X102.49 Y108.167 E.00251
G1 X102.403 Y108.074 E.00375
G1 X102.366 Y107.968 E.00331
G1 X102.324 Y107.729 E.00715
G1 X102.299 Y107.384 E.01019
G1 X102.299 Y106.969 E.01223
G1 X102.324 Y106.625 E.01017
G1 X102.366 Y106.383 E.00724
G1 X102.427 Y106.235 E.00472
G1 X102.437 Y106.225 E.00042
G1 X102.572 Y105.817 F6000
;TYPE:External perimeter
G1 F1200
G1 X102.68 Y105.858 E.0034
G1 X102.77 Y105.925 E.00331
G1 X102.856 Y106.024 E.00387
G1 X102.929 Y106.174 E.00492
G1 X103.014 Y106.58 E.01223
G1 X103.04 Y106.955 E.01108
G1 X103.04 Y107.394 E.01294
G1 X102.985 Y107.944 E.01629
G1 X102.879 Y108.282 E.01044
G1 X102.754 Y108.45 E.00617
G1 X102.681 Y108.501 E.00262
G1 X102.488 Y108.546 E.00584
G1 X102.38 Y108.533 E.00321
G1 X102.286 Y108.495 E.00299
G1 X102.2 Y108.431 E.00316
G1 X102.067 Y108.255 E.0065
G1 X102 Y108.065 E.00594
G1 X101.949 Y107.776 E.00865
G1 X101.922 Y107.397 E.0112
G1 X101.922 Y106.956 E.013
G1 X101.949 Y106.579 E.01114
G1 X101.998 Y106.298 E.00841
G1 X102.109 Y106.026 E.00866
G1 X102.195 Y105.925 E.00391
G1 X102.286 Y105.857 E.00335
G1 X102.378 Y105.818 E.00295
G1 X102.512 Y105.817 E.00395
G1 E-1.12 F2400
;WIPE_START
G1 F4800
G1 X102.572 Y105.817 E-.0285
G1 X102.68 Y105.858 E-.05487
G1 X102.77 Y105.925 E-.0533
G1 X102.856 Y106.024 E-.06229
G1 X102.929 Y106.174 E-.07924
G1 X103.014 Y106.58 E-.19703
G1 X103.015 Y106.59 E-.00477
;WIPE_END
G1 X102.391 Y112.413 F6000
G1 E1.6 F2400
;TYPE:Perimeter
G1 F1200
G1 X102.404 Y112.399 E.00056
G1 X102.456 Y112.4 E.00153
G1 X102.544 Y112.451 E.003
G1 X102.586 Y112.517 E.00231
G1 X102.632 Y112.74 E.00671
G1 X102.597 Y112.896 E.00471
G1 X102.542 Y112.953 E.00233
G1 X102.452 Y112.978 E.00275
G1 X102.39 Y112.967 E.00186
G1 X102.329 Y112.909 E.00248
G1 X102.289 Y112.704 E.00616
G1 X102.297 Y112.594 E.00325
G1 X102.335 Y112.47 E.00382
G1 X102.349 Y112.456 E.00058
G1 X102.918 Y113.098 F6000
;TYPE:External perimeter
G1 F1200
G1 X102.759 Y113.263 E.00675
G1 X102.566 Y113.346 E.00619
G1 X102.338 Y113.346 E.00672
G1 X102.151 Y113.265 E.00601
G1 X102.003 Y113.102 E.00649
G1 X101.922 Y112.863 E.00744
G1 X101.923 Y112.538 E.00958
G1 X101.955 Y112.398 E.00423
G1 X102.006 Y112.282 E.00373
G1 X102.158 Y112.108 E.00681
G1 X102.334 Y112.025 E.00574
G1 X102.43 Y112.015 E.00284
G1 X102.559 Y112.033 E.00384
G1 X102.714 Y112.099 E.00497
G1 X102.833 Y112.203 E.00466
G1 X102.928 Y112.353 E.00523
G1 X102.99 Y112.537 E.00572
G1 X103.011 Y112.734 E.00584
G1 X103 Y112.874 E.00414
G1 X102.938 Y113.042 E.00528
G1 E-1.12 F2400
;WIPE_START
G1 F4800
G1 X102.918 Y113.098 E-.02825
G1 X102.759 Y113.263 E-.10884
G1 X102.566 Y113.346 E-.09979
G1 X102.338 Y113.346 E-.1083
G1 X102.151 Y113.265 E-.0968
G1 X102.097 Y113.206 E-.03802
;WIPE_END
G1 X123.458 Y114.367 F6000
G1 E1.6 F2400
;TYPE:Perimeter
G1 F1200
G1 X123.411 Y114.334 E.00169
G1 X123.365 Y114.255 E.00269
G1 X123.341 Y114.078 E.00526
G1 X123.348 Y113.973 E.0031
G1 X123.383 Y113.862 E.00343
G1 X123.421 Y113.818 E.00171
G1 X123.542 Y113.801 E.0036
G1 X123.605 Y113.824 E.00198
G1 X123.67 Y113.909 E.00315
G1 X123.69 Y114.04 E.00391
G1 X123.682 Y114.142 E.00302
G1 X123.664 Y114.216 E.00224
G1 X123.605 Y114.315 E.0034
G1 X123.539 Y114.367 E.00248
G1 X123.515 Y114.37 E.00071
G1 X123.39 Y114.746 F6000
;TYPE:External perimeter
G1 F1200
G1 X123.211 Y114.663 E.00582
G1 X123.058 Y114.49 E.00681
G1 X123.007 Y114.377 E.00365
G1 X122.974 Y114.241 E.00412
G1 X122.974 Y113.917 E.00955
G1 X123.055 Y113.671 E.00763
G1 X123.201 Y113.51 E.00641
G1 X123.389 Y113.43 E.00602
G1 X123.611 Y113.429 E.00654
G1 X123.728 Y113.462 E.00358
G1 X123.819 Y113.512 E.00306
G1 X123.975 Y113.674 E.00663
G1 X124.057 Y113.898 E.00703
G1 X124.056 Y114.202 E.00896
G1 X124.021 Y114.342 E.00425
G1 X123.965 Y114.462 E.0039
G1 X123.795 Y114.653 E.00754
G1 X123.601 Y114.745 E.00633
G1 X123.45 Y114.745 E.00445
G1 E-1.12 F2400
;WIPE_START
G1 F4800
G1 X123.39 Y114.746 E-.0285
G1 X123.211 Y114.663 E-.09372
G1 X123.058 Y114.49 E-.1097
G1 X123.007 Y114.377 E-.05889
G1 X122.974 Y114.241 E-.06647
G1 X122.974 Y113.982 E-.12272
;WIPE_END
G1 X119.551 Y113.049 F6000
G1 E1.6 F2400
G1 F1200
G1 X118.952 Y113.912 E.03096
G1 X118.952 Y113.049 E.02544
G1 X119.491 Y113.049 E.01589
G1 E-1.12 F2400
;WIPE_START
G1 F4800
G1 X119.551 Y113.049 E-.0285
G1 X119.009 Y113.83 E-.4515
;WIPE_END
G1 X113.544 Y113.049 F6000
G1 E1.6 F2400
G1 F1200
G1 X112.945 Y113.912 E.03096
G1 X112.945 Y113.049 E.02544
G1 X113.484 Y113.049 E.01589
G1 E-1.12 F2400
;WIPE_START
G1 F4800
G1 X113.544 Y113.049 E-.0285
G1 X113.002 Y113.83 E-.4515
;WIPE_END
G1 X108.515 Y114.364 F6000
G1 E1.6 F2400
;TYPE:Perimeter
G1 F1200
G1 X108.509 Y114.372 E.00029
G1 X108.456 Y114.361 E.0016
G1 X108.468 Y114.361 E.00035
G1 X108.104 Y114.509 F6000
;TYPE:External perimeter
G1 F1200
G1 X108.079 Y114.447 E.00197
G1 X108.078 Y114.274 E.0051
G1 X108.134 Y114.14 E.00428
G1 X108.243 Y114.034 E.00448
G1 X108.391 Y113.978 E.00466
G1 X108.579 Y113.977 E.00554
G1 X108.664 Y113.999 E.00259
G1 X108.722 Y114.028 E.00191
G1 X108.847 Y114.151 E.00517
G1 X108.877 Y114.208 E.0019
G1 X108.897 Y114.277 E.00212
G1 X108.897 Y114.453 E.00519
G1 X108.841 Y114.583 E.00417
G1 X108.728 Y114.691 E.00461
G1 X108.579 Y114.749 E.00471
G1 X108.399 Y114.749 E.00531
G1 X108.252 Y114.69 E.00467
G1 X108.129 Y114.569 E.00509
G1 X108.127 Y114.564 E.00016
G1 X108.648 Y112.7 F6000
;TYPE:Perimeter
G1 F1200
G1 X108.583 Y112.766 E.00273
G1 X108.495 Y112.78 E.00263
G1 X108.398 Y112.764 E.0029
G1 X108.34 Y112.725 E.00206
G1 X108.301 Y112.67 E.00199
G1 X108.286 Y112.578 E.00275
G1 X108.3 Y112.49 E.00263
G1 X108.384 Y112.407 E.00348
G1 X108.533 Y112.401 E.0044
G1 X108.604 Y112.427 E.00223
G1 X108.652 Y112.478 E.00206
G1 X108.681 Y112.604 E.00381
G1 X108.673 Y112.649 E.00135
G1 X109.01 Y112.817 F6000
;TYPE:External perimeter
G1 F1200
G1 X108.971 Y112.914 E.00308
G1 X108.817 Y113.069 E.00644
G1 X108.618 Y113.148 E.00631
G1 X108.369 Y113.148 E.00734
G1 X108.162 Y113.067 E.00655
G1 X108 Y112.908 E.00669
G1 X107.918 Y112.704 E.00648
G1 X107.918 Y112.455 E.00734
G1 X107.997 Y112.256 E.00631
G1 X108.152 Y112.103 E.00642
G1 X108.354 Y112.024 E.00639
G1 X108.476 Y112.014 E.00361
G1 X108.622 Y112.032 E.00434
G1 X108.786 Y112.092 E.00515
G1 X108.903 Y112.181 E.00433
G1 X108.988 Y112.3 E.00431
G1 X109.041 Y112.444 E.00452
G1 X109.06 Y112.598 E.00457
G1 X109.049 Y112.716 E.00349
G1 X109.031 Y112.761 E.00143
G1 E-1.12 F2400
;WIPE_START
G1 F4800
G1 X109.01 Y112.817 E-.02841
G1 X108.971 Y112.914 E-.04966
G1 X108.817 Y113.069 E-.10379
G1 X108.618 Y113.148 E-.1017
G1 X108.369 Y113.148 E-.11828
G1 X108.216 Y113.088 E-.07816
;WIPE_END
G1 X108.45 Y108.152 F6000
G1 E1.6 F2400
;TYPE:Perimeter
G1 F1200
G1 X108.514 Y108.148 E.00189
G1 X108.507 Y108.157 E.00034
G1 X108.099 Y108.3 F6000
;TYPE:External perimeter
G1 F1200
G1 X108.073 Y108.238 E.00198
G1 X108.073 Y108.065 E.0051
G1 X108.129 Y107.931 E.00428
G1 X108.238 Y107.825 E.00448
G1 X108.385 Y107.768 E.00465
G1 X108.573 Y107.767 E.00554
G1 X108.659 Y107.789 E.00262
G1 X108.717 Y107.818 E.00191
G1 X108.842 Y107.941 E.00517
G1 X108.872 Y107.998 E.0019
G1 X108.891 Y108.068 E.00214
G1 X108.891 Y108.243 E.00516
G1 X108.835 Y108.373 E.00417
G1 X108.723 Y108.482 E.00461
G1 X108.573 Y108.539 E.00473
G1 X108.394 Y108.539 E.00528
G1 X108.246 Y108.48 E.0047
G1 X108.124 Y108.36 E.00504
G1 X108.122 Y108.355 E.00016
G1 X108.334 Y106.515 F6000
;TYPE:Perimeter
G1 F1200
G1 X108.296 Y106.46 E.00197
G1 X108.281 Y106.368 E.00275
G1 X108.295 Y106.28 E.00263
G1 X108.379 Y106.198 E.00346
G1 X108.528 Y106.192 E.0044
G1 X108.598 Y106.217 E.00219
G1 X108.647 Y106.269 E.00211
G1 X108.675 Y106.394 E.00378
G1 X108.662 Y106.472 E.00233
G1 X108.578 Y106.556 E.0035
G1 X108.49 Y106.571 E.00263
G1 X108.393 Y106.555 E.0029
G1 X108.384 Y106.549 E.00032
G1 X109.004 Y106.607 F6000
;TYPE:External perimeter
G1 F1200
G1 X108.966 Y106.705 E.0031
G1 X108.812 Y106.859 E.00642
G1 X108.612 Y106.939 E.00635
G1 X108.364 Y106.938 E.00731
G1 X108.157 Y106.857 E.00655
G1 X107.995 Y106.698 E.00669
G1 X107.913 Y106.494 E.00648
G1 X107.913 Y106.246 E.00731
G1 X107.992 Y106.047 E.00631
G1 X108.146 Y105.894 E.0064
G1 X108.349 Y105.815 E.00642
G1 X108.47 Y105.805 E.00358
G1 X108.617 Y105.823 E.00436
G1 X108.781 Y105.883 E.00515
G1 X108.898 Y105.971 E.00431
G1 X108.983 Y106.091 E.00433
G1 X109.036 Y106.234 E.00449
G1 X109.054 Y106.388 E.00457
G1 X109.044 Y106.506 E.00349
G1 X109.026 Y106.552 E.00146
G1 E-1.12 F2400
;WIPE_START
G1 F4800
G1 X109.004 Y106.607 E-.02814
G1 X108.966 Y106.705 E-.04993
G1 X108.812 Y106.859 E-.10345
G1 X108.612 Y106.939 E-.10232
G1 X108.364 Y106.938 E-.1178
G1 X108.21 Y106.878 E-.07836
;WIPE_END
G1 X112.94 Y107.702 F6000
G1 E1.6 F2400
G1 F1200
G1 X112.94 Y106.84 E.02541
G1 X113.539 Y106.84 E.01765
G1 X112.974 Y107.653 E.02918
G1 E-1.12 F2400
;WIPE_START
G1 F4800
G1 X112.94 Y107.702 E-.02833
G1 X112.94 Y106.84 E-.40945
G1 X113.029 Y106.84 E-.04222
;WIPE_END
G1 X118.946 Y107.702 F6000
G1 E1.6 F2400
G1 F1200
G1 X118.946 Y106.84 E.02541
G1 X119.545 Y106.84 E.01765
G1 X118.981 Y107.653 E.02916
G1 E-1.12 F2400
;WIPE_START
G1 F4800
G1 X118.946 Y107.702 E-.0286
G1 X118.946 Y106.84 E-.40945
G1 X119.034 Y106.84 E-.04195
;WIPE_END
