;FLAVOR:Marlin
;TIME:1800
;Filament used: 1.40511m
;Layer height: 0.15
;MINX:103.5
;MINY:103.5
;MINZ:0.3
;MAXX:131.5
;MAXY:131.5
;MAXZ:19.95
;POSTPROCESSED
;Generated with Cura_SteamEngine 5.3.1
M82 ;absolute extrusion mode
; Ender 3 Custom Start G-code
G92 E0 ; Reset Extruder

M140 S50 ; set bed temp
M190 S50 ; wait for bed temp

G28 ; Home all axes
BED_MESH_CALIBRATE  AREA_START=103.5,103.5 AREA_END=131.5,131.5
M104 S205 ; set extruder temp 

G1 Z2.0 F3000 ; Move Z Axis up little to prevent scratching of Heat Bed
M109 S205 ; wait for extruder temp
G1 X0.1 Y20 Z0.3 F5000.0 ; Move to start position

G1 X0.1 Y200.0 Z0.3 F1500.0 E15 ; Draw the first line
G1 X0.4 Y200.0 Z0.3 F5000.0 ; Move to side a little
G1 X0.4 Y20 Z0.3 F1500.0 E30 ; Draw the second line
G92 E0 ; Reset Extruder
G1 Z2.0 F3000 ; Move Z Axis up little to prevent scratching of Heat Bed
G1 X5 Y20 Z0.3 F5000.0 ; Move over to prevent blob squish
G92 E0
G92 E0
G1 F2400 E-1.6
;LAYER_COUNT:132
;LAYER:0
M107
G0 X105.289 Y105.204 Z0.3
;TYPE:SKIRT
G1 F2400 E0
G1 F1800 X105.68 Y104.883 E0.02243
G1 X106.117 Y104.628 E0.04487
G1 X106.588 Y104.444 E0.0673
G1 X107.082 Y104.338 E0.0897
G1 X107.527 Y104.301 E0.10951
G1 X126.839 Y104.3 E0.96594
G1 X127.537 Y104.31 E0.9969
G1 X128.04 Y104.357 E1.01931
G1 X128.53 Y104.483 E1.04174
G1 X128.994 Y104.685 E1.06418
G1 X129.42 Y104.957 E1.0866
G1 X129.798 Y105.292 E1.109
G1 X130.118 Y105.683 E1.13141
G1 X130.373 Y106.12 E1.15384
G1 X130.556 Y106.591 E1.17625
G1 X130.663 Y107.085 E1.19867
G1 X130.699 Y107.74 E1.22776
G1 X130.7 Y126.804 E2.0732
G1 X130.691 Y127.531 E2.10544
G1 X130.645 Y128.034 E2.12784
G1 X130.52 Y128.524 E2.15027
G1 X130.319 Y128.988 E2.17269
G1 X130.048 Y129.415 E2.19512
G1 X129.713 Y129.794 E2.21755
G1 X129.323 Y130.115 E2.23995
G1 X128.887 Y130.371 E2.26237
G1 X128.416 Y130.554 E2.28478
G1 X127.922 Y130.662 E2.30721
G1 X127.472 Y130.699 E2.32723
G1 X108.166 Y130.7 E3.1834
G1 X107.468 Y130.691 E3.21436
G1 X106.964 Y130.644 E3.23681
G1 X106.474 Y130.519 E3.25923
G1 X106.01 Y130.318 E3.28166
G1 X105.584 Y130.047 E3.30405
G1 X105.205 Y129.712 E3.32648
G1 X104.884 Y129.321 E3.34892
G1 X104.629 Y128.885 E3.37132
G1 X104.445 Y128.414 E3.39374
G1 X104.338 Y127.92 E3.41616
G1 X104.301 Y127.467 E3.43631
G1 X104.3 Y108.131 E4.29382
G1 X104.309 Y107.466 E4.32331
G1 X104.356 Y106.962 E4.34576
G1 X104.482 Y106.473 E4.36815
G1 X104.683 Y106.009 E4.39058
G1 X104.954 Y105.582 E4.413
G1 X105.289 Y105.204 E4.4354
G0 F2400 X105.035 Y104.895
G1 F1800 X105.478 Y104.538 E4.46063
G1 X105.971 Y104.255 E4.48584
G1 X106.442 Y104.071 E4.50827
G1 X107.049 Y103.939 E4.53582
G1 X107.494 Y103.902 E4.55562
G1 X126.845 Y103.9 E5.41379
G1 X127.543 Y103.91 E5.44474
G1 X128.14 Y103.97 E5.47135
G1 X128.69 Y104.116 E5.49659
G1 X129.154 Y104.318 E5.51903
G1 X129.635 Y104.62 E5.54422
G1 X130.108 Y105.039 E5.57224
G1 X130.428 Y105.43 E5.59465
G1 X130.746 Y105.975 E5.62263
G1 X130.929 Y106.446 E5.64504
G1 X131.054 Y107 E5.67023
G1 X131.099 Y107.74 E5.7031
G1 X131.1 Y126.809 E6.54876
G1 X131.091 Y127.536 E6.58101
G1 X131.033 Y128.133 E6.60761
G1 X130.908 Y128.623 E6.63003
G1 X130.657 Y129.202 E6.65802
G1 X130.348 Y129.68 E6.68326
G1 X129.967 Y130.103 E6.70851
G1 X129.526 Y130.46 E6.73367
G1 X129.032 Y130.744 E6.75894
G1 X128.501 Y130.945 E6.78412
G1 X127.955 Y131.061 E6.80887
G1 X127.505 Y131.098 E6.8289
G1 X108.161 Y131.1 E7.68675
G1 X107.463 Y131.091 E7.71771
G1 X106.865 Y131.032 E7.74436
G1 X106.375 Y130.907 E7.76678
G1 X105.851 Y130.685 E7.79202
G1 X105.319 Y130.347 E7.81997
G1 X104.94 Y130.012 E7.84241
G1 X104.575 Y129.575 E7.86766
G1 X104.256 Y129.031 E7.89562
G1 X104.072 Y128.56 E7.91805
G1 X103.939 Y127.953 E7.94561
G1 X103.902 Y127.5 E7.96576
G1 X103.9 Y108.126 E8.82495
G1 X103.909 Y107.461 E8.85444
G1 X103.969 Y106.862 E8.88114
G1 X104.115 Y106.314 E8.90629
G1 X104.345 Y105.795 E8.93146
G1 X104.616 Y105.368 E8.95389
G1 X105.035 Y104.895 E8.98192
G0 F2400 X104.759 Y104.604
G1 F1800 X105.279 Y104.191 E9.01136
G1 X105.825 Y103.882 E9.03919
G1 X106.296 Y103.698 E9.06161
G1 X107.016 Y103.54 E9.0943
G1 X107.461 Y103.503 E9.1141
G1 X126.851 Y103.5 E9.974
G1 X127.549 Y103.51 E10.00496
G1 X128.243 Y103.583 E10.0359
G1 X128.793 Y103.729 E10.06114
G1 X129.314 Y103.951 E10.08626
G1 X129.848 Y104.281 E10.11409
G1 X130.418 Y104.786 E10.14787
G1 X130.738 Y105.177 E10.17027
G1 X131.119 Y105.83 E10.2038
G1 X131.302 Y106.301 E10.22621
G1 X131.444 Y106.912 E10.25403
G1 X131.499 Y107.74 E10.29083
G1 X131.5 Y126.814 E11.13671
G1 X131.491 Y127.541 E11.16895
G1 X131.421 Y128.232 E11.19975
G1 X131.296 Y128.722 E11.22218
G1 X131.011 Y129.392 E11.25447
G1 X130.645 Y129.948 E11.28399
G1 X130.219 Y130.414 E11.31199
G1 X129.778 Y130.771 E11.33715
G1 X129.231 Y131.091 E11.36526
G1 X128.643 Y131.319 E11.39322
G1 X127.988 Y131.46 E11.42294
G1 X127.538 Y131.497 E11.44296
G1 X108.156 Y131.5 E12.3025
G1 X107.458 Y131.491 E12.33346
G1 X106.766 Y131.42 E12.36431
G1 X106.276 Y131.295 E12.38673
G1 X105.636 Y131.023 E12.41757
G1 X105.104 Y130.685 E12.44553
G1 X104.675 Y130.312 E12.47074
G1 X104.247 Y129.806 E12.50013
G1 X103.883 Y129.177 E12.53236
G1 X103.681 Y128.646 E12.55755
G1 X103.54 Y127.986 E12.58748
G1 X103.503 Y127.533 E12.60764
G1 X103.5 Y108.121 E13.46851
G1 X103.511 Y107.421 E13.49956
G1 X103.582 Y106.759 E13.52908
G1 X103.728 Y106.211 E13.55423
G1 X103.979 Y105.633 E13.58218
G1 X104.278 Y105.154 E13.60722
G1 X104.759 Y104.604 E13.63962
G1 F2400 E12.03962
;MESH:xyzCalibration_cube.stl
G0 X107.914 Y106.835
G0 X107.914 Y107.914
G0 X126.328 Y108.672
G0 X126.5 Y126.5
;TYPE:WALL-INNER
G1 F2400 E13.63962
G1 F1800 X126.5 Y108.5 E14.43787
G1 X108.5 Y108.5 E15.23613
G1 X108.5 Y126.5 E16.03438
G1 X126.5 Y126.5 E16.83263
G0 F2400 X126.9 Y126.9
G1 F1800 X126.9 Y108.1 E17.66636
G1 X108.1 Y108.1 E18.5001
G1 X108.1 Y126.9 E19.33383
G1 X126.9 Y126.9 E20.16756
G0 F2400 X127.3 Y127.3
;TYPE:WALL-OUTER
G1 F1800 X127.3 Y107.7 E21.03677
G1 X107.7 Y107.7 E21.90598
G1 X107.7 Y127.3 E22.77519
G1 X127.3 Y127.3 E23.64439
G0 F2400 X127.3 Y127.1
G0 X126.63 Y126.63
G0 X126.12 Y126.12
;TYPE:SKIN
G1 F1800 X108.88 Y126.12 E24.40894
G1 X108.88 Y108.88 E25.17349
G1 X126.12 Y108.88 E25.93804
G1 X126.12 Y126.12 E26.70259
G0 F2400 X126.4 Y126.12
G0 X126.4 Y109.514
G0 X125.919 Y109.514
G1 F1800 X125.485 Y109.08 E26.72981
G0 F2400 X124.919 Y109.08
G1 F1800 X125.919 Y110.08 E26.79253
G0 F2400 X125.919 Y110.645
G1 F1800 X124.353 Y109.08 E26.89071
G0 F2400 X123.788 Y109.08
G1 F1800 X125.919 Y111.211 E27.02436
G0 F2400 X125.919 Y111.777
G1 F1800 X123.222 Y109.08 E27.19351
G0 F2400 X122.656 Y109.08
G1 F1800 X125.919 Y112.343 E27.39815
G0 F2400 X125.919 Y112.908
G1 F1800 X122.091 Y109.08 E27.63823
G0 F2400 X121.525 Y109.08
G1 F1800 X125.919 Y113.474 E27.91381
G0 F2400 X125.919 Y114.04
G1 F1800 X120.959 Y109.08 E28.22488
G0 F2400 X120.394 Y109.08
G1 F1800 X125.919 Y114.605 E28.57139
G0 F2400 X125.919 Y115.171
G1 F1800 X119.828 Y109.08 E28.9534
G0 F2400 X119.262 Y109.08
G1 F1800 X125.919 Y115.737 E29.3709
G0 F2400 X125.919 Y116.302
G1 F1800 X118.697 Y109.08 E29.82384
G0 F2400 X118.131 Y109.08
G1 F1800 X125.919 Y116.868 E30.31228
G0 F2400 X125.919 Y117.434
G1 F1800 X117.565 Y109.08 E30.83622
G0 F2400 X117 Y109.08
G1 F1800 X125.919 Y117.999 E31.39559
G0 F2400 X125.919 Y118.565
G1 F1800 X116.434 Y109.08 E31.99046
G0 F2400 X115.868 Y109.08
G1 F1800 X125.919 Y119.131 E32.62082
G0 F2400 X125.919 Y119.696
G1 F1800 X115.302 Y109.08 E33.28665
G0 F2400 X114.737 Y109.08
G1 F1800 X125.919 Y120.262 E33.98795
G0 F2400 X125.919 Y120.828
G1 F1800 X114.171 Y109.08 E34.72475
G0 F2400 X113.605 Y109.08
G1 F1800 X125.919 Y121.393 E35.49701
G0 F2400 X125.919 Y121.959
G1 F1800 X113.04 Y109.08 E36.30474
G0 F2400 X112.474 Y109.08
G1 F1800 X125.919 Y122.525 E37.14796
G0 F2400 X125.919 Y123.091
G1 F1800 X111.908 Y109.08 E38.02669
G0 F2400 X111.343 Y109.08
G1 F1800 X125.919 Y123.656 E38.94085
G0 F2400 X125.919 Y124.222
G1 F1800 X110.777 Y109.08 E39.8905
G0 F2400 X110.211 Y109.08
G1 F1800 X125.919 Y124.788 E40.87566
G0 F2400 X125.919 Y125.353
G1 F1800 X109.646 Y109.08 E41.89624
G0 F2400 X109.079 Y109.079
G1 F1800 X125.919 Y125.919 E42.95239
G0 F2400 X125.353 Y125.919
G1 F1800 X109.079 Y109.645 E43.97304
G0 F2400 X109.079 Y110.211
G1 F1800 X124.788 Y125.919 E44.95823
G0 F2400 X124.222 Y125.919
G1 F1800 X109.079 Y110.776 E45.90795
G0 F2400 X109.079 Y111.342
G1 F1800 X123.656 Y125.919 E46.82217
G0 F2400 X123.091 Y125.919
G1 F1800 X109.079 Y111.908 E47.70093
G0 F2400 X109.079 Y112.473
G1 F1800 X122.525 Y125.919 E48.54421
G0 F2400 X121.959 Y125.919
G1 F1800 X109.079 Y113.039 E49.352
G0 F2400 X109.079 Y113.605
G1 F1800 X121.393 Y125.919 E50.1243
G0 F2400 X120.828 Y125.919
G1 F1800 X109.079 Y114.17 E50.86116
G0 F2400 X109.079 Y114.736
G1 F1800 X120.262 Y125.919 E51.56252
G0 F2400 X119.696 Y125.919
G1 F1800 X109.079 Y115.302 E52.22838
G0 F2400 X109.079 Y115.867
G1 F1800 X119.131 Y125.919 E52.85881
G0 F2400 X118.565 Y125.919
G1 F1800 X109.079 Y116.433 E53.45374
G0 F2400 X109.079 Y116.999
G1 F1800 X117.999 Y125.919 E54.01317
G0 F2400 X117.434 Y125.919
G1 F1800 X109.079 Y117.564 E54.53717
G0 F2400 X109.079 Y118.13
G1 F1800 X116.868 Y125.919 E55.02567
G0 F2400 X116.302 Y125.919
G1 F1800 X109.079 Y118.696 E55.47867
G0 F2400 X109.079 Y119.262
G1 F1800 X115.737 Y125.919 E55.89621
G0 F2400 X115.171 Y125.919
G1 F1800 X109.079 Y119.827 E56.27828
G0 F2400 X109.079 Y120.393
G1 F1800 X114.605 Y125.919 E56.62485
G0 F2400 X114.04 Y125.919
G1 F1800 X109.079 Y120.959 E56.93596
G0 F2400 X109.079 Y121.524
G1 F1800 X113.474 Y125.919 E57.2116
G0 F2400 X112.908 Y125.919
G1 F1800 X109.079 Y122.09 E57.45174
G0 F2400 X109.079 Y122.656
G1 F1800 X112.343 Y125.919 E57.65642
G0 F2400 X111.777 Y125.919
G1 F1800 X109.079 Y123.221 E57.82563
G0 F2400 X109.079 Y123.787
G1 F1800 X111.211 Y125.919 E57.95934
G0 F2400 X110.645 Y125.919
G1 F1800 X109.079 Y124.353 E58.05755
G0 F2400 X109.079 Y124.918
G1 F1800 X110.08 Y125.919 E58.12033
G0 F2400 X109.514 Y125.919
M104 S205
G1 F1800 X109.079 Y125.484 E58.14761
;MESH:NONMESH
G0 F600 X109.079 Y125.484 Z0.45
G0 F2400 X108.6 Y125.484
G0 X108.672 Y126.328
G0 X126.5 Y126.5
;TIME_ELAPSED:52.194310
;LAYER:1
M106 S255
;TYPE:WALL-INNER
;MESH:xyzCalibration_cube.stl
G1 F1980 X126.5 Y108.5 E58.54674
G1 X108.5 Y108.5 E58.94587
G1 X108.5 Y126.5 E59.34499
G1 X126.5 Y126.5 E59.74412
G0 F4200 X126.9 Y126.9
G1 F1980 X126.9 Y108.1 E60.16099
G1 X108.1 Y108.1 E60.57785
G1 X108.1 Y126.9 E60.99472
G1 X126.9 Y126.9 E61.41158
G0 F4200 X127.3 Y127.3
;TYPE:WALL-OUTER
G1 F1980 X127.3 Y107.7 E61.84619
G1 X107.7 Y107.7 E62.28079
G1 X107.7 Y127.3 E62.7154
G1 X127.3 Y127.3 E63.15
G0 F4200 X127.3 Y127.1
G0 X126.63 Y126.63
G0 X126.12 Y126.12
;TYPE:SKIN
G1 F1980 X108.88 Y126.12 E63.53228
G1 X108.88 Y108.88 E63.91455
G1 X126.12 Y108.88 E64.29682
G1 X126.12 Y126.12 E64.6791
G0 F4200 X125.81 Y125.919
G1 F1980 X125.919 Y125.81 E64.68252
G0 F4200 X125.919 Y125.244
G1 F1980 X125.244 Y125.919 E64.70368
G0 F4200 X124.679 Y125.919
G1 F1980 X125.919 Y124.679 E64.74257
G0 F4200 X125.919 Y124.113
G1 F1980 X124.113 Y125.919 E64.7992
G0 F4200 X123.547 Y125.919
G1 F1980 X125.919 Y123.547 E64.87358
G0 F4200 X125.919 Y122.982
G1 F1980 X122.982 Y125.919 E64.96568
G0 F4200 X122.416 Y125.919
G1 F1980 X125.919 Y122.416 E65.07553
G0 F4200 X125.919 Y121.85
G1 F1980 X121.85 Y125.919 E65.20313
G0 F4200 X121.285 Y125.919
G1 F1980 X125.919 Y121.285 E65.34844
G0 F4200 X125.919 Y120.719
G1 F1980 X120.719 Y125.919 E65.51151
G0 F4200 X120.153 Y125.919
G1 F1980 X125.919 Y120.153 E65.69232
G0 F4200 X125.919 Y119.588
G1 F1980 X119.588 Y125.919 E65.89085
G0 F4200 X119.022 Y125.919
G1 F1980 X125.919 Y119.022 E66.10713
G0 F4200 X125.919 Y118.456
G1 F1980 X118.456 Y125.919 E66.34115
G0 F4200 X117.89 Y125.919
G1 F1980 X125.919 Y117.89 E66.59293
G0 F4200 X125.919 Y117.325
G1 F1980 X117.325 Y125.919 E66.86242
G0 F4200 X116.759 Y125.919
G1 F1980 X125.919 Y116.759 E67.14967
G0 F4200 X125.919 Y116.193
G1 F1980 X116.193 Y125.919 E67.45466
G0 F4200 X115.628 Y125.919
G1 F1980 X125.919 Y115.628 E67.77737
G0 F4200 X125.919 Y115.062
G1 F1980 X115.062 Y125.919 E68.11782
G0 F4200 X114.496 Y125.919
G1 F1980 X125.919 Y114.496 E68.47603
G0 F4200 X125.919 Y113.931
G1 F1980 X113.931 Y125.919 E68.85195
G0 F4200 X113.365 Y125.919
G1 F1980 X125.919 Y113.365 E69.24563
G0 F4200 X125.919 Y112.799
G1 F1980 X112.799 Y125.919 E69.65705
G0 F4200 X112.234 Y125.919
G1 F1980 X125.919 Y112.234 E70.08619
G0 F4200 X125.919 Y111.668
G1 F1980 X111.668 Y125.919 E70.53308
G0 F4200 X111.102 Y125.919
G1 F1980 X125.919 Y111.102 E70.99771
G0 F4200 X125.919 Y110.537
G1 F1980 X110.537 Y125.919 E71.48007
G0 F4200 X109.971 Y125.919
G1 F1980 X125.919 Y109.971 E71.98017
G0 F4200 X125.919 Y109.405
G1 F1980 X109.405 Y125.919 E72.49802
G0 F4200 X109.08 Y125.679
G1 F1980 X125.679 Y109.079 E73.01855
G0 F4200 X125.114 Y109.079
G1 F1980 X109.08 Y125.113 E73.52135
G0 F4200 X109.08 Y124.547
G1 F1980 X124.548 Y109.079 E74.0064
G0 F4200 X123.982 Y109.079
G1 F1980 X109.08 Y123.981 E74.47371
G0 F4200 X109.08 Y123.416
G1 F1980 X123.417 Y109.079 E74.92329
G0 F4200 X122.851 Y109.079
G1 F1980 X109.08 Y122.85 E75.35513
G0 F4200 X109.08 Y122.284
G1 F1980 X122.285 Y109.079 E75.76921
G0 F4200 X121.719 Y109.079
G1 F1980 X109.08 Y121.719 E76.16557
G0 F4200 X109.08 Y121.153
G1 F1980 X121.154 Y109.079 E76.54419
G0 F4200 X120.588 Y109.079
G1 F1980 X109.08 Y120.587 E76.90506
G0 F4200 X109.08 Y120.022
G1 F1980 X120.022 Y109.079 E77.2482
G0 F4200 X119.457 Y109.079
G1 F1980 X109.08 Y119.456 E77.5736
G0 F4200 X109.08 Y118.89
G1 F1980 X118.891 Y109.079 E77.88126
G0 F4200 X118.325 Y109.079
G1 F1980 X109.08 Y118.325 E78.17119
G0 F4200 X109.08 Y117.759
G1 F1980 X117.76 Y109.079 E78.44338
G0 F4200 X117.194 Y109.079
G1 F1980 X109.08 Y117.193 E78.69782
G0 F4200 X109.08 Y116.628
G1 F1980 X116.628 Y109.079 E78.93453
G0 F4200 X116.063 Y109.079
G1 F1980 X109.08 Y116.062 E79.1535
G0 F4200 X109.08 Y115.496
G1 F1980 X115.497 Y109.079 E79.35473
G0 F4200 X114.931 Y109.079
G1 F1980 X109.08 Y114.931 E79.53822
G0 F4200 X109.08 Y114.365
G1 F1980 X114.366 Y109.079 E79.70398
G0 F4200 X113.8 Y109.079
G1 F1980 X109.08 Y113.799 E79.85199
G0 F4200 X109.08 Y113.233
G1 F1980 X113.234 Y109.079 E79.98226
G0 F4200 X112.668 Y109.079
G1 F1980 X109.08 Y112.668 E80.09478
G0 F4200 X109.08 Y112.102
G1 F1980 X112.103 Y109.079 E80.18958
G0 F4200 X111.537 Y109.079
G1 F1980 X109.08 Y111.536 E80.26663
G0 F4200 X109.08 Y110.971
G1 F1980 X110.971 Y109.079 E80.32594
G0 F4200 X110.406 Y109.079
G1 F1980 X109.08 Y110.405 E80.36752
G0 F4200 X109.08 Y109.839
G1 F1980 X109.84 Y109.079 E80.39136
G0 F4200 X109.274 Y109.079
G1 F1980 X109.08 Y109.274 E80.39746
;MESH:NONMESH
G0 F600 X109.08 Y109.274 Z0.6
G0 F4200 X108.6 Y109.274
G0 X108.672 Y126.328
G0 X126.5 Y126.5
;TIME_ELAPSED:84.538503
;LAYER:2
;TYPE:WALL-INNER
;MESH:xyzCalibration_cube.stl
G1 F2160 X126.5 Y108.5 E80.79658
G1 X108.5 Y108.5 E81.19571
G1 X108.5 Y126.5 E81.59484
G1 X126.5 Y126.5 E81.99396
G0 F6000 X126.9 Y126.9
G1 F2160 X126.9 Y108.1 E82.41083
G1 X108.1 Y108.1 E82.82769
G1 X108.1 Y126.9 E83.24456
G1 X126.9 Y126.9 E83.66142
G0 F6000 X127.3 Y127.3
;TYPE:WALL-OUTER
G1 F2160 X127.3 Y107.7 E84.09603
G1 X107.7 Y107.7 E84.53063
G1 X107.7 Y127.3 E84.96524
G1 X127.3 Y127.3 E85.39984
G0 F6000 X127.3 Y127.1
G0 X126.63 Y126.63
G0 X126.12 Y126.12
;TYPE:SKIN
G1 F2160 X108.88 Y126.12 E85.78212
G1 X108.88 Y108.88 E86.16439
G1 X126.12 Y108.88 E86.54667
G1 X126.12 Y126.12 E86.92894
G0 F6000 X126.4 Y126.12
G0 X126.4 Y109.514
G0 X125.919 Y109.514
G1 F2160 X125.485 Y109.08 E86.94255
G0 F6000 X124.919 Y109.08
G1 F2160 X125.919 Y110.08 E86.97391
G0 F6000 X125.919 Y110.645
G1 F2160 X124.353 Y109.08 E87.023
G0 F6000 X123.788 Y109.08
G1 F2160 X125.919 Y111.211 E87.08982
G0 F6000 X125.919 Y111.777
G1 F2160 X123.222 Y109.08 E87.1744
G0 F6000 X122.656 Y109.08
G1 F2160 X125.919 Y112.343 E87.27672
G0 F6000 X125.919 Y112.908
G1 F2160 X122.091 Y109.08 E87.39676
G0 F6000 X121.525 Y109.08
G1 F2160 X125.919 Y113.474 E87.53455
G0 F6000 X125.919 Y114.04
G1 F2160 X120.959 Y109.08 E87.69009
G0 F6000 X120.394 Y109.08
G1 F2160 X125.919 Y114.605 E87.86334
G0 F6000 X125.919 Y115.171
