; generated by PrusaSlicer 2.6.1+win64 on 2023-09-27 at 13:37:34 UTC

; 

; external perimeters extrusion width = 0.42mm
; perimeters extrusion width = 0.44mm
; infill extrusion width = 0.44mm
; solid infill extrusion width = 0.44mm
; top infill extrusion width = 0.40mm
; first layer extrusion width = 0.42mm

; external perimeters extrusion width = 0.42mm
; perimeters extrusion width = 0.44mm
; infill extrusion width = 0.44mm
; solid infill extrusion width = 0.44mm
; top infill extrusion width = 0.40mm
; first layer extrusion width = 0.42mm

; external perimeters extrusion width = 0.42mm
; perimeters extrusion width = 0.44mm
; infill extrusion width = 0.44mm
; solid infill extrusion width = 0.44mm
; top infill extrusion width = 0.40mm
; first layer extrusion width = 0.42mm

; external perimeters extrusion width = 0.42mm
; perimeters extrusion width = 0.44mm
; infill extrusion width = 0.44mm
; solid infill extrusion width = 0.44mm
; top infill extrusion width = 0.40mm
; first layer extrusion width = 0.42mm

; external perimeters extrusion width = 0.42mm
; perimeters extrusion width = 0.44mm
; infill extrusion width = 0.44mm
; solid infill extrusion width = 0.44mm
; top infill extrusion width = 0.40mm
; first layer extrusion width = 0.42mm

; external perimeters extrusion width = 0.42mm
; perimeters extrusion width = 0.44mm
; infill extrusion width = 0.44mm
; solid infill extrusion width = 0.44mm
; top infill extrusion width = 0.40mm
; first layer extrusion width = 0.42mm

; external perimeters extrusion width = 0.42mm
; perimeters extrusion width = 0.44mm
; infill extrusion width = 0.44mm
; solid infill extrusion width = 0.44mm
; top infill extrusion width = 0.40mm
; first layer extrusion width = 0.42mm

; external perimeters extrusion width = 0.42mm
; perimeters extrusion width = 0.44mm
; infill extrusion width = 0.44mm
; solid infill extrusion width = 0.44mm
; top infill extrusion width = 0.40mm
; first layer extrusion width = 0.42mm

; external perimeters extrusion width = 0.42mm
; perimeters extrusion width = 0.44mm
; infill extrusion width = 0.44mm
; solid infill extrusion width = 0.44mm
; top infill extrusion width = 0.40mm
; first layer extrusion width = 0.42mm

; external perimeters extrusion width = 0.42mm
; perimeters extrusion width = 0.44mm
; infill extrusion width = 0.44mm
; solid infill extrusion width = 0.44mm
; top infill extrusion width = 0.40mm
; first layer extrusion width = 0.42mm

;TYPE:Custom
; Ender 3 Custom Start G-code
G92 E0 ; Reset Extruder

M140 S55 ; set bed temp
M104 S160 ; set extruder temp
M109 S160 ; wait for extruder temp
M190 S55 ; wait for bed temp

G28 ; Home all axes
M104 S210 ; set extruder temp 
BED_MESH_CALIBRATE AREA_START=83.7684,88.5669 AREA_END=143.763,126.207

G1 Z2.0 F3000 ; Move Z Axis up little to prevent scratching of Heat Bed
M109 S210 ; wait for extruder temp
G1 X0.1 Y20 Z0.3 F5000.0 ; Move to start position

G1 X0.1 Y200.0 Z0.3 F1500.0 E15 ; Draw the first line
G1 X0.4 Y200.0 Z0.3 F5000.0 ; Move to side a little
G1 X0.4 Y20 Z0.3 F1500.0 E30 ; Draw the second line
G92 E0 ; Reset Extruder
G1 Z2.0 F3000 ; Move Z Axis up little to prevent scratching of Heat Bed
G1 X5 Y20 Z0.3 F5000.0 ; Move over to prevent blob squish
G21 ; set units to millimeters
G90 ; use absolute coordinates
M83 ; use relative distances for extrusion
; Filament gcode
M107
;LAYER_CHANGE
;Z:0.2
;HEIGHT:0.2
;BEFORE_LAYER_CHANGE
G92 E0
;0.2


G1 E-1.6 F2400
G1 Z.2 F6000
;AFTER_LAYER_CHANGE
;0.2
G1 X87.857 Y91.701
G1 E1.6 F2400
M204 S500
;TYPE:Skirt/Brim
;WIDTH:0.42
G1 F1080
G1 X88.725 Y90.996 E.03296
G1 X89.656 Y90.382 E.03287
G1 X91.322 Y89.564 E.0547
G1 X93.099 Y89.026 E.05472
G1 X94.721 Y88.79 E.04831
G1 X131.692 Y88.755 E1.08965
G1 X132.884 Y88.805 E.03516
G1 X133.843 Y88.938 E.02854
G1 X135.87 Y89.494 E.06195
G1 X137.7 Y90.365 E.05973
G1 X139.14 Y91.376 E.05186
G1 X140.583 Y92.775 E.05924
G1 X141.374 Y93.79 E.03793
G1 X141.835 Y94.519 E.02542
G1 X142.681 Y96.304 E.05822
G1 X143.24 Y98.341 E.06226
G1 X143.425 Y100.341 E.0592
G1 X143.575 Y114.341 E.41265
G1 X143.503 Y115.668 E.03917
G1 X143.296 Y116.888 E.03647
G1 X142.676 Y118.864 E.06104
G1 X141.69 Y120.733 E.06228
G1 X140.467 Y122.296 E.05849
G1 X139.688 Y123.064 E.03224
G1 X138.815 Y123.771 E.03311
G1 X137.173 Y124.778 E.05677
G1 X136.08 Y125.257 E.03517
G1 X134.281 Y125.783 E.05524
G1 X132.523 Y126.003 E.05222
G1 X95.078 Y126.009 E1.10362
G1 X93.39 Y125.81 E.0501
G1 X92.295 Y125.542 E.03323
G1 X91.185 Y125.153 E.03467
G1 X89.854 Y124.506 E.04362
G1 X88.8 Y123.835 E.03683
G1 X87.851 Y123.075 E.03583
G1 X86.76 Y121.96 E.04598
G1 X86.154 Y121.19 E.02888
G1 X85.328 Y119.862 E.04609
G1 X84.772 Y118.665 E.0389
G1 X84.319 Y117.276 E.04306
G1 X84.013 Y115.506 E.05294
G1 X83.957 Y114.505 E.02955
G1 X83.987 Y99.578 E.43994
G1 X84.339 Y97.433 E.06407
G1 X84.956 Y95.673 E.05497
G1 X85.359 Y94.854 E.0269
G1 X86.242 Y93.468 E.04844
G1 X86.875 Y92.684 E.0297
G1 X87.814 Y91.744 E.03916
G1 X88.08 Y92.01 F6000
G1 F1080
G1 X88.937 Y91.308 E.03265
G1 X89.836 Y90.714 E.03176
G1 X91.455 Y89.917 E.05319
G1 X92.992 Y89.437 E.04746
G1 X94.74 Y89.166 E.05213
G1 X131.692 Y89.133 E1.08909
G1 X133.767 Y89.308 E.06137
G1 X135.748 Y89.851 E.06054
G1 X137.509 Y90.69 E.05749
G1 X138.893 Y91.661 E.04983
G1 X140.304 Y93.029 E.05792
G1 X141.07 Y94.013 E.03675
G1 X141.565 Y94.802 E.02745
G1 X142.414 Y96.673 E.06056
G1 X142.882 Y98.473 E.05482
G1 X143.048 Y100.345 E.05539
G1 X143.198 Y114.345 E.41265
G1 X143.13 Y115.614 E.03745
G1 X142.924 Y116.824 E.03618
G1 X142.331 Y118.712 E.05833
G1 X141.369 Y120.534 E.06073
G1 X140.198 Y122.031 E.05602
G1 X139.594 Y122.642 E.02532
G1 X138.603 Y123.459 E.03785
G1 X136.981 Y124.453 E.05607
G1 X135.395 Y125.098 E.05046
G1 X134.218 Y125.411 E.0359
G1 X132.355 Y125.634 E.0553
G1 X95.105 Y125.633 E1.09787
G1 X93.449 Y125.437 E.04915
G1 X92.304 Y125.154 E.03476
G1 X91.337 Y124.807 E.03028
G1 X90.03 Y124.173 E.04281
G1 X89.019 Y123.528 E.03534
G1 X88.102 Y122.794 E.03462
G1 X87.039 Y121.706 E.04483
G1 X86.452 Y120.958 E.02802
G1 X85.657 Y119.676 E.04446
G1 X85.128 Y118.539 E.03696
G1 X84.684 Y117.182 E.04208
G1 X84.387 Y115.46 E.0515
G1 X84.334 Y114.505 E.02819
G1 X84.363 Y99.603 E.43921
G1 X84.7 Y97.541 E.06158
G1 X85.307 Y95.811 E.05404
G1 X85.705 Y95.004 E.02652
G1 X86.553 Y93.681 E.04632
G1 X87.156 Y92.934 E.02829
G1 X88.038 Y92.052 E.03676
G1 X88.304 Y92.318 F6000
G1 F1080
G1 X89.149 Y91.62 E.0323
G1 X90.029 Y91.037 E.03111
G1 X91.588 Y90.27 E.05121
G1 X93.208 Y89.774 E.04993
G1 X94.758 Y89.543 E.04619
G1 X131.692 Y89.51 E1.08856
G1 X133.69 Y89.677 E.05909
G1 X135.628 Y90.208 E.05922
G1 X137.318 Y91.015 E.0552
G1 X138.647 Y91.947 E.04784
G1 X140.013 Y93.269 E.05603
G1 X140.766 Y94.236 E.03612
G1 X141.237 Y94.988 E.02615
G1 X142.054 Y96.785 E.05818
G1 X142.512 Y98.545 E.0536
G1 X142.671 Y100.349 E.05338
G1 X142.821 Y114.349 E.41265
G1 X142.744 Y115.641 E.03815
G1 X142.521 Y116.917 E.03818
G1 X142.276 Y117.78 E.02644
G1 X141.409 Y119.75 E.06344
G1 X140.675 Y120.874 E.03957
G1 X140.018 Y121.672 E.03047
G1 X139.333 Y122.37 E.02882
G1 X138.39 Y123.147 E.03601
G1 X136.804 Y124.12 E.05484
G1 X135.27 Y124.742 E.04879
G1 X134.141 Y125.042 E.03443
G1 X132.345 Y125.257 E.05331
G1 X95.131 Y125.257 E1.09681
G1 X93.508 Y125.065 E.04817
G1 X92.409 Y124.792 E.03338
G1 X91.488 Y124.462 E.02883
G1 X90.206 Y123.839 E.04201
G1 X89.238 Y123.221 E.03385
G1 X88.306 Y122.47 E.03528
G1 X87.318 Y121.453 E.04179
G1 X86.76 Y120.741 E.02666
G1 X85.985 Y119.491 E.04335
G1 X85.483 Y118.413 E.03505
G1 X85.05 Y117.087 E.04111
G1 X84.761 Y115.415 E.05001
G1 X84.739 Y99.629 E.46526
G1 X85.061 Y97.651 E.05907
G1 X85.658 Y95.949 E.05316
G1 X86.04 Y95.178 E.02536
G1 X86.862 Y93.897 E.04486
G1 X87.438 Y93.185 E.02699
G1 X88.262 Y92.361 E.03435
; printing object Kształt-Sześcian id:5 copy 0
G1 E-1.12 F2400
;WIPE_START
G1 F4800
G1 X89.038 Y91.713 E-.48
;WIPE_END
G1 X128.393 Y104.809 F6000
G1 E1.6 F2400
;TYPE:External perimeter
G1 F1080
G1 X128.473 Y104.809 E.00236
G1 X128.473 Y105.189 E.0112
G1 X128.393 Y105.189 E.00236
G1 X128.393 Y104.869 E.00943
G1 X128.465 Y104.844 F6000
; stop printing object Kształt-Sześcian id:5 copy 0
; printing object Kształt-Sześcian id:2 copy 0
G1 E-1.12 F2400
;WIPE_START
G1 F4800
G1 X128.473 Y104.809 E-.0475
G1 X128.473 Y105.189 E-.1805
G1 X128.393 Y105.189 E-.038
G1 X128.393 Y104.869 E-.152
;WIPE_END
G1 E-.062 F2400
G1 X124.128 Y106.772 F6000
G1 E1.6 F2400
G1 F1080
G1 X124.128 Y107.152 E.0112
G1 X124.048 Y107.152 E.00236
G1 X124.048 Y106.772 E.0112
G1 X124.068 Y106.772 E.00059
G1 X124.102 Y107.151 F6000
; stop printing object Kształt-Sześcian id:2 copy 0
; printing object Kształt-Sześcian id:1 copy 0
G1 E-1.12 F2400
;WIPE_START
G1 F4800
G1 X124.128 Y107.152 E-.18274
G1 X124.048 Y107.152 E-.038
G1 X124.048 Y106.772 E-.1805
G1 X124.068 Y106.772 E-.0095
;WIPE_END
G1 E-.06926 F2400
G1 X124.075 Y109.706 F6000
G1 E1.6 F2400
G1 F1080
G1 X124.155 Y109.706 E.00236
G1 X124.155 Y110.086 E.0112
G1 X124.075 Y110.086 E.00236
G1 X124.075 Y109.766 E.00943
G1 X124.146 Y109.741 F6000
; stop printing object Kształt-Sześcian id:1 copy 0
; printing object Kształt-Sześcian id:6 copy 0
G1 E-1.12 F2400
;WIPE_START
G1 F4800
G1 X124.155 Y109.706 E-.0475
G1 X124.155 Y110.086 E-.1805
G1 X124.075 Y110.086 E-.038
G1 X124.075 Y109.766 E-.152
;WIPE_END
G1 E-.062 F2400
G1 X128.434 Y109.733 F6000
G1 E1.6 F2400
G1 F1080
G1 X128.514 Y109.733 E.00236
G1 X128.514 Y110.113 E.0112
G1 X128.434 Y110.113 E.00236
G1 X128.434 Y109.793 E.00943
G1 X128.506 Y109.768 F6000
; stop printing object Kształt-Sześcian id:6 copy 0
; printing object Kształt-Sześcian id:8 copy 0
G1 E-1.12 F2400
;WIPE_START
G1 F4800
G1 X128.514 Y109.733 E-.0475
G1 X128.514 Y110.113 E-.1805
G1 X128.434 Y110.113 E-.038
G1 X128.434 Y109.793 E-.152
;WIPE_END
G1 E-.062 F2400
G1 X113.736 Y117.481 F6000
G1 E1.6 F2400
G1 F1080
G1 X113.736 Y117.861 E.0112
G1 X113.656 Y117.861 E.00236
G1 X113.656 Y117.481 E.0112
G1 X113.676 Y117.481 E.00059
G1 X113.71 Y117.86 F6000
; stop printing object Kształt-Sześcian id:8 copy 0
; printing object Shape-Box id:0 copy 0
G1 E-1.12 F2400
;WIPE_START
G1 F4800
G1 X113.736 Y117.861 E-.18274
G1 X113.656 Y117.861 E-.038
G1 X113.656 Y117.481 E-.1805
G1 X113.676 Y117.481 E-.0095
;WIPE_END
G1 E-.06926 F2400
G1 X113.506 Y106.463 F6000
G1 E1.6 F2400
;TYPE:Perimeter
G1 F1080
G1 X113.587 Y106.849 E.01162
G1 X113.467 Y106.995 E.00557
G1 X113.336 Y107.071 E.00446
G1 X113.155 Y107.108 E.00544
G1 X112.94 Y107.073 E.00642
G1 X112.83 Y107.001 E.00387
G1 X112.744 Y106.877 E.00445
G1 X112.696 Y106.675 E.00612
G1 X112.706 Y106.409 E.00785
G1 X112.76 Y106.223 E.00571
G1 X112.846 Y106.094 E.00457
G1 X112.948 Y106.011 E.00388
G1 X113.065 Y105.967 E.00368
G1 X113.141 Y105.959 E.00225
G1 X113.308 Y106.001 E.00508
G1 X113.382 Y106.069 E.00296
G1 X113.42 Y106.134 E.00222
G1 X113.493 Y106.404 E.00824
G1 E-1.12 F2400
;WIPE_START
G1 F4800
G1 X113.587 Y106.849 E-.21604
G1 X113.467 Y106.995 E-.08977
G1 X113.336 Y107.071 E-.07194
G1 X113.155 Y107.108 E-.08775
G1 X113.125 Y107.103 E-.0145
;WIPE_END
G1 X111.858 Y108.799 F6000
G1 E1.6 F2400
G1 F1080
G1 X111.07 Y108.796 E.02322
G1 X111.133 Y108.489 E.00924
G1 X111.167 Y108.198 E.00863
G1 X111.277 Y108.348 E.00548
G1 X111.478 Y108.538 E.00815
G1 X111.809 Y108.765 E.01183
G1 E-1.12 F2400
;WIPE_START
G1 F4800
G1 X111.07 Y108.796 E-.35133
G1 X111.124 Y108.531 E-.12867
;WIPE_END
G1 X108.826 Y108.916 F6000
G1 E1.6 F2400
G1 F1080
G1 X108.74 Y108.961 E.00286
G1 X108.634 Y108.977 E.00316
G1 X108.571 Y108.967 E.00188
G1 X108.507 Y108.928 E.00221
G1 X108.766 Y108.92 E.00764
G1 E-1.12 F2400
;WIPE_START
G1 F4800
G1 X108.74 Y108.961 E-.02306
G1 X108.634 Y108.977 E-.05092
G1 X108.571 Y108.967 E-.0303
G1 X108.507 Y108.928 E-.0356
G1 X108.766 Y108.92 E-.12308
;WIPE_END
G1 E-.21704 F2400
G1 X115.542 Y106.141 F6000
G1 E1.6 F2400
G1 F1080
G1 X116.747 Y106.124 E.03552
G1 X116.418 Y106.384 E.01236
G1 X115.908 Y106.873 E.02082
G1 X115.495 Y107.381 E.0193
G1 X115.411 Y107.535 E.00517
G1 X115.538 Y106.858 E.0203
G1 X115.661 Y106.848 E.00364
G1 X115.552 Y106.2 E.01937
G1 E-1.12 F2400
;WIPE_START
G1 F4800
G1 X116.56 Y106.136 E-.48
;WIPE_END
G1 X124.005 Y106.023 F6000
G1 E1.6 F2400
G1 F1080
G1 X124.065 Y105.988 E.00205
G1 X124.19 Y105.959 E.00378
G1 X124.336 Y105.98 E.00435
G1 X124.389 Y106.022 E.00199
G1 X124.065 Y106.019 E.00955
G1 X125.884 Y106.714 F6000
G1 F1080
G1 X126.047 Y106.715 E.0048
G1 X126.03 Y106.883 E.00498
G1 X125.923 Y106.759 E.00483
G1 E-1.12 F2400
;WIPE_START
G1 F4800
G1 X126.047 Y106.715 E-.0625
G1 X126.03 Y106.883 E-.08021
G1 X125.923 Y106.759 E-.0778
;WIPE_END
G1 E-.25949 F2400
G1 X130.761 Y108.796 F6000
G1 E1.6 F2400
G1 F1080
G1 X130.845 Y108.196 E.01786
G1 X130.963 Y108.353 E.00579
G1 X131.163 Y108.54 E.00807
G1 X131.542 Y108.799 E.01353
G1 X130.821 Y108.797 E.02125
G1 E-1.12 F2400
;WIPE_START
G1 F4800
G1 X130.845 Y108.196 E-.2857
G1 X130.963 Y108.353 E-.09329
G1 X131.118 Y108.498 E-.10101
;WIPE_END
G1 X133.14 Y107.004 F6000
G1 E1.6 F2400
G1 F1080
G1 X133.02 Y107.071 E.00405
G1 X132.886 Y107.105 E.00407
G1 X132.71 Y107.097 E.00519
G1 X132.559 Y107.039 E.00477
G1 X132.427 Y106.877 E.00616
G1 X132.38 Y106.675 E.00611
G1 X132.39 Y106.409 E.00785
G1 X132.444 Y106.223 E.00571
G1 X132.53 Y106.094 E.00457
G1 X132.632 Y106.011 E.00388
G1 X132.748 Y105.967 E.00366
G1 X132.894 Y105.965 E.0043
G1 X133.033 Y106.031 E.00454
G1 X133.104 Y106.134 E.00369
G1 X133.142 Y106.237 E.00324
G1 X133.271 Y106.849 E.01843
G1 X133.18 Y106.96 E.00423
G1 E-1.12 F2400
;WIPE_START
G1 F4800
G1 X133.02 Y107.071 E-.0925
G1 X132.886 Y107.105 E-.06567
G1 X132.71 Y107.097 E-.08369
G1 X132.559 Y107.039 E-.07683
G1 X132.427 Y106.877 E-.09926
G1 X132.397 Y106.75 E-.06205
;WIPE_END
G1 X117.593 Y104.132 F6000
G1 E1.6 F2400
G1 F1080
G1 X120.022 Y104.132 E.07159
G1 X119.967 Y105.163 E.03043
G1 X119.873 Y105.507 E.01051
G1 X119.76 Y105.771 E.00846
G1 X119.492 Y106.212 E.01521
G1 X119.224 Y106.541 E.01251
G1 X118.895 Y106.872 E.01375
G1 X117.817 Y107.805 E.04202
G1 X117.441 Y108.177 E.01559
G1 X117.211 Y108.483 E.01128
G1 X117.133 Y108.677 E.00616
G1 X117.15 Y108.838 E.00477
G1 X117.282 Y108.95 E.0051
G1 X117.448 Y108.975 E.00495
G1 X117.559 Y108.966 E.00328
G1 X117.667 Y108.93 E.00336
G1 X117.745 Y108.859 E.00311
G1 X117.789 Y108.761 E.00317
G1 X117.809 Y108.642 E.00356
G1 X117.844 Y107.829 E.02398
G1 X119.965 Y108.047 E.06284
G1 X119.787 Y109.18 E.0338
G1 X119.643 Y109.597 E.013
G1 X119.526 Y109.824 E.00753
G1 X119.269 Y110.173 E.01277
G1 X118.945 Y110.457 E.0127
G1 X118.732 Y110.592 E.00743
G1 X118.337 Y110.765 E.01271
G1 X117.898 Y110.866 E.01328
G1 X117.443 Y110.898 E.01344
G1 X117.182 Y110.888 E.0077
G1 X116.732 Y110.818 E.01342
G1 X116.299 Y110.667 E.01352
G1 X115.91 Y110.431 E.01341
G1 X115.583 Y110.123 E.01324
G1 X115.341 Y109.78 E.01237
G1 X115.232 Y109.556 E.00734
G1 X115.109 Y109.137 E.01287
G1 X114.795 Y110.802 E.04994
G1 X110.869 Y110.802 E.11571
G1 X110.869 Y109.403 E.04123
G1 X110.682 Y109.768 E.01209
G1 X110.499 Y110.026 E.00932
G1 X110.304 Y110.241 E.00855
G1 X109.897 Y110.56 E.01524
G1 X109.412 Y110.781 E.01571
G1 X108.89 Y110.886 E.01569
G1 X108.407 Y110.891 E.01424
G1 X108.004 Y110.829 E.01202
G1 X107.638 Y110.704 E.0114
G1 X107.433 Y110.599 E.00679
G1 X107.12 Y110.373 E.01138
G1 X106.843 Y110.078 E.01193
G1 X106.63 Y109.729 E.01205
G1 X106.491 Y109.339 E.0122
G1 X106.317 Y108.205 E.03381
G1 X106.942 Y108.218 E.01842
G1 X106.704 Y107.954 E.01048
G1 X106.559 Y107.712 E.00831
G1 X106.393 Y107.28 E.01364
G1 X106.313 Y106.803 E.01425
G1 X106.321 Y106.248 E.01636
G1 X106.378 Y105.918 E.00987
G1 X106.469 Y105.608 E.00952
G1 X106.598 Y105.311 E.00954
G1 X106.76 Y105.032 E.00951
G1 X106.958 Y104.778 E.00949
G1 X107.19 Y104.555 E.00948
G1 X107.452 Y104.369 E.00947
G1 X107.736 Y104.223 E.00941
G1 X108.041 Y104.119 E.0095
G1 X108.392 Y104.055 E.01052
G1 X108.941 Y104.05 E.01618
G1 X109.444 Y104.151 E.01512
G1 X109.704 Y104.251 E.00821
G1 X109.952 Y104.38 E.00824
G1 X110.346 Y104.68 E.0146
G1 X110.546 Y104.892 E.00859
G1 X110.721 Y105.132 E.00875
G1 X110.887 Y105.467 E.01102
G1 X110.934 Y105.345 E.00385
