;FLAVOR:Marlin
;TIME:2171
;Filament used: 1.33755m
;Layer height: 0.15
;MINX:88.512
;MINY:98.507
;MINZ:0.3
;MAXX:146.488
;MAXY:136.492
;MAXZ:4.05
;POSTPROCESSED
;Generated with Cura_SteamEngine 5.3.1
M82 ;absolute extrusion mode
; Ender 3 Custom Start G-code
G92 E0 ; Reset Extruder

M140 S50 ; set bed temp
M190 S50 ; wait for bed temp

G28 ; Home all axes
BED_MESH_CALIBRATE  AREA_START=88.512,98.507 AREA_END=146.488,136.492
M104 S205 ; set extruder temp 

G1 Z2.0 F3000 ; Move Z Axis up little to prevent scratching of Heat Bed
M109 S205 ; wait for extruder temp
G1 X0.1 Y20 Z0.3 F5000.0 ; Move to start position

G1 X0.1 Y200.0 Z0.3 F1500.0 E15 ; Draw the first line
G1 X0.4 Y200.0 Z0.3 F5000.0 ; Move to side a little
G1 X0.4 Y20 Z0.3 F1500.0 E30 ; Draw the second line
G92 E0 ; Reset Extruder
G1 Z2.0 F3000 ; Move Z Axis up little to prevent scratching of Heat Bed
G1 X5 Y20 Z0.3 F5000.0 ; Move over to prevent blob squish
G92 E0
G92 E0
G1 F2400 E-1.6
;LAYER_COUNT:26
;LAYER:0
M107
G0 X93.114 Y102.002 Z0.3
;TYPE:SKIRT
G1 F2400 E0
G1 F1800 X94.045 Y101.275 E0.05238
G1 X94.984 Y100.691 E0.10142
G1 X95.932 Y100.218 E0.14841
G1 X96.783 Y99.898 E0.18873
G1 X97.377 Y99.717 E0.21626
G1 X98.195 Y99.508 E0.25371
G1 X99.377 Y99.344 E0.30663
G1 X100.332 Y99.307 E0.34901
G1 X101.441 Y99.366 E0.39826
G1 X104.903 Y99.868 E0.5534
G1 X107.578 Y100.182 E0.67284
G1 X110.355 Y100.427 E0.79647
G1 X113.07 Y100.591 E0.9171
G1 X115.787 Y100.677 E1.03765
G1 X118.54 Y100.686 E1.15974
G1 X121.255 Y100.619 E1.28018
G1 X124.043 Y100.471 E1.40399
G1 X126.713 Y100.253 E1.52279
G1 X129.465 Y99.949 E1.64558
G1 X133.63 Y99.356 E1.83215
G1 X134.567 Y99.313 E1.87375
G1 X135.257 Y99.329 E1.90435
G1 X136.064 Y99.392 E1.94025
G1 X136.85 Y99.527 E1.97562
G1 X137.743 Y99.74 E2.01633
G1 X138.441 Y99.978 E2.04904
G1 X139.04 Y100.217 E2.07764
G1 X139.59 Y100.474 E2.10456
G1 X140.098 Y100.744 E2.13007
G1 X140.528 Y101.003 E2.15233
G1 X141.363 Y101.574 E2.19719
G1 X141.979 Y102.096 E2.233
G1 X142.392 Y102.484 E2.25813
G1 X143.031 Y103.161 E2.29942
G1 X143.694 Y104.011 E2.34722
G1 X144.315 Y105.02 E2.39976
G1 X144.698 Y105.797 E2.43818
G1 X144.935 Y106.364 E2.46543
G1 X145.224 Y107.177 E2.5037
G1 X145.486 Y108.238 E2.55217
G1 X145.656 Y109.445 E2.60622
G1 X145.688 Y110.272 E2.64292
G1 X145.679 Y110.84 E2.66812
G1 X145.521 Y113.832 E2.80099
G1 X145.457 Y116.545 E2.92134
G1 X145.471 Y119.29 E3.04307
G1 X145.634 Y123.374 E3.22433
G1 X145.667 Y123.921 E3.24863
G1 X145.688 Y124.483 E3.27357
G1 X145.677 Y125.089 E3.30045
G1 X145.638 Y125.663 E3.32597
G1 X145.571 Y126.216 E3.35067
G1 X145.409 Y127.122 E3.39149
G1 X145.127 Y128.132 E3.43799
G1 X144.788 Y128.997 E3.47919
G1 X144.533 Y129.549 E3.50616
G1 X144.116 Y130.331 E3.54546
G1 X143.529 Y131.218 E3.59263
G1 X142.724 Y132.187 E3.6485
G1 X141.889 Y132.996 E3.70006
G1 X140.976 Y133.71 E3.75146
G1 X140.107 Y134.261 E3.79709
G1 X139.192 Y134.721 E3.8425
G1 X138.718 Y134.917 E3.86525
G1 X138.22 Y135.103 E3.88883
G1 X137.623 Y135.284 E3.91649
G1 X136.824 Y135.488 E3.95306
G1 X135.86 Y135.628 E3.99626
G1 X135.351 Y135.666 E4.0189
G1 X134.808 Y135.687 E4.043
G1 X134.17 Y135.675 E4.07129
G1 X132.585 Y135.569 E4.14174
G1 X129.787 Y135.421 E4.266
G1 X127.072 Y135.355 E4.38644
G1 X124.32 Y135.366 E4.50848
G1 X121.606 Y135.454 E4.62891
G1 X119.588 Y135.568 E4.71854
G1 X118.124 Y135.667 E4.78361
G1 X117.284 Y135.692 E4.82088
G1 X115.681 Y135.581 E4.89214
G1 X112.915 Y135.428 E5.01499
G1 X110.164 Y135.354 E5.13704
G1 X107.445 Y135.358 E5.25762
G1 X104.694 Y135.44 E5.37967
G1 X101.929 Y135.6 E5.5025
G1 X101.074 Y135.662 E5.54051
G1 X100.415 Y135.687 E5.56976
G1 X99.815 Y135.676 E5.59637
G1 X99.272 Y135.639 E5.62051
G1 X98.757 Y135.576 E5.64352
G1 X98.147 Y135.472 E5.67096
G1 X97.5 Y135.318 E5.70046
G1 X96.849 Y135.126 E5.73056
G1 X95.958 Y134.784 E5.77288
G1 X95.41 Y134.527 E5.79972
G1 X94.902 Y134.257 E5.82523
G1 X94.367 Y133.929 E5.85306
G1 X93.67 Y133.45 E5.89057
G1 X93.022 Y132.905 E5.92812
G1 X92.581 Y132.489 E5.95501
G1 X92.205 Y132.098 E5.97906
G1 X91.827 Y131.658 E6.00479
G1 X91.28 Y130.944 E6.04467
G1 X90.667 Y129.952 E6.09639
G1 X90.302 Y129.205 E6.13326
G1 X90.074 Y128.658 E6.15954
G1 X89.764 Y127.785 E6.20062
G1 X89.492 Y126.653 E6.25225
G1 X89.343 Y125.533 E6.30236
G1 X89.312 Y124.721 E6.3384
G1 X89.32 Y124.175 E6.36261
G1 X89.478 Y121.205 E6.49451
G1 X89.542 Y118.463 E6.61615
G1 X89.529 Y115.715 E6.73801
G1 X89.367 Y111.632 E6.91923
G1 X89.334 Y111.082 E6.94366
G1 X89.312 Y110.513 E6.96891
G1 X89.324 Y109.891 E6.9965
G1 X89.377 Y109.112 E7.03113
G1 X89.571 Y107.959 E7.08298
G1 X89.916 Y106.739 E7.13921
G1 X90.327 Y105.726 E7.18769
G1 X90.716 Y104.977 E7.22512
G1 X91.018 Y104.467 E7.2514
G1 X91.337 Y103.986 E7.277
G1 X91.695 Y103.507 E7.30352
G1 X92.033 Y103.097 E7.32708
G1 X92.473 Y102.621 E7.35583
G1 X93.114 Y102.002 E7.39535
G0 F2400 X92.836 Y101.714
G1 F1800 X93.834 Y100.935 E7.45149
G1 X94.805 Y100.333 E7.50216
G1 X95.753 Y99.86 E7.54914
G1 X96.666 Y99.515 E7.59242
G1 X97.278 Y99.329 E7.62079
G1 X98.096 Y99.12 E7.65823
G1 X99.362 Y98.944 E7.71492
G1 X100.317 Y98.907 E7.7573
G1 X101.498 Y98.97 E7.80975
G1 X104.96 Y99.472 E7.96488
G1 X107.625 Y99.785 E8.08388
G1 X110.379 Y100.028 E8.20649
G1 X113.083 Y100.191 E8.32662
G1 X115.8 Y100.277 E8.44717
G1 X118.531 Y100.286 E8.56829
G1 X121.245 Y100.219 E8.68868
G1 X124.01 Y100.073 E8.81147
G1 X126.673 Y99.855 E8.92997
G1 X129.421 Y99.551 E9.05258
G1 X133.612 Y98.956 E9.2403
G1 X134.549 Y98.913 E9.2819
G1 X135.288 Y98.93 E9.31468
G1 X136.095 Y98.993 E9.35058
G1 X136.943 Y99.138 E9.38873
G1 X137.872 Y99.361 E9.4311
G1 X138.589 Y99.606 E9.4647
G1 X139.188 Y99.845 E9.4933
G1 X139.778 Y100.121 E9.52219
G1 X140.304 Y100.401 E9.54861
G1 X140.754 Y100.673 E9.57193
G1 X141.622 Y101.269 E9.61863
G1 X142.253 Y101.804 E9.65531
G1 X142.683 Y102.209 E9.68151
G1 X143.322 Y102.886 E9.72279
G1 X144.035 Y103.801 E9.77424
G1 X144.656 Y104.81 E9.82678
G1 X145.057 Y105.62 E9.86686
G1 X145.312 Y106.23 E9.89618
G1 X145.601 Y107.043 E9.93445
G1 X145.882 Y108.182 E9.98647
G1 X146.056 Y109.43 E10.04235
G1 X146.088 Y110.278 E10.07999
G1 X146.078 Y110.861 E10.10585
G1 X145.921 Y113.841 E10.23818
G1 X145.857 Y116.554 E10.35853
G1 X145.871 Y119.274 E10.47916
G1 X146.033 Y123.358 E10.66042
G1 X146.067 Y123.906 E10.68476
G1 X146.088 Y124.49 E10.71068
G1 X146.076 Y125.116 E10.73845
G1 X146.035 Y125.711 E10.7649
G1 X145.965 Y126.286 E10.79058
G1 X145.803 Y127.192 E10.8314
G1 X145.512 Y128.24 E10.87963
G1 X145.151 Y129.165 E10.92367
G1 X144.886 Y129.737 E10.95163
G1 X144.45 Y130.552 E10.99262
G1 X143.837 Y131.474 E11.04172
G1 X143.032 Y132.443 E11.09758
G1 X142.135 Y133.311 E11.15294
G1 X141.19 Y134.048 E11.20609
G1 X140.321 Y134.599 E11.25172
G1 X139.345 Y135.091 E11.30019
G1 X138.858 Y135.292 E11.32355
G1 X138.336 Y135.486 E11.34825
G1 X137.722 Y135.672 E11.3767
G1 X136.923 Y135.876 E11.41327
G1 X135.89 Y136.027 E11.45957
G1 X135.366 Y136.066 E11.48287
G1 X134.8 Y136.087 E11.50799
G1 X134.143 Y136.074 E11.53713
G1 X132.558 Y135.968 E11.60758
G1 X129.777 Y135.821 E11.73108
G1 X127.064 Y135.755 E11.85143
G1 X124.333 Y135.766 E11.97254
G1 X121.619 Y135.854 E12.09297
G1 X119.615 Y135.967 E12.18198
G1 X118.136 Y136.067 E12.24772
G1 X117.296 Y136.092 E12.28499
G1 X115.653 Y135.98 E12.35802
G1 X112.904 Y135.828 E12.48012
G1 X110.154 Y135.754 E12.60212
G1 X107.457 Y135.758 E12.72172
G1 X104.706 Y135.84 E12.84378
G1 X101.958 Y135.999 E12.96585
G1 X101.089 Y136.062 E13.00449
G1 X100.408 Y136.087 E13.03471
G1 X99.788 Y136.075 E13.06221
G1 X99.223 Y136.036 E13.08732
G1 X98.69 Y135.97 E13.11114
G1 X98.054 Y135.861 E13.13976
G1 X97.387 Y135.702 E13.17016
G1 X96.736 Y135.51 E13.20026
G1 X95.788 Y135.146 E13.2453
G1 X95.222 Y134.88 E13.27303
G1 X94.693 Y134.598 E13.29962
G1 X94.14 Y134.259 E13.32838
G1 X93.443 Y133.78 E13.36589
G1 X92.748 Y133.196 E13.40615
G1 X92.293 Y132.766 E13.43391
G1 X91.902 Y132.359 E13.45894
G1 X91.509 Y131.901 E13.4857
G1 X90.962 Y131.187 E13.52559
G1 X90.308 Y130.128 E13.58079
G1 X89.933 Y129.359 E13.61873
G1 X89.697 Y128.792 E13.64597
G1 X89.387 Y127.919 E13.68705
G1 X89.095 Y126.706 E13.74238
G1 X88.946 Y125.586 E13.79249
G1 X88.912 Y124.715 E13.83114
G1 X88.921 Y124.154 E13.85603
G1 X89.078 Y121.196 E13.98739
G1 X89.142 Y118.454 E14.10902
G1 X89.129 Y115.731 E14.22978
G1 X88.968 Y111.648 E14.41099
G1 X88.934 Y111.097 E14.43548
G1 X88.912 Y110.505 E14.46175
G1 X88.925 Y109.864 E14.49018
G1 X88.978 Y109.085 E14.52481
G1 X89.186 Y107.85 E14.58035
G1 X89.545 Y106.589 E14.63849
G1 X89.956 Y105.576 E14.68697
G1 X90.372 Y104.773 E14.72708
G1 X90.685 Y104.246 E14.75426
G1 X91.017 Y103.747 E14.78084
G1 X91.386 Y103.253 E14.80818
G1 X91.739 Y102.825 E14.83279
G1 X92.195 Y102.333 E14.86254
G1 X92.836 Y101.714 E14.90205
G0 F2400 X92.558 Y101.426
G1 F1800 X93.623 Y100.595 E14.96196
G1 X94.626 Y99.975 E15.01425
G1 X95.574 Y99.502 E15.06124
G1 X96.55 Y99.132 E15.10753
G1 X97.179 Y98.941 E15.13668
G1 X97.997 Y98.732 E15.17412
G1 X99.347 Y98.544 E15.23457
G1 X100.302 Y98.507 E15.27695
G1 X101.555 Y98.574 E15.3326
G1 X105.017 Y99.076 E15.48773
G1 X107.672 Y99.388 E15.60629
G1 X110.403 Y99.629 E15.72787
G1 X113.096 Y99.791 E15.84751
G1 X115.813 Y99.877 E15.96807
G1 X118.522 Y99.886 E16.0882
G1 X121.235 Y99.819 E16.20855
G1 X123.977 Y99.675 E16.33032
G1 X126.632 Y99.457 E16.44846
G1 X129.377 Y99.153 E16.57094
G1 X133.594 Y98.556 E16.75982
G1 X134.531 Y98.513 E16.80141
G1 X135.319 Y98.531 E16.83637
G1 X136.126 Y98.594 E16.87227
G1 X137.036 Y98.749 E16.9132
G1 X138.001 Y98.982 E16.95723
G1 X138.737 Y99.234 E16.99173
G1 X139.336 Y99.473 E17.02033
G1 X139.966 Y99.768 E17.05118
G1 X140.511 Y100.059 E17.07858
G1 X140.98 Y100.343 E17.10289
G1 X141.881 Y100.964 E17.15142
G1 X142.527 Y101.513 E17.18902
G1 X142.974 Y101.934 E17.21625
G1 X143.638 Y102.64 E17.25923
G1 X144.376 Y103.591 E17.31261
G1 X144.997 Y104.6 E17.36516
G1 X145.426 Y105.466 E17.40801
G1 X145.689 Y106.096 E17.43829
G1 X145.978 Y106.909 E17.47656
G1 X146.278 Y108.127 E17.53218
G1 X146.456 Y109.415 E17.58985
G1 X146.488 Y110.285 E17.62846
G1 X146.477 Y110.882 E17.65494
G1 X146.321 Y113.85 E17.78674
G1 X146.257 Y116.563 E17.90709
G1 X146.271 Y119.258 E18.02661
G1 X146.433 Y123.342 E18.20786
G1 X146.467 Y123.892 E18.2323
G1 X146.488 Y124.498 E18.25919
G1 X146.475 Y125.143 E18.2878
G1 X146.432 Y125.759 E18.31519
G1 X146.359 Y126.356 E18.34186
G1 X146.197 Y127.262 E18.38267
G1 X145.885 Y128.385 E18.43436
G1 X145.514 Y129.333 E18.47951
G1 X145.239 Y129.926 E18.5085
G1 X144.803 Y130.741 E18.54949
G1 X144.145 Y131.73 E18.60217
G1 X143.34 Y132.699 E18.65803
G1 X142.381 Y133.626 E18.71718
G1 X141.404 Y134.386 E18.77208
G1 X140.535 Y134.937 E18.81771
G1 X139.498 Y135.461 E18.86923
G1 X138.997 Y135.667 E18.89326
G1 X138.452 Y135.869 E18.91903
G1 X137.821 Y136.06 E18.94827
G1 X137.022 Y136.264 E18.98484
G1 X135.948 Y136.423 E19.03299
G1 X135.381 Y136.466 E19.05821
G1 X134.792 Y136.487 E19.08434
G1 X134.116 Y136.473 E19.11433
G1 X132.531 Y136.367 E19.18478
G1 X129.767 Y136.221 E19.30752
G1 X127.056 Y136.155 E19.42779
G1 X124.346 Y136.166 E19.54797
G1 X121.632 Y136.254 E19.66839
G1 X119.642 Y136.366 E19.75678
G1 X118.148 Y136.467 E19.82319
G1 X117.308 Y136.492 E19.86046
G1 X115.626 Y136.379 E19.93522
G1 X112.893 Y136.228 E20.0566
G1 X110.144 Y136.154 E20.17856
G1 X107.469 Y136.158 E20.29719
G1 X104.718 Y136.24 E20.41924
G1 X101.987 Y136.398 E20.54056
G1 X101.104 Y136.462 E20.57982
G1 X100.4 Y136.487 E20.61106
G1 X99.76 Y136.474 E20.63945
G1 X99.174 Y136.433 E20.6655
G1 X98.622 Y136.364 E20.69017
G1 X97.961 Y136.25 E20.71991
G1 X97.274 Y136.086 E20.75124
G1 X96.623 Y135.894 E20.78134
G1 X95.618 Y135.508 E20.82908
G1 X95.034 Y135.233 E20.85771
G1 X94.484 Y134.939 E20.88536
G1 X93.913 Y134.589 E20.91506
G1 X93.216 Y134.11 E20.95257
G1 X92.473 Y133.487 E20.99557
G1 X92.018 Y133.057 E21.02333
G1 X91.598 Y132.619 E21.05024
G1 X91.191 Y132.144 E21.07798
G1 X90.644 Y131.43 E21.11787
G1 X89.948 Y130.303 E21.17662
G1 X89.573 Y129.534 E21.21456
G1 X89.32 Y128.926 E21.24376
G1 X88.998 Y128.013 E21.2867
G1 X88.698 Y126.759 E21.34388
G1 X88.549 Y125.639 E21.39398
G1 X88.512 Y124.709 E21.43526
G1 X88.522 Y124.133 E21.46081
G1 X88.678 Y121.187 E21.59164
G1 X88.742 Y118.445 E21.71327
G1 X88.729 Y115.747 E21.83292
G1 X88.568 Y111.664 E22.01413
G1 X88.534 Y111.112 E22.03866
G1 X88.512 Y110.497 E22.06595
G1 X88.526 Y109.837 E22.09523
G1 X88.579 Y109.058 E22.12985
G1 X88.801 Y107.74 E22.18913
G1 X89.16 Y106.479 E22.24727
G1 X89.585 Y105.426 E22.29763
G1 X90.028 Y104.569 E22.34041
G1 X90.352 Y104.024 E22.36853
G1 X90.684 Y103.525 E22.39511
G1 X91.077 Y102.998 E22.42426
G1 X91.43 Y102.57 E22.44887
G1 X91.917 Y102.045 E22.48062
G1 X92.558 Y101.426 E22.52014
G1 F2400 E20.92014
;MESH:NO_TXT_Kostka (7).stl
G0 X91.834 Y110.395
G0 X91.882 Y111.289
G0 X92.02 Y112.173
G0 X92.248 Y113.038
G0 X92.566 Y113.875
G0 X92.97 Y114.672
G0 X93.452 Y115.423
G0 X94.011 Y116.12
G0 X94.638 Y116.754
G0 X95.636 Y117.501
G0 X99.097 Y113.352
;TYPE:WALL-OUTER
G1 F2400 E22.52014
G1 F1734.9 X98.955 Y113.393 E22.52694
G1 X98.826 Y113.353 E22.53315
G1 X98.753 Y113.138 E22.5436
G1 X98.754 Y111.953 E22.59812
G1 X98.864 Y111.815 E22.60624
G1 F1730.8 X99.042 Y111.816 E22.61445
G1 X99.13 Y111.892 E22.61982
G1 X99.169 Y112.035 E22.62665
G1 F1734.9 X99.169 Y113.138 E22.6774
G1 X99.097 Y113.352 E22.68779
G0 F2400 X99.161 Y113.162
G1 F2400 E21.08779
G0 X98.995 Y113.091
G0 X104.995 Y112.769
G0 X105.076 Y113.096
G1 F2400 E22.68779
G1 F1603.6 X104.979 Y113.097 E22.69262
G1 X104.88 Y113.045 E22.69819
G1 X104.801 Y112.795 E22.71124
G1 F1596.5 X104.802 Y112.097 E22.74614
G1 F1589.4 X104.872 Y111.877 E22.75773
G1 X104.98 Y111.817 E22.76394
G1 X105.176 Y111.869 E22.77412
G1 X105.254 Y112.11 E22.78685
G1 F1585.9 X105.258 Y112.705 E22.81679
G1 F1592.9 X105.192 Y113.032 E22.83351
G1 F1603.6 X105.076 Y113.096 E22.84011
G0 F2400 X105.192 Y113.032
G0 X105.205 Y112.966
G1 F2400 E21.24011
G0 X105.053 Y112.85
G0 X105.019 Y114.531
G0 X104.939 Y114.329
G1 F2400 E22.84011
G1 F1698.1 X105.165 Y114.36 E22.85083
G1 X105.238 Y114.576 E22.86155
G1 F1702.1 X105.239 Y115.153 E22.88861
G1 X105.192 Y115.323 E22.89688
G1 X105.129 Y115.377 E22.90077
G1 X104.925 Y115.376 E22.91034
G1 X104.865 Y115.323 E22.91409
G1 X104.816 Y115.141 E22.92293
G1 X104.812 Y114.538 E22.95121
G1 F1698.1 X104.863 Y114.392 E22.95848
G1 X104.939 Y114.329 E22.96312
G0 F2400 X104.863 Y114.392
G0 X104.83 Y114.488
G1 F2400 E21.36312
G0 X105.001 Y114.615
G0 X109.533 Y112.976
G1 F2400 E22.96312
G1 F1090.9 X109.491 Y113.047 E22.96916
G1 X109.41 Y113.047 E22.97509
G1 X109.369 Y112.976 E22.98108
G1 X109.411 Y112.905 E22.98712
G1 X109.491 Y112.905 E22.99297
G1 F2400 E21.39297
G0 X115.579 Y112.977
G1 F2400 E22.99297
G1 F1087.6 X115.537 Y113.048 E22.99903
G1 X115.456 Y113.048 E23.00497
G1 X115.415 Y112.977 E23.01099
G1 X115.457 Y112.906 E23.01705
G1 X115.537 Y112.906 E23.02292
G1 F2400 E21.42292
G0 X119.653 Y114.092
G0 X119.513 Y113.843
G1 F2400 E23.02292
G1 F1743.3 X119.657 Y113.802 E23.02977
G1 X119.77 Y113.829 E23.03509
G1 X119.861 Y113.959 E23.04236
G1 X119.861 Y115.25 E23.10147
G1 F1747.6 X119.77 Y115.373 E23.10846
G1 F1751.8 X119.643 Y115.401 E23.11439
G1 X119.526 Y115.369 E23.11991
G1 X119.439 Y115.236 E23.12716
G1 F1747.6 X119.44 Y114.058 E23.18096
G1 F1743.3 X119.513 Y113.843 E23.19136
G0 F2400 X119.449 Y114.032
G1 F2400 E21.59136
G0 X119.615 Y114.12
G0 X119.657 Y121.843
G0 X119.515 Y121.648
G1 F2400 E23.19136
G1 F1722.5 X119.649 Y121.609 E23.19783
G1 X119.792 Y121.654 E23.20478
G1 X119.861 Y121.817 E23.21298
G1 X119.861 Y122.875 E23.26201
G1 X119.828 Y123.091 E23.27214
G1 X119.769 Y123.172 E23.27678
G1 X119.643 Y123.2 E23.28276
G1 X119.514 Y123.149 E23.28919
G1 X119.444 Y122.949 E23.29901
G1 X119.443 Y121.862 E23.34939
G1 X119.515 Y121.648 E23.35985
G0 F2400 X119.451 Y121.838
G1 F2400 E21.75985
G0 X119.62 Y121.908
G0 X115.537 Y120.709
G1 F2400 E23.35985
G1 F1087.6 X115.457 Y120.709 E23.36572
G1 X115.415 Y120.78 E23.37178
G1 X115.456 Y120.851 E23.37779
G1 X115.537 Y120.851 E23.38374
G1 X115.579 Y120.78 E23.38979
G1 F2400 E21.78979
G0 X109.491 Y120.708
G1 F2400 E23.38979
