; generated by PrusaSlicer 2.7.4+win64 on 2024-04-23 at 19:58:46 UTC

; 

; external perimeters extrusion width = 0.42mm
; perimeters extrusion width = 0.44mm
; infill extrusion width = 0.44mm
; solid infill extrusion width = 0.44mm
; top infill extrusion width = 0.40mm
; first layer extrusion width = 0.42mm


; printing object Shape-Box id:0 copy 0
; stop printing object Shape-Box id:0 copy 0

;TYPE:Custom
; Ender 3 Custom Start G-code
G92 E0 ; Reset Extruder

M140 S55 ; set bed temp
M104 S200 ; set extruder temp
M109 S200 ; wait for extruder temp
M190 S55 ; wait for bed temp

G28 ; Home all axes
M104 S210 ; set extruder temp 
BED_MESH_CALIBRATE AREA_START=85.5021,96.6789 AREA_END=145.497,134.319

G1 Z2.0 F3000 ; Move Z Axis up little to prevent scratching of Heat Bed
M109 S210 ; wait for extruder temp
G1 X0.1 Y20 Z0.3 F5000.0 ; Move to start position

G1 X0.1 Y200.0 Z0.3 F1500.0 E15 ; Draw the first line
G1 X0.4 Y200.0 Z0.3 F5000.0 ; Move to side a little
G1 X0.4 Y20 Z0.3 F1500.0 E30 ; Draw the second line
G92 E0 ; Reset Extruder
G1 Z2.0 F3000 ; Move Z Axis up little to prevent scratching of Heat Bed
G1 X5 Y20 Z0.3 F5000.0 ; Move over to prevent blob squish
G21 ; set units to millimeters
G90 ; use absolute coordinates
M83 ; use relative distances for extrusion
; Filament gcode
M107
;LAYER_CHANGE
;Z:0.2
;HEIGHT:0.2
G1 E-1.6 F2400
G1 Z.2 F6000
G1 X89.59 Y99.813
G1 Z.2
G1 E1.6 F2400
M204 S500
;TYPE:Skirt/Brim
;WIDTH:0.42
G1 F1200
G1 X90.459 Y99.108 E.03509
G1 X91.39 Y98.494 E.03497
G1 X93.055 Y97.676 E.05816
G1 X94.832 Y97.138 E.05821
G1 X96.455 Y96.902 E.05142
G1 X134.618 Y96.917 E1.19657
G1 X135.577 Y97.05 E.03036
G1 X137.604 Y97.606 E.0659
G1 X139.434 Y98.477 E.06355
G1 X140.873 Y99.488 E.05514
G1 X142.317 Y100.887 E.06304
G1 X143.108 Y101.902 E.04035
G1 X143.569 Y102.631 E.02704
G1 X144.415 Y104.416 E.06194
G1 X144.974 Y106.453 E.06623
G1 X145.158 Y108.453 E.06297
G1 X145.308 Y122.453 E.43899
G1 X145.237 Y123.78 E.04167
G1 X145.03 Y125 E.0388
G1 X144.41 Y126.976 E.06493
G1 X143.423 Y128.845 E.06627
G1 X142.2 Y130.408 E.06223
G1 X141.422 Y131.176 E.03428
G1 X140.548 Y131.883 E.03525
G1 X138.907 Y132.89 E.06037
G1 X137.814 Y133.369 E.03742
G1 X136.014 Y133.895 E.0588
G1 X134.257 Y134.115 E.05552
G1 X96.811 Y134.121 E1.17409
G1 X95.124 Y133.922 E.05326
G1 X94.029 Y133.654 E.03535
G1 X92.919 Y133.265 E.03688
G1 X91.588 Y132.618 E.0464
G1 X90.533 Y131.947 E.0392
G1 X89.585 Y131.187 E.0381
G1 X88.494 Y130.072 E.04891
G1 X87.888 Y129.302 E.03072
G1 X87.062 Y127.974 E.04904
G1 X86.506 Y126.777 E.04138
G1 X86.053 Y125.388 E.04581
G1 X85.746 Y123.618 E.05633
G1 X85.691 Y122.617 E.03143
G1 X85.72 Y107.69 E.46803
G1 X86.072 Y105.545 E.06815
G1 X86.69 Y103.785 E.05849
G1 X87.092 Y102.966 E.02861
G1 X87.976 Y101.58 E.05154
G1 X88.608 Y100.795 E.0316
G1 X89.548 Y99.856 E.04166
G1 X89.548 Y99.856 F6000
G1 X89.814 Y100.122
G1 F1200
G1 X89.842 Y100.093 E.00126
G1 X90.671 Y99.42 E.03348
G1 X91.57 Y98.825 E.0338
G1 X93.188 Y98.029 E.05654
G1 X94.726 Y97.549 E.05052
G1 X96.473 Y97.278 E.05543
G1 X133.426 Y97.245 E1.15864
G1 X135.5 Y97.42 E.06526
G1 X137.481 Y97.963 E.0644
G1 X139.242 Y98.802 E.06116
G1 X140.627 Y99.773 E.05303
G1 X142.038 Y101.141 E.06162
G1 X142.804 Y102.125 E.0391
G1 X143.298 Y102.914 E.02919
G1 X144.148 Y104.784 E.06441
G1 X144.616 Y106.585 E.05834
G1 X144.781 Y108.457 E.05892
G1 X144.931 Y122.457 E.43899
G1 X144.864 Y123.726 E.03984
G1 X144.658 Y124.936 E.03848
G1 X144.065 Y126.824 E.06205
G1 X143.103 Y128.646 E.0646
G1 X141.932 Y130.143 E.05959
G1 X141.328 Y130.754 E.02694
G1 X140.336 Y131.571 E.04029
G1 X138.715 Y132.565 E.05962
G1 X137.129 Y133.21 E.05368
G1 X135.952 Y133.523 E.03819
G1 X134.088 Y133.746 E.05886
G1 X96.838 Y133.745 E1.16795
G1 X95.183 Y133.549 E.05225
G1 X94.037 Y133.266 E.03701
G1 X93.07 Y132.919 E.03221
G1 X91.764 Y132.285 E.04552
G1 X90.752 Y131.64 E.03763
G1 X89.836 Y130.906 E.0368
G1 X88.773 Y129.818 E.04769
G1 X88.186 Y129.07 E.02981
G1 X87.39 Y127.788 E.04731
G1 X86.861 Y126.651 E.03932
G1 X86.418 Y125.294 E.04476
G1 X86.121 Y123.572 E.05479
G1 X86.068 Y122.617 E.02999
G1 X86.096 Y107.715 E.46724
G1 X86.434 Y105.653 E.06552
G1 X87.041 Y103.923 E.05748
G1 X87.439 Y103.116 E.02821
G1 X88.287 Y101.793 E.04927
G1 X88.89 Y101.046 E.0301
G1 X89.772 Y100.164 E.03911
G1 X89.772 Y100.164 F6000
G1 X90.038 Y100.43
G1 F1200
G1 X90.095 Y100.374 E.00251
G1 X90.883 Y99.732 E.03187
G1 X91.763 Y99.149 E.0331
G1 X93.321 Y98.382 E.05445
G1 X94.942 Y97.885 E.05316
G1 X96.492 Y97.655 E.04913
G1 X133.426 Y97.622 E1.15804
G1 X135.424 Y97.789 E.06286
G1 X137.362 Y98.32 E.063
G1 X139.051 Y99.127 E.05869
G1 X140.38 Y100.059 E.0509
G1 X141.747 Y101.381 E.05963
G1 X142.5 Y102.348 E.03843
G1 X142.97 Y103.1 E.0278
G1 X143.788 Y104.897 E.06191
G1 X144.246 Y106.657 E.05702
G1 X144.404 Y108.461 E.05678
G1 X144.554 Y122.461 E.43899
G1 X144.478 Y123.753 E.04058
G1 X144.254 Y125.029 E.04062
G1 X144.009 Y125.892 E.02813
G1 X143.143 Y127.862 E.06747
G1 X142.408 Y128.985 E.04208
G1 X141.751 Y129.784 E.03243
G1 X141.067 Y130.482 E.03064
G1 X140.124 Y131.259 E.03831
G1 X138.538 Y132.232 E.05834
G1 X137.004 Y132.854 E.0519
G1 X135.875 Y133.154 E.03663
G1 X134.079 Y133.369 E.05671
G1 X96.865 Y133.369 E1.16682
G1 X95.242 Y133.177 E.05124
G1 X94.143 Y132.904 E.03551
G1 X93.222 Y132.574 E.03068
G1 X91.94 Y131.951 E.04469
G1 X90.971 Y131.333 E.03604
G1 X90.04 Y130.582 E.0375
G1 X89.052 Y129.565 E.04446
G1 X88.494 Y128.853 E.02836
G1 X87.718 Y127.603 E.04613
G1 X87.217 Y126.525 E.03727
G1 X86.783 Y125.199 E.04375
G1 X86.495 Y123.527 E.0532
G1 X86.473 Y107.741 E.49496
G1 X86.794 Y105.763 E.06283
G1 X87.392 Y104.06 E.05659
G1 X87.774 Y103.29 E.02695
G1 X88.596 Y102.009 E.04772
G1 X89.172 Y101.297 E.02871
G1 X89.996 Y100.473 E.03654
G1 E-1.12 F2400
;WIPE_START
G1 F4800
G1 X90.038 Y100.43 E-.02855
G1 X90.095 Y100.374 E-.03796
G1 X90.77 Y99.824 E-.41349
;WIPE_END
; printing object Shape-Box id:0 copy 0
G1 X115.897 Y119.137 F6000
G1 E1.6 F2400
;TYPE:Perimeter
G1 F1200
G1 X115.742 Y119.286 E.00674
G1 X115.562 Y119.366 E.00618
G1 X115.43 Y119.369 E.00414
G1 X115.247 Y119.317 E.00596
G1 X115.14 Y119.183 E.00538
G1 X115.1 Y119.012 E.00551
G1 X115.109 Y118.774 E.00747
G1 X115.156 Y118.613 E.00526
G1 X115.228 Y118.504 E.0041
G1 X115.313 Y118.435 E.00343
G1 X115.408 Y118.399 E.00319
G1 X115.526 Y118.397 E.0037
G1 X115.615 Y118.434 E.00302
G1 X115.702 Y118.552 E.0046
G1 X115.878 Y119.08 E.01745
G1 E-1.12 F2400
;WIPE_START
G1 F4800
G1 X115.897 Y119.137 E-.02854
G1 X115.742 Y119.286 E-.10213
G1 X115.562 Y119.366 E-.09356
G1 X115.43 Y119.369 E-.06272
G1 X115.247 Y119.317 E-.09037
G1 X115.14 Y119.183 E-.08145
G1 X115.13 Y119.139 E-.02123
;WIPE_END
G1 X111.741 Y110.56 F6000
G1 E1.6 F2400
G1 F1200
G1 X111.449 Y110.622 E.00936
G1 X111.301 Y110.628 E.00464
G1 X111.208 Y110.607 E.00299
G1 X111.096 Y110.515 E.00454
G1 X111.062 Y110.44 E.00258
G1 X111.053 Y110.316 E.0039
G1 X111.08 Y110.2 E.00373
G1 X111.129 Y110.118 E.003
G1 X111.208 Y110.046 E.00335
G1 X111.286 Y110.009 E.00271
G1 X111.453 Y109.996 E.00525
G1 X111.51 Y110.014 E.00187
G1 X111.591 Y110.095 E.00359
G1 X111.632 Y110.181 E.00299
G1 X111.724 Y110.502 E.01047
G1 X111.724 Y110.502 F6000
G1 X113.137 Y110.825
G1 F1200
G1 X113.11 Y111.107 E.00888
G1 X113.111 Y111.735 E.01969
G1 X113.131 Y111.967 E.0073
G1 X112.727 Y111.884 E.01293
G1 X112.374 Y111.847 E.01113
G1 X112.421 Y111.633 E.00687
G1 X112.499 Y110.954 E.02143
G1 X112.81 Y110.907 E.00986
G1 X113.079 Y110.839 E.0087
G1 E-1.12 F2400
;WIPE_START
G1 F4800
G1 X113.137 Y110.825 E-.02834
G1 X113.11 Y111.107 E-.13456
G1 X113.111 Y111.735 E-.2983
G1 X113.114 Y111.774 E-.0188
;WIPE_END
G1 X111.629 Y112.466 F6000
G1 E1.6 F2400
G1 F1200
G1 X111.586 Y112.602 E.00447
G1 X111.546 Y112.662 E.00226
G1 X111.461 Y112.713 E.00311
G1 X111.352 Y112.713 E.00342
G1 X111.284 Y112.672 E.00249
G1 X111.29 Y112.567 E.0033
G1 X111.349 Y112.531 E.00217
G1 X111.539 Y112.473 E.00623
G1 X111.569 Y112.471 E.00094
G1 E-1.12 F2400
;WIPE_START
G1 F4800
G1 X111.629 Y112.466 E-.0286
G1 X111.586 Y112.602 E-.06775
G1 X111.546 Y112.662 E-.03425
G1 X111.461 Y112.713 E-.04708
G1 X111.352 Y112.713 E-.05177
G1 X111.284 Y112.672 E-.03772
G1 X111.29 Y112.567 E-.04996
G1 X111.349 Y112.531 E-.03283
G1 X111.539 Y112.473 E-.09436
G1 X111.569 Y112.471 E-.01428
;WIPE_END
G1 E-.0214 F2400
G1 X117.634 Y112.548 F6000
G1 E1.6 F2400
G1 F1200
G1 X117.696 Y112.136 E.01306
G1 X117.739 Y112.196 E.00231
G1 X117.929 Y112.383 E.00836
G1 X118.17 Y112.549 E.00918
G1 X117.694 Y112.548 E.01492
G1 E-1.12 F2400
;WIPE_START
G1 F4800
G1 X117.634 Y112.548 E-.0285
G1 X117.696 Y112.136 E-.1979
G1 X117.739 Y112.196 E-.03506
G1 X117.929 Y112.383 E-.12663
G1 X118.088 Y112.493 E-.09191
;WIPE_END
G1 X119.149 Y110.511 F6000
G1 E1.6 F2400
G1 F1200
G1 X119.154 Y110.372 E.00436
G1 X119.201 Y110.211 E.00526
G1 X119.273 Y110.103 E.00407
G1 X119.358 Y110.034 E.00343
G1 X119.454 Y109.997 E.00323
G1 X119.571 Y109.996 E.00367
G1 X119.66 Y110.033 E.00302
G1 X119.747 Y110.15 E.00457
G1 X119.942 Y110.735 E.01933
G1 X119.787 Y110.884 E.00674
G1 X119.608 Y110.964 E.00615
G1 X119.475 Y110.968 E.00417
G1 X119.292 Y110.915 E.00597
G1 X119.185 Y110.781 E.00538
G1 X119.145 Y110.611 E.00548
G1 X119.147 Y110.571 E.00126
G1 E-1.12 F2400
;WIPE_START
G1 F4800
G1 X119.149 Y110.511 E-.02852
G1 X119.154 Y110.372 E-.06607
G1 X119.201 Y110.211 E-.07967
G1 X119.273 Y110.103 E-.06165
G1 X119.358 Y110.034 E-.052
G1 X119.454 Y109.997 E-.04887
G1 X119.571 Y109.996 E-.05558
G1 X119.66 Y110.033 E-.04578
G1 X119.713 Y110.104 E-.04186
;WIPE_END
G1 X125.329 Y110.511 F6000
G1 E1.6 F2400
G1 F1200
G1 X125.334 Y110.372 E.00436
G1 X125.381 Y110.211 E.00526
G1 X125.453 Y110.103 E.00407
G1 X125.538 Y110.034 E.00343
G1 X125.633 Y109.997 E.0032
G1 X125.751 Y109.996 E.0037
G1 X125.84 Y110.033 E.00302
G1 X125.927 Y110.15 E.00457
G1 X126.122 Y110.735 E.01933
G1 X125.967 Y110.884 E.00674
G1 X125.787 Y110.964 E.00618
G1 X125.654 Y110.968 E.00417
G1 X125.472 Y110.915 E.00594
G1 X125.364 Y110.781 E.0054
G1 X125.325 Y110.611 E.00547
G1 X125.326 Y110.571 E.00125
G1 E-1.12 F2400
;WIPE_START
G1 F4800
G1 X125.329 Y110.511 E-.02854
G1 X125.334 Y110.372 E-.06607
G1 X125.381 Y110.211 E-.07967
G1 X125.453 Y110.103 E-.06165
G1 X125.538 Y110.034 E-.052
G1 X125.633 Y109.997 E-.04843
G1 X125.751 Y109.996 E-.05605
G1 X125.84 Y110.033 E-.04578
G1 X125.893 Y110.104 E-.04181
;WIPE_END
G1 X133.457 Y110.511 F6000
G1 E1.6 F2400
G1 F1200
G1 X133.462 Y110.372 E.00436
G1 X133.509 Y110.211 E.00526
G1 X133.581 Y110.103 E.00407
G1 X133.666 Y110.034 E.00343
G1 X133.761 Y109.997 E.0032
G1 X133.879 Y109.996 E.0037
G1 X133.968 Y110.033 E.00302
G1 X134.055 Y110.15 E.00457
G1 X134.25 Y110.735 E.01933
G1 X134.095 Y110.884 E.00674
G1 X133.915 Y110.964 E.00618
G1 X133.782 Y110.968 E.00417
G1 X133.6 Y110.915 E.00594
G1 X133.492 Y110.781 E.0054
G1 X133.453 Y110.611 E.00547
G1 X133.454 Y110.571 E.00125
G1 E-1.12 F2400
;WIPE_START
G1 F4800
G1 X133.457 Y110.511 E-.02854
G1 X133.462 Y110.372 E-.06607
G1 X133.509 Y110.211 E-.07967
G1 X133.581 Y110.103 E-.06165
G1 X133.666 Y110.034 E-.052
G1 X133.761 Y109.997 E-.04843
G1 X133.879 Y109.996 E-.05605
G1 X133.968 Y110.033 E-.04578
G1 X134.02 Y110.104 E-.04181
;WIPE_END
G1 X132.477 Y112.549 F6000
G1 E1.6 F2400
G1 F1200
G1 X131.941 Y112.548 E.01681
G1 X132.003 Y112.136 E.01306
G1 X132.047 Y112.196 E.00233
G1 X132.237 Y112.383 E.00836
G1 X132.428 Y112.515 E.00728
G1 E-1.12 F2400
;WIPE_START
G1 F4800
G1 X132.477 Y112.549 E-.02833
G1 X131.941 Y112.548 E-.2546
G1 X132.003 Y112.137 E-.19707
;WIPE_END
G1 X134.269 Y119.137 F6000
G1 E1.6 F2400
G1 F1200
G1 X134.114 Y119.286 E.00674
G1 X133.934 Y119.366 E.00618
G1 X133.801 Y119.369 E.00417
G1 X133.619 Y119.317 E.00593
G1 X133.511 Y119.183 E.0054
G1 X133.472 Y119.012 E.0055
G1 X133.48 Y118.774 E.00747
G1 X133.528 Y118.613 E.00527
G1 X133.6 Y118.504 E.0041
G1 X133.684 Y118.435 E.00341
G1 X133.78 Y118.399 E.00321
G1 X133.898 Y118.397 E.0037
G1 X133.987 Y118.434 E.00302
G1 X134.074 Y118.552 E.0046
G1 X134.25 Y119.08 E.01745
G1 E-1.12 F2400
;WIPE_START
G1 F4800
G1 X134.269 Y119.137 E-.02854
G1 X134.114 Y119.286 E-.10213
G1 X133.934 Y119.366 E-.09356
G1 X133.801 Y119.369 E-.06319
G1 X133.619 Y119.317 E-.08991
G1 X133.511 Y119.183 E-.08175
G1 X133.501 Y119.14 E-.02092
;WIPE_END
G1 X132.496 Y120.951 F6000
G1 E1.6 F2400
G1 F1200
G1 X131.96 Y120.949 E.01681
G1 X132.022 Y120.537 E.01306
G1 X132.066 Y120.597 E.00233
G1 X132.255 Y120.785 E.00836
G1 X132.447 Y120.917 E.00731
G1 E-1.12 F2400
;WIPE_START
G1 F4800
G1 X132.496 Y120.951 E-.02833
G1 X131.96 Y120.949 E-.2546
G1 X132.022 Y120.539 E-.19707
;WIPE_END
G1 X117.867 Y119.217 F6000
G1 E1.6 F2400
G1 F1200
G1 X117.739 Y119.227 E.00403
G1 X117.052 Y122.912 E.11753
G1 X113.303 Y122.912 E.11755
G1 X113.303 Y120.948 E.06158
G1 X114.113 Y120.951 E.0254
G1 X113.7 Y120.615 E.01669
G1 X113.444 Y120.252 E.01393
G1 X113.322 Y120.016 E.00833
G1 X112.922 Y120.648 E.02345
G1 X111.284 Y122.98 E.08935
G1 X109.738 Y122.98 E.04847
G1 X109.738 Y119.733 E.10181
G1 X109.061 Y119.733 E.02123
G1 X109.061 Y117.795 E.06076
G1 X109.738 Y117.795 E.02123
G1 X109.738 Y116.595 E.03763
G1 X111.727 Y116.595 E.06236
G1 X111.727 Y117.798 E.03772
G1 X112.364 Y117.801 E.01997
G1 X112.843 Y117.831 E.01505
G1 X113.38 Y117.914 E.01704
G1 X113.471 Y117.629 E.00938
G1 X113.767 Y117.215 E.01596
G1 X113.976 Y117.014 E.00909
G1 X114.21 Y116.843 E.00909
G1 X114.675 Y116.625 E.0161
G1 X115.201 Y116.522 E.01681
G1 X115.474 Y116.509 E.00857
G1 X115.899 Y116.54 E.01336
G1 X116.312 Y116.641 E.01333
G1 X116.697 Y116.815 E.01325
G1 X117.041 Y117.063 E.0133
G1 X117.326 Y117.37 E.01313
G1 X117.543 Y117.724 E.01302
G1 X117.689 Y118.119 E.0132
G1 X117.857 Y119.157 E.03297
G1 X117.857 Y119.157 F6000
G1 X117.429 Y118.874
;TYPE:External perimeter
G1 F1200
G1 X116.77 Y118.927 E.02073
G1 X116.226 Y118.931 E.01706
G1 X116.041 Y118.375 E.01837
G1 X115.884 Y118.164 E.00825
G1 X115.7 Y118.054 E.00672
G1 X115.466 Y118.014 E.00744
G1 X115.321 Y118.028 E.00457
G1 X115.121 Y118.104 E.00671
G1 X114.945 Y118.248 E.00713
G1 X114.81 Y118.452 E.00767
G1 X114.734 Y118.713 E.00852
G1 X114.722 Y119.035 E.0101
G1 X114.75 Y119.213 E.00565
G1 X114.801 Y119.357 E.00479
G1 X114.932 Y119.544 E.00716
G1 X115.036 Y119.632 E.00427
G1 X115.154 Y119.693 E.00416
G1 X115.39 Y119.747 E.00759
G1 X115.674 Y119.729 E.00892
G1 X115.956 Y119.603 E.00968
G1 X116.279 Y119.292 E.01406
G1 X116.708 Y119.313 E.01347
G1 X117.325 Y119.39 E.0195
G1 X116.739 Y122.535 E.10031
G1 X113.68 Y122.535 E.09591
G1 X113.68 Y121.326 E.03791
G1 X115.496 Y121.332 E.05694
G1 X115.799 Y121.349 E.00952
G1 X115.876 Y121.132 E.00722
G1 X115.965 Y120.682 E.01438
G1 X115.865 Y120.726 E.00343
G1 X115.645 Y120.78 E.0071
G1 X115.507 Y120.875 E.00525
G1 X114.956 Y120.88 E.01728
G1 X114.759 Y120.833 E.00635
G1 X114.431 Y120.704 E.01105
G1 X114.264 Y120.601 E.00615
G1 X113.981 Y120.36 E.01165
G1 X113.767 Y120.055 E.01168
G1 X113.667 Y119.863 E.00679
G1 X113.626 Y119.683 E.00579
G1 X113.551 Y119.171 E.01622
G1 X113.55 Y118.798 E.0117
G1 X113.605 Y118.449 E.01108
G1 X113.813 Y117.8 E.02137
G1 X114.053 Y117.462 E.013
G1 X114.219 Y117.303 E.00721
G1 X114.402 Y117.17 E.00709
G1 X114.794 Y116.986 E.01358
G1 X115.247 Y116.897 E.01448
G1 X115.469 Y116.887 E.00697
G1 X115.841 Y116.914 E.01169
G1 X116.189 Y116.999 E.01123
G1 X116.507 Y117.143 E.01095
G1 X116.79 Y117.347 E.01094
G1 X117.024 Y117.599 E.01078
G1 X117.202 Y117.889 E.01067
G1 X117.322 Y118.215 E.01089
G1 X117.42 Y118.814 E.01903
G1 E-1.12 F2400
;WIPE_START
G1 F4800
G1 X117.429 Y118.874 E-.02882
G1 X116.77 Y118.927 E-.31404
G1 X116.481 Y118.929 E-.13714
;WIPE_END
G1 X113.424 Y118.302 F6000
G1 E1.6 F2400
G1 F1200
G1 X113.424 Y119.104 E.02515
G1 X112.884 Y120.014 E.03318
G1 X112.609 Y120.437 E.01582
G1 X111.088 Y122.603 E.08299
G1 X110.115 Y122.603 E.03051
G1 X110.115 Y119.356 E.10181
G1 X109.438 Y119.356 E.02123
G1 X109.438 Y118.172 E.03712
G1 X110.115 Y118.172 E.02123
G1 X110.115 Y116.973 E.03759
G1 X111.35 Y116.973 E.03872
G1 X111.35 Y118.173 E.03763
G1 X112.352 Y118.178 E.03142
G1 X112.802 Y118.206 E.01414
G1 X113.365 Y118.293 E.01786
G1 E-1.12 F2400
