; generated by PrusaSlicer 2.7.4+win64 on 2024-04-23 at 21:20:29 UTC

; 

; external perimeters extrusion width = 0.42mm
; perimeters extrusion width = 0.44mm
; infill extrusion width = 0.44mm
; solid infill extrusion width = 0.44mm
; top infill extrusion width = 0.40mm
; first layer extrusion width = 0.42mm


; printing object Shape-Box id:0 copy 0
; stop printing object Shape-Box id:0 copy 0

;TYPE:Custom
; Ender 3 Custom Start G-code
G92 E0 ; Reset Extruder

M140 S55 ; set bed temp
M104 S200 ; set extruder temp
M109 S200 ; wait for extruder temp
M190 S55 ; wait for bed temp

G28 ; Home all axes
M104 S210 ; set extruder temp 
BED_MESH_CALIBRATE AREA_START=85.5021,96.6789 AREA_END=145.497,134.319

G1 Z2.0 F3000 ; Move Z Axis up little to prevent scratching of Heat Bed
M109 S210 ; wait for extruder temp
G1 X0.1 Y20 Z0.3 F5000.0 ; Move to start position

G1 X0.1 Y200.0 Z0.3 F1500.0 E15 ; Draw the first line
G1 X0.4 Y200.0 Z0.3 F5000.0 ; Move to side a little
G1 X0.4 Y20 Z0.3 F1500.0 E30 ; Draw the second line
G92 E0 ; Reset Extruder
G1 Z2.0 F3000 ; Move Z Axis up little to prevent scratching of Heat Bed
G1 X5 Y20 Z0.3 F5000.0 ; Move over to prevent blob squish
G21 ; set units to millimeters
G90 ; use absolute coordinates
M83 ; use relative distances for extrusion
; Filament gcode
M107
;LAYER_CHANGE
;Z:0.2
;HEIGHT:0.2
G1 E-1.6 F2400
G1 Z.2 F6000
G1 X89.59 Y99.813
G1 Z.2
G1 E1.6 F2400
M204 S500
;TYPE:Skirt/Brim
;WIDTH:0.42
G1 F1200
G1 X90.459 Y99.108 E.03509
G1 X91.39 Y98.494 E.03497
G1 X93.055 Y97.676 E.05816
G1 X94.832 Y97.138 E.05821
G1 X96.455 Y96.902 E.05142
G1 X134.618 Y96.917 E1.19657
G1 X135.577 Y97.05 E.03036
G1 X137.604 Y97.606 E.0659
G1 X139.434 Y98.477 E.06355
G1 X140.873 Y99.488 E.05514
G1 X142.317 Y100.887 E.06304
G1 X143.108 Y101.902 E.04035
G1 X143.569 Y102.631 E.02704
G1 X144.415 Y104.416 E.06194
G1 X144.974 Y106.453 E.06623
G1 X145.158 Y108.453 E.06297
G1 X145.308 Y122.453 E.43899
G1 X145.237 Y123.78 E.04167
G1 X145.03 Y125 E.0388
G1 X144.41 Y126.976 E.06493
G1 X143.423 Y128.845 E.06627
G1 X142.2 Y130.408 E.06223
G1 X141.422 Y131.176 E.03428
G1 X140.548 Y131.883 E.03525
G1 X138.907 Y132.89 E.06037
G1 X137.814 Y133.369 E.03742
G1 X136.014 Y133.895 E.0588
G1 X134.257 Y134.115 E.05552
G1 X96.811 Y134.121 E1.17409
G1 X95.124 Y133.922 E.05326
G1 X94.029 Y133.654 E.03535
G1 X92.919 Y133.265 E.03688
G1 X91.588 Y132.618 E.0464
G1 X90.533 Y131.947 E.0392
G1 X89.585 Y131.187 E.0381
G1 X88.494 Y130.072 E.04891
G1 X87.888 Y129.302 E.03072
G1 X87.062 Y127.974 E.04904
G1 X86.506 Y126.777 E.04138
G1 X86.053 Y125.388 E.04581
G1 X85.746 Y123.618 E.05633
G1 X85.691 Y122.617 E.03143
G1 X85.72 Y107.69 E.46803
G1 X86.072 Y105.545 E.06815
G1 X86.69 Y103.785 E.05849
G1 X87.092 Y102.966 E.02861
G1 X87.976 Y101.58 E.05154
G1 X88.608 Y100.795 E.0316
G1 X89.548 Y99.856 E.04166
G1 X89.548 Y99.856 F6000
G1 X89.814 Y100.122
G1 F1200
G1 X89.842 Y100.093 E.00126
G1 X90.671 Y99.42 E.03348
G1 X91.57 Y98.825 E.0338
G1 X93.188 Y98.029 E.05654
G1 X94.726 Y97.549 E.05052
G1 X96.473 Y97.278 E.05543
G1 X133.426 Y97.245 E1.15864
G1 X135.5 Y97.42 E.06526
G1 X137.481 Y97.963 E.0644
G1 X139.242 Y98.802 E.06116
G1 X140.627 Y99.773 E.05303
G1 X142.038 Y101.141 E.06162
G1 X142.804 Y102.125 E.0391
G1 X143.298 Y102.914 E.02919
G1 X144.148 Y104.784 E.06441
G1 X144.616 Y106.585 E.05834
G1 X144.781 Y108.457 E.05892
G1 X144.931 Y122.457 E.43899
G1 X144.864 Y123.726 E.03984
G1 X144.658 Y124.936 E.03848
G1 X144.065 Y126.824 E.06205
G1 X143.103 Y128.646 E.0646
G1 X141.932 Y130.143 E.05959
G1 X141.328 Y130.754 E.02694
G1 X140.336 Y131.571 E.04029
G1 X138.715 Y132.565 E.05962
G1 X137.129 Y133.21 E.05368
G1 X135.952 Y133.523 E.03819
G1 X134.088 Y133.746 E.05886
G1 X96.838 Y133.745 E1.16795
G1 X95.183 Y133.549 E.05225
G1 X94.037 Y133.266 E.03701
G1 X93.07 Y132.919 E.03221
G1 X91.764 Y132.285 E.04552
G1 X90.752 Y131.64 E.03763
G1 X89.836 Y130.906 E.0368
G1 X88.773 Y129.818 E.04769
G1 X88.186 Y129.07 E.02981
G1 X87.39 Y127.788 E.04731
G1 X86.861 Y126.651 E.03932
G1 X86.418 Y125.294 E.04476
G1 X86.121 Y123.572 E.05479
G1 X86.068 Y122.617 E.02999
G1 X86.096 Y107.715 E.46724
G1 X86.434 Y105.653 E.06552
G1 X87.041 Y103.923 E.05748
G1 X87.439 Y103.116 E.02821
G1 X88.287 Y101.793 E.04927
G1 X88.89 Y101.046 E.0301
G1 X89.772 Y100.164 E.03911
G1 X89.772 Y100.164 F6000
G1 X90.038 Y100.43
G1 F1200
G1 X90.095 Y100.374 E.00251
G1 X90.883 Y99.732 E.03187
G1 X91.763 Y99.149 E.0331
G1 X93.321 Y98.382 E.05445
G1 X94.942 Y97.885 E.05316
G1 X96.492 Y97.655 E.04913
G1 X133.426 Y97.622 E1.15804
G1 X135.424 Y97.789 E.06286
G1 X137.362 Y98.32 E.063
G1 X139.051 Y99.127 E.05869
G1 X140.38 Y100.059 E.0509
G1 X141.747 Y101.381 E.05963
G1 X142.5 Y102.348 E.03843
G1 X142.97 Y103.1 E.0278
G1 X143.788 Y104.897 E.06191
G1 X144.246 Y106.657 E.05702
G1 X144.404 Y108.461 E.05678
G1 X144.554 Y122.461 E.43899
G1 X144.478 Y123.753 E.04058
G1 X144.254 Y125.029 E.04062
G1 X144.009 Y125.892 E.02813
G1 X143.143 Y127.862 E.06747
G1 X142.408 Y128.985 E.04208
G1 X141.751 Y129.784 E.03243
G1 X141.067 Y130.482 E.03064
G1 X140.124 Y131.259 E.03831
G1 X138.538 Y132.232 E.05834
G1 X137.004 Y132.854 E.0519
G1 X135.875 Y133.154 E.03663
G1 X134.079 Y133.369 E.05671
G1 X96.865 Y133.369 E1.16682
G1 X95.242 Y133.177 E.05124
G1 X94.143 Y132.904 E.03551
G1 X93.222 Y132.574 E.03068
G1 X91.94 Y131.951 E.04469
G1 X90.971 Y131.333 E.03604
G1 X90.04 Y130.582 E.0375
G1 X89.052 Y129.565 E.04446
G1 X88.494 Y128.853 E.02836
G1 X87.718 Y127.603 E.04613
G1 X87.217 Y126.525 E.03727
G1 X86.783 Y125.199 E.04375
G1 X86.495 Y123.527 E.0532
G1 X86.473 Y107.741 E.49496
G1 X86.794 Y105.763 E.06283
G1 X87.392 Y104.06 E.05659
G1 X87.774 Y103.29 E.02695
G1 X88.596 Y102.009 E.04772
G1 X89.172 Y101.297 E.02871
G1 X89.996 Y100.473 E.03654
G1 E-1.12 F2400
;WIPE_START
G1 F4800
G1 X90.038 Y100.43 E-.02855
G1 X90.095 Y100.374 E-.03796
G1 X90.77 Y99.824 E-.41349
;WIPE_END
; printing object Shape-Box id:0 copy 0
G1 X98.137 Y110.954 F6000
G1 E1.6 F2400
;TYPE:Perimeter
;WIDTH:0.419999
G1 F1200
G1 X98.438 Y110.899 E.00959
G1 X98.773 Y110.796 E.01099
G1 X98.832 Y111.194 E.01262
G1 X99.01 Y111.709 E.01708
;WIDTH:0.454926
G1 X99.095 Y111.859 E.00591
;WIDTH:0.489852
G1 X99.18 Y112.009 E.00641
;WIDTH:0.524778
G1 X99.265 Y112.158 E.00687
G1 X99.123 Y112.092 E.00627
;WIDTH:0.489852
G1 X98.982 Y112.025 E.0058
;WIDTH:0.454926
G1 X98.841 Y111.959 E.00533
;WIDTH:0.419999
G1 X98.057 Y111.848 E.02483
G1 X98.164 Y111.192 E.02084
G1 X98.144 Y111.014 E.00562
G1 X98.144 Y111.014 F6000
G1 X97.368 Y110.517
;WIDTH:0.529735
G1 F1200
G1 X97.151 Y110.563 E.00898
G1 X96.921 Y110.555 E.00932
G1 X96.813 Y110.437 E.00648
G1 X96.831 Y110.211 E.00918
G1 X96.972 Y110.07 E.00807
G1 X97.196 Y110.086 E.00909
G1 X97.346 Y110.462 E.01639
G1 E-1.12 F2400
;WIPE_START
G1 F4800
G1 X97.368 Y110.517 E-.02814
G1 X97.151 Y110.563 E-.10537
G1 X96.921 Y110.555 E-.10932
G1 X96.813 Y110.437 E-.07598
G1 X96.831 Y110.211 E-.10769
G1 X96.911 Y110.131 E-.0535
;WIPE_END
G1 X98.976 Y113.589 F6000
G1 E1.6 F2400
;WIDTH:0.419999
G1 F1200
G1 X98.658 Y113.997 E.01622
G1 X98.356 Y114.241 E.01217
G1 X98.015 Y114.425 E.01215
G1 X97.649 Y114.541 E.01204
G1 X97.136 Y114.592 E.01616
G1 X96.77 Y114.573 E.01149
G1 X96.252 Y114.438 E.01678
G1 X95.747 Y114.158 E.0181
G1 X95.339 Y113.743 E.01825
G1 X95.075 Y113.238 E.01787
G1 X94.977 Y112.856 E.01237
G1 X94.986 Y112.336 E.01631
G1 X95.259 Y111.706 E.02153
G1 X94.931 Y111.279 E.01688
G1 X94.776 Y110.873 E.01363
G1 X94.723 Y110.225 E.02039
G1 X94.808 Y109.705 E.01652
G1 X95.02 Y109.232 E.01625
G1 X95.331 Y108.832 E.01589
G1 X95.627 Y108.566 E.01248
G1 X96.021 Y108.331 E.01438
G1 X96.453 Y108.181 E.01434
G1 X96.961 Y108.112 E.01607
G1 X97.414 Y108.129 E.01421
G1 X97.863 Y108.229 E.01442
G1 X98.171 Y108.351 E.01039
G1 X98.529 Y108.58 E.01332
G1 X98.859 Y108.914 E.01472
G1 X99.099 Y109.301 E.01428
G1 X99.414 Y108.838 E.01756
G1 X99.814 Y108.491 E.0166
G1 X99.933 Y108.417 E.00439
G1 X100.432 Y108.208 E.01696
G1 X101.056 Y108.115 E.01978
G1 X101.59 Y108.144 E.01677
G1 X102.115 Y108.298 E.01715
G1 X102.417 Y108.447 E.01056
G1 X102.755 Y108.706 E.01335
G1 X103.033 Y109.027 E.01331
G1 X103.226 Y109.374 E.01245
G1 X103.515 Y108.894 E.01757
G1 X103.92 Y108.497 E.01778
G1 X104.394 Y108.244 E.01685
G1 X104.947 Y108.122 E.01776
G1 X105.509 Y108.135 E.01763
G1 X106.019 Y108.267 E.01652
G1 X106.463 Y108.51 E.01587
G1 X106.919 Y108.996 E.0209
G1 X107.054 Y109.188 E.00736
G1 X107.285 Y109.723 E.01827
G1 X107.414 Y110.25 E.01701
G1 X107.485 Y110.895 E.02035
G1 X107.489 Y111.784 E.02787
G1 X107.434 Y112.322 E.01696
G1 X107.318 Y112.87 E.01756
G1 X107.094 Y113.44 E.0192
G1 X106.812 Y113.861 E.01589
G1 X106.437 Y114.213 E.01613
G1 X105.964 Y114.464 E.01679
G1 X105.427 Y114.585 E.01726
G1 X104.905 Y114.585 E.01637
G1 X104.365 Y114.454 E.01742
G1 X103.871 Y114.172 E.01784
G1 X103.509 Y113.812 E.01601
G1 X103.247 Y113.394 E.01547
G1 X103.037 Y112.843 E.01849
G1 X102.812 Y114.049 E.03847
G1 X102.711 Y114.28 E.0079
G1 X102.57 Y114.415 E.00612
G1 X102.287 Y114.51 E.00936
G1 X99.542 Y114.511 E.08607
G1 X99.263 Y114.437 E.00905
G1 X99.075 Y114.265 E.00799
G1 X98.979 Y113.995 E.00898
G1 X98.977 Y113.649 E.01085
G1 E-1.12 F2400
;WIPE_START
G1 F4800
G1 X98.976 Y113.589 E-.0285
G1 X98.658 Y113.997 E-.24571
G1 X98.356 Y114.241 E-.18442
G1 X98.316 Y114.262 E-.02137
;WIPE_END
G1 X100.859 Y110.576 F6000
G1 E1.6 F2400
;WIDTH:0.587825
G1 F1200
G1 X100.897 Y110.28 E.01352
G1 X101.029 Y110.107 E.00986
G1 X101.206 Y110.096 E.00804
G1 X101.31 Y110.218 E.00726
;WIDTH:0.589694
G1 X101.498 Y110.688 E.02301
G1 X101.406 Y110.776 E.00579
G1 X101.131 Y110.882 E.0134
G1 X100.945 Y110.81 E.00907
G1 X100.88 Y110.633 E.00857
G1 X100.88 Y110.633 F6000
G1 X102.851 Y110.963
;TYPE:External perimeter
;WIDTH:0.552297
G1 F1200
G1 X102.872 Y111.046 E.00363
;WIDTH:0.506416
G1 X102.893 Y111.129 E.0033
;WIDTH:0.460535
G1 X102.913 Y111.212 E.00296
;WIDTH:0.450214
G1 X102.843 Y111.835 E.02123
G1 X102.741 Y112.376 E.01864
;WIDTH:0.419999
G1 X102.441 Y113.98 E.05116
G1 X102.361 Y114.102 E.00457
G1 X102.154 Y114.134 E.00657
G1 X99.542 Y114.134 E.0819
G1 X99.409 Y114.079 E.00451
G1 X99.353 Y113.945 E.00455
;WIDTH:0.446977
G1 X99.34 Y113.53 E.01395
;WIDTH:0.473954
G1 X99.326 Y113.114 E.01492
;WIDTH:0.496628
G1 X99.346 Y113 E.00437
G1 X99.444 Y112.963 E.00395
;WIDTH:0.458314
G1 X99.543 Y112.926 E.00365
;WIDTH:0.419999
G1 X100.109 Y112.928 E.01775
;WIDTH:0.457124
G1 X100.648 Y112.911 E.01857
;WIDTH:0.461194
G1 X101.164 Y112.91 E.01795
;WIDTH:0.482276
G1 X101.451 Y112.916 E.01049
G1 X101.573 Y112.398 E.01944
G1 X101.567 Y112.346 E.00191
G1 X101.246 Y112.466 E.01252
G1 X100.652 Y112.497 E.02173
;WIDTH:0.457138
G1 X100.249 Y112.366 E.0146
;WIDTH:0.419999
G1 X99.837 Y112.117 E.01509
G1 X99.613 Y111.908 E.00961
G1 X99.32 Y111.485 E.01613
G1 X99.202 Y111.11 E.01233
G1 X99.174 Y110.722 E.0122
;WIDTH:0.419834
G1 X99.248 Y110.224 E.01578
;WIDTH:0.419999
G1 X99.294 Y109.863 E.01141
G1 X99.492 Y109.36 E.01695
G1 X99.747 Y109.032 E.01303
G1 X100.092 Y108.759 E.01379
G1 X100.498 Y108.579 E.01392
G1 X101.112 Y108.488 E.01946
G1 X101.529 Y108.516 E.0131
G1 X101.959 Y108.641 E.01404
G1 X102.36 Y108.871 E.01449
G1 X102.708 Y109.218 E.01541
G1 X102.876 Y109.512 E.01062
G1 X102.988 Y109.855 E.01131
;WIDTH:0.419832
G1 X102.997 Y110.315 E.01442
;WIDTH:0.458537
G1 X102.964 Y110.375 E.00237
;WIDTH:0.505417
G1 X102.931 Y110.435 E.00263
;WIDTH:0.552297
G1 X102.898 Y110.496 E.00294
G1 X102.623 Y110.506 E.01166
;WIDTH:0.507208
G1 X102.347 Y110.516 E.01066
;WIDTH:0.462119
G1 X102.071 Y110.526 E.00963
;WIDTH:0.41985
G1 X101.901 Y110.473 E.00558
;WIDTH:0.419999
G1 X101.715 Y109.974 E.0167
G1 X101.481 Y109.706 E.01116
G1 X101.264 Y109.625 E.00726
G1 X100.987 Y109.63 E.00869
G1 X100.705 Y109.777 E.00997
G1 X100.484 Y110.05 E.01101
G1 X100.404 Y110.4 E.01126
G1 X100.421 Y110.726 E.01024
G1 X100.481 Y110.964 E.0077
G1 X100.6 Y111.135 E.00653
G1 X100.838 Y111.294 E.00897
G1 X101.246 Y111.343 E.01288
G1 X101.634 Y111.197 E.013
G1 X101.894 Y110.947 E.01131
;WIDTH:0.41985
G1 X102.052 Y110.898 E.00518
;WIDTH:0.461486
G1 X102.407 Y110.927 E.0124
;WIDTH:0.505942
G1 X102.763 Y110.957 E.01375
;WIDTH:0.552297
G1 X102.792 Y110.959 E.00123
G1 E-1.12 F2400
;WIPE_START
G1 F4800
G1 X102.851 Y110.963 E-.02809
G1 X102.872 Y111.046 E-.04067
G1 X102.893 Y111.129 E-.04067
G1 X102.913 Y111.212 E-.04055
G1 X102.843 Y111.835 E-.29779
G1 X102.83 Y111.902 E-.03223
;WIPE_END
G1 X98.943 Y112.464 F6000
G1 E1.6 F2400
;WIDTH:0.458314
G1 F1200
G1 X98.935 Y112.652 E.0065
;WIDTH:0.496628
G1 X98.928 Y112.84 E.0071
G1 X98.785 Y113.129 E.01216
;WIDTH:0.458314
G1 X98.643 Y113.419 E.01115
;WIDTH:0.419999
G1 X98.413 Y113.71 E.01163
G1 X98.169 Y113.914 E.00997
G1 X97.892 Y114.068 E.00994
G1 X97.342 Y114.208 E.01779
G1 X96.856 Y114.206 E.01524
G1 X96.407 Y114.095 E.0145
G1 X96 Y113.879 E.01445
G1 X95.671 Y113.565 E.01426
G1 X95.41 Y113.064 E.01771
G1 X95.352 Y112.699 E.01159
G1 X95.372 Y112.356 E.01077
G1 X95.578 Y111.891 E.01595
G1 X95.891 Y111.627 E.01284
G1 X95.497 Y111.42 E.01395
G1 X95.21 Y111.005 E.01582
G1 X95.134 Y110.739 E.00867
G1 X95.1 Y110.201 E.0169
G1 X95.179 Y109.787 E.01321
G1 X95.328 Y109.45 E.01155
G1 X95.591 Y109.106 E.01358
G1 X95.982 Y108.788 E.0158
G1 X96.479 Y108.562 E.01712
G1 X96.962 Y108.489 E.01532
G1 X97.354 Y108.501 E.0123
G1 X97.736 Y108.584 E.01226
G1 X97.977 Y108.674 E.00807
G1 X98.273 Y108.857 E.01091
G1 X98.537 Y109.11 E.01146
G1 X98.796 Y109.551 E.01604
G1 X98.875 Y109.889 E.01088
;WIDTH:0.417318
G1 X98.878 Y110.273 E.01195
;WIDTH:0.419999
G1 X98.758 Y110.4 E.00548
G1 X98.37 Y110.528 E.01281
;WIDTH:0.440137
G1 X97.905 Y110.589 E.01549
G1 X97.804 Y110.466 E.00526
;WIDTH:0.423114
G1 X97.646 Y109.974 E.01634
;WIDTH:0.419999
G1 X97.496 Y109.763 E.00812
G1 X97.32 Y109.656 E.00646
G1 X97.002 Y109.619 E.01004
G1 X96.711 Y109.723 E.00969
G1 X96.483 Y109.935 E.00976
G1 X96.381 Y110.237 E.00999
G1 X96.393 Y110.558 E.01007
G1 X96.538 Y110.8 E.00885
G1 X96.76 Y110.962 E.00862
G1 X97.078 Y111.002 E.01005
;WIDTH:0.440138
G1 X97.685 Y110.92 E.02023
G1 X97.782 Y111.029 E.00482
;WIDTH:0.425753
G1 X97.676 Y111.83 E.02572
;WIDTH:0.417068
G1 X97.606 Y112.004 E.00583
;WIDTH:0.406815
G1 X97.491 Y112.069 E.004
;WIDTH:0.419999
G1 X96.989 Y112.153 E.01596
G1 X96.727 Y112.282 E.00916
G1 X96.618 Y112.472 E.00687
G1 X96.631 Y112.818 E.01086
G1 X96.793 Y113 E.00764
G1 X97.021 Y113.08 E.00758
G1 X97.313 Y113.057 E.00918
G1 X97.575 Y112.836 E.01075
G1 X97.764 Y112.348 E.01641
;WIDTH:0.402327
G1 X97.835 Y112.261 E.00336
;WIDTH:0.417068
G1 X97.962 Y112.217 E.00418
;WIDTH:0.419999
G1 X98.806 Y112.335 E.02672
G1 X98.899 Y112.423 E.00401
G1 X98.899 Y112.423 F6000
G1 X99.265 Y112.158
;TYPE:Perimeter
;WIDTH:0.569884
G1 F1200
G1 X99.324 Y112.251 E.00483
;WIDTH:0.61499
G1 X99.383 Y112.343 E.0052
;WIDTH:0.660096
G1 X99.443 Y112.436 E.00568
G1 E-1.12 F2400
;WIPE_START
G1 F4800
G1 X99.383 Y112.343 E-.05257
G1 X99.324 Y112.251 E-.05191
G1 X99.265 Y112.158 E-.05231
;WIPE_END
G1 E-.32321 F2400
G1 X99.105 Y119.168 F6000
G1 E1.6 F2400
;WIDTH:0.419999
G1 F1200
G1 X99.205 Y119.243 E.00392
G1 X99.296 Y119.526 E.00932
G1 X98.986 Y121.272 E.0556
G1 X99.294 Y120.904 E.01505
G1 X99.725 Y120.25 E.02456
G1 X100.035 Y119.675 E.02048
G1 X100.369 Y118.874 E.02721
G1 X100.57 Y118.191 E.02232
G1 X100.724 Y117.083 E.03507
G1 X100.825 Y116.83 E.00854
G1 X101.013 Y116.665 E.00784
G1 X101.284 Y116.595 E.00878
G1 X102.154 Y116.595 E.02728
G1 X102.369 Y116.638 E.00687
G1 X102.587 Y116.798 E.00848
G1 X102.711 Y117.061 E.00912
;WIDTH:0.452934
G1 X102.691 Y117.818 E.02582
G1 X102.582 Y118.435 E.02136
;WIDTH:0.44848
G1 X102.354 Y119.157 E.02553
;WIDTH:0.419999
G1 X102.179 Y119.74 E.01909
G1 X101.952 Y120.231 E.01696
G1 X101.707 Y120.716 E.01704
G1 X101.475 Y121.026 E.01214
G1 X102.182 Y120.958 E.02227
G1 X102.785 Y120.951 E.01891
G1 X102.879 Y120.951 E.00295
G1 X103.001 Y121.023 E.00444
G1 X102.91 Y120.401 E.01971
G1 X102.887 Y119.846 E.01742
G1 X102.889 Y119.324 E.01637
;WIDTH:0.453482
G1 X102.937 Y118.701 E.02133
;WIDTH:0.46024
G1 X103.062 Y118.152 E.01954
G1 X103.283 Y117.673 E.01831
;WIDTH:0.419999
