; generated by PrusaSlicer 2.7.4+win64 on 2024-04-23 at 22:08:12 UTC

; 

; external perimeters extrusion width = 0.42mm
; perimeters extrusion width = 0.44mm
; infill extrusion width = 0.44mm
; solid infill extrusion width = 0.44mm
; top infill extrusion width = 0.40mm
; first layer extrusion width = 0.42mm


; printing object Shape-Box id:0 copy 0
; stop printing object Shape-Box id:0 copy 0

;TYPE:Custom
; Ender 3 Custom Start G-code
G92 E0 ; Reset Extruder

M140 S55 ; set bed temp
M104 S160 ; set extruder temp
M109 S160 ; wait for extruder temp
M190 S55 ; wait for bed temp

G28 ; Home all axes
M104 S210 ; set extruder temp 
BED_MESH_CALIBRATE AREA_START=83.7684,88.5669 AREA_END=143.763,126.207

G1 Z2.0 F3000 ; Move Z Axis up little to prevent scratching of Heat Bed
M109 S210 ; wait for extruder temp
G1 X0.1 Y20 Z0.3 F5000.0 ; Move to start position

G1 X0.1 Y200.0 Z0.3 F1500.0 E15 ; Draw the first line
G1 X0.4 Y200.0 Z0.3 F5000.0 ; Move to side a little
G1 X0.4 Y20 Z0.3 F1500.0 E30 ; Draw the second line
G92 E0 ; Reset Extruder
G1 Z2.0 F3000 ; Move Z Axis up little to prevent scratching of Heat Bed
G1 X5 Y20 Z0.3 F5000.0 ; Move over to prevent blob squish
G21 ; set units to millimeters
G90 ; use absolute coordinates
M83 ; use relative distances for extrusion
; Filament gcode
M107
;LAYER_CHANGE
;Z:0.2
;HEIGHT:0.2
G1 E-1.6 F2400
G1 Z.2 F6000
G1 X87.857 Y91.701
G1 Z.2
G1 E1.6 F2400
M204 S500
;TYPE:Skirt/Brim
;WIDTH:0.42
G1 F1200
G1 X88.725 Y90.996 E.03506
G1 X89.656 Y90.382 E.03497
G1 X91.322 Y89.564 E.05819
G1 X93.099 Y89.026 E.05821
G1 X94.721 Y88.79 E.05139
G1 X132.884 Y88.805 E1.19657
G1 X133.843 Y88.938 E.03036
G1 X135.87 Y89.494 E.0659
G1 X137.7 Y90.365 E.06355
G1 X139.14 Y91.376 E.05517
G1 X140.583 Y92.775 E.06302
G1 X141.374 Y93.79 E.04035
G1 X141.835 Y94.519 E.02704
G1 X142.681 Y96.304 E.06194
G1 X143.24 Y98.341 E.06623
G1 X143.425 Y100.341 E.06298
G1 X143.575 Y114.341 E.43899
G1 X143.503 Y115.668 E.04167
G1 X143.296 Y116.888 E.0388
G1 X142.676 Y118.864 E.06493
G1 X141.69 Y120.733 E.06626
G1 X140.467 Y122.296 E.06223
G1 X139.688 Y123.064 E.0343
G1 X138.815 Y123.771 E.03522
G1 X137.173 Y124.778 E.06039
G1 X136.08 Y125.257 E.03742
G1 X134.281 Y125.783 E.05877
G1 X132.523 Y126.003 E.05555
G1 X95.078 Y126.009 E1.17406
G1 X93.39 Y125.81 E.05329
G1 X92.295 Y125.542 E.03535
G1 X91.185 Y125.153 E.03688
G1 X89.854 Y124.506 E.0464
G1 X88.8 Y123.835 E.03918
G1 X87.851 Y123.075 E.03812
G1 X86.76 Y121.96 E.04891
G1 X86.154 Y121.19 E.03072
G1 X85.328 Y119.862 E.04904
G1 X84.772 Y118.665 E.04138
G1 X84.319 Y117.276 E.04581
G1 X84.013 Y115.506 E.05632
G1 X83.957 Y114.505 E.03143
G1 X83.987 Y99.578 E.46803
G1 X84.339 Y97.433 E.06815
G1 X84.956 Y95.673 E.05848
G1 X85.359 Y94.854 E.02862
G1 X86.242 Y93.468 E.05153
G1 X86.875 Y92.684 E.03159
G1 X87.814 Y91.744 E.04166
G1 X87.814 Y91.744 F6000
G1 X88.08 Y92.01
G1 F1200
G1 X88.109 Y91.982 E.00126
G1 X88.937 Y91.308 E.03348
G1 X89.836 Y90.714 E.03378
G1 X91.455 Y89.917 E.05658
G1 X92.992 Y89.437 E.05049
G1 X94.74 Y89.166 E.05546
G1 X131.692 Y89.133 E1.1586
G1 X133.767 Y89.308 E.06529
G1 X135.748 Y89.851 E.0644
G1 X137.509 Y90.69 E.06116
G1 X138.893 Y91.661 E.05301
G1 X140.304 Y93.029 E.06162
G1 X141.07 Y94.013 E.0391
G1 X141.565 Y94.802 E.0292
G1 X142.414 Y96.673 E.06442
G1 X142.882 Y98.473 E.05831
G1 X143.048 Y100.345 E.05893
G1 X143.198 Y114.345 E.43899
G1 X143.13 Y115.614 E.03985
G1 X142.924 Y116.824 E.03848
G1 X142.331 Y118.712 E.06205
G1 X141.369 Y120.534 E.0646
G1 X140.198 Y122.031 E.05959
G1 X139.594 Y122.642 E.02694
G1 X138.603 Y123.459 E.04027
G1 X136.981 Y124.453 E.05965
G1 X135.395 Y125.098 E.05368
G1 X134.218 Y125.411 E.03819
G1 X132.355 Y125.634 E.05883
G1 X95.105 Y125.633 E1.16795
G1 X93.449 Y125.437 E.05229
G1 X92.304 Y125.154 E.03698
G1 X91.337 Y124.807 E.03221
G1 X90.03 Y124.173 E.04555
G1 X89.019 Y123.528 E.0376
G1 X88.102 Y122.794 E.03683
G1 X87.039 Y121.706 E.04769
G1 X86.452 Y120.958 E.02981
G1 X85.657 Y119.676 E.0473
G1 X85.128 Y118.539 E.03932
G1 X84.684 Y117.182 E.04477
G1 X84.387 Y115.46 E.05479
G1 X84.334 Y114.505 E.02999
G1 X84.363 Y99.603 E.46724
G1 X84.7 Y97.541 E.06551
G1 X85.307 Y95.811 E.05748
G1 X85.705 Y95.004 E.02821
G1 X86.553 Y93.681 E.04927
G1 X87.156 Y92.934 E.0301
G1 X88.038 Y92.052 E.03911
G1 X88.038 Y92.052 F6000
G1 X88.304 Y92.318
G1 F1200
G1 X88.361 Y92.262 E.00251
G1 X89.149 Y91.62 E.03187
G1 X90.029 Y91.037 E.0331
G1 X91.588 Y90.27 E.05448
G1 X93.208 Y89.774 E.05312
G1 X94.758 Y89.543 E.04914
G1 X131.692 Y89.51 E1.15804
G1 X133.69 Y89.677 E.06286
G1 X135.628 Y90.208 E.063
G1 X137.318 Y91.015 E.05872
G1 X138.647 Y91.947 E.0509
G1 X140.013 Y93.269 E.0596
G1 X140.766 Y94.236 E.03843
G1 X141.237 Y94.988 E.02782
G1 X142.054 Y96.785 E.06189
G1 X142.512 Y98.545 E.05702
G1 X142.671 Y100.349 E.05678
G1 X142.821 Y114.349 E.43899
G1 X142.744 Y115.641 E.04058
G1 X142.521 Y116.917 E.04061
G1 X142.276 Y117.78 E.02813
G1 X141.409 Y119.75 E.06749
G1 X140.675 Y120.874 E.04209
G1 X140.018 Y121.672 E.03241
G1 X139.333 Y122.37 E.03066
G1 X138.39 Y123.147 E.03831
G1 X136.804 Y124.12 E.05834
G1 X135.27 Y124.742 E.0519
G1 X134.141 Y125.042 E.03663
G1 X132.345 Y125.257 E.05671
G1 X95.131 Y125.257 E1.16682
G1 X93.508 Y125.065 E.05124
G1 X92.409 Y124.792 E.03551
G1 X91.488 Y124.462 E.03068
G1 X90.206 Y123.839 E.04469
G1 X89.238 Y123.221 E.03601
G1 X88.306 Y122.47 E.03753
G1 X87.318 Y121.453 E.04446
G1 X86.76 Y120.741 E.02836
G1 X85.985 Y119.491 E.04611
G1 X85.483 Y118.413 E.03729
G1 X85.05 Y117.087 E.04374
G1 X84.761 Y115.415 E.0532
G1 X84.739 Y99.629 E.49496
G1 X85.061 Y97.651 E.06284
G1 X85.658 Y95.948 E.05658
G1 X86.04 Y95.178 E.02695
G1 X86.862 Y93.897 E.04772
G1 X87.438 Y93.185 E.02871
G1 X88.262 Y92.361 E.03654
G1 E-1.12 F2400
;WIPE_START
G1 F4800
G1 X88.304 Y92.318 E-.02855
G1 X88.361 Y92.262 E-.03796
G1 X89.036 Y91.712 E-.41349
;WIPE_END
; printing object Shape-Box id:0 copy 0
G1 X96.536 Y103.073 F6000
G1 E1.6 F2400
;TYPE:Perimeter
;WIDTH:0.588565
G1 F1200
G1 X96.549 Y102.951 E.00557
G1 X96.945 Y102.862 E.01841
G1 X97.045 Y103.33 E.02171
G1 X97.179 Y103.7 E.01785
G1 X97.269 Y103.786 E.00565
;WIDTH:0.541828
G1 X97.359 Y103.872 E.00516
;WIDTH:0.495091
G1 X97.448 Y103.958 E.00465
;WIDTH:0.448354
G1 X97.538 Y104.045 E.00422
G1 X97.445 Y103.964 E.00416
;WIDTH:0.495091
G1 X97.352 Y103.883 E.00464
;WIDTH:0.541828
G1 X97.259 Y103.802 E.00512
;WIDTH:0.588565
G1 X97.166 Y103.722 E.00557
G1 X96.475 Y103.656 E.03149
G1 X96.53 Y103.132 E.0239
G1 X96.53 Y103.132 F6000
G1 X95.6 Y102.392
;WIDTH:0.476382
G1 F1200
G1 X95.284 Y102.435 E.01149
G1 X95.14 Y102.364 E.00579
G1 X95.093 Y102.22 E.00546
G1 X95.195 Y102.026 E.0079
G1 X95.3 Y101.973 E.00424
G1 X95.454 Y102.008 E.00569
G1 X95.579 Y102.336 E.01265
G1 X95.579 Y102.336 F6000
G1 X94.137 Y103.517
;TYPE:External perimeter
;WIDTH:0.38292
G1 F1200
G1 X94.034 Y103.537 E.00297
G1 E-1.12 F2400
;WIPE_START
G1 F4800
G1 X94.137 Y103.517 E-.04984
;WIPE_END
G1 E-.43016 F2400
G1 X97.186 Y105.656 F6000
G1 E1.6 F2400
;TYPE:Perimeter
;WIDTH:0.419999
G1 F1200
G1 X96.959 Y105.922 E.01096
G1 X96.649 Y106.173 E.01251
G1 X96.3 Y106.361 E.01243
G1 X95.924 Y106.481 E.01238
G1 X95.494 Y106.534 E.01358
G1 X94.901 Y106.491 E.01864
G1 X94.346 Y106.309 E.01831
G1 X93.881 Y106.013 E.01728
G1 X93.507 Y105.593 E.01763
G1 X93.27 Y105.107 E.01695
G1 X93.175 Y104.574 E.01698
G1 X93.228 Y104.058 E.01626
G1 X93.329 Y103.801 E.00866
G1 X93.436 Y103.61 E.00686
G1 X93.188 Y103.297 E.01252
G1 X93.005 Y102.847 E.01523
G1 X92.928 Y102.373 E.01506
G1 X92.966 Y101.843 E.01666
G1 X93.044 Y101.51 E.01072
G1 X93.236 Y101.094 E.01437
G1 X93.551 Y100.688 E.01611
G1 X93.857 Y100.412 E.01292
G1 X94.26 Y100.172 E.01471
G1 X94.724 Y100.014 E.01537
G1 X95.335 Y99.94 E.0193
G1 X95.837 Y99.984 E.0158
G1 X96.258 Y100.103 E.01372
G1 X96.729 Y100.362 E.01685
G1 X96.999 Y100.585 E.01098
G1 X97.271 Y100.932 E.01382
G1 X97.365 Y101.114 E.00642
G1 X97.7 Y100.624 E.01861
G1 X98.131 Y100.279 E.01731
G1 X98.743 Y100.033 E.02068
G1 X99.348 Y99.946 E.01916
G1 X99.866 Y99.98 E.01628
G1 X100.421 Y100.147 E.01817
G1 X100.708 Y100.29 E.01005
G1 X101.061 Y100.564 E.01401
G1 X101.359 Y100.929 E.01477
G1 X101.478 Y101.181 E.00874
G1 X101.762 Y100.717 E.01706
G1 X102.151 Y100.342 E.01694
G1 X102.64 Y100.081 E.01738
G1 X103.207 Y99.957 E.0182
G1 X103.777 Y99.97 E.01788
G1 X104.304 Y100.107 E.01707
G1 X104.759 Y100.356 E.01626
G1 X105.166 Y100.749 E.01774
G1 X105.439 Y101.217 E.01699
G1 X105.615 Y101.661 E.01498
G1 X105.738 Y102.174 E.01654
G1 X105.792 Y102.692 E.01633
G1 X105.807 Y103.3 E.01907
G1 X105.791 Y103.838 E.01688
G1 X105.735 Y104.343 E.01593
G1 X105.612 Y104.856 E.01654
G1 X105.404 Y105.354 E.01692
G1 X105.115 Y105.785 E.01627
G1 X104.73 Y106.145 E.01653
G1 X104.243 Y106.403 E.01728
G1 X103.694 Y106.526 E.01764
G1 X103.164 Y106.526 E.01662
G1 X102.61 Y106.392 E.01787
G1 X102.131 Y106.128 E.01715
G1 X101.805 Y105.811 E.01426
G1 X101.585 Y105.526 E.01129
G1 X101.356 Y105.071 E.01597
G1 X101.314 Y104.939 E.00434
G1 X101.119 Y105.99 E.03352
G1 X101.001 Y106.244 E.00878
G1 X100.88 Y106.354 E.00513
G1 X100.596 Y106.451 E.00941
G1 X97.751 Y106.452 E.0892
G1 X97.473 Y106.379 E.00901
G1 X97.276 Y106.192 E.00852
G1 X97.186 Y105.886 E.01
G1 X97.186 Y105.716 E.00533
G1 E-1.12 F2400
;WIPE_START
G1 F4800
G1 X97.186 Y105.656 E-.0285
G1 X96.959 Y105.922 E-.1661
G1 X96.649 Y106.173 E-.18947
G1 X96.471 Y106.269 E-.09593
;WIPE_END
G1 X99.157 Y102.463 F6000
G1 E1.6 F2400
;WIDTH:0.55243
G1 F1200
G1 X99.202 Y102.15 E.0134
G1 X99.327 Y102.019 E.00767
G1 X99.489 Y102.032 E.00689
G1 X99.783 Y102.572 E.02605
G1 X99.663 Y102.666 E.00646
G1 X99.391 Y102.731 E.01185
G1 X99.228 Y102.671 E.00736
G1 X99.176 Y102.519 E.00681
G1 E-1.12 F2400
;WIPE_START
G1 F4800
G1 X99.157 Y102.463 E-.02809
G1 X99.202 Y102.15 E-.1502
G1 X99.327 Y102.019 E-.08601
G1 X99.489 Y102.032 E-.0772
G1 X99.628 Y102.288 E-.1385
;WIPE_END
G1 X104.728 Y105.644 F6000
G1 E1.6 F2400
;TYPE:External perimeter
;WIDTH:0.419999
G1 F1200
G1 X104.431 Y105.894 E.01217
G1 X104.032 Y106.079 E.01379
G1 X103.586 Y106.159 E.01421
G1 X103.186 Y106.148 E.01255
G1 X102.743 Y106.039 E.0143
G1 X102.37 Y105.836 E.01331
G1 X102.095 Y105.57 E.012
G1 X101.919 Y105.352 E.00878
G1 X101.715 Y104.955 E.01399
G1 X101.568 Y104.48 E.01559
;WIDTH:0.435393
G1 X101.499 Y103.78 E.02295
G1 X101.54 Y103.127 E.02135
;WIDTH:0.448897
G1 X101.53 Y102.954 E.00585
;WIDTH:0.48597
G1 X101.519 Y102.781 E.00639
;WIDTH:0.523043
G1 X101.509 Y102.607 E.00696
G1 X101.551 Y102.453 E.00637
;WIDTH:0.483756
G1 X101.593 Y102.299 E.00585
;WIDTH:0.444469
G1 X101.635 Y102.144 E.00536
;WIDTH:0.419999
G1 X101.721 Y101.637 E.01612
G1 X101.853 Y101.265 E.01238
G1 X102.116 Y100.88 E.01462
G1 X102.447 Y100.594 E.01372
G1 X102.852 Y100.405 E.01401
G1 X103.423 Y100.326 E.01807
G1 X103.683 Y100.335 E.00816
G1 X104.21 Y100.472 E.01707
G1 X104.597 Y100.706 E.01418
G1 X104.889 Y101.01 E.01322
G1 X105.095 Y101.373 E.01309
G1 X105.249 Y101.75 E.01277
G1 X105.367 Y102.244 E.01592
G1 X105.431 Y102.872 E.01979
G1 X105.428 Y103.651 E.02443
G1 X105.377 Y104.157 E.01595
G1 X105.245 Y104.766 E.01954
G1 X105.04 Y105.235 E.01605
G1 X104.764 Y105.596 E.01425
G1 E-1.12 F2400
;WIPE_START
G1 F4800
G1 X104.728 Y105.644 E-.0285
G1 X104.431 Y105.894 E-.1844
G1 X104.032 Y106.079 E-.20891
G1 X103.911 Y106.101 E-.05819
;WIPE_END
G1 X100.748 Y105.921 F6000
G1 E1.6 F2400
G1 F1200
G1 X100.669 Y106.042 E.00453
G1 X100.472 Y106.075 E.00626
G1 X97.751 Y106.075 E.08531
G1 X97.614 Y106.016 E.00468
G1 X97.563 Y105.886 E.00438
;WIDTH:0.426196
G1 X97.56 Y105.204 E.02174
;WIDTH:0.439777
G1 X97.56 Y104.899 E.01006
G1 X97.68 Y104.775 E.00569
;WIDTH:0.449603
G1 X98.377 Y104.758 E.02358
G1 X99.002 Y104.785 E.02115
;WIDTH:0.439829
G1 X99.688 Y104.789 E.02264
G1 X99.801 Y104.289 E.01692
G1 X99.533 Y104.39 E.00945
G1 X99.041 Y104.412 E.01625
;WIDTH:0.462699
G1 X98.542 Y104.338 E.01761
G1 X98.163 Y104.124 E.01519
;WIDTH:0.419999
G1 X97.838 Y103.832 E.0137
G1 X97.534 Y103.381 E.01705
G1 X97.406 Y102.875 E.01636
;WIDTH:0.430154
G1 X97.412 Y102.593 E.00908
;WIDTH:0.47519
G1 X97.395 Y102.52 E.00269
;WIDTH:0.520226
G1 X97.378 Y102.447 E.00297
;WIDTH:0.565262
G1 X97.361 Y102.374 E.00326
;WIDTH:0.610298
G1 X97.344 Y102.301 E.00354
;WIDTH:0.655334
G1 X97.327 Y102.228 E.00382
G1 X97.205 Y102.272 E.0066
;WIDTH:0.608267
G1 X97.083 Y102.317 E.00611
;WIDTH:0.5612
G1 X96.961 Y102.361 E.00559
;WIDTH:0.514133
G1 X96.84 Y102.405 E.00504
;WIDTH:0.467066
G1 X96.718 Y102.449 E.00457
;WIDTH:0.419999
G1 X96.24 Y102.526 E.01518
;WIDTH:0.396839
G1 X96.048 Y102.43 E.00632
;WIDTH:0.419999
G1 X95.865 Y101.902 E.01752
G1 X95.719 Y101.701 E.00779
G1 X95.55 Y101.598 E.00621
G1 X95.207 Y101.569 E.01079
G1 X94.939 Y101.692 E.00925
G1 X94.729 Y101.974 E.01102
G1 X94.689 Y102.247 E.00865
G1 X94.749 Y102.484 E.00767
G1 X94.815 Y102.628 E.00497
G1 X95.052 Y102.803 E.00924
G1 X95.447 Y102.836 E.01243
G1 X95.885 Y102.76 E.01394
;WIDTH:0.396839
G1 X96.077 Y102.853 E.00628
;WIDTH:0.419999
G1 X96.096 Y103.028 E.00552
G1 X96.021 Y103.481 E.0144
G1 X95.904 Y103.819 E.01121
G1 X95.769 Y103.941 E.00571
G1 X95.255 Y104.079 E.01669
G1 X94.986 Y104.257 E.01011
G1 X94.913 Y104.44 E.00618
G1 X94.944 Y104.686 E.00777
G1 X95.101 Y104.855 E.00723
G1 X95.353 Y104.927 E.00822
G1 X95.648 Y104.851 E.00955
G1 X95.86 Y104.609 E.01009
G1 X96.075 Y104.179 E.01507
G1 X96.21 Y104.121 E.00461
G1 X96.857 Y104.147 E.0203
G1 X97.112 Y104.18 E.00806
G1 X97.25 Y104.278 E.00531
G1 X97.266 Y104.414 E.00429
;WIDTH:0.432055
G1 X97.107 Y105.045 E.02106
G1 X96.924 Y105.38 E.01235
;WIDTH:0.419999
G1 X96.714 Y105.635 E.01036
G1 X96.462 Y105.846 E.01031
G1 X96.177 Y106.005 E.01023
G1 X95.866 Y106.109 E.01028
G1 X95.521 Y106.158 E.01093
G1 X94.929 Y106.115 E.01861
G1 X94.454 Y105.946 E.01581
G1 X94.053 Y105.665 E.01535
G1 X93.772 Y105.311 E.01417
G1 X93.601 Y104.904 E.01384
G1 X93.55 Y104.462 E.01395
G1 X93.623 Y104.047 E.01321
G1 X93.919 Y103.594 E.01697
;WIDTH:0.39913
G1 X93.979 Y103.545 E.00229
;WIDTH:0.419999
G1 X93.566 Y103.194 E.01699
G1 X93.376 Y102.778 E.01434
G1 X93.305 Y102.378 E.01274
G1 X93.336 Y101.916 E.01452
G1 X93.391 Y101.659 E.00824
G1 X93.544 Y101.312 E.01189
G1 X93.811 Y100.961 E.01383
G1 X94.213 Y100.633 E.01627
G1 X94.393 Y100.525 E.00658
G1 X94.888 Y100.374 E.01623
G1 X95.347 Y100.317 E.0145
G1 X95.813 Y100.367 E.01469
G1 X96.271 Y100.527 E.01521
G1 X96.699 Y100.815 E.01617
G1 X96.936 Y101.105 E.01174
G1 X97.097 Y101.437 E.01157
;WIDTH:0.461698
G1 X97.14 Y101.561 E.00457
;WIDTH:0.503397
G1 X97.183 Y101.685 E.00503
;WIDTH:0.545095
G1 X97.225 Y101.809 E.00547
;WIDTH:0.586794
G1 X97.268 Y101.934 E.00598
;WIDTH:0.628492
G1 X97.31 Y102.058 E.00637
;WIDTH:0.656092
G1 X97.334 Y102.1 E.00247
G1 X97.389 Y101.971 E.00715
;WIDTH:0.608874
G1 X97.444 Y101.841 E.00664
;WIDTH:0.561655
G1 X97.499 Y101.712 E.00605
;WIDTH:0.514437
G1 X97.554 Y101.583 E.0055
;WIDTH:0.467218
G1 X97.61 Y101.453 E.00499
;WIDTH:0.419999
G1 X97.879 Y101.013 E.01617
G1 X98.116 Y100.768 E.01069
G1 X98.337 Y100.597 E.00876
G1 X98.904 Y100.375 E.01909
G1 X99.416 Y100.321 E.01614
G1 X99.8 Y100.352 E.01208
G1 X100.265 Y100.49 E.01521
G1 X100.648 Y100.713 E.0139
G1 X100.987 Y101.045 E.01488
G1 X101.219 Y101.513 E.01638
G1 X101.276 Y102.133 E.01952
;WIDTH:0.444469
G1 X101.245 Y102.213 E.00286
;WIDTH:0.483756
G1 X101.213 Y102.293 E.00316
;WIDTH:0.523043
G1 X101.182 Y102.372 E.00339
;WIDTH:0.550073
G1 X100.334 Y102.476 E.03603
G1 X100.328 Y102.455 E.00092
;WIDTH:0.506715
G1 X100.323 Y102.433 E.00087
;WIDTH:0.463357
G1 X100.318 Y102.412 E.00075
;WIDTH:0.419999
G1 X100.143 Y102.321 E.00618
G1 X99.883 Y101.82 E.0177
G1 X99.793 Y101.698 E.00475
G1 X99.527 Y101.566 E.00931
G1 X99.169 Y101.605 E.01129
G1 X98.921 Y101.771 E.00936
G1 X98.767 Y102.059 E.01024
G1 X98.715 Y102.411 E.01116
G1 X98.791 Y102.829 E.01332
G1 X98.981 Y103.039 E.00888
G1 X99.12 Y103.133 E.00526
G1 X99.465 Y103.171 E.01088
G1 X99.716 Y103.122 E.00802
G1 X99.953 Y103.002 E.00833
G1 X100.175 Y102.827 E.00886
G1 X100.312 Y102.788 E.00447
;WIDTH:0.463357
G1 X100.317 Y102.767 E.00075
;WIDTH:0.506715
G1 X100.322 Y102.746 E.00083
;WIDTH:0.550073
G1 X100.328 Y102.725 E.00092
