; generated by PrusaSlicer 2.7.2+win64 on 2024-03-11 at 14:58:41 UTC

; 

; external perimeters extrusion width = 0.42mm
; perimeters extrusion width = 0.44mm
; infill extrusion width = 0.44mm
; solid infill extrusion width = 0.44mm
; top infill extrusion width = 0.40mm
; first layer extrusion width = 0.42mm


; printing object Shape-Box id:0 copy 0
; stop printing object Shape-Box id:0 copy 0

;TYPE:Custom
; Ender 3 Custom Start G-code
G92 E0 ; Reset Extruder

M140 S55 ; set bed temp
M104 S190 ; set extruder temp
M109 S190 ; wait for extruder temp
M190 S55 ; wait for bed temp

G28 ; Home all axes
M104 S210 ; set extruder temp 
BED_MESH_CALIBRATE AREA_START=83.7684,88.5669 AREA_END=143.763,126.207

G1 Z2.0 F3000 ; Move Z Axis up little to prevent scratching of Heat Bed
M109 S210 ; wait for extruder temp
G1 X0.1 Y20 Z0.3 F5000.0 ; Move to start position

G1 X0.1 Y200.0 Z0.3 F1500.0 E15 ; Draw the first line
G1 X0.4 Y200.0 Z0.3 F5000.0 ; Move to side a little
G1 X0.4 Y20 Z0.3 F1500.0 E30 ; Draw the second line
G92 E0 ; Reset Extruder
G1 Z2.0 F3000 ; Move Z Axis up little to prevent scratching of Heat Bed
G1 X5 Y20 Z0.3 F5000.0 ; Move over to prevent blob squish
G21 ; set units to millimeters
G90 ; use absolute coordinates
M83 ; use relative distances for extrusion
; Filament gcode
M107
;LAYER_CHANGE
;Z:0.2
;HEIGHT:0.2
G1 E-1.6 F2400
G1 Z.2 F6000
G1 X87.857 Y91.701
G1 Z.2
G1 E1.6 F2400
M204 S500
;TYPE:Skirt/Brim
;WIDTH:0.42
G1 F1200
G1 X88.725 Y90.996 E.03296
G1 X89.656 Y90.382 E.03287
G1 X91.322 Y89.564 E.0547
G1 X93.099 Y89.026 E.05472
G1 X94.721 Y88.79 E.04831
G1 X132.884 Y88.805 E1.12478
G1 X133.843 Y88.938 E.02854
G1 X135.87 Y89.494 E.06195
G1 X137.7 Y90.365 E.05973
G1 X139.14 Y91.376 E.05186
G1 X140.583 Y92.775 E.05924
G1 X141.374 Y93.79 E.03793
G1 X141.835 Y94.519 E.02542
G1 X142.681 Y96.304 E.05822
G1 X143.24 Y98.341 E.06226
G1 X143.425 Y100.341 E.0592
G1 X143.575 Y114.341 E.41265
G1 X143.503 Y115.668 E.03917
G1 X143.296 Y116.888 E.03647
G1 X142.676 Y118.864 E.06104
G1 X141.69 Y120.733 E.06228
G1 X140.467 Y122.296 E.05849
G1 X139.688 Y123.064 E.03224
G1 X138.815 Y123.771 E.03311
G1 X137.173 Y124.778 E.05677
G1 X136.08 Y125.257 E.03517
G1 X134.281 Y125.783 E.05524
G1 X132.523 Y126.003 E.05222
G1 X95.078 Y126.009 E1.10362
G1 X93.39 Y125.81 E.0501
G1 X92.295 Y125.542 E.03323
G1 X91.185 Y125.153 E.03467
G1 X89.854 Y124.506 E.04362
G1 X88.8 Y123.835 E.03683
G1 X87.851 Y123.075 E.03583
G1 X86.76 Y121.96 E.04598
G1 X86.154 Y121.19 E.02888
G1 X85.328 Y119.862 E.04609
G1 X84.772 Y118.665 E.0389
G1 X84.319 Y117.276 E.04306
G1 X84.013 Y115.506 E.05294
G1 X83.957 Y114.505 E.02955
G1 X83.987 Y99.578 E.43994
G1 X84.339 Y97.433 E.06407
G1 X84.956 Y95.673 E.05497
G1 X85.359 Y94.854 E.0269
G1 X86.242 Y93.468 E.04844
G1 X86.875 Y92.684 E.0297
G1 X87.814 Y91.744 E.03916
G1 X87.814 Y91.744 F6000
G1 X88.08 Y92.01
G1 F1200
G1 X88.109 Y91.982 E.00119
G1 X88.937 Y91.308 E.03147
G1 X89.836 Y90.714 E.03176
G1 X91.455 Y89.917 E.05319
G1 X92.992 Y89.437 E.04746
G1 X94.74 Y89.166 E.05213
G1 X131.692 Y89.133 E1.08909
G1 X133.767 Y89.308 E.06137
G1 X135.748 Y89.851 E.06054
G1 X137.509 Y90.69 E.05749
G1 X138.893 Y91.661 E.04983
G1 X140.304 Y93.029 E.05792
G1 X141.07 Y94.013 E.03675
G1 X141.565 Y94.802 E.02745
G1 X142.414 Y96.673 E.06056
G1 X142.882 Y98.473 E.05482
G1 X143.048 Y100.345 E.05539
G1 X143.198 Y114.345 E.41265
G1 X143.13 Y115.614 E.03745
G1 X142.924 Y116.824 E.03618
G1 X142.331 Y118.712 E.05833
G1 X141.369 Y120.534 E.06073
G1 X140.198 Y122.031 E.05602
G1 X139.594 Y122.642 E.02532
G1 X138.603 Y123.459 E.03785
G1 X136.981 Y124.453 E.05607
G1 X135.395 Y125.098 E.05046
G1 X134.218 Y125.411 E.0359
G1 X132.355 Y125.634 E.0553
G1 X95.105 Y125.633 E1.09787
G1 X93.449 Y125.437 E.04915
G1 X92.304 Y125.154 E.03476
G1 X91.337 Y124.807 E.03028
G1 X90.03 Y124.173 E.04281
G1 X89.019 Y123.528 E.03534
G1 X88.102 Y122.794 E.03462
G1 X87.039 Y121.706 E.04483
G1 X86.452 Y120.958 E.02802
G1 X85.657 Y119.676 E.04446
G1 X85.128 Y118.539 E.03696
G1 X84.684 Y117.182 E.04208
G1 X84.387 Y115.46 E.0515
G1 X84.334 Y114.505 E.02819
G1 X84.363 Y99.603 E.43921
G1 X84.7 Y97.541 E.06158
G1 X85.307 Y95.811 E.05404
G1 X85.705 Y95.004 E.02652
G1 X86.553 Y93.681 E.04632
G1 X87.156 Y92.934 E.02829
G1 X88.038 Y92.052 E.03676
G1 X88.038 Y92.052 F6000
G1 X88.304 Y92.318
G1 F1200
G1 X88.361 Y92.262 E.00236
G1 X89.149 Y91.62 E.02996
G1 X90.029 Y91.037 E.03111
G1 X91.588 Y90.27 E.05121
G1 X93.208 Y89.774 E.04993
G1 X94.758 Y89.543 E.04619
G1 X131.692 Y89.51 E1.08856
G1 X133.69 Y89.677 E.05909
G1 X135.628 Y90.208 E.05922
G1 X137.318 Y91.015 E.0552
G1 X138.647 Y91.947 E.04784
G1 X140.013 Y93.269 E.05603
G1 X140.766 Y94.236 E.03612
G1 X141.237 Y94.988 E.02615
G1 X142.054 Y96.785 E.05818
G1 X142.512 Y98.545 E.0536
G1 X142.671 Y100.349 E.05338
G1 X142.821 Y114.349 E.41265
G1 X142.744 Y115.641 E.03815
G1 X142.521 Y116.917 E.03818
G1 X142.276 Y117.78 E.02644
G1 X141.409 Y119.75 E.06344
G1 X140.675 Y120.874 E.03957
G1 X140.018 Y121.672 E.03047
G1 X139.333 Y122.37 E.02882
G1 X138.39 Y123.147 E.03601
G1 X136.804 Y124.12 E.05484
G1 X135.27 Y124.742 E.04879
G1 X134.141 Y125.042 E.03443
G1 X132.345 Y125.257 E.05331
G1 X95.131 Y125.257 E1.09681
G1 X93.508 Y125.065 E.04817
G1 X92.409 Y124.792 E.03338
G1 X91.488 Y124.462 E.02883
G1 X90.206 Y123.839 E.04201
G1 X89.238 Y123.221 E.03385
G1 X88.306 Y122.47 E.03528
G1 X87.318 Y121.453 E.04179
G1 X86.76 Y120.741 E.02666
G1 X85.985 Y119.491 E.04335
G1 X85.483 Y118.413 E.03505
G1 X85.05 Y117.087 E.04111
G1 X84.761 Y115.415 E.05001
G1 X84.739 Y99.629 E.46526
G1 X85.061 Y97.651 E.05907
G1 X85.658 Y95.948 E.05319
G1 X86.04 Y95.178 E.02533
G1 X86.862 Y93.897 E.04486
G1 X87.438 Y93.185 E.02699
G1 X88.262 Y92.361 E.03435
; printing object Shape-Box id:0 copy 0
G1 E-1.12 F2400
;WIPE_START
G1 F4800
G1 X88.304 Y92.318 E-.02855
G1 X88.361 Y92.262 E-.03796
G1 X89.036 Y91.712 E-.41349
;WIPE_END
G1 X109.075 Y101.727 F6000
G1 E1.6 F2400
;TYPE:Perimeter
G1 F1200
G1 X109.148 Y101.72 E.00216
G1 X109.208 Y101.74 E.00186
G1 X109.289 Y101.822 E.0034
G1 X109.346 Y101.939 E.00384
G1 X109.41 Y102.196 E.00781
G1 X109.457 Y102.595 E.01184
G1 X109.469 Y103.407 E.02393
G1 X109.401 Y104.088 E.02017
G1 X109.372 Y104.214 E.00381
G1 X109.294 Y104.429 E.00674
G1 X109.242 Y104.506 E.00274
G1 X109.142 Y104.549 E.00321
G1 X109.054 Y104.514 E.00279
G1 X108.969 Y104.425 E.00363
G1 X108.917 Y104.32 E.00345
G1 X108.851 Y104.058 E.00796
G1 X108.793 Y103.412 E.01912
G1 X108.793 Y102.858 E.01633
G1 X108.855 Y102.193 E.01968
G1 X108.917 Y101.945 E.00753
G1 X108.977 Y101.824 E.00398
G1 X109.032 Y101.77 E.00227
G1 X109.032 Y101.77 F6000
G1 X108.886 Y101.397
;TYPE:External perimeter
G1 F1200
G1 X108.996 Y101.352 E.0035
G1 X109.197 Y101.339 E.00594
G1 X109.385 Y101.402 E.00584
G1 X109.495 Y101.484 E.00404
G1 X109.606 Y101.613 E.00502
G1 X109.702 Y101.809 E.00643
G1 X109.782 Y102.128 E.00969
G1 X109.833 Y102.57 E.01311
G1 X109.846 Y103.423 E.02514
G1 X109.774 Y104.148 E.02147
G1 X109.735 Y104.32 E.0052
G1 X109.633 Y104.6 E.00878
G1 X109.531 Y104.754 E.00544
G1 X109.44 Y104.836 E.00361
G1 X109.266 Y104.914 E.00562
G1 X109.14 Y104.928 E.00374
G1 X109.011 Y104.913 E.00383
G1 X108.828 Y104.824 E.006
G1 X108.657 Y104.644 E.00732
G1 X108.562 Y104.452 E.00631
G1 X108.481 Y104.131 E.00976
G1 X108.451 Y103.931 E.00596
G1 X108.416 Y103.425 E.01495
G1 X108.416 Y102.84 E.01724
G1 X108.482 Y102.129 E.02105
G1 X108.562 Y101.814 E.00958
G1 X108.66 Y101.615 E.00654
G1 X108.771 Y101.484 E.00506
G1 X108.838 Y101.434 E.00246
G1 X108.838 Y101.434 F6000
G1 X109.112 Y101.977
;TYPE:Gap fill
;WIDTH:0.229041
G1 F1200
G1 X109.135 Y102.431 E.00661
;WIDTH:0.305837
G1 X109.127 Y104.003 E.0323
;WIDTH:0.227593
G1 X109.147 Y104.28 E.00401
G1 E-1.12 F2400
;WIPE_START
G1 F4800
G1 X109.127 Y104.003 E-.13192
G1 X109.131 Y103.27 E-.34808
;WIPE_END
G1 X117.435 Y101.727 F6000
G1 E1.6 F2400
;TYPE:Perimeter
;WIDTH:0.42
G1 F1200
G1 X117.508 Y101.72 E.00216
G1 X117.568 Y101.74 E.00186
G1 X117.649 Y101.822 E.0034
G1 X117.706 Y101.939 E.00384
G1 X117.77 Y102.196 E.00781
G1 X117.817 Y102.595 E.01184
G1 X117.829 Y103.407 E.02393
G1 X117.761 Y104.088 E.02017
G1 X117.733 Y104.214 E.0038
G1 X117.654 Y104.429 E.00675
G1 X117.603 Y104.506 E.00272
G1 X117.502 Y104.549 E.00324
G1 X117.414 Y104.514 E.00279
G1 X117.329 Y104.425 E.00363
G1 X117.277 Y104.32 E.00345
G1 X117.211 Y104.058 E.00796
G1 X117.153 Y103.412 E.01912
G1 X117.153 Y102.858 E.01633
G1 X117.215 Y102.193 E.01968
G1 X117.278 Y101.945 E.00754
G1 X117.337 Y101.824 E.00397
G1 X117.392 Y101.77 E.00227
G1 X117.392 Y101.77 F6000
G1 X117.246 Y101.397
;TYPE:External perimeter
G1 F1200
G1 X117.356 Y101.352 E.0035
G1 X117.557 Y101.339 E.00594
G1 X117.745 Y101.402 E.00584
G1 X117.856 Y101.484 E.00407
G1 X117.967 Y101.613 E.00502
G1 X118.063 Y101.809 E.00643
G1 X118.142 Y102.128 E.00969
G1 X118.193 Y102.57 E.01311
G1 X118.206 Y103.423 E.02514
G1 X118.134 Y104.148 E.02147
G1 X118.095 Y104.32 E.0052
G1 X117.993 Y104.6 E.00878
G1 X117.891 Y104.754 E.00544
G1 X117.8 Y104.836 E.00361
G1 X117.626 Y104.914 E.00562
G1 X117.5 Y104.928 E.00374
G1 X117.371 Y104.913 E.00383
G1 X117.188 Y104.824 E.006
G1 X117.017 Y104.644 E.00732
G1 X116.922 Y104.452 E.00631
G1 X116.841 Y104.131 E.00976
G1 X116.812 Y103.931 E.00596
G1 X116.776 Y103.425 E.01495
G1 X116.776 Y102.84 E.01724
G1 X116.842 Y102.129 E.02105
G1 X116.922 Y101.814 E.00958
G1 X117.02 Y101.615 E.00654
G1 X117.131 Y101.484 E.00506
G1 X117.198 Y101.434 E.00246
G1 X117.198 Y101.434 F6000
G1 X117.472 Y101.977
;TYPE:Gap fill
;WIDTH:0.229041
G1 F1200
G1 X117.495 Y102.431 E.00661
;WIDTH:0.305834
G1 X117.487 Y104.003 E.0323
;WIDTH:0.227591
G1 X117.508 Y104.28 E.00401
G1 E-1.12 F2400
;WIPE_START
G1 F4800
G1 X117.487 Y104.003 E-.13195
G1 X117.491 Y103.27 E-.34805
;WIPE_END
G1 X128.263 Y110.328 F6000
G1 E1.6 F2400
;TYPE:Perimeter
;WIDTH:0.42
G1 F1200
G1 X128.328 Y110.285 E.0023
G1 X128.398 Y110.266 E.00214
G1 X128.649 Y110.265 E.0074
G1 X128.783 Y110.317 E.00424
G1 X128.882 Y110.392 E.00366
G1 X128.924 Y110.45 E.00211
G1 X128.975 Y110.589 E.00436
G1 X128.992 Y110.727 E.0041
G1 X128.96 Y110.906 E.00536
G1 X128.872 Y111.04 E.00472
G1 X128.738 Y111.129 E.00474
G1 X128.548 Y111.162 E.00568
G1 X128.346 Y111.127 E.00604
G1 X128.202 Y111.032 E.00508
G1 X128.106 Y110.892 E.005
G1 X128.072 Y110.696 E.00586
G1 X128.105 Y110.505 E.00571
G1 X128.193 Y110.374 E.00465
G1 X128.213 Y110.361 E.0007
G1 X128.213 Y110.361 F6000
G1 X129.205 Y110.202
;TYPE:External perimeter
G1 F1200
G1 X129.265 Y110.285 E.00302
G1 X129.344 Y110.5 E.00675
G1 X129.371 Y110.721 E.00656
G1 X129.356 Y110.892 E.00506
G1 X129.312 Y111.046 E.00472
G1 X129.241 Y111.183 E.00455
G1 X129.14 Y111.307 E.00471
G1 X129.016 Y111.409 E.00473
G1 X128.878 Y111.481 E.00459
G1 X128.724 Y111.525 E.00472
G1 X128.548 Y111.54 E.00521
G1 X128.367 Y111.525 E.00535
G1 X128.207 Y111.48 E.0049
G1 X128.065 Y111.406 E.00472
G1 X127.937 Y111.302 E.00486
G1 X127.83 Y111.175 E.00489
G1 X127.755 Y111.034 E.00471
G1 X127.709 Y110.876 E.00485
G1 X127.694 Y110.696 E.00532
G1 X127.709 Y110.519 E.00524
G1 X127.753 Y110.364 E.00475
G1 X127.825 Y110.227 E.00456
G1 X127.927 Y110.105 E.00469
G1 X128.051 Y110.004 E.00471
G1 X128.19 Y109.932 E.00461
G1 X128.342 Y109.89 E.00465
G1 X128.645 Y109.881 E.00893
G1 X128.752 Y109.9 E.0032
G1 X128.968 Y109.985 E.00684
G1 X129.142 Y110.116 E.00642
G1 X129.17 Y110.154 E.00139
G1 X129.17 Y110.154 F6000
G1 X128.851 Y110.827
;TYPE:Solid infill
;WIDTH:0.495415
G1 F1200
G1 X128.412 Y110.387 E.02198
G1 E-1.12 F2400
;WIPE_START
G1 F4800
G1 X128.851 Y110.827 E-.29523
;WIPE_END
G1 E-.18477 F2400
G1 X128.345 Y112.918 F6000
G1 E1.6 F2400
;TYPE:Perimeter
;WIDTH:0.42
G1 F1200
G1 X128.41 Y112.876 E.00228
G1 X128.601 Y112.862 E.00564
G1 X128.697 Y112.895 E.00299
G1 X128.754 Y112.951 E.00236
G1 X128.783 Y113.028 E.00243
G1 X128.776 Y113.165 E.00404
G1 X128.729 Y113.228 E.00232
G1 X128.656 Y113.277 E.00259
G1 X128.538 Y113.296 E.00352
G1 X128.428 Y113.277 E.00329
G1 X128.353 Y113.226 E.00267
G1 X128.303 Y113.155 E.00256
G1 X128.287 Y113.063 E.00275
G1 X128.301 Y112.981 E.00245
G1 X128.311 Y112.967 E.00051
G1 X128.311 Y112.967 F6000
G1 X129.069 Y112.741
;TYPE:External perimeter
G1 F1200
G1 X129.155 Y112.96 E.00693
G1 X129.156 Y113.212 E.00743
G1 X129.07 Y113.41 E.00636
G1 X128.897 Y113.577 E.00709
G1 X128.674 Y113.663 E.00704
G1 X128.404 Y113.663 E.00796
G1 X128.184 Y113.575 E.00698
G1 X128.008 Y113.402 E.00727
G1 X127.92 Y113.189 E.00679
G1 X127.919 Y112.942 E.00728
G1 X128.004 Y112.738 E.00651
G1 X128.172 Y112.574 E.00692
G1 X128.392 Y112.49 E.00694
G1 X128.663 Y112.489 E.00799
G1 X128.797 Y112.524 E.00408
G1 X128.901 Y112.576 E.00343
G1 X129.027 Y112.699 E.00519
G1 X129.027 Y112.699 F6000
G1 X128.598 Y113.077
;TYPE:Gap fill
;WIDTH:0.0967545
G1 F1200
G1 X128.462 Y113.071 E.00057
G1 E-1.12 F2400
;WIPE_START
G1 F4800
G1 X128.598 Y113.077 E-.06466
;WIPE_END
G1 E-.41534 F2400
G1 X118.872 Y111.254 F6000
G1 E1.6 F2400
;TYPE:External perimeter
;WIDTH:0.42
G1 F1200
G1 X117.95 Y112.583 E.04767
G1 X117.87 Y112.698 E.00413
G1 X117.87 Y111.254 E.04256
G1 X118.812 Y111.254 E.02776
G1 E-1.12 F2400
;WIPE_START
G1 F4800
G1 X118.872 Y111.254 E-.0285
G1 X118.33 Y112.035 E-.4515
;WIPE_END
G1 X109.449 Y112.171 F6000
G1 E1.6 F2400
;TYPE:Perimeter
G1 F1200
G1 X109.597 Y112.128 E.00454
G1 X109.788 Y112.145 E.00565
G1 X109.924 Y112.22 E.00458
G1 X110.033 Y112.36 E.00523
G1 X110.086 Y112.572 E.00644
G1 X110.062 Y112.883 E.00919
G1 X110.021 Y113.001 E.00368
G1 X109.886 Y113.184 E.0067
G1 X109.742 Y113.273 E.00499
G1 X109.591 Y113.289 E.00448
G1 X109.47 Y113.25 E.00375
G1 X109.407 Y113.202 E.00233
G1 X109.294 Y113.046 E.00568
G1 X109.234 Y112.786 E.00786
G1 X109.256 Y112.458 E.00969
G1 X109.337 Y112.273 E.00595
G1 X109.405 Y112.211 E.00271
G1 X109.405 Y112.211 F6000
G1 X109.264 Y111.84
;TYPE:External perimeter
G1 F1200
G1 X109.402 Y111.782 E.00441
G1 X109.561 Y111.751 E.00477
G1 X109.729 Y111.751 E.00495
G1 X109.896 Y111.782 E.00501
G1 X110.038 Y111.841 E.00453
G1 X110.169 Y111.932 E.0047
G1 X110.285 Y112.052 E.00492
G1 X110.373 Y112.193 E.0049
G1 X110.433 Y112.354 E.00506
G1 X110.463 Y112.541 E.00558
G1 X110.463 Y112.761 E.00648
G1 X110.43 Y112.975 E.00638
G1 X110.365 Y113.161 E.00581
G1 X110.269 Y113.323 E.00555
G1 X110.143 Y113.462 E.00553
G1 X110.006 Y113.566 E.00507
G1 X109.864 Y113.633 E.00463
G1 X109.711 Y113.666 E.00461
G1 X109.552 Y113.666 E.00469
G1 X109.408 Y113.636 E.00434
G1 X109.276 Y113.575 E.00429
G1 X109.151 Y113.481 E.00461
G1 X109.037 Y113.354 E.00503
G1 X108.949 Y113.203 E.00515
G1 X108.889 Y113.024 E.00556
G1 X108.857 Y112.814 E.00626
G1 X108.857 Y112.579 E.00693
G1 X108.888 Y112.37 E.00623
G1 X108.946 Y112.194 E.00546
G1 X109.031 Y112.048 E.00498
G1 X109.14 Y111.929 E.00476
G1 X109.215 Y111.875 E.00272
G1 X109.215 Y111.875 F6000
G1 X109.529 Y112.274
;TYPE:Solid infill
;WIDTH:0.469408
G1 F1200
G1 X109.773 Y112.518 E.0115
G1 X109.793 Y112.597 E.00272
G1 X109.762 Y112.863 E.00893
G1 X109.685 Y112.967 E.00431
G1 X109.644 Y112.992 E.0016
G1 X109.36 Y112.708 E.01339
G1 E-1.12 F2400
;WIPE_START
G1 F4800
G1 X109.644 Y112.992 E-.19078
G1 X109.685 Y112.967 E-.02281
G1 X109.762 Y112.863 E-.06147
G1 X109.793 Y112.597 E-.12721
G1 X109.773 Y112.518 E-.03871
G1 X109.715 Y112.46 E-.03902
;WIPE_END
G1 X103.369 Y110.382 F6000
G1 E1.6 F2400
;TYPE:Perimeter
;WIDTH:0.42
G1 F1200
G1 X103.45 Y110.463 E.00338
G1 X103.507 Y110.58 E.00384
G1 X103.571 Y110.837 E.00781
G1 X103.617 Y111.236 E.01184
G1 X103.629 Y112.048 E.02393
G1 X103.561 Y112.729 E.02017
G1 X103.533 Y112.855 E.0038
G1 X103.455 Y113.07 E.00674
G1 X103.403 Y113.148 E.00276
G1 X103.303 Y113.19 E.0032
G1 X103.215 Y113.156 E.00278
G1 X103.13 Y113.066 E.00365
G1 X103.078 Y112.962 E.00343
G1 X103.012 Y112.699 E.00799
G1 X102.953 Y112.053 E.01912
G1 X102.953 Y111.499 E.01633
G1 X103.015 Y110.835 E.01966
G1 X103.078 Y110.586 E.00757
G1 X103.138 Y110.466 E.00395
G1 X103.235 Y110.369 E.00404
G1 X103.309 Y110.362 E.00219
G1 X103.312 Y110.363 E.00009
G1 X103.312 Y110.363 F6000
G1 X103.546 Y110.043
;TYPE:External perimeter
G1 F1200
G1 X103.656 Y110.126 E.00406
