; generated by PrusaSlicer 2.7.1+win64 on 2024-02-26 at 19:16:21 UTC


;
;

;
;
; 

; external perimeters extrusion width = 0.42mm
; perimeters extrusion width = 0.44mm
; infill extrusion width = 0.44mm
; solid infill extrusion width = 0.44mm
; top infill extrusion width = 0.40mm
; first layer extrusion width = 0.42mm

; external perimeters extrusion width = 0.42mm
; perimeters extrusion width = 0.44mm
; infill extrusion width = 0.44mm
; solid infill extrusion width = 0.44mm
; top infill extrusion width = 0.40mm
; first layer extrusion width = 0.42mm


; printing object Shape-Box id:0 copy 0
; stop printing object Shape-Box id:0 copy 0
; printing object Shape-Box id:1 copy 0
; stop printing object Shape-Box id:1 copy 0

;TYPE:Custom
; Ender 3 Custom Start G-code
G92 E0 ; Reset Extruder

M140 S50 ; set bed temp
M104 S160 ; set extruder temp
M109 S160 ; wait for extruder temp
M190 S50 ; wait for bed temp

G28 ; Home all axes
M104 S205 ; set extruder temp 
BED_MESH_CALIBRATE AREA_START=85.483,78.1773 AREA_END=145.516,152.82

G1 Z2.0 F3000 ; Move Z Axis up little to prevent scratching of Heat Bed
M109 S205 ; wait for extruder temp
G1 X0.1 Y20 Z0.3 F5000.0 ; Move to start position

G1 X0.1 Y200.0 Z0.3 F1500.0 E15 ; Draw the first line
G1 X0.4 Y200.0 Z0.3 F5000.0 ; Move to side a little
G1 X0.4 Y20 Z0.3 F1500.0 E30 ; Draw the second line
G92 E0 ; Reset Extruder
G1 Z2.0 F3000 ; Move Z Axis up little to prevent scratching of Heat Bed
G1 X5 Y20 Z0.3 F5000.0 ; Move over to prevent blob squish
G21 ; set units to millimeters
G90 ; use absolute coordinates
M83 ; use relative distances for extrusion
; Filament gcode
M107
;LAYER_CHANGE
;Z:0.2
;HEIGHT:0.2
;BEFORE_LAYER_CHANGE
G92 E0
;0.2


G1 E-1.6 F2400
G1 Z.2 F6000
;AFTER_LAYER_CHANGE
;0.2
G1 X88.627 Y82.294
G1 Z.2
G1 E1.6 F2400
M204 S500
;TYPE:Skirt/Brim
;WIDTH:0.42
G1 F1200
G1 X89.609 Y81.312 E.04093
G1 X90.478 Y80.607 E.03298
G1 X91.409 Y79.993 E.03287
G1 X93.057 Y79.181 E.05415
G1 X94.079 Y78.833 E.03182
G1 X95.666 Y78.488 E.04787
G1 X97.245 Y78.366 E.04668
G1 X133.445 Y78.366 E1.06692
G1 X134.637 Y78.416 E.03516
G1 X135.596 Y78.549 E.02854
G1 X137.623 Y79.105 E.06195
G1 X139.453 Y79.976 E.05973
G1 X140.893 Y80.986 E.05184
G1 X142.336 Y82.385 E.05924
G1 X143.127 Y83.4 E.03793
G1 X143.588 Y84.13 E.02545
G1 X144.142 Y85.204 E.03562
G1 X144.527 Y86.17 E.03065
G1 X145.04 Y88.233 E.06265
G1 X145.178 Y89.952 E.05083
G1 X145.328 Y103.989 E.41374
G1 X145.287 Y141.114 E1.09419
G1 X145.218 Y142.282 E.03448
G1 X144.935 Y143.834 E.0465
G1 X144.455 Y145.321 E.04605
G1 X143.781 Y146.733 E.04611
G1 X143.007 Y147.92 E.04176
G1 X142.181 Y148.909 E.03798
G1 X141.403 Y149.677 E.03222
G1 X139.867 Y150.834 E.05668
G1 X138.653 Y151.505 E.04088
G1 X137.239 Y152.066 E.04484
G1 X135.995 Y152.396 E.03793
G1 X134.912 Y152.565 E.03231
G1 X133.363 Y152.632 E.0457
G1 X97.014 Y152.631 E1.07132
G1 X95.831 Y152.538 E.03497
G1 X94.01 Y152.156 E.05484
G1 X92.9 Y151.766 E.03468
G1 X91.569 Y151.12 E.0436
G1 X90.514 Y150.448 E.03687
G1 X89.463 Y149.593 E.03993
G1 X88.319 Y148.389 E.04895
G1 X87.49 Y147.246 E.04162
G1 X86.974 Y146.348 E.03053
G1 X86.46 Y145.202 E.03702
G1 X85.997 Y143.727 E.04556
G1 X85.709 Y141.908 E.05428
G1 X85.712 Y90.045 E1.52856
G1 X85.844 Y88.271 E.05243
G1 X86.091 Y87.044 E.03689
G1 X86.709 Y85.283 E.05501
G1 X87.209 Y84.289 E.03279
G1 X87.995 Y83.078 E.04255
G1 X88.59 Y82.341 E.02792
G1 X88.883 Y82.577 F6000
G1 F1200
G1 X88.909 Y82.545 E.00122
G1 X89.862 Y81.592 E.03972
G1 X90.69 Y80.919 E.03145
G1 X91.589 Y80.324 E.03177
G1 X93.19 Y79.534 E.05262
G1 X94.19 Y79.193 E.03114
G1 X95.71 Y78.862 E.04585
G1 X97.245 Y78.743 E.04538
G1 X133.445 Y78.743 E1.06692
G1 X135.519 Y78.918 E.06134
G1 X137.5 Y79.461 E.06054
G1 X139.261 Y80.301 E.0575
G1 X140.646 Y81.272 E.04985
G1 X142.057 Y82.639 E.0579
G1 X142.823 Y83.623 E.03675
G1 X143.317 Y84.413 E.02746
G1 X144.167 Y86.283 E.06054
G1 X144.669 Y88.297 E.06117
G1 X144.801 Y89.956 E.04905
G1 X144.951 Y103.988 E.41359
G1 X144.91 Y141.099 E1.09377
G1 X144.845 Y142.228 E.03333
G1 X144.568 Y143.746 E.04548
G1 X144.102 Y145.188 E.04466
G1 X143.452 Y146.548 E.04443
G1 X142.699 Y147.703 E.04064
G1 X141.913 Y148.645 E.03616
G1 X141.162 Y149.387 E.03112
G1 X139.658 Y150.52 E.0555
G1 X138.503 Y151.16 E.03892
G1 X137.109 Y151.712 E.04419
G1 X135.933 Y152.024 E.03586
G1 X134.883 Y152.189 E.03133
G1 X133.363 Y152.254 E.04484
G1 X97.014 Y152.254 E1.07132
G1 X95.164 Y152.051 E.05485
G1 X94.018 Y151.767 E.0348
G1 X93.051 Y151.421 E.03027
G1 X91.638 Y150.727 E.0464
G1 X90.733 Y150.141 E.03178
G1 X89.726 Y149.323 E.03824
G1 X88.617 Y148.157 E.04743
G1 X87.803 Y147.035 E.04085
G1 X87.309 Y146.174 E.02926
G1 X86.818 Y145.084 E.03523
G1 X86.366 Y143.652 E.04426
G1 X86.085 Y141.888 E.05265
G1 X86.089 Y90.055 E1.52768
G1 X86.219 Y88.316 E.0514
G1 X86.453 Y87.152 E.03499
G1 X87.06 Y85.421 E.05406
G1 X87.541 Y84.466 E.03152
G1 X88.306 Y83.292 E.0413
G1 X88.845 Y82.624 E.0253
G1 X89.138 Y82.861 F6000
G1 F1200
G1 X89.191 Y82.795 E.00249
G1 X90.114 Y81.872 E.03847
G1 X90.902 Y81.231 E.02994
G1 X91.782 Y80.648 E.03111
G1 X93.323 Y79.887 E.05065
G1 X94.286 Y79.558 E.02999
G1 X95.754 Y79.237 E.04429
G1 X97.245 Y79.12 E.04408
G1 X133.445 Y79.12 E1.06692
G1 X135.443 Y79.287 E.05909
G1 X137.381 Y79.819 E.05923
G1 X139.07 Y80.626 E.05517
G1 X140.399 Y81.557 E.04782
G1 X141.766 Y82.879 E.05605
G1 X142.519 Y83.846 E.03612
G1 X142.989 Y84.599 E.02616
G1 X143.807 Y86.396 E.05819
G1 X144.295 Y88.342 E.05913
G1 X144.423 Y89.96 E.04784
G1 X144.574 Y103.988 E.41347
G1 X144.535 Y140.991 E1.09059
G1 X144.471 Y142.174 E.03492
G1 X144.232 Y143.544 E.04099
G1 X143.749 Y145.054 E.04673
G1 X143.123 Y146.364 E.04279
G1 X142.389 Y147.487 E.03954
G1 X141.644 Y148.38 E.03428
G1 X140.921 Y149.097 E.03001
G1 X139.449 Y150.206 E.05432
G1 X138.352 Y150.814 E.03697
G1 X136.985 Y151.356 E.04334
G1 X135.944 Y151.639 E.03179
G1 X134.854 Y151.813 E.03253
G1 X133.363 Y151.877 E.04398
G1 X97.014 Y151.877 E1.07132
G1 X95.223 Y151.678 E.05311
G1 X94.124 Y151.405 E.03338
G1 X93.203 Y151.075 E.02883
G1 X91.828 Y150.401 E.04513
G1 X90.952 Y149.834 E.03075
G1 X89.989 Y149.053 E.03654
G1 X88.96 Y147.983 E.04375
G1 X88.115 Y146.824 E.04227
G1 X87.176 Y144.965 E.06138
G1 X86.764 Y143.701 E.03918
G1 X86.462 Y141.868 E.05475
G1 X86.466 Y90.066 E1.52676
G1 X86.593 Y88.36 E.05042
G1 X86.813 Y87.261 E.03303
G1 X87.411 Y85.559 E.05317
G1 X87.865 Y84.659 E.02971
G1 X88.615 Y83.508 E.04049
G1 X89.1 Y82.907 E.02276
; printing object Shape-Box id:0 copy 0
G1 E-1.12 F2400
;WIPE_START
G1 F4800
G1 X89.138 Y82.861 E-.02834
G1 X89.191 Y82.795 E-.04021
G1 X89.803 Y82.183 E-.41145
;WIPE_END
G1 X130.757 Y131.135 F6000
G1 E1.6 F2400
;TYPE:Perimeter
G1 F1200
G1 X130.688 Y131.112 E.00214
G1 X130.616 Y131.058 E.00265
G1 X130.489 Y130.883 E.00637
G1 X130.448 Y130.76 E.00382
G1 X130.423 Y130.597 E.00486
G1 X130.423 Y130.403 E.00572
G1 X130.447 Y130.241 E.00483
G1 X130.538 Y130.034 E.00666
G1 X130.667 Y129.917 E.00513
G1 X130.836 Y129.868 E.00519
G1 X131.049 Y129.887 E.0063
G1 X131.205 Y129.973 E.00525
G1 X131.328 Y130.13 E.00588
G1 X131.388 Y130.366 E.00718
G1 X131.388 Y130.54 E.00513
G1 X131.362 Y130.705 E.00492
G1 X131.316 Y130.835 E.00406
G1 X131.252 Y130.943 E.0037
G1 X131.166 Y131.039 E.0038
G1 X131.003 Y131.14 E.00565
G1 X130.83 Y131.159 E.00513
G1 X130.814 Y131.154 E.00049
G1 X130.636 Y131.503 F6000
;TYPE:External perimeter
G1 F1200
G1 X130.494 Y131.438 E.0046
G1 X130.36 Y131.337 E.00495
G1 X130.238 Y131.201 E.00538
G1 X130.144 Y131.04 E.00549
G1 X130.08 Y130.849 E.00594
G1 X130.046 Y130.625 E.00668
G1 X130.046 Y130.376 E.00734
G1 X130.079 Y130.153 E.00664
G1 X130.141 Y129.965 E.00583
G1 X130.232 Y129.809 E.00532
G1 X130.349 Y129.681 E.00511
G1 X130.482 Y129.586 E.00482
G1 X130.63 Y129.523 E.00474
G1 X130.8 Y129.491 E.0051
G1 X130.979 Y129.491 E.00528
G1 X131.158 Y129.524 E.00536
G1 X131.311 Y129.587 E.00488
G1 X131.451 Y129.684 E.00502
G1 X131.575 Y129.813 E.00527
G1 X131.669 Y129.964 E.00524
G1 X131.732 Y130.136 E.0054
G1 X131.765 Y130.335 E.00595
G1 X131.765 Y130.57 E.00693
G1 X131.729 Y130.797 E.00677
G1 X131.66 Y130.995 E.00618
G1 X131.557 Y131.168 E.00593
G1 X131.423 Y131.317 E.00591
G1 X131.277 Y131.428 E.00541
G1 X131.124 Y131.5 E.00498
G1 X130.961 Y131.536 E.00492
G1 X130.79 Y131.536 E.00504
G1 X130.694 Y131.515 E.0029
G1 X131.267 Y130.501 F6000
;TYPE:Solid infill
;WIDTH:0.495415
G1 F1200
G1 X130.934 Y130.168 E.01666
G1 X130.864 Y130.162 E.00248
G1 X130.779 Y130.208 E.00342
G1 X130.729 Y130.321 E.00437
G1 X130.716 Y130.59 E.00952
G1 X131.078 Y130.952 E.01811
G1 E-1.12 F2400
;WIPE_START
G1 F4800
G1 X130.716 Y130.59 E-.24317
G1 X130.729 Y130.321 E-.12792
G1 X130.779 Y130.208 E-.05869
G1 X130.864 Y130.162 E-.04591
G1 X130.873 Y130.163 E-.00431
;WIPE_END
G1 X135.74 Y138.043 F6000
G1 E1.6 F2400
;TYPE:Perimeter
;WIDTH:0.42
G1 F1200
G1 X135.613 Y138.204 E.00604
G1 X135.456 Y138.292 E.0053
G1 X135.254 Y138.31 E.00598
G1 X135.163 Y138.292 E.00273
G1 X135.021 Y138.211 E.00482
G1 X134.905 Y138.054 E.00575
G1 X134.843 Y137.782 E.00822
G1 X134.843 Y137.588 E.00572
G1 X134.868 Y137.418 E.00506
G1 X134.91 Y137.29 E.00397
G1 X135.036 Y137.112 E.00643
G1 X135.172 Y137.027 E.00473
G1 X135.351 Y137.015 E.00529
G1 X135.536 Y137.091 E.00589
G1 X135.681 Y137.252 E.00639
G1 X135.785 Y137.53 E.00875
G1 X135.8 Y137.81 E.00826
G1 X135.755 Y137.985 E.00533
G1 X136.08 Y138.211 F6000
;TYPE:External perimeter
G1 F1200
G1 X135.985 Y138.361 E.00523
G1 X135.859 Y138.492 E.00536
G1 X135.719 Y138.59 E.00504
G1 X135.567 Y138.654 E.00486
G1 X135.4 Y138.687 E.00502
G1 X135.218 Y138.687 E.00536
G1 X135.051 Y138.654 E.00502
G1 X134.903 Y138.591 E.00474
G1 X134.77 Y138.494 E.00485
G1 X134.651 Y138.365 E.00517
G1 X134.561 Y138.212 E.00523
G1 X134.498 Y138.028 E.00573
G1 X134.466 Y137.81 E.00649
G1 X134.466 Y137.561 E.00734
G1 X134.499 Y137.331 E.00685
G1 X134.563 Y137.137 E.00602
G1 X134.656 Y136.973 E.00556
G1 X134.777 Y136.835 E.00541
G1 X134.91 Y136.733 E.00494
G1 X135.05 Y136.668 E.00455
G1 X135.2 Y136.635 E.00453
G1 X135.393 Y136.639 E.00569
G1 X135.5 Y136.661 E.00322
G1 X135.729 Y136.765 E.00741
G1 X135.816 Y136.83 E.0032
G1 X135.993 Y137.037 E.00803
G1 X136.055 Y137.15 E.0038
G1 X136.152 Y137.439 E.00898
G1 X136.174 Y137.573 E.004
G1 X136.177 Y137.838 E.00781
G1 X136.144 Y138.038 E.00597
G1 X136.101 Y138.155 E.00367
G1 X135.673 Y137.694 F6000
;TYPE:Solid infill
;WIDTH:0.495415
G1 F1200
G1 X135.289 Y137.31 E.01921
G1 X135.239 Y137.327 E.00187
G1 X135.172 Y137.422 E.00411
G1 X135.133 Y137.609 E.00676
G1 X135.147 Y137.808 E.00706
G1 X135.479 Y138.14 E.01661
G1 E-1.12 F2400
;WIPE_START
G1 F4800
G1 X135.147 Y137.808 E-.22302
G1 X135.133 Y137.609 E-.09476
G1 X135.172 Y137.422 E-.09074
G1 X135.239 Y137.327 E-.05522
G1 X135.272 Y137.316 E-.01626
;WIPE_END
G1 X131.328 Y138.043 F6000
G1 E1.6 F2400
;TYPE:Perimeter
;WIDTH:0.42
G1 F1200
G1 X131.201 Y138.204 E.00604
G1 X131.044 Y138.292 E.0053
G1 X130.842 Y138.31 E.00598
G1 X130.751 Y138.292 E.00273
G1 X130.609 Y138.211 E.00482
G1 X130.493 Y138.054 E.00575
G1 X130.431 Y137.782 E.00822
G1 X130.431 Y137.588 E.00572
G1 X130.455 Y137.418 E.00506
G1 X130.497 Y137.29 E.00397
G1 X130.624 Y137.112 E.00644
G1 X130.759 Y137.027 E.0047
G1 X130.938 Y137.015 E.00529
G1 X131.104 Y137.082 E.00528
G1 X131.259 Y137.236 E.00644
G1 X131.372 Y137.53 E.00928
G1 X131.388 Y137.81 E.00827
G1 X131.343 Y137.985 E.00533
G1 X130.498 Y136.733 F6000
;TYPE:External perimeter
G1 F1200
G1 X130.638 Y136.668 E.00455
G1 X130.787 Y136.635 E.0045
G1 X130.981 Y136.639 E.00572
G1 X131.088 Y136.661 E.00322
G1 X131.309 Y136.761 E.00715
G1 X131.497 Y136.924 E.00733
G1 X131.577 Y137.031 E.00394
G1 X131.642 Y137.15 E.004
G1 X131.739 Y137.439 E.00898
G1 X131.761 Y137.573 E.004
G1 X131.765 Y137.838 E.00781
G1 X131.732 Y138.038 E.00597
G1 X131.668 Y138.211 E.00544
G1 X131.573 Y138.361 E.00523
G1 X131.447 Y138.492 E.00536
G1 X131.306 Y138.59 E.00506
G1 X131.155 Y138.654 E.00483
G1 X130.987 Y138.687 E.00505
G1 X130.805 Y138.687 E.00536
G1 X130.639 Y138.654 E.00499
G1 X130.491 Y138.591 E.00474
G1 X130.357 Y138.494 E.00488
G1 X130.239 Y138.365 E.00515
G1 X130.148 Y138.212 E.00525
G1 X130.086 Y138.028 E.00572
G1 X130.054 Y137.81 E.00649
G1 X130.054 Y137.561 E.00734
G1 X130.087 Y137.331 E.00685
G1 X130.151 Y137.137 E.00602
G1 X130.244 Y136.973 E.00556
G1 X130.365 Y136.835 E.00541
G1 X130.45 Y136.77 E.00315
G1 X131.261 Y137.701 F6000
;TYPE:Solid infill
;WIDTH:0.495415
G1 F1200
G1 X130.87 Y137.311 E.01953
G1 X130.827 Y137.327 E.00162
G1 X130.76 Y137.422 E.00411
G1 X130.721 Y137.609 E.00676
G1 X130.737 Y137.817 E.00738
G1 X131.062 Y138.143 E.01628
G1 E-1.12 F2400
;WIPE_START
G1 F4800
G1 X130.737 Y137.817 E-.21866
G1 X130.721 Y137.609 E-.09909
G1 X130.76 Y137.422 E-.09074
G1 X130.827 Y137.327 E-.05522
G1 X130.859 Y137.315 E-.01629
;WIPE_END
G1 X126.177 Y139.155 F6000
G1 E1.6 F2400
;TYPE:Perimeter
;WIDTH:0.42
G1 F1200
G1 X126.307 Y139.039 E.00514
G1 X126.475 Y138.989 E.00517
G1 X126.689 Y139.009 E.00633
G1 X126.845 Y139.094 E.00524
G1 X126.968 Y139.252 E.0059
G1 X127.028 Y139.487 E.00715
G1 X127.028 Y139.662 E.00516
G1 X127.002 Y139.826 E.00489
G1 X126.956 Y139.957 E.00409
G1 X126.892 Y140.065 E.0037
G1 X126.806 Y140.16 E.00378
G1 X126.642 Y140.262 E.00569
G1 X126.469 Y140.28 E.00513
G1 X126.328 Y140.234 E.00437
G1 X126.256 Y140.18 E.00265
G1 X126.129 Y140.004 E.0064
G1 X126.087 Y139.882 E.0038
G1 X126.063 Y139.718 E.00489
G1 X126.063 Y139.525 E.00569
G1 X126.087 Y139.362 E.00486
G1 X126.153 Y139.21 E.00488
G1 X125.872 Y138.931 F6000
;TYPE:External perimeter
G1 F1200
G1 X125.989 Y138.803 E.00511
G1 X126.121 Y138.708 E.00479
G1 X126.27 Y138.645 E.00477
G1 X126.439 Y138.612 E.00508
G1 X126.619 Y138.612 E.00531
G1 X126.797 Y138.645 E.00534
G1 X126.95 Y138.709 E.00489
G1 X127.09 Y138.806 E.00502
G1 X127.215 Y138.935 E.00529
G1 X127.308 Y139.085 E.0052
G1 X127.372 Y139.258 E.00544
G1 X127.405 Y139.457 E.00595
G1 X127.405 Y139.691 E.0069
G1 X127.369 Y139.919 E.0068
G1 X127.3 Y140.117 E.00618
G1 X127.197 Y140.29 E.00593
G1 X127.062 Y140.439 E.00593
G1 X126.916 Y140.55 E.00541
G1 X126.764 Y140.621 E.00494
G1 X126.601 Y140.657 E.00492
G1 X126.43 Y140.657 E.00504
G1 X126.275 Y140.625 E.00466
G1 X126.133 Y140.559 E.00462
G1 X126 Y140.459 E.0049
G1 X125.878 Y140.323 E.00538
G1 X125.784 Y140.161 E.00552
G1 X125.719 Y139.971 E.00592
G1 X125.686 Y139.747 E.00667
G1 X125.686 Y139.497 E.00737
G1 X125.719 Y139.274 E.00664
G1 X125.781 Y139.087 E.00581
G1 X125.842 Y138.983 E.00355
G1 X126.907 Y139.623 F6000
;TYPE:Solid infill
;WIDTH:0.495415
G1 F1200
G1 X126.574 Y139.29 E.01666
G1 X126.504 Y139.284 E.00248
G1 X126.418 Y139.329 E.00343
G1 X126.368 Y139.443 E.0044
G1 X126.356 Y139.711 E.00949
G1 X126.717 Y140.073 E.01808
G1 E-1.12 F2400
;WIPE_START
G1 F4800
G1 X126.356 Y139.711 E-.24284
G1 X126.368 Y139.443 E-.12743
G1 X126.418 Y139.329 E-.05913
G1 X126.504 Y139.284 E-.0461
G1 X126.513 Y139.285 E-.0045
;WIPE_END
G1 X105.224 Y138.088 F6000
G1 E1.6 F2400
;TYPE:External perimeter
;WIDTH:0.42
G1 F1200
G1 X105.179 Y138.152 E.00231
G1 X104.132 Y139.66 E.05411
G1 X104.132 Y138.088 E.04633
G1 X105.164 Y138.088 E.03042
G1 E-1.12 F2400
;WIPE_START
G1 F4800
G1 X105.224 Y138.088 E-.0285
G1 X105.179 Y138.152 E-.03716
G1 X104.681 Y138.869 E-.41434
;WIPE_END
G1 X105.172 Y128.966 F6000
G1 E1.6 F2400
G1 F1200
G1 X104.08 Y130.539 E.05644
G1 X104.08 Y128.966 E.04636
G1 X105.112 Y128.966 E.03042
G1 E-1.12 F2400
;WIPE_START
G1 F4800
G1 X105.172 Y128.966 E-.0285
G1 X104.63 Y129.747 E-.4515
;WIPE_END
G1 X99.836 Y131.06 F6000
G1 E1.6 F2400
;TYPE:Perimeter
G1 F1200
G1 X99.739 Y131.036 E.00295
G1 X99.622 Y130.913 E.005
G1 X99.563 Y130.794 E.00391
G1 X99.492 Y130.511 E.0086
G1 X99.43 Y129.822 E.02039
G1 X99.43 Y129.235 E.0173
G1 X99.495 Y128.529 E.0209
G1 X99.563 Y128.26 E.00818
G1 X99.63 Y128.124 E.00447
G1 X99.746 Y128.01 E.00479
G1 X99.871 Y127.996 E.00371
G1 X99.908 Y128.011 E.00118
G1 X100.023 Y128.122 E.00471
G1 X100.088 Y128.254 E.00434
G1 X100.157 Y128.531 E.00841
G1 X100.206 Y128.956 E.01261
G1 X100.22 Y129.831 E.02579
G1 X100.206 Y130.081 E.00738
G1 X100.116 Y130.679 E.01782
