; generated by PrusaSlicer 2.7.2+win64 on 2024-03-08 at 22:32:36 UTC

; 

; external perimeters extrusion width = 0.42mm
; perimeters extrusion width = 0.44mm
; infill extrusion width = 0.44mm
; solid infill extrusion width = 0.44mm
; top infill extrusion width = 0.40mm
; first layer extrusion width = 0.42mm


; printing object Shape-Box id:0 copy 0
; stop printing object Shape-Box id:0 copy 0

;TYPE:Custom
; Ender 3 Custom Start G-code
G92 E0 ; Reset Extruder

M140 S55 ; set bed temp
M104 S160 ; set extruder temp
M109 S160 ; wait for extruder temp
M190 S55 ; wait for bed temp

G28 ; Home all axes
M104 S210 ; set extruder temp 
BED_MESH_CALIBRATE AREA_START=91.8167,94.3025 AREA_END=135.805,122.642

G1 Z2.0 F3000 ; Move Z Axis up little to prevent scratching of Heat Bed
M109 S210 ; wait for extruder temp
G1 X0.1 Y20 Z0.3 F5000.0 ; Move to start position

G1 X0.1 Y200.0 Z0.3 F1500.0 E15 ; Draw the first line
G1 X0.4 Y200.0 Z0.3 F5000.0 ; Move to side a little
G1 X0.4 Y20 Z0.3 F1500.0 E30 ; Draw the second line
G92 E0 ; Reset Extruder
G1 Z2.0 F3000 ; Move Z Axis up little to prevent scratching of Heat Bed
G1 X5 Y20 Z0.3 F5000.0 ; Move over to prevent blob squish
G21 ; set units to millimeters
G90 ; use absolute coordinates
M83 ; use relative distances for extrusion
; Filament gcode
M107
;LAYER_CHANGE
;Z:0.2
;HEIGHT:0.2
G1 E-1.6 F2400
G1 Z.2 F6000
G1 X95.044 Y96.796
G1 Z.2
G1 E1.6 F2400
M204 S500
;TYPE:Skirt/Brim
;WIDTH:0.42
G1 F1200
G1 X95.752 Y96.224 E.02683
G1 X96.483 Y95.745 E.02576
G1 X97.772 Y95.116 E.04227
G1 X99.164 Y94.698 E.04284
G1 X100.436 Y94.516 E.03787
G1 X126.358 Y94.491 E.764
G1 X127.821 Y94.599 E.04324
G1 X129.198 Y94.925 E.04171
G1 X130.468 Y95.44 E.04039
G1 X132.014 Y96.415 E.05387
G1 X133.158 Y97.478 E.04603
G1 X134.037 Y98.611 E.04226
G1 X134.714 Y99.856 E.04177
G1 X135.243 Y101.392 E.04788
G1 X135.407 Y102.219 E.02485
G1 X135.511 Y103.53 E.03876
G1 X135.616 Y113.33 E.28885
G1 X135.541 Y114.503 E.03464
G1 X135.18 Y116.145 E.04955
G1 X134.44 Y117.846 E.05467
G1 X133.846 Y118.758 E.03208
G1 X133.297 Y119.432 E.02562
G1 X132.072 Y120.571 E.0493
G1 X130.699 Y121.442 E.04792
G1 X129.749 Y121.865 E.03065
G1 X128.329 Y122.275 E.04356
G1 X127.015 Y122.44 E.03903
G1 X100.663 Y122.445 E.77667
G1 X99.403 Y122.296 E.03739
G1 X98.552 Y122.092 E.02579
G1 X97.626 Y121.768 E.02891
G1 X96.636 Y121.288 E.03243
G1 X95.801 Y120.759 E.02913
G1 X95.063 Y120.171 E.02781
G1 X93.803 Y118.795 E.05499
G1 X93.089 Y117.672 E.03922
G1 X92.63 Y116.68 E.03222
G1 X92.288 Y115.627 E.03263
G1 X92.051 Y114.269 E.04063
G1 X92.028 Y102.939 E.33393
G1 X92.146 Y102.002 E.02783
G1 X92.45 Y100.773 E.03731
G1 X93.184 Y99.1 E.05385
G1 X94.297 Y97.542 E.05643
G1 X95.001 Y96.839 E.02932
G1 X95.001 Y96.839 F6000
G1 X95.286 Y97.152
G1 F1200
G1 X95.964 Y96.536 E.027
G1 X96.664 Y96.076 E.02469
G1 X97.905 Y95.469 E.04072
G1 X99.236 Y95.068 E.04097
G1 X100.455 Y94.893 E.0363
G1 X126.358 Y94.868 E.76344
G1 X127.979 Y95.008 E.04795
G1 X129.467 Y95.416 E.04547
G1 X130.847 Y96.071 E.04502
G1 X131.94 Y96.839 E.03937
G1 X133.026 Y97.897 E.04469
G1 X133.987 Y99.253 E.04898
G1 X134.571 Y100.499 E.04056
G1 X134.992 Y102.018 E.04646
G1 X135.134 Y103.534 E.04488
G1 X135.239 Y113.334 E.28885
G1 X135.184 Y114.349 E.02996
G1 X135.037 Y115.215 E.02589
G1 X134.562 Y116.733 E.04688
G1 X133.837 Y118.109 E.04584
G1 X132.901 Y119.304 E.04474
G1 X131.661 Y120.407 E.04891
G1 X130.464 Y121.141 E.04138
G1 X129.604 Y121.517 E.02766
G1 X128.266 Y121.904 E.04105
G1 X126.986 Y122.064 E.03802
G1 X100.69 Y122.069 E.77502
G1 X99.462 Y121.924 E.03644
G1 X98.559 Y121.703 E.0274
G1 X97.777 Y121.423 E.02448
G1 X96.812 Y120.954 E.03162
G1 X96.02 Y120.452 E.02764
G1 X95.294 Y119.872 E.02739
G1 X94.024 Y118.46 E.05597
G1 X93.418 Y117.486 E.03381
G1 X92.985 Y116.554 E.03029
G1 X92.653 Y115.533 E.03164
G1 X92.425 Y114.224 E.03916
G1 X92.405 Y102.965 E.33184
G1 X92.673 Y101.343 E.04845
G1 X93.12 Y100.069 E.03979
G1 X93.435 Y99.424 E.02116
G1 X93.827 Y98.773 E.0224
G1 X94.565 Y97.808 E.03581
G1 X95.242 Y97.193 E.02696
G1 X95.242 Y97.193 F6000
G1 X95.494 Y97.469
G1 F1200
G1 X96.175 Y96.848 E.02716
G1 X96.857 Y96.4 E.02405
G1 X98.038 Y95.822 E.03875
G1 X99.274 Y95.445 E.03809
G1 X100.474 Y95.269 E.03575
G1 X126.358 Y95.245 E.76288
G1 X127.902 Y95.377 E.04567
G1 X129.344 Y95.772 E.04407
G1 X130.656 Y96.396 E.04282
G1 X131.693 Y97.124 E.03734
G1 X132.735 Y98.137 E.04283
G1 X133.659 Y99.439 E.04706
G1 X134.223 Y100.643 E.03919
G1 X134.623 Y102.097 E.04445
G1 X134.757 Y103.538 E.04265
G1 X134.862 Y113.338 E.28885
G1 X134.81 Y114.295 E.02825
G1 X134.665 Y115.152 E.02562
G1 X134.217 Y116.581 E.04414
G1 X133.486 Y117.958 E.04595
G1 X132.632 Y119.04 E.04063
G1 X131.449 Y120.095 E.04672
G1 X130.287 Y120.808 E.04018
G1 X129.48 Y121.161 E.02596
G1 X128.277 Y121.518 E.03698
G1 X126.957 Y121.688 E.03923
G1 X100.717 Y121.693 E.77337
G1 X99.521 Y121.552 E.03549
G1 X98.665 Y121.341 E.02598
G1 X96.988 Y120.621 E.05379
G1 X96.225 Y120.136 E.02665
G1 X95.499 Y119.548 E.02754
G1 X94.332 Y118.242 E.05162
G1 X93.746 Y117.3 E.0327
G1 X93.341 Y116.429 E.02831
G1 X93.018 Y115.438 E.03072
G1 X92.8 Y114.178 E.03769
G1 X92.781 Y102.99 E.32974
G1 X93.034 Y101.453 E.04591
G1 X93.471 Y100.207 E.03892
G1 X93.77 Y99.598 E.02
G1 X94.847 Y98.059 E.05536
G1 X95.45 Y97.51 E.02403
; printing object Shape-Box id:0 copy 0
G1 E-1.12 F2400
;WIPE_START
G1 F4800
G1 X95.494 Y97.469 E-.02857
G1 X96.175 Y96.848 E-.43777
G1 X96.199 Y96.832 E-.01366
;WIPE_END
G1 X114.25 Y109.132 F6000
G1 E1.6 F2400
;TYPE:External perimeter
G1 F1200
G1 X114.192 Y109.353 E.00673
G1 X114.145 Y109.453 E.00326
G1 X114.02 Y109.622 E.0062
G1 X113.888 Y109.699 E.0045
G1 X113.709 Y109.743 E.00543
G1 X113.532 Y109.71 E.00531
G1 X113.427 Y109.661 E.00342
G1 X113.36 Y109.554 E.00372
G1 X113.255 Y109.222 E.01026
G1 X113.648 Y109.288 E.01175
G1 X113.945 Y109.253 E.00881
G1 X114.194 Y109.154 E.0079
G1 E-1.12 F2400
;WIPE_START
G1 F4800
G1 X114.25 Y109.132 E-.02858
G1 X114.192 Y109.353 E-.10853
G1 X114.145 Y109.453 E-.05248
G1 X114.02 Y109.622 E-.09985
G1 X113.888 Y109.699 E-.07259
G1 X113.709 Y109.743 E-.08756
G1 X113.646 Y109.731 E-.03041
;WIPE_END
G1 X123.896 Y109.214 F6000
G1 E1.6 F2400
G1 F1200
G1 X124.162 Y109.281 E.00808
G1 X124.438 Y109.279 E.00813
G1 X124.595 Y109.25 E.00471
G1 X124.893 Y109.132 E.00945
G1 X124.836 Y109.353 E.00673
G1 X124.789 Y109.453 E.00326
G1 X124.664 Y109.622 E.0062
G1 X124.532 Y109.699 E.0045
G1 X124.353 Y109.743 E.00543
G1 X124.176 Y109.71 E.00531
G1 X124.07 Y109.661 E.00344
G1 X124.003 Y109.554 E.00372
G1 X123.914 Y109.271 E.00874
G1 E-1.12 F2400
;WIPE_START
G1 F4800
G1 X123.896 Y109.214 E-.02839
G1 X124.162 Y109.281 E-.1303
G1 X124.438 Y109.279 E-.1311
G1 X124.595 Y109.25 E-.07584
G1 X124.819 Y109.161 E-.11437
;WIPE_END
G1 X127.868 Y109.286 F6000
G1 E1.6 F2400
G1 F1200
G1 X127.793 Y109.455 E.00545
G1 X127.67 Y109.622 E.00611
G1 X127.539 Y109.699 E.00448
G1 X127.417 Y109.736 E.00376
G1 X127.271 Y109.733 E.0043
G1 X127.083 Y109.661 E.00593
G1 X127.037 Y109.608 E.00207
G1 X126.901 Y109.209 E.01242
G1 X127.049 Y109.265 E.00466
G1 X127.446 Y109.28 E.01171
G1 X127.738 Y109.209 E.00886
G1 X127.9 Y109.125 E.00538
G1 X127.879 Y109.227 E.00307
G1 E-1.12 F2400
;WIPE_START
G1 F4800
G1 X127.868 Y109.286 E-.02851
G1 X127.793 Y109.455 E-.08782
G1 X127.67 Y109.622 E-.09852
G1 X127.539 Y109.699 E-.07218
G1 X127.417 Y109.736 E-.06056
G1 X127.271 Y109.733 E-.06936
G1 X127.147 Y109.686 E-.06305
;WIPE_END
G1 X112.104 Y108.91 F6000
G1 E1.6 F2400
;TYPE:Perimeter
G1 F1200
G1 X112.085 Y109.261 E.01036
G1 X111.354 Y109.239 E.02155
G1 X111.517 Y108.959 E.00955
G1 X111.672 Y108.629 E.01075
G1 X111.799 Y108.284 E.01084
G1 X111.925 Y107.798 E.0148
G1 X111.925 Y108.13 E.00979
G1 X112.017 Y108.487 E.01087
G1 X112.175 Y108.855 E.0118
G1 X112.222 Y108.9 E.00192
G1 X112.164 Y108.905 E.00172
G1 E-1.12 F2400
;WIPE_START
G1 F4800
G1 X112.104 Y108.91 E-.0286
G1 X112.085 Y109.261 E-.16697
G1 X111.486 Y109.243 E-.28443
;WIPE_END
G1 X107.059 Y108.723 F6000
G1 E1.6 F2400
;TYPE:External perimeter
G1 F1200
G1 X107.151 Y108.813 E.00379
G1 X107.308 Y108.905 E.00536
G1 X107.389 Y109.109 E.00647
G1 X107.458 Y109.536 E.01275
G1 X107.37 Y109.901 E.01107
G1 X107.177 Y110.212 E.01079
G1 X106.891 Y110.455 E.01106
G1 X106.65 Y110.569 E.00786
G1 X106.27 Y110.647 E.01143
G1 X105.858 Y110.631 E.01215
G1 X105.489 Y110.514 E.01141
G1 X105.268 Y110.374 E.00771
G1 X105.161 Y110.272 E.00436
G1 X104.956 Y109.981 E.01049
G1 X104.878 Y109.742 E.00741
G1 X104.868 Y109.605 E.00405
G1 X104.905 Y109.126 E.01416
G1 X105.025 Y108.821 E.00966
G1 X105.193 Y108.702 E.00607
G1 X105.132 Y108.659 E.0022
G1 X104.988 Y108.626 E.00435
G1 X104.756 Y108.159 E.01537
G1 X104.74 Y107.952 E.00612
G1 X104.749 Y107.651 E.00888
G1 X104.837 Y107.175 E.01427
G1 X104.977 Y106.93 E.00832
G1 X105.167 Y106.718 E.00839
G1 X105.407 Y106.556 E.00853
G1 X105.68 Y106.452 E.00861
G1 X105.99 Y106.402 E.00925
G1 X106.279 Y106.403 E.00852
G1 X106.57 Y106.45 E.00869
G1 X106.84 Y106.549 E.00848
G1 X107.082 Y106.7 E.00841
G1 X107.287 Y106.898 E.0084
G1 X107.445 Y107.126 E.00818
G1 X107.55 Y107.382 E.00816
G1 X107.598 Y107.659 E.00829
G1 X107.589 Y108.022 E.0107
G1 X107.405 Y108.455 E.01387
G1 X107.296 Y108.609 E.00556
G1 X107.168 Y108.631 E.00383
G1 X107.105 Y108.684 E.00243
G1 E-1.12 F2400
;WIPE_START
G1 F4800
G1 X107.059 Y108.723 E-.02865
G1 X107.151 Y108.813 E-.06113
G1 X107.308 Y108.905 E-.08644
G1 X107.389 Y109.109 E-.10426
G1 X107.456 Y109.523 E-.19952
;WIPE_END
G1 X104.457 Y107.78 F6000
G1 E1.6 F2400
G1 F1200
G1 X103.679 Y107.852 E.02303
G1 X103.939 Y107.98 E.00854
G1 X104.3 Y108.315 E.01452
G1 X104.39 Y108.451 E.00481
G1 X104.487 Y108.714 E.00826
G1 X104.526 Y109.004 E.00862
G1 X104.463 Y109.694 E.02042
G1 X104.358 Y109.971 E.00873
G1 X104.19 Y110.211 E.00863
G1 X103.975 Y110.406 E.00855
G1 X103.727 Y110.544 E.00836
G1 X103.456 Y110.625 E.00834
G1 X103.168 Y110.651 E.00852
G1 X102.953 Y110.636 E.00635
G1 X102.747 Y110.592 E.00621
G1 X102.545 Y110.515 E.00637
G1 X102.272 Y110.345 E.00948
G1 X102.044 Y110.107 E.00971
G1 X101.881 Y109.816 E.00983
G1 X101.814 Y109.583 E.00715
G1 X101.746 Y108.942 E.019
G1 X101.736 Y108.619 E.00952
G1 X101.758 Y108.129 E.01446
G1 X101.848 Y107.472 E.01954
G1 X101.922 Y107.231 E.00743
G1 X102.037 Y107.013 E.00726
G1 X102.26 Y106.745 E.01028
G1 X102.548 Y106.549 E.01027
G1 X102.868 Y106.435 E.01001
G1 X103.117 Y106.401 E.00741
G1 X103.347 Y106.402 E.00678
G1 X103.587 Y106.441 E.00717
G1 X103.812 Y106.52 E.00703
G1 X104.017 Y106.646 E.00709
G1 X104.183 Y106.816 E.007
G1 X104.317 Y107.015 E.00707
G1 X104.387 Y107.247 E.00714
G1 X104.449 Y107.721 E.01409
G1 E-1.12 F2400
;WIPE_START
G1 F4800
G1 X104.457 Y107.78 E-.02828
G1 X103.679 Y107.852 E-.37113
G1 X103.831 Y107.927 E-.08059
;WIPE_END
G1 X98.744 Y109.551 F6000
G1 E1.6 F2400
G1 F1200
G1 X98.868 Y109.255 E.00946
G1 X99.555 Y109.202 E.02031
G1 X99.511 Y109.191 E.00134
G1 X99.204 Y108.994 E.01075
G1 X98.837 Y108.631 E.01521
G1 X98.681 Y108.232 E.01263
G1 X98.643 Y107.925 E.00912
G1 X98.682 Y107.537 E.01149
G1 X98.741 Y107.335 E.0062
G1 X98.912 Y106.996 E.01119
G1 X99.034 Y106.839 E.00586
G1 X99.178 Y106.701 E.00588
G1 X99.492 Y106.51 E.01083
G1 X99.681 Y106.445 E.00589
G1 X99.899 Y106.407 E.00652
G1 X100.226 Y106.404 E.00964
G1 X100.54 Y106.468 E.00944
G1 X100.827 Y106.599 E.0093
G1 X101.076 Y106.793 E.0093
G1 X101.193 Y106.932 E.00535
G1 X101.362 Y107.231 E.01012
G1 X101.421 Y107.448 E.00663
G1 X101.503 Y108.202 E.02235
G1 X101.484 Y108.932 E.02152
G1 X101.392 Y109.557 E.01862
G1 X101.339 Y109.76 E.00618
G1 X101.254 Y109.951 E.00616
G1 X101.051 Y110.24 E.01041
G1 X100.798 Y110.444 E.00958
G1 X100.513 Y110.577 E.00927
G1 X100.346 Y110.62 E.00508
G1 X100.02 Y110.652 E.00965
G1 X99.658 Y110.61 E.01074
G1 X99.426 Y110.531 E.00722
G1 X99.223 Y110.408 E.007
G1 X99.045 Y110.249 E.00703
G1 X98.901 Y110.048 E.00729
G1 X98.787 Y109.73 E.00996
G1 X98.758 Y109.609 E.00367
G1 E-1.12 F2400
;WIPE_START
G1 F4800
G1 X98.744 Y109.551 E-.02834
G1 X98.868 Y109.255 E-.15244
G1 X99.496 Y109.206 E-.29922
;WIPE_END
G1 X120.611 Y110.651 F6000
G1 E1.6 F2400
G1 F1200
G1 X120.611 Y106.458 E.12358
G1 X121.669 Y106.458 E.03118
G1 X121.662 Y107.703 E.03669
G1 X121.634 Y108.181 E.01411
G1 X121.568 Y108.639 E.01364
G1 X121.572 Y109.137 E.01468
G1 X121.753 Y109.023 E.0063
G1 X121.853 Y108.891 E.00488
G1 X122.493 Y108.612 E.02058
G1 X122.542 Y109.625 E.02989
G1 X122.059 Y109.897 E.01634
G1 X121.797 Y110.097 E.00971
G1 X121.6 Y110.301 E.00836
G1 X121.375 Y110.651 E.01226
G1 X120.671 Y110.651 E.02075
G1 E-1.12 F2400
;WIPE_START
G1 F4800
G1 X120.611 Y110.651 E-.0285
G1 X120.611 Y109.701 E-.4515
;WIPE_END
G1 X123.039 Y109.551 F6000
G1 E1.6 F2400
G1 F1200
G1 X123.162 Y109.255 E.00945
G1 X123.849 Y109.202 E.02031
G1 X123.805 Y109.191 E.00134
G1 X123.498 Y108.994 E.01075
G1 X123.131 Y108.631 E.01521
G1 X122.976 Y108.232 E.01262
G1 X122.937 Y107.925 E.00912
G1 X122.976 Y107.537 E.01149
G1 X123.035 Y107.335 E.0062
G1 X123.206 Y106.996 E.01119
G1 X123.329 Y106.839 E.00588
G1 X123.473 Y106.701 E.00588
G1 X123.786 Y106.51 E.01081
G1 X123.975 Y106.445 E.00589
G1 X124.193 Y106.407 E.00652
G1 X124.521 Y106.404 E.00967
G1 X124.835 Y106.469 E.00945
G1 X125.123 Y106.602 E.00935
G1 X125.372 Y106.805 E.00947
G1 X125.57 Y107.075 E.00987
G1 X125.648 Y107.256 E.00581
G1 X125.752 Y107.783 E.01583
G1 X125.797 Y108.198 E.0123
G1 X125.803 Y108.936 E.02175
G1 X125.637 Y109.755 E.02463
G1 X125.549 Y109.952 E.00636
G1 X125.344 Y110.239 E.0104
G1 X125.093 Y110.444 E.00955
G1 X124.808 Y110.577 E.00927
G1 X124.64 Y110.62 E.00511
G1 X124.315 Y110.652 E.00963
G1 X123.952 Y110.61 E.01077
G1 X123.721 Y110.531 E.0072
G1 X123.517 Y110.408 E.00702
G1 X123.339 Y110.249 E.00703
G1 X123.195 Y110.048 E.00729
G1 X123.081 Y109.73 E.00996
G1 X123.052 Y109.609 E.00367
G1 E-1.12 F2400
;WIPE_START
G1 F4800
G1 X123.039 Y109.551 E-.02823
G1 X123.162 Y109.255 E-.15226
G1 X123.791 Y109.206 E-.29951
;WIPE_END
G1 X126.131 Y109.258 F6000
G1 E1.6 F2400
G1 F1200
G1 X126.876 Y109.2 E.02202
G1 X126.702 Y109.135 E.00547
G1 X126.411 Y108.904 E.01095
G1 X126.236 Y108.694 E.00806
G1 X126.09 Y108.337 E.01137
G1 X126.045 Y108.064 E.00815
G1 X126.05 Y107.739 E.00958
G1 X126.143 Y107.209 E.01586
G1 X126.236 Y107.013 E.00639
G1 X126.466 Y106.723 E.01091
G1 X126.635 Y106.596 E.00623
G1 X126.973 Y106.448 E.01088
G1 X127.199 Y106.407 E.00677
G1 X127.527 Y106.404 E.00967
G1 X127.834 Y106.466 E.00923
G1 X127.993 Y106.527 E.00502
G1 X128.258 Y106.685 E.00909
G1 X128.489 Y106.904 E.00938
G1 X128.6 Y107.053 E.00548
G1 X128.757 Y107.376 E.01058
G1 X128.856 Y107.759 E.01166
G1 X128.904 Y108.194 E.0129
G1 X128.903 Y108.699 E.01488
G1 X128.851 Y109.182 E.01432
G1 X128.743 Y109.607 E.01292
G1 X128.572 Y109.971 E.01185
G1 X128.351 Y110.25 E.01049
G1 X128.098 Y110.448 E.00947
G1 X127.808 Y110.58 E.00939
G1 X127.492 Y110.644 E.0095
G1 X127.198 Y110.647 E.00867
G1 X126.954 Y110.609 E.00728
G1 X126.728 Y110.529 E.00707
G1 X126.522 Y110.406 E.00707
G1 X126.346 Y110.241 E.00711
G1 X126.214 Y110.042 E.00704
G1 X126.123 Y109.819 E.0071
G1 X126.085 Y109.562 E.00766
G1 X126.122 Y109.318 E.00727
G1 E-1.12 F2400
;WIPE_START
G1 F4800
G1 X126.131 Y109.258 E-.02882
G1 X126.876 Y109.2 E-.35495
G1 X126.702 Y109.135 E-.08823
G1 X126.689 Y109.125 E-.008
;WIPE_END
G1 X117.488 Y106.16 F6000
G1 E1.6 F2400
;TYPE:Perimeter
G1 F1200
G1 X117.523 Y106.171 E.00108
G1 X117.852 Y106.373 E.01138
G1 X118.117 Y106.638 E.01105
G1 X118.266 Y106.855 E.00776
G1 X118.451 Y107.264 E.01323
G1 X118.565 Y107.733 E.01423
G1 X118.618 Y108.248 E.01526
G1 X118.615 Y108.861 E.01807
G1 X118.564 Y109.333 E.01399
G1 X118.461 Y109.758 E.01289
G1 X118.294 Y110.139 E.01226
G1 X118.057 Y110.477 E.01217
G1 X117.738 Y110.758 E.01253
G1 X117.347 Y110.946 E.01279
G1 X116.928 Y111.025 E.01257
G1 X116.554 Y111.019 E.01102
G1 X116.141 Y110.922 E.0125
G1 X115.765 Y110.719 E.01259
G1 X115.451 Y110.419 E.0128
G1 X115.262 Y110.085 E.01131
G1 X114.979 Y110.504 E.0149
G1 X114.648 Y110.768 E.01248
G1 X114.276 Y110.94 E.01208
G1 X113.88 Y111.02 E.01191
G1 X113.517 Y111.023 E.0107
G1 X113.208 Y110.972 E.00923
