; generated by PrusaSlicer 2.7.1+win64 on 2024-01-14 at 19:10:24 UTC


;
;

;
;
; 

; external perimeters extrusion width = 0.42mm
; perimeters extrusion width = 0.44mm
; infill extrusion width = 0.44mm
; solid infill extrusion width = 0.44mm
; top infill extrusion width = 0.40mm
; first layer extrusion width = 0.42mm


; printing object Shape-Box id:0 copy 0
; stop printing object Shape-Box id:0 copy 0

;TYPE:Custom
; Ender 3 Custom Start G-code
G92 E0 ; Reset Extruder

M140 S55 ; set bed temp
M104 S160 ; set extruder temp
M109 S160 ; wait for extruder temp
M190 S55 ; wait for bed temp

G28 ; Home all axes
M104 S210 ; set extruder temp 
BED_MESH_CALIBRATE AREA_START=83.7684,88.5669 AREA_END=143.763,126.207

G1 Z2.0 F3000 ; Move Z Axis up little to prevent scratching of Heat Bed
M109 S210 ; wait for extruder temp
G1 X0.1 Y20 Z0.3 F5000.0 ; Move to start position

G1 X0.1 Y200.0 Z0.3 F1500.0 E15 ; Draw the first line
G1 X0.4 Y200.0 Z0.3 F5000.0 ; Move to side a little
G1 X0.4 Y20 Z0.3 F1500.0 E30 ; Draw the second line
G92 E0 ; Reset Extruder
G1 Z2.0 F3000 ; Move Z Axis up little to prevent scratching of Heat Bed
G1 X5 Y20 Z0.3 F5000.0 ; Move over to prevent blob squish
G21 ; set units to millimeters
G90 ; use absolute coordinates
M83 ; use relative distances for extrusion
; Filament gcode
M107
;LAYER_CHANGE
;Z:0.2
;HEIGHT:0.2
;BEFORE_LAYER_CHANGE
G92 E0
;0.2


G1 E-1.6 F2400
G1 Z.2 F6000
;AFTER_LAYER_CHANGE
;0.2
G1 X87.857 Y91.701
G1 Z.2
G1 E1.6 F2400
M204 S500
;TYPE:Skirt/Brim
;WIDTH:0.42
G1 F1200
G1 X88.725 Y90.996 E.03296
G1 X89.656 Y90.382 E.03287
G1 X91.322 Y89.564 E.0547
G1 X93.099 Y89.026 E.05472
G1 X94.721 Y88.79 E.04831
G1 X132.884 Y88.805 E1.12478
G1 X133.843 Y88.938 E.02854
G1 X135.87 Y89.494 E.06195
G1 X137.7 Y90.365 E.05973
G1 X139.14 Y91.376 E.05186
G1 X140.583 Y92.775 E.05924
G1 X141.374 Y93.79 E.03793
G1 X141.835 Y94.519 E.02542
G1 X142.681 Y96.304 E.05822
G1 X143.24 Y98.341 E.06226
G1 X143.425 Y100.341 E.0592
G1 X143.575 Y114.341 E.41265
G1 X143.503 Y115.668 E.03917
G1 X143.296 Y116.888 E.03647
G1 X142.676 Y118.864 E.06104
G1 X141.69 Y120.733 E.06228
G1 X140.467 Y122.296 E.05849
G1 X139.688 Y123.064 E.03224
G1 X138.815 Y123.771 E.03311
G1 X137.173 Y124.778 E.05677
G1 X136.08 Y125.257 E.03517
G1 X134.281 Y125.783 E.05524
G1 X132.523 Y126.003 E.05222
G1 X95.078 Y126.009 E1.10362
G1 X93.39 Y125.81 E.0501
G1 X92.295 Y125.542 E.03323
G1 X91.185 Y125.153 E.03467
G1 X89.854 Y124.506 E.04362
G1 X88.8 Y123.835 E.03683
G1 X87.851 Y123.075 E.03583
G1 X86.76 Y121.96 E.04598
G1 X86.154 Y121.19 E.02888
G1 X85.328 Y119.862 E.04609
G1 X84.772 Y118.665 E.0389
G1 X84.319 Y117.276 E.04306
G1 X84.013 Y115.506 E.05294
G1 X83.957 Y114.505 E.02955
G1 X83.987 Y99.578 E.43994
G1 X84.339 Y97.433 E.06407
G1 X84.956 Y95.673 E.05497
G1 X85.359 Y94.854 E.0269
G1 X86.242 Y93.468 E.04844
G1 X86.875 Y92.684 E.0297
G1 X87.814 Y91.744 E.03916
G1 X88.08 Y92.01 F6000
G1 F1200
G1 X88.109 Y91.982 E.00119
G1 X88.937 Y91.308 E.03147
G1 X89.836 Y90.714 E.03176
G1 X91.455 Y89.917 E.05319
G1 X92.992 Y89.437 E.04746
G1 X94.74 Y89.166 E.05213
G1 X131.692 Y89.133 E1.08909
G1 X133.767 Y89.308 E.06137
G1 X135.748 Y89.851 E.06054
G1 X137.509 Y90.69 E.05749
G1 X138.893 Y91.661 E.04983
G1 X140.304 Y93.029 E.05792
G1 X141.07 Y94.013 E.03675
G1 X141.565 Y94.802 E.02745
G1 X142.414 Y96.673 E.06056
G1 X142.882 Y98.473 E.05482
G1 X143.048 Y100.345 E.05539
G1 X143.198 Y114.345 E.41265
G1 X143.13 Y115.614 E.03745
G1 X142.924 Y116.824 E.03618
G1 X142.331 Y118.712 E.05833
G1 X141.369 Y120.534 E.06073
G1 X140.198 Y122.031 E.05602
G1 X139.594 Y122.642 E.02532
G1 X138.603 Y123.459 E.03785
G1 X136.981 Y124.453 E.05607
G1 X135.395 Y125.098 E.05046
G1 X134.218 Y125.411 E.0359
G1 X132.355 Y125.634 E.0553
G1 X95.105 Y125.633 E1.09787
G1 X93.449 Y125.437 E.04915
G1 X92.304 Y125.154 E.03476
G1 X91.337 Y124.807 E.03028
G1 X90.03 Y124.173 E.04281
G1 X89.019 Y123.528 E.03534
G1 X88.102 Y122.794 E.03462
G1 X87.039 Y121.706 E.04483
G1 X86.452 Y120.958 E.02802
G1 X85.657 Y119.676 E.04446
G1 X85.128 Y118.539 E.03696
G1 X84.684 Y117.182 E.04208
G1 X84.387 Y115.46 E.0515
G1 X84.334 Y114.505 E.02819
G1 X84.363 Y99.603 E.43921
G1 X84.7 Y97.541 E.06158
G1 X85.307 Y95.811 E.05404
G1 X85.705 Y95.004 E.02652
G1 X86.553 Y93.681 E.04632
G1 X87.156 Y92.934 E.02829
G1 X88.038 Y92.052 E.03676
G1 X88.304 Y92.318 F6000
G1 F1200
G1 X88.361 Y92.262 E.00236
G1 X89.149 Y91.62 E.02996
G1 X90.029 Y91.037 E.03111
G1 X91.588 Y90.27 E.05121
G1 X93.208 Y89.774 E.04993
G1 X94.758 Y89.543 E.04619
G1 X131.692 Y89.51 E1.08856
G1 X133.69 Y89.677 E.05909
G1 X135.628 Y90.208 E.05922
G1 X137.318 Y91.015 E.0552
G1 X138.647 Y91.947 E.04784
G1 X140.013 Y93.269 E.05603
G1 X140.766 Y94.236 E.03612
G1 X141.237 Y94.988 E.02615
G1 X142.054 Y96.785 E.05818
G1 X142.512 Y98.545 E.0536
G1 X142.671 Y100.349 E.05338
G1 X142.821 Y114.349 E.41265
G1 X142.744 Y115.641 E.03815
G1 X142.521 Y116.917 E.03818
G1 X142.276 Y117.78 E.02644
G1 X141.409 Y119.75 E.06344
G1 X140.675 Y120.874 E.03957
G1 X140.018 Y121.672 E.03047
G1 X139.333 Y122.37 E.02882
G1 X138.39 Y123.147 E.03601
G1 X136.804 Y124.12 E.05484
G1 X135.27 Y124.742 E.04879
G1 X134.141 Y125.042 E.03443
G1 X132.345 Y125.257 E.05331
G1 X95.131 Y125.257 E1.09681
G1 X93.508 Y125.065 E.04817
G1 X92.409 Y124.792 E.03338
G1 X91.488 Y124.462 E.02883
G1 X90.206 Y123.839 E.04201
G1 X89.238 Y123.221 E.03385
G1 X88.306 Y122.47 E.03528
G1 X87.318 Y121.453 E.04179
G1 X86.76 Y120.741 E.02666
G1 X85.985 Y119.491 E.04335
G1 X85.483 Y118.413 E.03505
G1 X85.05 Y117.087 E.04111
G1 X84.761 Y115.415 E.05001
G1 X84.739 Y99.629 E.46526
G1 X85.061 Y97.651 E.05907
G1 X85.658 Y95.949 E.05316
G1 X86.04 Y95.178 E.02536
G1 X86.862 Y93.897 E.04486
G1 X87.438 Y93.185 E.02699
G1 X88.262 Y92.361 E.03435
; printing object Shape-Box id:0 copy 0
G1 E-1.12 F2400
;WIPE_START
G1 F4800
G1 X88.304 Y92.318 E-.02855
G1 X88.361 Y92.262 E-.03796
G1 X89.036 Y91.712 E-.41349
;WIPE_END
G1 X131.942 Y101.79 F6000
G1 E1.6 F2400
;TYPE:Perimeter
G1 F1200
G1 X132.037 Y101.784 E.00281
G1 X132.169 Y101.84 E.00423
G1 X132.267 Y101.924 E.0038
G1 X132.328 Y102.021 E.00338
G1 X132.396 Y102.223 E.00628
G1 X132.409 Y102.467 E.0072
G1 X132.359 Y102.664 E.00599
G1 X132.253 Y102.798 E.00504
G1 X132.125 Y102.87 E.00433
G1 X131.957 Y102.884 E.00497
G1 X131.883 Y102.87 E.00222
G1 X131.769 Y102.805 E.00387
G1 X131.674 Y102.676 E.00472
G1 X131.621 Y102.442 E.00707
G1 X131.621 Y102.269 E.0051
G1 X131.642 Y102.12 E.00443
G1 X131.725 Y101.929 E.00614
G1 X131.784 Y101.862 E.00263
G1 X131.884 Y101.799 E.00348
G1 X131.905 Y101.405 F6000
;TYPE:External perimeter
G1 F1200
G1 X132.079 Y101.408 E.00513
G1 X132.174 Y101.428 E.00286
G1 X132.374 Y101.519 E.00648
G1 X132.544 Y101.665 E.0066
G1 X132.616 Y101.762 E.00356
G1 X132.675 Y101.869 E.0036
G1 X132.764 Y102.132 E.00818
G1 X132.787 Y102.495 E.01072
G1 X132.757 Y102.676 E.00541
G1 X132.699 Y102.832 E.00491
G1 X132.613 Y102.968 E.00474
G1 X132.499 Y103.086 E.00484
G1 X132.373 Y103.174 E.00453
G1 X132.237 Y103.232 E.00436
G1 X132.085 Y103.262 E.00457
G1 X131.921 Y103.262 E.00483
G1 X131.771 Y103.232 E.00451
G1 X131.638 Y103.175 E.00426
G1 X131.518 Y103.088 E.00437
G1 X131.411 Y102.972 E.00465
G1 X131.329 Y102.833 E.00476
G1 X131.273 Y102.667 E.00516
G1 X131.244 Y102.469 E.0059
G1 X131.244 Y102.242 E.00669
G1 X131.274 Y102.033 E.00622
G1 X131.332 Y101.857 E.00546
G1 X131.416 Y101.709 E.00502
G1 X131.525 Y101.585 E.00487
G1 X131.645 Y101.493 E.00446
G1 X131.77 Y101.434 E.00407
G1 X131.846 Y101.418 E.00229
G1 X131.874 Y101.948 F6000
;TYPE:Solid infill
;WIDTH:0.426817
G1 F1200
G1 X132.283 Y102.357 E.01736
G1 E-1.12 F2400
;WIPE_START
G1 F4800
G1 X131.874 Y101.948 E-.27475
;WIPE_END
G1 E-.20525 F2400
G1 X128.05 Y101.906 F6000
G1 E1.6 F2400
;TYPE:Perimeter
;WIDTH:0.42
G1 F1200
G1 X128.121 Y101.979 E.003
G1 X128.175 Y102.088 E.00359
G1 X128.236 Y102.335 E.0075
G1 X128.281 Y102.72 E.01142
G1 X128.293 Y103.508 E.02323
G1 X128.227 Y104.168 E.01955
G1 X128.2 Y104.288 E.00363
G1 X128.125 Y104.494 E.00646
G1 X128.07 Y104.572 E.00281
G1 X127.994 Y104.6 E.00239
G1 X127.92 Y104.57 E.00235
G1 X127.842 Y104.488 E.00334
G1 X127.794 Y104.391 E.00319
G1 X127.73 Y104.138 E.00769
G1 X127.674 Y103.513 E.01849
G1 X127.674 Y102.976 E.01583
G1 X127.734 Y102.332 E.01906
G1 X127.794 Y102.094 E.00723
G1 X127.85 Y101.981 E.00372
G1 X127.939 Y101.893 E.00369
G1 X127.99 Y101.899 E.00151
G1 X127.75 Y101.563 F6000
;TYPE:External perimeter
G1 F1200
G1 X127.854 Y101.52 E.00332
G1 X128.047 Y101.508 E.0057
G1 X128.226 Y101.567 E.00555
G1 X128.332 Y101.646 E.0039
G1 X128.439 Y101.769 E.0048
G1 X128.531 Y101.959 E.00622
G1 X128.608 Y102.268 E.00939
G1 X128.658 Y102.696 E.0127
G1 X128.67 Y103.524 E.02441
G1 X128.6 Y104.228 E.02085
G1 X128.563 Y104.395 E.00504
G1 X128.464 Y104.665 E.00848
G1 X128.366 Y104.813 E.00523
G1 X128.279 Y104.891 E.00344
G1 X128.113 Y104.966 E.00537
G1 X127.992 Y104.98 E.00359
G1 X127.87 Y104.965 E.00362
G1 X127.694 Y104.88 E.00576
G1 X127.53 Y104.706 E.00705
G1 X127.438 Y104.522 E.00606
G1 X127.36 Y104.212 E.00942
G1 X127.332 Y104.017 E.00581
G1 X127.297 Y103.526 E.01451
G1 X127.297 Y102.959 E.01671
G1 X127.361 Y102.268 E.02045
G1 X127.438 Y101.963 E.00927
G1 X127.533 Y101.772 E.00629
G1 X127.64 Y101.646 E.00487
G1 X127.702 Y101.599 E.00229
G1 X127.97 Y102.186 F6000
;TYPE:Gap fill
;WIDTH:0.175229
G1 F1200
G1 X127.987 Y102.56 E.00387
;WIDTH:0.249901
G1 X127.98 Y104.089 E.02474
;WIDTH:0.173812
G1 X127.994 Y104.288 E.00204
G1 E-1.12 F2400
;WIPE_START
G1 F4800
G1 X127.98 Y104.089 E-.09476
;WIPE_END
G1 E-.38524 F2400
G1 X123.81 Y104.681 F6000
G1 E1.6 F2400
;TYPE:Perimeter
;WIDTH:0.42
G1 F1200
G1 X123.755 Y104.663 E.00171
G1 X123.697 Y104.619 E.00215
G1 X123.591 Y104.472 E.00534
G1 X123.534 Y104.225 E.00747
G1 X123.555 Y103.911 E.00928
G1 X123.63 Y103.737 E.00558
G1 X123.735 Y103.643 E.00415
G1 X123.872 Y103.603 E.00421
G1 X124.051 Y103.619 E.0053
G1 X124.178 Y103.689 E.00427
G1 X124.236 Y103.75 E.00248
G1 X124.311 Y103.905 E.00508
G1 X124.33 Y104.172 E.00789
G1 X124.307 Y104.316 E.0043
G1 X124.268 Y104.428 E.0035
G1 X124.14 Y104.601 E.00634
G1 X124.006 Y104.685 E.00466
G1 X123.867 Y104.699 E.00412
G1 X123.561 Y104.988 F6000
;TYPE:External perimeter
G1 F1200
G1 X123.441 Y104.898 E.00442
G1 X123.33 Y104.775 E.00488
G1 X123.245 Y104.629 E.00498
G1 X123.187 Y104.456 E.00538
G1 X123.157 Y104.253 E.00605
G1 X123.157 Y104.026 E.00669
G1 X123.186 Y103.823 E.00604
G1 X123.243 Y103.653 E.00528
G1 X123.325 Y103.513 E.00478
G1 X123.43 Y103.397 E.00461
G1 X123.549 Y103.312 E.00431
G1 X123.683 Y103.255 E.00429
G1 X123.836 Y103.226 E.00459
G1 X123.998 Y103.226 E.00477
G1 X124.159 Y103.256 E.00483
G1 X124.297 Y103.313 E.0044
G1 X124.423 Y103.4 E.00451
G1 X124.535 Y103.517 E.00477
G1 X124.62 Y103.652 E.0047
G1 X124.677 Y103.808 E.0049
G1 X124.707 Y103.988 E.00538
G1 X124.707 Y104.202 E.00631
G1 X124.674 Y104.409 E.00618
G1 X124.611 Y104.588 E.00559
G1 X124.519 Y104.744 E.00534
G1 X124.397 Y104.88 E.00538
G1 X124.265 Y104.98 E.00488
G1 X124.128 Y105.044 E.00446
G1 X123.981 Y105.076 E.00443
G1 X123.827 Y105.076 E.00454
G1 X123.688 Y105.047 E.00418
G1 X123.615 Y105.013 E.00237
G1 X123.811 Y103.746 F6000
;TYPE:Solid infill
;WIDTH:0.439093
G1 F1200
G1 X124.025 Y103.981 E.00984
G1 X124.038 Y104.16 E.00556
G1 X124.008 Y104.291 E.00416
G1 X123.907 Y104.403 E.00467
G1 X123.659 Y104.156 E.01084
G1 E-1.12 F2400
;WIPE_START
G1 F4800
G1 X123.907 Y104.403 E-.16626
G1 X124.008 Y104.291 E-.07164
G1 X124.038 Y104.16 E-.06384
G1 X124.025 Y103.981 E-.08525
G1 X123.893 Y103.836 E-.09301
;WIPE_END
G1 X117.826 Y104.572 F6000
G1 E1.6 F2400
;TYPE:Perimeter
;WIDTH:0.42
G1 F1200
G1 X117.751 Y104.6 E.00236
G1 X117.677 Y104.57 E.00235
G1 X117.599 Y104.488 E.00334
G1 X117.55 Y104.391 E.0032
G1 X117.487 Y104.138 E.00768
G1 X117.43 Y103.513 E.0185
G1 X117.43 Y102.976 E.01583
G1 X117.49 Y102.332 E.01906
G1 X117.55 Y102.094 E.00723
G1 X117.607 Y101.981 E.00373
G1 X117.695 Y101.893 E.00367
G1 X117.806 Y101.906 E.00329
G1 X117.878 Y101.979 E.00302
G1 X117.931 Y102.088 E.00357
G1 X117.993 Y102.335 E.00751
G1 X118.037 Y102.72 E.01142
G1 X118.049 Y103.508 E.02323
G1 X117.983 Y104.168 E.01955
G1 X117.956 Y104.288 E.00363
G1 X117.881 Y104.494 E.00646
G1 X117.861 Y104.523 E.00104
G1 X117.749 Y104.98 F6000
;TYPE:External perimeter
G1 F1200
G1 X117.626 Y104.965 E.00365
G1 X117.451 Y104.88 E.00573
G1 X117.286 Y104.706 E.00707
G1 X117.195 Y104.522 E.00605
G1 X117.116 Y104.212 E.00943
G1 X117.088 Y104.017 E.00581
G1 X117.053 Y103.526 E.01451
G1 X117.053 Y102.959 E.01671
G1 X117.118 Y102.268 E.02046
G1 X117.195 Y101.963 E.00927
G1 X117.289 Y101.772 E.00627
G1 X117.396 Y101.646 E.00487
G1 X117.506 Y101.563 E.00406
G1 X117.61 Y101.52 E.00332
G1 X117.804 Y101.508 E.00573
G1 X117.983 Y101.567 E.00555
G1 X118.088 Y101.646 E.00387
G1 X118.195 Y101.769 E.0048
G1 X118.287 Y101.959 E.00622
G1 X118.364 Y102.268 E.00939
G1 X118.414 Y102.696 E.0127
G1 X118.427 Y103.524 E.02441
G1 X118.356 Y104.228 E.02085
G1 X118.319 Y104.395 E.00504
G1 X118.22 Y104.665 E.00848
G1 X118.122 Y104.813 E.00523
G1 X118.036 Y104.891 E.00342
G1 X117.869 Y104.966 E.0054
G1 X117.808 Y104.973 E.00181
G1 X117.751 Y104.288 F6000
;TYPE:Gap fill
;WIDTH:0.173811
G1 F1200
G1 X117.736 Y104.089 E.00204
;WIDTH:0.249899
G1 X117.744 Y102.56 E.02474
;WIDTH:0.175233
G1 X117.727 Y102.186 E.00387
G1 E-1.12 F2400
;WIPE_START
G1 F4800
G1 X117.744 Y102.56 E-.17783
;WIPE_END
G1 E-.30217 F2400
G1 X117.559 Y112.151 F6000
G1 E1.6 F2400
;TYPE:Perimeter
;WIDTH:0.42
G1 F1200
G1 X117.634 Y112.306 E.00508
G1 X117.653 Y112.573 E.00789
G1 X117.63 Y112.718 E.00433
G1 X117.591 Y112.829 E.00347
G1 X117.463 Y113.002 E.00634
G1 X117.329 Y113.086 E.00466
G1 X117.189 Y113.101 E.00415
G1 X117.078 Y113.064 E.00345
G1 X117.02 Y113.02 E.00215
G1 X116.914 Y112.874 E.00532
G1 X116.857 Y112.626 E.0075
G1 X116.878 Y112.312 E.00928
G1 X116.953 Y112.138 E.00558
G1 X117.058 Y112.044 E.00415
G1 X117.195 Y112.004 E.00421
G1 X117.374 Y112.021 E.0053
G1 X117.501 Y112.09 E.00426
G1 X117.517 Y112.108 E.00071
G1 X117.858 Y111.918 F6000
;TYPE:External perimeter
G1 F1200
G1 X117.943 Y112.054 E.00473
G1 X118 Y112.209 E.00487
G1 X118.03 Y112.39 E.00541
G1 X118.03 Y112.603 E.00628
G1 X117.997 Y112.81 E.00618
G1 X117.934 Y112.989 E.00559
G1 X117.842 Y113.146 E.00536
G1 X117.72 Y113.281 E.00536
G1 X117.588 Y113.381 E.00488
G1 X117.451 Y113.445 E.00446
G1 X117.304 Y113.477 E.00443
G1 X117.15 Y113.478 E.00454
G1 X117.011 Y113.448 E.00419
G1 X116.884 Y113.39 E.00411
G1 X116.764 Y113.299 E.00444
G1 X116.653 Y113.176 E.00488
G1 X116.568 Y113.03 E.00498
G1 X116.51 Y112.858 E.00535
G1 X116.48 Y112.654 E.00608
G1 X116.48 Y112.427 E.00669
G1 X116.509 Y112.224 E.00604
G1 X116.566 Y112.055 E.00526
G1 X116.648 Y111.914 E.00481
G1 X116.753 Y111.798 E.00461
G1 X116.872 Y111.713 E.00431
G1 X117.006 Y111.657 E.00428
G1 X117.159 Y111.627 E.0046
G1 X117.321 Y111.627 E.00477
G1 X117.482 Y111.657 E.00483
G1 X117.62 Y111.714 E.0044
G1 X117.746 Y111.801 E.00451
G1 X117.816 Y111.875 E.003
G1 X117.134 Y112.148 F6000
;TYPE:Solid infill
;WIDTH:0.439093
G1 F1200
G1 X117.348 Y112.382 E.00982
G1 X117.361 Y112.561 E.00556
G1 X117.331 Y112.692 E.00416
G1 X117.23 Y112.804 E.00467
G1 X116.982 Y112.557 E.01084
G1 E-1.12 F2400
;WIPE_START
G1 F4800
G1 X117.23 Y112.804 E-.16626
G1 X117.331 Y112.692 E-.07164
G1 X117.361 Y112.561 E-.06384
G1 X117.348 Y112.382 E-.08525
G1 X117.216 Y112.237 E-.09301
;WIPE_END
G1 X103.287 Y112.224 F6000
G1 E1.6 F2400
;TYPE:Perimeter
;WIDTH:0.42
G1 F1200
G1 X103.326 Y112.306 E.00268
G1 X103.345 Y112.573 E.00789
G1 X103.322 Y112.718 E.00433
G1 X103.283 Y112.829 E.00347
G1 X103.156 Y113.002 E.00633
G1 X103.021 Y113.086 E.00469
G1 X102.882 Y113.101 E.00412
G1 X102.771 Y113.064 E.00345
G1 X102.712 Y113.02 E.00217
G1 X102.606 Y112.874 E.00532
G1 X102.549 Y112.626 E.0075
G1 X102.57 Y112.312 E.00928
G1 X102.646 Y112.138 E.0056
G1 X102.75 Y112.044 E.00413
G1 X102.887 Y112.004 E.00421
G1 X103.066 Y112.021 E.0053
G1 X103.193 Y112.09 E.00426
G1 X103.251 Y112.151 E.00248
G1 X103.261 Y112.17 E.00063
G1 X103.635 Y112.054 F6000
;TYPE:External perimeter
G1 F1200
