; generated by PrusaSlicer 2.6.0-alpha4+MacOS-x64 on 2023-03-20 at 09:08:41 UTC

; 

; external perimeters extrusion width = 0.40mm
; perimeters extrusion width = 0.40mm
; infill extrusion width = 0.40mm
; solid infill extrusion width = 0.40mm
; top infill extrusion width = 0.40mm
; support material extrusion width = 0.36mm
; first layer extrusion width = 0.40mm

; external perimeters extrusion width = 0.40mm
; perimeters extrusion width = 0.40mm
; infill extrusion width = 0.40mm
; solid infill extrusion width = 0.40mm
; top infill extrusion width = 0.40mm
; support material extrusion width = 0.36mm
; first layer extrusion width = 0.40mm

M107
;TYPE:Custom
; Ender 3 Custom Start G-code
G92 E0 ; Reset Extruder

M140 S70 ; set bed temp
M190 S70 ; wait for bed temp

G28 ; Home all axes
M104 S245 ; set extruder temp 
BED_MESH_CALIBRATE AREA_START=40.9659,64.1609 AREA_END=190.39,177.922

G1 Z2.0 F3000 ; Move Z Axis up little to prevent scratching of Heat Bed
M109 S245 ; wait for extruder temp
G1 X0.1 Y20 Z0.3 F5000.0 ; Move to start position

G1 X0.1 Y200.0 Z0.3 F1500.0 E15 ; Draw the first line
G1 X0.4 Y200.0 Z0.3 F5000.0 ; Move to side a little
G1 X0.4 Y20 Z0.3 F1500.0 E30 ; Draw the second line
G92 E0 ; Reset Extruder
G1 Z2.0 F3000 ; Move Z Axis up little to prevent scratching of Heat Bed
G1 X5 Y20 Z0.3 F5000.0 ; Move over to prevent blob squish
G21 ; set units to millimeters
G90 ; use absolute coordinates
M83 ; use relative distances for extrusion
; Filament gcode
M107
;LAYER_CHANGE
;Z:0.2
;HEIGHT:0.2
;BEFORE_LAYER_CHANGE
G92 E0
;0.2


G1 E-5 F3600
G1 Z.2 F9000
;AFTER_LAYER_CHANGE
;0.2
G1 X43.518 Y64.681
G1 E5 F2400
M204 S500
;TYPE:Skirt/Brim
;WIDTH:0.4
G1 F1440
G1 X45.151 Y64.339 E.04954
G1 X142.339 Y64.339 E2.88564
G1 X144.272 Y64.828 E.0592
G1 X188.138 Y88.489 E1.47983
G1 X189.49 Y89.667 E.05324
G1 X190.204 Y91.312 E.05324
G1 X190.214 Y92.779 E.04356
G1 X175.826 Y174.379 E2.46018
G1 X175.133 Y176.033 E.05325
G1 X173.796 Y177.229 E.05326
G1 X171.816 Y177.743 E.06074
G1 X169.016 Y177.743 E.08314
G1 X168.156 Y177.651 E.02568
G1 X58.679 Y153.99 E3.32556
G1 X57.053 Y153.234 E.05324
G1 X55.909 Y151.853 E.05325
G1 X55.53 Y150.718 E.03553
G1 X41.142 Y69.118 E2.46018
G1 X41.227 Y67.326 E.05327
G1 X42.074 Y65.745 E.05325
G1 X43.47 Y64.717 E.05147
G1 X43.687 Y65.047 F9000
G1 F1440
G1 X43.878 Y64.922 E.00678
G1 X45.151 Y64.697 E.03838
G1 X142.339 Y64.697 E2.88564
G1 X144.103 Y65.142 E.05402
G1 X187.968 Y88.803 E1.4798
G1 X189.247 Y89.941 E.05083
G1 X189.879 Y91.532 E.05083
G1 X189.862 Y92.717 E.03519
G1 X175.474 Y174.317 E2.46018
G1 X174.796 Y175.889 E.05083
G1 X173.485 Y176.99 E.05083
G1 X171.816 Y177.386 E.05093
G1 X169.016 Y177.386 E.08314
G1 X168.232 Y177.302 E.02341
G1 X58.755 Y153.641 E3.32556
G1 X57.21 Y152.903 E.05084
G1 X56.16 Y151.551 E.05083
G1 X55.882 Y150.656 E.02783
G1 X41.493 Y69.056 E2.46019
G1 X41.593 Y67.346 E.05086
G1 X42.448 Y65.863 E.05083
G1 X43.637 Y65.08 E.04227
G1 X43.829 Y65.414 F9000
G1 F1440
G1 X44.232 Y65.182 E.01381
G1 X45.151 Y65.054 E.02755
G1 X142.339 Y65.054 E2.88564
G1 X143.933 Y65.456 E.04881
G1 X187.798 Y89.117 E1.4798
G1 X189 Y90.213 E.0483
G1 X189.546 Y91.746 E.04832
G1 X189.511 Y92.655 E.02701
G1 X175.123 Y174.255 E2.46018
G1 X174.46 Y175.741 E.04831
G1 X173.178 Y176.741 E.04827
G1 X171.816 Y177.029 E.04133
G1 X169.016 Y177.029 E.08314
G1 X168.307 Y176.953 E.02117
G1 X58.83 Y153.292 E3.32556
G1 X57.371 Y152.574 E.04828
G1 X56.233 Y150.594 E.06781
G1 X41.845 Y68.994 E2.46018
G1 X41.959 Y67.371 E.04831
G1 X42.822 Y65.993 E.04828
G1 X43.777 Y65.444 E.03271
; printing object Right_Part.stl id:0 copy 0
G1 E-3.5 F3600
;WIPE_START
G1 F7200
G1 X44.232 Y65.182 E-.24939
G1 X45.151 Y65.054 E-.44074
G1 X46.856 Y65.054 E-.80987
;WIPE_END
G1 X72.996 Y77.986 F9000
G1 E5 F2400
;TYPE:Support material
G1 F1440
G1 X71.625 Y79.292 E.05622
G1 X70.563 Y80.377 E.04508
G1 X70.483 Y80.428 E.00282
G1 X70.303 Y80.485 E.00561
G1 X70.208 Y80.491 E.00283
G1 X70.024 Y80.453 E.00558
G1 X69.938 Y80.411 E.00284
G1 X69.795 Y80.288 E.0056
G1 X69.701 Y80.125 E.00559
G1 X69.493 Y79.177 E.02882
G1 X69.266 Y78.328 E.02609
G1 X68.994 Y77.497 E.02596
G1 X68.684 Y76.692 E.02561
G1 X68.356 Y75.959 E.02384
G1 X72.996 Y75.959 E.13777
G1 X72.996 Y77.933 E.05861
G1 X72.32 Y78.395 F9000
G1 F1440
G1 X72.32 Y76.281 E.06277
G1 X71.924 Y76.281 E.01176
G1 X71.924 Y78.555 E.06752
G1 X71.527 Y78.939 E.0164
G1 X71.527 Y76.281 E.07892
G1 X71.13 Y76.281 E.01179
G1 X71.13 Y79.341 E.09086
G1 X70.733 Y79.751 E.01695
G1 X70.733 Y76.281 E.10303
G1 X70.337 Y76.281 E.01176
G1 X70.337 Y80.14 E.11458
G1 X70.218 Y80.168 E.00363
G1 X70.104 Y80.135 E.00352
G1 X70.044 Y80.083 E.00236
G1 X70.004 Y80.014 E.00237
G1 X69.94 Y79.733 E.00856
G1 X69.94 Y76.281 E.10249
G1 X69.543 Y76.281 E.01179
G1 X69.543 Y78.143 E.05529
G1 X69.303 Y77.404 E.02307
G1 X69.146 Y76.998 E.01292
G1 X69.146 Y76.12 E.02607
G1 E-3.5 F3600
;WIPE_START
G1 F7200
G1 X69.146 Y76.998 E-.41705
G1 X69.303 Y77.404 E-.20677
G1 X69.543 Y78.143 E-.36907
G1 X69.543 Y77.075 E-.50711
;WIPE_END
G1 X81.682 Y70.66 F9000
G1 E5 F2400
G1 F1440
G1 X81.856 Y70.72 E.00546
G1 X81.933 Y70.77 E.00273
G1 X82.058 Y70.906 E.00548
G1 X82.131 Y71.075 E.00547
G1 X82.146 Y71.259 E.00548
G1 X82.1 Y71.437 E.00546
G1 X81.999 Y71.591 E.00547
G1 X81.93 Y71.653 E.00275
G1 X80.609 Y72.397 E.04502
G1 X79.397 Y73.123 E.04195
G1 X78.086 Y73.974 E.04641
G1 X77.616 Y73.974 E.01395
G1 X77.616 Y70.651 E.09866
G1 X81.628 Y70.655 E.11912
G1 X81.446 Y71.747 F9000
G1 F1440
G1 X81.446 Y70.972 E.02301
G1 X81.049 Y70.972 E.01179
G1 X81.049 Y71.784 E.02411
G1 X80.652 Y72.005 E.01349
G1 X80.652 Y70.972 E.03067
G1 X80.256 Y70.972 E.01176
G1 X80.256 Y72.234 E.03747
G1 X79.859 Y72.472 E.01374
G1 X79.859 Y70.972 E.04454
G1 X79.462 Y70.972 E.01179
G1 X79.462 Y72.71 E.0516
G1 X79.065 Y72.955 E.01385
G1 X79.065 Y70.972 E.05888
G1 X78.669 Y70.972 E.01176
G1 X78.669 Y73.211 E.06648
G1 X78.272 Y73.466 E.01401
G1 X78.272 Y70.811 E.07883
G1 E-3.5 F3600
;WIPE_START
G1 F7200
G1 X78.272 Y73.466 E-1.26113
G1 X78.669 Y73.211 E-.22412
G1 X78.669 Y73.18 E-.01475
;WIPE_END
G1 X61.682 Y147.934 F9000
G1 E5 F2400
;TYPE:Perimeter
;WIDTH:0.399999
G1 F1440
G1 X61.682 Y149.354 E.04216
G1 X60.196 Y149.354 E.04412
G1 X60.196 Y110.016 E1.16799
G1 X60.221 Y108.581 E.04261
G1 X60.292 Y107.175 E.0418
G1 X60.411 Y105.761 E.04213
G1 X60.578 Y104.352 E.04213
G1 X60.792 Y102.949 E.04214
G1 X61.054 Y101.554 E.04214
G1 X61.362 Y100.169 E.04213
G1 X61.716 Y98.795 E.04213
G1 X62.117 Y97.434 E.04213
G1 X62.567 Y96.077 E.04245
G1 X63.054 Y94.756 E.0418
G1 X63.59 Y93.442 E.04214
G1 X64.17 Y92.147 E.04213
G1 X64.794 Y90.871 E.04217
G1 X65.846 Y88.863 E.06731
G1 X66.18 Y88.099 E.02476
G1 X66.467 Y87.316 E.02476
G1 X66.736 Y86.389 E.02866
G1 X66.895 Y85.705 E.02085
G1 X67.035 Y84.883 E.02476
G1 X67.136 Y83.801 E.03227
G1 X67.162 Y83.222 E.01721
G1 X67.151 Y82.421 E.02378
G1 X67.025 Y81.11 E.0391
G1 X66.946 Y80.599 E.01535
G1 X66.79 Y79.847 E.0228
G1 X66.594 Y79.108 E.0227
G1 X66.331 Y78.316 E.02478
G1 X66.025 Y77.552 E.02444
G1 X65.479 Y76.452 E.03646
G1 X65.117 Y75.83 E.02137
G1 X64.724 Y75.228 E.02135
G1 X64.3 Y74.646 E.02138
G1 X63.799 Y74.034 E.02348
G1 X63.193 Y73.386 E.02634
G1 X62.621 Y72.841 E.02346
G1 X61.97 Y72.294 E.02525
G1 X61.323 Y71.812 E.02396
G1 X60.625 Y71.356 E.02476
G1 X59.901 Y70.943 E.02475
G1 X59.152 Y70.575 E.02478
G1 X58.374 Y70.251 E.02502
G1 X57.596 Y69.98 E.02446
G1 X56.793 Y69.755 E.02476
;WIDTH:0.439354
G1 X56.388 Y69.648 E.01381
;WIDTH:0.478709
G1 X55.984 Y69.54 E.01515
G1 X55.569 Y69.493 E.01513
;WIDTH:0.44672
G1 X55.155 Y69.446 E.01399
;WIDTH:0.414731
G1 X54.323 Y69.39 E.02578
;WIDTH:0.376738
G1 X53.508 Y69.371 E.02263
;WIDTH:0.364381
G1 X45.97 Y69.371 E.20149
G1 X45.913 Y69.05 E.00871
G1 X53.508 Y69.05 E.20301
;WIDTH:0.364539
G1 X53.529 Y69.05 E.00056
;WIDTH:0.378027
G1 X54.371 Y69.057 E.02346
;WIDTH:0.417457
G1 X55.216 Y69.077 E.02632
;WIDTH:0.443287
G1 X55.641 Y69.089 E.01415
;WIDTH:0.469117
G1 X56.066 Y69.102 E.01507
G1 X56.466 Y69.085 E.01419
;WIDTH:0.434558
G1 X56.867 Y69.068 E.01307
;WIDTH:0.399999
G1 X64.589 Y69.068 E.22928
;WIDTH:0.433766
G1 X64.805 Y69.085 E.00704
;WIDTH:0.467533
G1 X65.02 Y69.102 E.00761
;WIDTH:0.501299
G1 X65.236 Y69.118 E.00826
G1 X65.739 Y69.1 E.01918
;WIDTH:0.464381
G1 X81.594 Y69.1 E.55563
;WIDTH:0.473199
G1 X82.123 Y69.086 E.01893
;WIDTH:0.436599
G1 X82.407 Y69.068 E.00932
;WIDTH:0.399999
G1 X96.176 Y69.068 E.40882
;WIDTH:0.442221
G1 X96.276 Y69.089 E.00339
;WIDTH:0.484443
G1 X96.376 Y69.11 E.00375
;WIDTH:0.526665
G1 X96.476 Y69.131 E.00411
;WIDTH:0.568886
G1 X96.575 Y69.152 E.00443
G1 X96.716 Y69.147 E.00617
;WIDTH:0.558168
G1 X97.408 Y69.126 E.02966
;WIDTH:0.516358
G1 X98.1 Y69.105 E.02725
;WIDTH:0.474548
G1 X98.127 Y69.104 E.00097
;WIDTH:0.473141
G1 X98.819 Y69.089 E.02476
;WIDTH:0.443288
G1 X99.511 Y69.075 E.02304
;WIDTH:0.413434
G1 X99.536 Y69.074 E.00077
;WIDTH:0.412569
G1 X100.92 Y69.056 E.04254
;WIDTH:0.376764
G1 X100.944 Y69.056 E.00067
;WIDTH:0.376354
G1 X102.327 Y69.05 E.03834
;WIDTH:0.36443
G1 X141.7 Y69.05 E1.05258
G1 X141.7 Y69.371 E.00858
G1 X102.329 Y69.371 E1.05253
;WIDTH:0.376354
G1 X100.947 Y69.389 E.03832
;WIDTH:0.376764
G1 X100.929 Y69.39 E.0005
;WIDTH:0.412569
G1 X99.546 Y69.443 E.04254
;WIDTH:0.413434
G1 X99.527 Y69.444 E.00059
;WIDTH:0.443288
G1 X98.836 Y69.489 E.02305
;WIDTH:0.473141
G1 X98.146 Y69.534 E.02474
;WIDTH:0.474548
G1 X98.126 Y69.535 E.00072
;WIDTH:0.516358
G1 X97.437 Y69.598 E.02724
;WIDTH:0.558168
G1 X96.747 Y69.66 E.02968
;WIDTH:0.560249
G1 X96.603 Y69.702 E.00645
;WIDTH:0.520187
G1 X96.481 Y69.741 E.00508
;WIDTH:0.480124
G1 X96.358 Y69.781 E.0047
;WIDTH:0.440062
G1 X96.235 Y69.82 E.00426
;WIDTH:0.399999
G1 X95.353 Y69.958 E.02651
G1 X93.976 Y70.223 E.04164
G1 X92.609 Y70.535 E.04163
G1 X91.253 Y70.894 E.04165
G1 X89.911 Y71.3 E.04163
G1 X88.583 Y71.752 E.04165
G1 X87.272 Y72.249 E.04163
G1 X85.996 Y72.783 E.04107
G1 X84.718 Y73.371 E.04177
G1 X84.053 Y73.705 E.0221
G1 X83.452 Y74.007 E.01997
G1 X82.234 Y74.673 E.04122
G1 X81.028 Y75.387 E.04161
G1 X79.846 Y76.143 E.04166
G1 X78.707 Y76.928 E.04107
G1 X77.58 Y77.762 E.04163
G1 X76.469 Y78.646 E.04216
G1 X75.384 Y79.574 E.04239
G1 X75.172 Y79.902 E.0116
G1 X75.114 Y80.128 E.00693
G1 X75.079 Y81.199 E.03182
G1 X73.744 Y82.485 E.05504
G1 X72.738 Y82.489 E.02987
G1 X72.333 Y82.631 E.01274
G1 X72.169 Y82.757 E.00614
G1 X71.209 Y83.86 E.04342
G1 X70.62 Y84.585 E.02773
G1 X69.466 Y86.088 E.05626
G1 X68.548 Y87.407 E.04771
G1 X67.875 Y88.443 E.03668
G1 X67.142 Y89.661 E.04221
G1 X66.452 Y90.903 E.04219
G1 X65.806 Y92.17 E.04223
G1 X65.205 Y93.458 E.0422
G1 X64.649 Y94.766 E.0422
G1 X64.139 Y96.093 E.04221
G1 X63.975 Y96.567 E.01489
G1 X63.541 Y97.875 E.04092
G1 X63.155 Y99.187 E.04061
G1 X62.892 Y100.169 E.03018
G1 X62.572 Y101.554 E.04221
G1 X62.3 Y102.949 E.0422
G1 X62.081 Y104.334 E.04163
G1 X61.905 Y105.759 E.04263
G1 X61.781 Y107.179 E.04232
G1 X61.707 Y108.599 E.04222
G1 X61.682 Y110.01 E.0419
G1 X61.682 Y147.874 E1.12423
G1 X62.039 Y147.934 F9000
;TYPE:External perimeter
G1 F1440
G1 X62.039 Y149.711 E.05276
G1 X59.839 Y149.711 E.06532
G1 X59.839 Y110.013 E1.17868
G1 X59.864 Y108.569 E.04288
G1 X59.936 Y107.151 E.04216
G1 X60.056 Y105.725 E.04249
G1 X60.224 Y104.304 E.04249
G1 X60.44 Y102.889 E.0425
G1 X60.704 Y101.483 E.04248
G1 X61.014 Y100.086 E.04249
G1 X61.372 Y98.7 E.0425
G1 X61.776 Y97.328 E.04247
G1 X62.23 Y95.959 E.04282
G1 X62.721 Y94.627 E.04215
G1 X63.262 Y93.302 E.04249
G1 X63.846 Y91.996 E.04248
G1 X64.475 Y90.71 E.04251
G1 X65.519 Y88.719 E.06675
G1 X65.845 Y87.975 E.02412
G1 X66.125 Y87.213 E.0241
G1 X66.388 Y86.308 E.02798
G1 X66.543 Y85.645 E.02022
G1 X66.68 Y84.845 E.0241
G1 X66.779 Y83.784 E.03164
G1 X66.805 Y83.226 E.01659
G1 X66.793 Y82.415 E.02408
G1 X66.732 Y81.605 E.02412
G1 X66.595 Y80.669 E.02809
G1 X66.445 Y79.938 E.02216
G1 X66.255 Y79.22 E.02205
G1 X66 Y78.449 E.02411
G1 X65.7 Y77.698 E.02401
G1 X65.485 Y77.244 E.01491
G1 X65.166 Y76.624 E.0207
G1 X64.815 Y76.021 E.02072
G1 X64.434 Y75.436 E.02073
G1 X64.024 Y74.872 E.0207
G1 X63.537 Y74.277 E.02283
G1 X62.946 Y73.644 E.02571
G1 X62.39 Y73.113 E.02283
G1 X61.757 Y72.58 E.02457
G1 X61.127 Y72.11 E.02334
G1 X60.448 Y71.666 E.02409
G1 X59.743 Y71.263 E.02411
G1 X59.014 Y70.905 E.02411
G1 X58.256 Y70.588 E.02439
G1 X57.499 Y70.324 E.0238
G1 X56.717 Y70.104 E.02412
G1 X55.924 Y69.932 E.02409
G1 X55.121 Y69.809 E.02412
G1 X54.313 Y69.735 E.02409
G1 X53.508 Y69.711 E.02391
G1 X45.685 Y69.711 E.23227
G1 X45.509 Y68.711 E.03015
G1 X142.039 Y68.711 E2.8661
G1 X142.039 Y69.711 E.02969
G1 X102.338 Y69.711 E1.17877
G1 X100.947 Y69.735 E.04131
G1 X99.565 Y69.806 E.04109
G1 X98.18 Y69.926 E.04128
G1 X96.794 Y70.094 E.04145
G1 X95.424 Y70.309 E.04117
G1 X94.062 Y70.57 E.04118
G1 X92.701 Y70.88 E.04144
G1 X91.357 Y71.236 E.04128
G1 X90.026 Y71.638 E.04128
G1 X88.71 Y72.085 E.04127
G1 X87.416 Y72.576 E.04109
G1 X86.13 Y73.114 E.04139
G1 X84.878 Y73.69 E.04092
G1 X83.623 Y74.32 E.04169
G1 X82.416 Y74.98 E.04085
G1 X81.22 Y75.688 E.04127
G1 X80.049 Y76.437 E.04127
G1 X78.904 Y77.225 E.04127
G1 X77.788 Y78.053 E.04126
G1 X76.7 Y78.918 E.04127
G1 X75.612 Y79.849 E.04252
G1 X75.471 Y80.139 E.00957
G1 X75.435 Y81.234 E.03253
G1 X75.395 Y81.39 E.00478
G1 X74.028 Y82.722 E.05667
G1 X73.815 Y82.842 E.00726
G1 X72.659 Y82.866 E.03433
G1 X72.439 Y82.992 E.00753
G1 X71.486 Y84.085 E.04306
G1 X70.373 Y85.479 E.05296
G1 X69.758 Y86.293 E.03029
G1 X68.848 Y87.601 E.04731
G1 X68.181 Y88.627 E.03633
G1 X67.454 Y89.834 E.04184
G1 X66.773 Y91.06 E.04164
G1 X66.131 Y92.318 E.04193
G1 X65.533 Y93.597 E.04192
G1 X64.982 Y94.894 E.04184
G1 X64.779 Y95.422 E.0168
G1 X64.476 Y96.209 E.02504
G1 X63.883 Y97.98 E.05545
G1 X63.5 Y99.28 E.04024
G1 X63.24 Y100.249 E.02979
G1 X62.922 Y101.622 E.04185
G1 X62.653 Y103.005 E.04183
G1 X62.432 Y104.396 E.04182
G1 X62.26 Y105.803 E.04209
G1 X62.138 Y107.192 E.0414
G1 X62.064 Y108.605 E.04201
G1 X62.039 Y110.007 E.04163
G1 X62.039 Y147.874 E1.12432
G1 X61.693 Y148.134 F9000
G1 E-3.5 F3600
;WIPE_START
G1 F7200
G1 X62.039 Y149.711 E-.87258
G1 X60.718 Y149.711 E-.62742
;WIPE_END
G1 X73.352 Y69.521 F9000
G1 E5 F2400
;TYPE:Perimeter
;WIDTH:0.464381
G1 F1440
G1 X81.594 Y69.521 E.28884
;WIDTH:0.473199
G1 X81.822 Y69.534 E.00817
G1 X82.06 Y69.626 E.00913
;WIDTH:0.436599
G1 X82.299 Y69.718 E.00838
;WIDTH:0.399999
G1 X82.745 Y70.03 E.01616
G1 X83.067 Y70.47 E.01619
G1 X83.227 Y70.991 E.01618
G1 X83.21 Y71.536 E.01619
G1 X83.016 Y72.045 E.01617
G1 X82.666 Y72.464 E.01621
G1 X82.538 Y72.566 E.00486
G1 X81.163 Y73.344 E.04691
G1 X79.973 Y74.057 E.04119
G1 X78.81 Y74.807 E.04109
G1 X77.671 Y75.596 E.04114
G1 X76.559 Y76.421 E.04111
G1 X75.475 Y77.282 E.0411
G1 X74.419 Y78.177 E.0411
G1 X73.393 Y79.107 E.04112
G1 X72.396 Y80.072 E.0412
G1 X71.286 Y81.202 E.04703
G1 X70.813 Y81.477 E.01625
G1 X70.265 Y81.584 E.01658
G1 X69.731 Y81.508 E.01601
G1 X69.224 Y81.246 E.01694
G1 X68.871 Y80.871 E.01529
G1 X68.751 Y80.678 E.00675
G1 X68.601 Y80.258 E.01324
G1 X68.427 Y79.435 E.02498
G1 X68.215 Y78.646 E.02426
G1 X67.962 Y77.87 E.02423
G1 X67.669 Y77.109 E.02421
G1 X67.335 Y76.364 E.02424
G1 X66.962 Y75.638 E.02423
G1 X66.551 Y74.933 E.02423
G1 X66.103 Y74.251 E.02423
G1 X65.62 Y73.594 E.02421
G1 X65.102 Y72.963 E.02424
G1 X64.537 Y72.346 E.02484
G1 X64.221 Y71.859 E.01724
G1 X64.114 Y71.478 E.01175
G1 X64.118 Y70.918 E.01663
G1 X64.306 Y70.397 E.01645
G1 X64.652 Y69.97 E.01632
;WIDTH:0.431083
G1 X65.112 Y69.667 E.01778
;WIDTH:0.465999
G1 X65.195 Y69.62 E.00336
;WIDTH:0.500914
G1 X65.278 Y69.573 E.00363
G1 X65.739 Y69.521 E.01767
;WIDTH:0.464381
G1 X73.292 Y69.521 E.26469
G1 X73.352 Y69.911 F9000
;TYPE:External perimeter
;WIDTH:0.399999
G1 F1440
G1 X81.594 Y69.911 E.24472
G1 X81.832 Y69.935 E.0071
G1 X82.234 Y70.084 E.01273
G1 X82.566 Y70.355 E.01272
G1 X82.791 Y70.719 E.01271
G1 X82.886 Y71.136 E.0127
G1 X82.839 Y71.562 E.01273
G1 X82.657 Y71.95 E.01272
G1 X82.362 Y72.255 E.0126
G1 X80.983 Y73.035 E.04704
G1 X79.785 Y73.754 E.04148
G1 X78.611 Y74.511 E.04148
G1 X77.463 Y75.305 E.04144
G1 X76.342 Y76.137 E.04145
G1 X75.248 Y77.005 E.04146
