; generated by PrusaSlicer 2.6.0-alpha4+MacOS-x64 on 2023-03-20 at 10:08:49 UTC

; 

; external perimeters extrusion width = 0.40mm
; perimeters extrusion width = 0.40mm
; infill extrusion width = 0.40mm
; solid infill extrusion width = 0.40mm
; top infill extrusion width = 0.40mm
; support material extrusion width = 0.36mm
; first layer extrusion width = 0.40mm

; external perimeters extrusion width = 0.40mm
; perimeters extrusion width = 0.40mm
; infill extrusion width = 0.40mm
; solid infill extrusion width = 0.40mm
; top infill extrusion width = 0.40mm
; support material extrusion width = 0.36mm
; first layer extrusion width = 0.40mm

M107
;TYPE:Custom
; Ender 3 Custom Start G-code
G92 E0 ; Reset Extruder

M140 S70 ; set bed temp
M190 S70 ; wait for bed temp

G28 ; Home all axes
M104 S245 ; set extruder temp 
BED_MESH_CALIBRATE AREA_START=40.9363,64.1309 AREA_END=190.42,177.952

G1 Z2.0 F3000 ; Move Z Axis up little to prevent scratching of Heat Bed
M109 S245 ; wait for extruder temp
G1 X0.1 Y20 Z0.3 F5000.0 ; Move to start position

G1 X0.1 Y200.0 Z0.3 F1500.0 E15 ; Draw the first line
G1 X0.4 Y200.0 Z0.3 F5000.0 ; Move to side a little
G1 X0.4 Y20 Z0.3 F1500.0 E30 ; Draw the second line
G92 E0 ; Reset Extruder
G1 Z2.0 F3000 ; Move Z Axis up little to prevent scratching of Heat Bed
G1 X5 Y20 Z0.3 F5000.0 ; Move over to prevent blob squish
G21 ; set units to millimeters
G90 ; use absolute coordinates
M83 ; use relative distances for extrusion
; Filament gcode
M107
;LAYER_CHANGE
;Z:0.16
;HEIGHT:0.16
;BEFORE_LAYER_CHANGE
G92 E0
;0.16


G1 E-5 F3600
G1 Z.16 F9000
;AFTER_LAYER_CHANGE
;0.16
G1 X43.492 Y64.665
G1 E5 F2400
M204 S500
;TYPE:Skirt/Brim
;WIDTH:0.4
G1 F1440
G1 X45.151 Y64.314 E.04125
G1 X142.339 Y64.314 E2.36401
G1 X144.284 Y64.805 E.04879
G1 X188.15 Y88.466 E1.21232
G1 X189.507 Y89.647 E.04376
G1 X190.228 Y91.296 E.04378
G1 X190.239 Y92.783 E.03617
G1 X175.851 Y174.383 E2.01546
G1 X175.157 Y176.044 E.04379
G1 X173.819 Y177.246 E.04375
G1 X171.816 Y177.769 E.05035
G1 X169.016 Y177.769 E.06811
G1 X168.151 Y177.676 E.02116
G1 X58.674 Y154.015 E2.72441
G1 X57.042 Y153.258 E.04376
G1 X55.891 Y151.875 E.04377
G1 X55.505 Y150.722 E.02958
G1 X41.116 Y69.122 E2.01546
G1 X41.201 Y67.325 E.04376
G1 X42.047 Y65.737 E.04377
G1 X43.444 Y64.7 E.04232
G1 X43.667 Y65.038 F9000
G1 F1440
G1 X43.861 Y64.91 E.00565
G1 X45.151 Y64.679 E.03188
G1 X142.339 Y64.679 E2.36401
G1 X144.111 Y65.127 E.04446
G1 X187.976 Y88.788 E1.2123
G1 X189.259 Y89.928 E.04175
G1 X189.895 Y91.522 E.04174
G1 X189.879 Y92.72 E.02914
G1 X175.491 Y174.32 E2.01546
G1 X174.812 Y175.896 E.04174
G1 X173.5 Y177.002 E.04174
G1 X171.816 Y177.403 E.04211
G1 X169.016 Y177.403 E.06811
G1 X168.228 Y177.319 E.01928
G1 X58.751 Y153.658 E2.72441
G1 X57.202 Y152.919 E.04175
G1 X56.147 Y151.565 E.04175
G1 X55.865 Y150.659 E.02308
G1 X41.476 Y69.059 E2.01546
G1 X41.575 Y67.345 E.04176
G1 X42.43 Y65.857 E.04174
G1 X43.617 Y65.071 E.03463
G1 X43.814 Y65.412 F9000
G1 F1440
G1 X44.224 Y65.175 E.01152
G1 X45.151 Y65.045 E.02277
G1 X142.339 Y65.045 E2.36401
G1 X143.937 Y65.449 E.04009
G1 X187.803 Y89.11 E1.21232
G1 X189.006 Y90.207 E.0396
G1 X189.554 Y91.741 E.03962
G1 X189.519 Y92.656 E.02227
G1 X175.131 Y174.256 E2.01546
G1 X174.469 Y175.744 E.03961
G1 X173.185 Y176.747 E.03963
G1 X171.816 Y177.038 E.03404
G1 X169.016 Y177.038 E.06811
G1 X168.305 Y176.962 E.01739
G1 X58.828 Y153.3 E2.72441
G1 X57.367 Y152.581 E.03961
G1 X56.225 Y150.595 E.05572
G1 X41.837 Y68.995 E2.01546
G1 X41.95 Y67.37 E.03962
G1 X42.813 Y65.989 E.03961
G1 X43.762 Y65.442 E.02664
; printing object Right_Part.stl id:0 copy 0
G1 E-3.5 F3600
;WIPE_START
G1 F7200
G1 X44.224 Y65.175 E-.25346
G1 X45.151 Y65.045 E-.44463
G1 X46.839 Y65.045 E-.80191
;WIPE_END
G1 X72.846 Y78.122 F9000
G1 E5 F2400
;TYPE:Support material
G1 F1440
G1 X71.625 Y79.292 E.04113
G1 X70.563 Y80.377 E.03693
G1 X70.483 Y80.428 E.00231
G1 X70.303 Y80.485 E.00459
G1 X70.114 Y80.48 E.0046
G1 X69.938 Y80.411 E.0046
G1 X69.795 Y80.288 E.00459
G1 X69.701 Y80.125 E.00458
G1 X69.493 Y79.177 E.02361
G1 X69.269 Y78.34 E.02108
G1 X68.998 Y77.508 E.02128
G1 X68.679 Y76.681 E.02156
G1 X68.257 Y75.758 E.02469
G1 X72.846 Y75.758 E.11162
G1 X72.846 Y78.068 E.05619
G1 X72.212 Y78.495 F9000
G1 F1440
G1 X72.212 Y76.087 E.05857
G1 X71.805 Y76.087 E.0099
G1 X71.805 Y78.659 E.06256
G1 X71.399 Y79.052 E.01374
G1 X71.399 Y76.087 E.07212
G1 X70.993 Y76.087 E.00988
G1 X70.993 Y79.471 E.08231
G1 X70.587 Y79.891 E.01421
G1 X70.587 Y76.087 E.09253
G1 X70.18 Y76.087 E.0099
G1 X70.18 Y80.156 E.09897
G1 X70.077 Y80.105 E.0028
G1 X70.028 Y80.046 E.00187
G1 X69.99 Y79.934 E.00288
G1 X69.774 Y78.952 E.02446
G1 X69.774 Y76.087 E.06969
G1 X69.368 Y76.087 E.00988
G1 X69.368 Y77.579 E.03629
G1 X68.961 Y76.506 E.02791
G1 X68.961 Y75.922 E.01421
G1 E-3.5 F3600
;WIPE_START
G1 F7200
G1 X68.961 Y76.506 E-.2774
G1 X69.368 Y77.579 E-.54511
G1 X69.368 Y76.153 E-.67749
;WIPE_END
G1 X81.682 Y70.66 F9000
G1 E5 F2400
G1 F1440
G1 X81.771 Y70.683 E.00224
G1 X81.933 Y70.77 E.00447
G1 X82.058 Y70.906 E.00449
G1 X82.131 Y71.075 E.00448
G1 X82.146 Y71.259 E.00449
G1 X82.13 Y71.35 E.00225
G1 X82.056 Y71.518 E.00447
G1 X81.93 Y71.653 E.00449
G1 X80.609 Y72.397 E.03688
G1 X79.397 Y73.123 E.03437
G1 X78.203 Y73.893 E.03456
G1 X77.526 Y74.362 E.02003
G1 X77.526 Y70.651 E.09027
G1 X81.627 Y70.655 E.09975
G1 X81.556 Y71.681 F9000
G1 F1440
G1 X81.556 Y70.98 E.01705
G1 X81.15 Y70.98 E.00988
G1 X81.15 Y71.719 E.01798
G1 X80.744 Y71.945 E.0113
G1 X80.744 Y70.98 E.02347
G1 X80.338 Y70.98 E.00988
G1 X80.338 Y72.176 E.02909
G1 X79.931 Y72.419 E.01153
G1 X79.931 Y70.98 E.035
G1 X79.525 Y70.98 E.00988
G1 X79.525 Y72.663 E.04094
G1 X79.119 Y72.911 E.01157
G1 X79.119 Y70.98 E.04697
G1 X78.712 Y70.98 E.0099
G1 X78.712 Y73.173 E.05334
G1 X78.306 Y73.435 E.01175
G1 X78.306 Y70.98 E.05972
G1 X77.9 Y70.98 E.00988
G1 X77.9 Y73.903 E.0711
G1 E-3.5 F3600
;WIPE_START
G1 F7200
G1 X77.9 Y70.98 E-1.38843
G1 X78.135 Y70.98 E-.11157
;WIPE_END
G1 X124.66 Y69.369 F9000
G1 E5 F2400
;TYPE:Perimeter
;WIDTH:0.351555
G1 F1440
G1 X102.329 Y69.369 E.47122
;WIDTH:0.363476
G1 X100.947 Y69.387 E.03026
;WIDTH:0.363889
G1 X100.929 Y69.388 E.0004
;WIDTH:0.399686
G1 X99.546 Y69.441 E.03364
;WIDTH:0.400556
G1 X99.527 Y69.442 E.00046
;WIDTH:0.430402
G1 X98.837 Y69.487 E.01822
;WIDTH:0.460247
G1 X98.146 Y69.532 E.01962
;WIDTH:0.461661
G1 X98.126 Y69.533 E.00057
;WIDTH:0.503461
G1 X97.437 Y69.596 E.02159
;WIDTH:0.54526
G1 X96.748 Y69.658 E.02351
;WIDTH:0.573179
G1 X96.396 Y69.699 E.0127
G1 X96.301 Y69.735 E.00364
;WIDTH:0.529884
G1 X96.206 Y69.772 E.00336
;WIDTH:0.486589
G1 X96.111 Y69.809 E.00307
;WIDTH:0.443294
G1 X96.016 Y69.846 E.00277
;WIDTH:0.399999
G1 X95.352 Y69.95 E.01635
G1 X93.975 Y70.215 E.03411
G1 X92.608 Y70.527 E.03411
G1 X91.252 Y70.886 E.03412
G1 X89.909 Y71.292 E.03413
G1 X88.581 Y71.743 E.03411
G1 X87.27 Y72.24 E.0341
G1 X85.994 Y72.775 E.03366
G1 X84.713 Y73.364 E.03429
G1 X84.049 Y73.697 E.01807
G1 X83.449 Y73.999 E.01634
G1 X82.229 Y74.666 E.03382
G1 X81.022 Y75.38 E.03411
G1 X79.84 Y76.136 E.03413
G1 X78.686 Y76.932 E.0341
G1 X77.574 Y77.756 E.03366
G1 X76.463 Y78.64 E.03453
G1 X75.371 Y79.575 E.03497
G1 X75.169 Y79.893 E.00916
G1 X75.109 Y80.124 E.00581
G1 X75.074 Y81.192 E.02599
G1 X73.738 Y82.481 E.04516
G1 X72.736 Y82.484 E.02437
G1 X72.33 Y82.624 E.01045
G1 X72.159 Y82.756 E.00525
G1 X71.203 Y83.854 E.03541
G1 X70.613 Y84.58 E.02276
G1 X69.458 Y86.083 E.04611
G1 X68.541 Y87.402 E.03908
G1 X67.867 Y88.439 E.03008
G1 X67.134 Y89.657 E.03458
G1 X66.444 Y90.901 E.0346
G1 X65.798 Y92.167 E.03457
G1 X65.196 Y93.455 E.03458
G1 X64.64 Y94.764 E.03459
G1 X64.13 Y96.091 E.03458
G1 X63.533 Y97.872 E.04569
G1 X63.146 Y99.185 E.0333
G1 X62.883 Y100.167 E.02473
G1 X62.567 Y101.534 E.03413
G1 X62.295 Y102.929 E.03457
G1 X62.069 Y104.352 E.03505
G1 X61.896 Y105.763 E.03458
G1 X61.772 Y107.179 E.03457
G1 X61.699 Y108.58 E.03412
G1 X61.674 Y110.01 E.03479
G1 X61.674 Y149.345 E.95678
G1 X60.205 Y149.345 E.03573
G1 X60.205 Y110.016 E.95664
G1 X60.229 Y108.584 E.03484
G1 X60.301 Y107.175 E.03432
G1 X60.42 Y105.762 E.03449
G1 X60.587 Y104.353 E.03451
G1 X60.801 Y102.951 E.0345
G1 X61.062 Y101.556 E.03452
G1 X61.37 Y100.171 E.03451
G1 X61.725 Y98.798 E.0345
G1 X62.125 Y97.437 E.03451
G1 X62.571 Y96.09 E.03451
G1 X63.062 Y94.759 E.03451
G1 X63.598 Y93.445 E.03452
G1 X64.178 Y92.151 E.03449
G1 X64.801 Y90.875 E.03454
G1 X65.854 Y88.866 E.05517
G1 X66.188 Y88.102 E.02028
G1 X66.475 Y87.318 E.02031
G1 X66.744 Y86.39 E.0235
G1 X66.904 Y85.707 E.01706
G1 X67.043 Y84.884 E.0203
G1 X67.148 Y83.721 E.0284
G1 X67.17 Y83.221 E.01217
G1 X67.159 Y82.421 E.01946
G1 X67.033 Y81.108 E.03208
G1 X66.954 Y80.597 E.01258
G1 X66.798 Y79.844 E.0187
G1 X66.602 Y79.105 E.0186
G1 X66.339 Y78.313 E.0203
G1 X66.033 Y77.549 E.02002
G1 X65.486 Y76.448 E.0299
G1 X65.124 Y75.826 E.01751
G1 X64.731 Y75.223 E.01751
G1 X64.307 Y74.64 E.01753
G1 X63.807 Y74.031 E.01917
G1 X63.301 Y73.483 E.01814
G1 X62.338 Y72.59 E.03195
G1 X61.948 Y72.267 E.01232
G1 X61.328 Y71.805 E.01881
G1 X60.629 Y71.348 E.02031
G1 X59.904 Y70.935 E.0203
G1 X59.155 Y70.567 E.0203
G1 X58.378 Y70.243 E.02048
G1 X57.598 Y69.972 E.02009
G1 X56.795 Y69.747 E.02028
;WIDTH:0.432911
G1 X56.389 Y69.642 E.01112
;WIDTH:0.465823
G1 X55.984 Y69.538 E.012
G1 X55.569 Y69.491 E.01199
;WIDTH:0.433836
G1 X55.155 Y69.444 E.01107
;WIDTH:0.401849
G1 X54.323 Y69.388 E.02039
;WIDTH:0.36386
G1 X53.508 Y69.369 E.01787
;WIDTH:0.351505
G1 X45.971 Y69.369 E.15902
G1 X45.915 Y69.052 E.00679
G1 X53.508 Y69.052 E.1602
;WIDTH:0.351664
G1 X53.529 Y69.052 E.00044
;WIDTH:0.365157
G1 X54.371 Y69.059 E.01853
;WIDTH:0.404591
G1 X55.216 Y69.079 E.02082
;WIDTH:0.431175
G1 X55.641 Y69.092 E.01122
;WIDTH:0.457759
G1 X56.066 Y69.105 E.01198
G1 X56.466 Y69.091 E.01127
;WIDTH:0.428879
G1 X56.867 Y69.076 E.01053
;WIDTH:0.399999
G1 X64.59 Y69.076 E.18785
;WIDTH:0.444172
G1 X64.913 Y69.098 E.00883
;WIDTH:0.488345
G1 X65.236 Y69.121 E.00978
G1 X65.739 Y69.102 E.0152
;WIDTH:0.451505
G1 X81.594 Y69.102 E.43998
;WIDTH:0.460308
G1 X82.123 Y69.091 E.01499
;WIDTH:0.430154
G1 X82.407 Y69.076 E.00749
;WIDTH:0.399999
G1 X95.956 Y69.076 E.32957
;WIDTH:0.443294
G1 X96.055 Y69.098 E.00276
;WIDTH:0.486589
G1 X96.155 Y69.12 E.00308
;WIDTH:0.529884
G1 X96.255 Y69.141 E.00337
;WIDTH:0.573179
G1 X96.355 Y69.163 E.00367
G1 X96.717 Y69.149 E.01299
;WIDTH:0.54526
G1 X97.409 Y69.128 E.02353
;WIDTH:0.503461
G1 X98.1 Y69.107 E.02157
;WIDTH:0.461661
G1 X98.128 Y69.107 E.0008
;WIDTH:0.460247
G1 X98.819 Y69.092 E.01958
;WIDTH:0.430402
G1 X99.511 Y69.077 E.01824
;WIDTH:0.400556
G1 X99.537 Y69.076 E.00063
;WIDTH:0.399686
G1 X100.92 Y69.058 E.03361
;WIDTH:0.363889
G1 X100.944 Y69.058 E.00053
;WIDTH:0.363476
G1 X102.327 Y69.052 E.03028
;WIDTH:0.351555
G1 X141.698 Y69.052 E.83079
G1 X141.698 Y69.369 E.00669
G1 X124.72 Y69.369 E.35826
G1 X124.66 Y69.711 F9000
;TYPE:External perimeter
;WIDTH:0.399999
G1 F1440
G1 X102.338 Y69.711 E.54296
G1 X100.947 Y69.735 E.03384
G1 X99.559 Y69.807 E.03381
G1 X98.18 Y69.926 E.03367
G1 X96.794 Y70.094 E.03396
G1 X95.424 Y70.308 E.03373
G1 X94.056 Y70.571 E.03388
G1 X92.701 Y70.88 E.03381
G1 X91.364 Y71.234 E.03364
G1 X90.027 Y71.638 E.03397
G1 X88.711 Y72.085 E.03381
G1 X87.411 Y72.578 E.03382
G1 X86.131 Y73.114 E.03375
G1 X84.877 Y73.691 E.03358
G1 X83.624 Y74.32 E.0341
G1 X82.415 Y74.981 E.03352
G1 X81.224 Y75.685 E.03365
G1 X80.053 Y76.434 E.03381
G1 X78.903 Y77.226 E.03396
G1 X77.787 Y78.053 E.03379
G1 X76.7 Y78.919 E.03381
G1 X75.616 Y79.846 E.03469
G1 X75.474 Y80.136 E.00785
G1 X75.439 Y81.23 E.02662
G1 X75.399 Y81.386 E.00392
G1 X74.024 Y82.725 E.04668
G1 X73.811 Y82.846 E.00596
G1 X72.655 Y82.87 E.02812
G1 X72.434 Y82.997 E.0062
G1 X71.487 Y84.084 E.03507
G1 X70.897 Y84.81 E.02276
G1 X69.758 Y86.293 E.04548
G1 X68.848 Y87.602 E.03878
G1 X68.18 Y88.628 E.02978
G1 X67.454 Y89.835 E.03426
G1 X66.769 Y91.067 E.03429
G1 X66.13 Y92.319 E.03419
G1 X65.533 Y93.598 E.03433
G1 X64.982 Y94.895 E.03428
G1 X64.476 Y96.21 E.03427
G1 X63.883 Y97.98 E.04541
G1 X63.5 Y99.28 E.03296
G1 X63.239 Y100.249 E.02441
G1 X62.922 Y101.622 E.03428
G1 X62.653 Y103.005 E.03427
G1 X62.432 Y104.397 E.03428
G1 X62.261 Y105.795 E.03426
G1 X62.138 Y107.198 E.03426
G1 X62.064 Y108.605 E.03427
G1 X62.039 Y110.007 E.03411
G1 X62.039 Y149.711 E.96576
G1 X59.839 Y149.711 E.05351
G1 X59.839 Y110.013 E.96561
G1 X59.864 Y108.572 E.03506
G1 X59.936 Y107.151 E.03461
G1 X60.056 Y105.725 E.03481
G1 X60.224 Y104.304 E.03481
G1 X60.44 Y102.889 E.03482
G1 X60.704 Y101.483 E.0348
G1 X61.014 Y100.086 E.03481
G1 X61.372 Y98.7 E.03482
G1 X61.776 Y97.328 E.03479
G1 X62.226 Y95.969 E.03482
G1 X62.721 Y94.627 E.03479
G1 X63.262 Y93.302 E.03481
G1 X63.846 Y91.996 E.0348
G1 X64.475 Y90.71 E.03482
G1 X65.519 Y88.719 E.05468
G1 X65.845 Y87.975 E.01976
G1 X66.125 Y87.213 E.01975
G1 X66.388 Y86.306 E.02297
G1 X66.543 Y85.645 E.01651
G1 X66.68 Y84.845 E.01974
G1 X66.779 Y83.785 E.0259
G1 X66.805 Y83.226 E.01361
G1 X66.793 Y82.415 E.01973
G1 X66.732 Y81.605 E.01976
G1 X66.595 Y80.668 E.02303
G1 X66.445 Y79.938 E.01813
G1 X66.255 Y79.22 E.01807
G1 X66 Y78.449 E.01975
G1 X65.7 Y77.698 E.01967
G1 X65.166 Y76.624 E.02917
G1 X64.815 Y76.021 E.01697
G1 X64.434 Y75.436 E.01698
G1 X64.024 Y74.872 E.01696
G1 X63.537 Y74.277 E.0187
G1 X62.946 Y73.643 E.02108
G1 X62.386 Y73.109 E.01882
G1 X61.73 Y72.56 E.02081
G1 X61.127 Y72.11 E.0183
G1 X60.448 Y71.666 E.01973
G1 X59.743 Y71.263 E.01975
G1 X59.014 Y70.905 E.01975
G1 X58.257 Y70.588 E.01996
G1 X57.499 Y70.324 E.01952
G1 X56.717 Y70.104 E.01976
G1 X55.924 Y69.932 E.01974
G1 X55.121 Y69.809 E.01976
G1 X54.313 Y69.735 E.01974
G1 X53.508 Y69.711 E.01959
G1 X45.685 Y69.711 E.19029
G1 X45.509 Y68.711 E.0247
G1 X142.039 Y68.711 E2.348
G1 X142.039 Y69.711 E.02432
G1 X124.72 Y69.711 E.42127
G1 X124.453 Y69.368 F9000
G1 E-3.5 F3600
;WIPE_START
G1 F7200
G1 X121.562 Y69.711 E-1.5
;WIPE_END
G1 X79.477 Y74.387 F9000
G1 E5 F2400
;TYPE:Perimeter
G1 F1440
G1 X78.814 Y74.815 E.0192
G1 X77.676 Y75.603 E.03367
G1 X76.564 Y76.427 E.03366
G1 X75.48 Y77.288 E.03367
G1 X74.425 Y78.184 E.03367
G1 X73.399 Y79.114 E.03368
G1 X72.403 Y80.078 E.03372
G1 X71.29 Y81.209 E.0386
G1 X70.818 Y81.484 E.01329
G1 X70.267 Y81.593 E.01366
G1 X69.728 Y81.516 E.01324
G1 X69.22 Y81.253 E.01391
G1 X68.865 Y80.876 E.0126
G1 X68.742 Y80.68 E.00563
G1 X68.593 Y80.259 E.01086
G1 X68.418 Y79.436 E.02047
G1 X68.207 Y78.648 E.01984
G1 X67.954 Y77.873 E.01983
G1 X67.661 Y77.112 E.01984
G1 X67.327 Y76.368 E.01984
G1 X66.954 Y75.643 E.01983
G1 X66.544 Y74.938 E.01984
G1 X66.096 Y74.256 E.01985
G1 X65.613 Y73.599 E.01983
G1 X65.095 Y72.969 E.01984
G1 X64.531 Y72.352 E.02033
G1 X64.212 Y71.862 E.01422
G1 X64.103 Y71.466 E.00999
G1 X64.11 Y70.914 E.01343
G1 X64.298 Y70.394 E.01345
G1 X64.645 Y69.965 E.01342
;WIDTH:0.426787
G1 X65.108 Y69.662 E.01445
;WIDTH:0.457371
G1 X65.193 Y69.616 E.00272
;WIDTH:0.487954
G1 X65.279 Y69.571 E.00293
G1 X65.739 Y69.519 E.01397
;WIDTH:0.451505
G1 X81.594 Y69.519 E.43998
G1 X81.957 Y69.576 E.0102
;WIDTH:0.430175
G1 X82.46 Y69.796 E.01446
;WIDTH:0.399999
G1 X82.873 Y70.156 E.01333
G1 X83.146 Y70.631 E.01333
G1 X83.25 Y71.169 E.01333
G1 X83.173 Y71.711 E.01332
G1 X82.924 Y72.199 E.01333
G1 X82.541 Y72.574 E.01304
G1 X81.167 Y73.351 E.03839
G1 X79.978 Y74.064 E.03372
G1 X79.528 Y74.354 E.01302
G1 X79.279 Y74.08 F9000
;TYPE:External perimeter
G1 F1440
G1 X78.611 Y74.511 E.01934
G1 X77.463 Y75.305 E.03395
G1 X76.342 Y76.137 E.03396
G1 X75.248 Y77.005 E.03397
G1 X74.183 Y77.909 E.03398
G1 X73.149 Y78.847 E.03396
G1 X72.145 Y79.818 E.03397
G1 X71.031 Y80.951 E.03865
G1 X70.591 Y81.178 E.01204
G1 X70.156 Y81.229 E.01065
G1 X69.743 Y81.136 E.0103
G1 X69.356 Y80.897 E.01106
G1 X69.085 Y80.553 E.01065
G1 X68.951 Y80.184 E.00955
G1 X68.774 Y79.351 E.02071
G1 X68.558 Y78.544 E.02032
G1 X68.299 Y77.75 E.02031
G1 X67.998 Y76.971 E.02031
G1 X67.657 Y76.21 E.02028
G1 X67.275 Y75.467 E.02032
G1 X66.855 Y74.745 E.02032
G1 X66.396 Y74.047 E.02032
G1 X65.902 Y73.375 E.02029
G1 X65.372 Y72.729 E.02032
G1 X64.801 Y72.105 E.02057
G1 X64.554 Y71.728 E.01096
G1 X64.456 Y71.369 E.00905
