; generated by PrusaSlicer 2.7.4+win64 on 2024-04-23 at 10:16:24 UTC

; 

; external perimeters extrusion width = 0.42mm
; perimeters extrusion width = 0.44mm
; infill extrusion width = 0.44mm
; solid infill extrusion width = 0.44mm
; top infill extrusion width = 0.40mm
; first layer extrusion width = 0.42mm


; printing object Shape-Box id:0 copy 0
; stop printing object Shape-Box id:0 copy 0

;TYPE:Custom
; Ender 3 Custom Start G-code
G92 E0 ; Reset Extruder

M140 S55 ; set bed temp
M104 S200 ; set extruder temp
M109 S200 ; wait for extruder temp
M190 S55 ; wait for bed temp

G28 ; Home all axes
M104 S210 ; set extruder temp 
BED_MESH_CALIBRATE AREA_START=83.7695,88.5673 AREA_END=143.764,126.206

G1 Z2.0 F3000 ; Move Z Axis up little to prevent scratching of Heat Bed
M109 S210 ; wait for extruder temp
G1 X0.1 Y20 Z0.3 F5000.0 ; Move to start position

G1 X0.1 Y200.0 Z0.3 F1500.0 E15 ; Draw the first line
G1 X0.4 Y200.0 Z0.3 F5000.0 ; Move to side a little
G1 X0.4 Y20 Z0.3 F1500.0 E30 ; Draw the second line
G92 E0 ; Reset Extruder
G1 Z2.0 F3000 ; Move Z Axis up little to prevent scratching of Heat Bed
G1 X5 Y20 Z0.3 F5000.0 ; Move over to prevent blob squish
G21 ; set units to millimeters
G90 ; use absolute coordinates
M83 ; use relative distances for extrusion
; Filament gcode
M107
;LAYER_CHANGE
;Z:0.2
;HEIGHT:0.2
G1 E-1.6 F2400
G1 Z.2 F6000
G1 X87.851 Y91.707
G1 Z.2
G1 E1.6 F2400
M204 S500
;TYPE:Skirt/Brim
;WIDTH:0.42
G1 F1200
G1 X88.728 Y90.995 E.03329
G1 X89.7 Y90.359 E.03424
G1 X91.391 Y89.539 E.05539
G1 X93.086 Y89.029 E.05217
G1 X94.716 Y88.789 E.04856
G1 X131.77 Y88.757 E1.09209
G1 X133.845 Y88.938 E.06139
G1 X135.873 Y89.495 E.06198
G1 X137.686 Y90.356 E.05915
G1 X139.132 Y91.367 E.052
G1 X140.549 Y92.734 E.05803
G1 X141.375 Y93.79 E.03951
G1 X141.84 Y94.524 E.02561
G1 X142.683 Y96.305 E.05807
G1 X143.022 Y97.349 E.03235
G1 X143.242 Y98.349 E.03018
G1 X143.426 Y100.341 E.05896
G1 X143.576 Y114.341 E.41265
G1 X143.502 Y115.686 E.0397
G1 X143.297 Y116.893 E.03608
G1 X142.674 Y118.871 E.06112
G1 X141.691 Y120.732 E.06203
G1 X140.465 Y122.299 E.05864
G1 X139.838 Y122.93 E.02622
G1 X138.838 Y123.754 E.03819
G1 X137.175 Y124.777 E.05754
G1 X136.056 Y125.266 E.03599
G1 X134.31 Y125.778 E.05363
G1 X132.447 Y126.007 E.05532
G1 X95.087 Y126.009 E1.10111
G1 X93.364 Y125.806 E.05113
G1 X92.289 Y125.541 E.03263
G1 X91.199 Y125.158 E.03405
G1 X89.845 Y124.501 E.04436
G1 X88.806 Y123.84 E.03629
G1 X87.86 Y123.084 E.03569
G1 X86.756 Y121.956 E.04652
G1 X86.176 Y121.219 E.02764
G1 X85.325 Y119.857 E.04733
G1 X84.775 Y118.676 E.0384
G1 X84.281 Y117.115 E.04826
G1 X84.002 Y115.402 E.05115
G1 X83.988 Y99.563 E.46682
G1 X84.262 Y97.741 E.0543
G1 X84.537 Y96.769 E.02977
G1 X84.964 Y95.656 E.03513
G1 X85.462 Y94.668 E.03261
G1 X86.25 Y93.458 E.04256
G1 X86.886 Y92.672 E.0298
G1 X87.809 Y91.749 E.03847
G1 X87.809 Y91.749 F6000
G1 X88.076 Y92.015
G1 F1200
G1 X88.104 Y91.986 E.00119
G1 X88.939 Y91.307 E.03172
G1 X89.827 Y90.719 E.03139
G1 X91.449 Y89.919 E.0533
G1 X93.159 Y89.399 E.05268
G1 X94.764 Y89.165 E.0478
G1 X132.831 Y89.178 E1.12195
G1 X133.768 Y89.308 E.02788
G1 X135.75 Y89.851 E.06057
G1 X137.497 Y90.682 E.05702
G1 X138.887 Y91.654 E.04999
G1 X140.266 Y92.983 E.05645
G1 X141.071 Y94.014 E.03855
G1 X141.573 Y94.814 E.02784
G1 X142.413 Y96.666 E.05994
G1 X142.882 Y98.469 E.05491
G1 X143.049 Y100.345 E.05551
G1 X143.199 Y114.345 E.41265
G1 X143.109 Y115.755 E.04164
G1 X142.894 Y116.983 E.03674
G1 X142.637 Y117.894 E.0279
G1 X142.329 Y118.718 E.02593
G1 X141.724 Y119.958 E.04066
G1 X140.981 Y121.096 E.04006
G1 X140.32 Y121.9 E.03068
G1 X139.579 Y122.657 E.03122
G1 X138.623 Y123.445 E.03651
G1 X136.998 Y124.445 E.05624
G1 X135.932 Y124.91 E.03428
G1 X134.244 Y125.407 E.05186
G1 X132.48 Y125.628 E.0524
G1 X95.113 Y125.633 E1.10132
G1 X93.426 Y125.434 E.05007
G1 X92.309 Y125.155 E.03393
G1 X91.349 Y124.812 E.03005
G1 X90.022 Y124.168 E.04347
G1 X89.024 Y123.533 E.03486
G1 X88.093 Y122.787 E.03516
G1 X87.036 Y121.703 E.04462
G1 X86.429 Y120.924 E.02911
G1 X85.653 Y119.672 E.04341
G1 X85.13 Y118.549 E.03651
G1 X84.691 Y117.212 E.04148
G1 X84.378 Y115.371 E.05504
G1 X84.364 Y99.59 E.46511
G1 X84.7 Y97.538 E.06128
G1 X85.302 Y95.827 E.05346
G1 X85.701 Y95.014 E.02669
G1 X86.195 Y94.191 E.02829
G1 X87.155 Y92.938 E.04652
G1 X88.033 Y92.058 E.03664
G1 X88.033 Y92.058 F6000
G1 X88.3 Y92.324
G1 F1200
G1 X88.357 Y92.266 E.0024
G1 X89.162 Y91.61 E.03061
G1 X90.032 Y91.037 E.0307
G1 X91.583 Y90.272 E.05097
G1 X93.233 Y89.769 E.05084
G1 X94.783 Y89.541 E.04617
G1 X131.694 Y89.51 E1.08788
G1 X133.69 Y89.677 E.05903
G1 X135.63 Y90.209 E.05929
G1 X137.308 Y91.008 E.05478
G1 X138.641 Y91.94 E.04794
G1 X139.993 Y93.244 E.05536
G1 X140.767 Y94.237 E.03711
G1 X141.244 Y94.998 E.02647
G1 X142.054 Y96.78 E.05769
G1 X142.511 Y98.542 E.05365
G1 X142.672 Y100.349 E.05347
G1 X142.822 Y114.349 E.41265
G1 X142.747 Y115.633 E.03791
G1 X142.527 Y116.898 E.03784
G1 X142.275 Y117.79 E.02732
G1 X141.397 Y119.77 E.06384
G1 X140.673 Y120.878 E.03901
G1 X140.035 Y121.653 E.02959
G1 X139.32 Y122.383 E.03012
G1 X138.408 Y123.135 E.03484
G1 X136.863 Y124.089 E.05352
G1 X135.826 Y124.548 E.03342
G1 X134.245 Y125.023 E.04865
G1 X132.453 Y125.252 E.05325
G1 X95.138 Y125.257 E1.09979
G1 X93.488 Y125.062 E.04897
G1 X92.414 Y124.793 E.03263
G1 X91.498 Y124.466 E.02867
G1 X90.199 Y123.835 E.04256
G1 X89.243 Y123.225 E.03342
G1 X88.396 Y122.551 E.0319
G1 X87.315 Y121.45 E.04548
G1 X86.74 Y120.711 E.0276
G1 X85.982 Y119.487 E.04243
G1 X85.485 Y118.422 E.03464
G1 X85.055 Y117.114 E.04058
G1 X84.756 Y115.364 E.05233
G1 X84.74 Y99.618 E.46408
G1 X85.061 Y97.647 E.05886
G1 X85.652 Y95.965 E.05254
G1 X86.037 Y95.185 E.02564
G1 X86.503 Y94.408 E.0267
G1 X87.437 Y93.188 E.04528
G1 X88.257 Y92.366 E.03422
G1 E-1.12 F2400
;WIPE_START
G1 F4800
G1 X88.3 Y92.324 E-.02855
G1 X88.357 Y92.266 E-.03863
G1 X89.031 Y91.717 E-.41282
;WIPE_END
; printing object Shape-Box id:0 copy 0
G1 X102.619 Y107.722 F6000
G1 E1.6 F2400
;TYPE:Perimeter
;WIDTH:0.491166
G1 F1200
G1 X102.01 Y107.656 E.02146
G1 X102.068 Y107.398 E.00926
G1 X102.08 Y107.164 E.00821
G1 X102.443 Y107.083 E.01303
G1 X102.451 Y107.18 E.00341
G1 X102.601 Y107.665 E.01779
G1 E-1.12 F2400
;WIPE_START
G1 F4800
G1 X102.619 Y107.722 E-.02839
G1 X102.01 Y107.656 E-.29097
G1 X102.068 Y107.398 E-.12561
G1 X102.072 Y107.324 E-.03503
;WIPE_END
G1 X104.616 Y106.896 F6000
G1 E1.6 F2400
;WIDTH:0.397084
G1 F1200
G1 X104.393 Y106.915 E.0062
G1 X104.32 Y106.863 E.00248
G1 X104.282 Y106.681 E.00515
G1 X104.334 Y106.49 E.00548
G1 X104.478 Y106.445 E.00418
G1 X104.726 Y106.84 E.01291
G1 X104.67 Y106.869 E.00175
G1 E-1.12 F2400
;WIPE_START
G1 F4800
G1 X104.616 Y106.896 E-.02868
G1 X104.393 Y106.915 E-.10631
G1 X104.32 Y106.863 E-.04257
G1 X104.282 Y106.681 E-.08831
G1 X104.334 Y106.49 E-.09403
G1 X104.478 Y106.445 E-.07166
G1 X104.532 Y106.531 E-.04844
;WIPE_END
G1 X109.494 Y106.89 F6000
G1 E1.6 F2400
;TYPE:External perimeter
;WIDTH:0.664796
G1 F1200
G1 X109.516 Y106.531 E.01748
G1 E-1.12 F2400
;WIPE_START
G1 F4800
G1 X109.494 Y106.89 E-.17084
;WIPE_END
G1 E-.30916 F2400
G1 X116.151 Y106.838 F6000
G1 E1.6 F2400
;WIDTH:0.62806
G1 F1200
G1 X116.14 Y106.383 E.02082
G1 E-1.12 F2400
;WIPE_START
G1 F4800
G1 X116.151 Y106.838 E-.21619
;WIPE_END
G1 E-.26381 F2400
G1 X118.93 Y107.686 F6000
G1 E1.6 F2400
;TYPE:Perimeter
;WIDTH:0.491165
G1 F1200
G1 X118.647 Y107.656 E.00997
G1 X118.705 Y107.398 E.00926
G1 X118.717 Y107.164 E.00821
G1 X119.08 Y107.083 E.01303
G1 X119.088 Y107.18 E.00341
G1 X119.255 Y107.722 E.01987
G1 X118.99 Y107.693 E.00934
G1 E-1.12 F2400
;WIPE_START
G1 F4800
G1 X118.93 Y107.686 E-.02869
G1 X118.647 Y107.656 E-.13518
G1 X118.705 Y107.398 E-.12561
G1 X118.717 Y107.164 E-.1113
G1 X118.88 Y107.128 E-.07922
;WIPE_END
G1 X120.943 Y106.847 F6000
G1 E1.6 F2400
;WIDTH:0.397011
G1 F1200
G1 X120.923 Y106.635 E.00589
G1 X120.984 Y106.474 E.00476
G1 X121.113 Y106.454 E.00361
G1 X121.363 Y106.84 E.01273
G1 X121.253 Y106.896 E.00342
G1 X121.03 Y106.915 E.00619
G1 X120.991 Y106.884 E.00138
G1 E-1.12 F2400
;WIPE_START
G1 F4800
G1 X120.943 Y106.847 E-.02879
G1 X120.923 Y106.635 E-.10115
G1 X120.984 Y106.474 E-.08178
G1 X121.113 Y106.454 E-.06201
G1 X121.349 Y106.819 E-.20627
;WIPE_END
G1 X124.577 Y107.609 F6000
G1 E1.6 F2400
;WIDTH:0.419999
G1 F1200
G1 X124.287 Y107.113 E.01693
G1 X124.201 Y106.717 E.01194
G1 X124.227 Y106.135 E.01717
G1 X124.351 Y105.763 E.01156
G1 X124.475 Y105.538 E.00757
G1 X124.794 Y105.165 E.01447
G1 X125.17 Y104.906 E.01346
G1 X125.485 Y104.773 E.01008
G1 X125.998 Y104.674 E.0154
G1 X126.649 Y104.723 E.01924
G1 X127.102 Y104.871 E.01405
G1 X127.502 Y105.145 E.01429
G1 X127.773 Y105.472 E.01252
G1 X127.952 Y105.846 E.01222
G1 X128.074 Y105.798 E.00386
G1 X128.071 Y105.222 E.01698
G1 X128.201 Y104.933 E.00934
G1 X128.441 Y104.769 E.00857
G1 X128.631 Y104.736 E.00568
G1 X129.357 Y104.735 E.0214
G1 X129.632 Y104.807 E.00838
G1 X129.833 Y104.995 E.00811
G1 X129.923 Y105.301 E.0094
G1 X129.923 Y105.681 E.0112
G1 X130.52 Y105.684 E.0176
G1 X131.067 Y105.714 E.01615
G1 X131.226 Y105.746 E.00478
G1 X131.362 Y105.816 E.00451
G1 X131.546 Y106.035 E.00843
;WIDTH:0.419669
G1 X131.595 Y106.352 E.00945
;WIDTH:0.418163
G1 X131.57 Y106.545 E.00571
G1 X131.975 Y106.482 E.01202
;WIDTH:0.419669
G1 X131.973 Y105.938 E.01602
;WIDTH:0.419999
G1 X132.045 Y105.662 E.00841
G1 X132.242 Y105.456 E.0084
G1 X132.52 Y105.372 E.00856
G1 X133.105 Y105.372 E.01724
G1 X133.438 Y105.408 E.00987
G1 X133.669 Y105.571 E.00833
G1 X133.77 Y105.744 E.0059
G1 X133.804 Y106.452 E.02089
G1 X134.314 Y106.452 E.01503
G1 X134.58 Y106.52 E.00809
G1 X134.75 Y106.663 E.00655
G1 X134.83 Y106.795 E.00455
G1 X134.875 Y107.017 E.00668
G1 X134.875 Y107.711 E.02045
G1 X134.84 Y107.907 E.00587
G1 X134.775 Y108.034 E.0042
G1 X134.51 Y108.24 E.00989
G1 X134.31 Y108.277 E.00599
G1 X133.804 Y108.277 E.01491
G1 X133.804 Y108.783 E.01491
G1 X133.734 Y109.055 E.00828
G1 X133.549 Y109.255 E.00803
G1 X133.301 Y109.345 E.00778
G1 X132.738 Y109.348 E.01659
G1 X132.337 Y109.311 E.01187
G1 X132.091 Y109.128 E.00904
G1 X131.973 Y108.783 E.01075
G1 X131.973 Y108.256 E.01553
G1 X131.464 Y108.237 E.01501
G1 X131.212 Y108.158 E.00778
G1 X131.04 Y107.808 E.01149
G1 X130.751 Y108.269 E.01604
G1 X129.673 Y109.806 E.05533
G1 X129.447 Y109.995 E.00868
G1 X129.211 Y110.047 E.00712
G1 X128.631 Y110.047 E.01709
G1 X128.356 Y109.975 E.00838
G1 X128.19 Y109.835 E.0064
G1 X128.099 Y109.671 E.00553
;WIDTH:0.463667
G1 X128.069 Y109.484 E.00623
;WIDTH:0.507335
G1 X128.04 Y109.296 E.0069
;WIDTH:0.551003
G1 X128.011 Y109.109 E.00751
;WIDTH:0.59467
G1 X127.982 Y108.921 E.0082
G1 X127.901 Y109.03 E.00586
;WIDTH:0.551003
G1 X127.82 Y109.14 E.00542
;WIDTH:0.507335
G1 X127.739 Y109.249 E.00493
;WIDTH:0.463667
G1 X127.658 Y109.358 E.00447
;WIDTH:0.419999
G1 X127.259 Y109.746 E.0164
G1 X126.835 Y109.96 E.014
G1 X126.287 Y110.058 E.01641
G1 X125.743 Y110.018 E.01608
G1 X125.233 Y109.833 E.01599
G1 X124.817 Y109.514 E.01545
G1 X124.515 Y109.084 E.01549
G1 X124.368 Y108.581 E.01545
G1 X124.367 Y108.149 E.01273
G1 X124.556 Y107.665 E.01531
G1 E-1.12 F2400
;WIPE_START
G1 F4800
G1 X124.577 Y107.609 E-.02841
G1 X124.287 Y107.113 E-.27291
G1 X124.207 Y106.746 E-.17868
;WIPE_END
G1 X128.018 Y108.19 F6000
G1 E1.6 F2400
;WIDTH:0.531266
G1 F1200
G1 X127.941 Y108.041 E.0064
;WIDTH:0.493098
G1 X127.865 Y107.893 E.00585
;WIDTH:0.45493
G1 X127.788 Y107.744 E.0054
;WIDTH:0.416762
G1 X127.712 Y107.596 E.00486
;WIDTH:0.378593
G1 X127.786 Y107.515 E.00288
G1 X127.9 Y107.203 E.00872
G1 X127.994 Y107.33 E.00415
G1 X128.1 Y107.36 E.00289
G1 X128.098 Y107.602 E.00635
;WIDTH:0.416762
G1 X128.078 Y107.749 E.00433
;WIDTH:0.45493
G1 X128.058 Y107.896 E.00478
;WIDTH:0.493098
G1 X128.038 Y108.043 E.00522
;WIDTH:0.531266
G1 X128.026 Y108.13 E.00335
G1 X128.026 Y108.13 F6000
G1 X128.631 Y109.67
;TYPE:External perimeter
;WIDTH:0.419999
G1 F1200
G1 X128.484 Y109.599 E.00481
G1 X128.443 Y109.48 E.00371
G1 X128.458 Y107.062 E.07127
G1 X128.128 Y107 E.0099
G1 X128.017 Y106.811 E.00646
;WIDTH:0.416268
G1 X128.013 Y106.348 E.01351
;WIDTH:0.419159
G1 X128.063 Y106.218 E.0041
;WIDTH:0.419999
G1 X128.167 Y106.163 E.00347
G1 X128.456 Y106.112 E.00865
G1 X128.443 Y105.305 E.02379
G1 X128.515 Y105.153 E.00496
G1 X128.631 Y105.113 E.00362
G1 X129.394 Y105.116 E.02249
G1 X129.516 Y105.199 E.00435
G1 X129.546 Y105.301 E.00313
G1 X129.546 Y106.056 E.02225
G1 X130.519 Y106.061 E.02868
G1 X131.046 Y106.09 E.01556
G1 X131.144 Y106.124 E.00306
G1 X131.224 Y106.287 E.00535
G1 X131.139 Y106.838 E.01643
G1 X130.91 Y107.303 E.01528
G1 X130.432 Y108.07 E.02664
G1 X129.365 Y109.589 E.05471
G1 X129.222 Y109.669 E.00483
G1 X128.691 Y109.67 E.01565
G1 E-1.12 F2400
;WIPE_START
G1 F4800
G1 X128.631 Y109.67 E-.0285
G1 X128.484 Y109.599 E-.07754
G1 X128.443 Y109.48 E-.05979
G1 X128.447 Y108.819 E-.31417
;WIPE_END
G1 X125.157 Y107.56 F6000
G1 E1.6 F2400
G1 F1200
G1 X124.826 Y107.322 E.01202
G1 X124.638 Y106.973 E.01168
G1 X124.578 Y106.722 E.00761
G1 X124.592 Y106.228 E.01457
G1 X124.682 Y105.945 E.00875
G1 X124.805 Y105.721 E.00753
G1 X125.026 Y105.463 E.01001
G1 X125.335 Y105.246 E.01113
G1 X125.56 Y105.142 E.00731
G1 X126.044 Y105.051 E.01451
G1 X126.618 Y105.098 E.01697
G1 X126.961 Y105.224 E.01077
G1 X127.224 Y105.4 E.00933
G1 X127.436 Y105.641 E.00946
G1 X127.626 Y106.056 E.01345
;WIDTH:0.419159
G1 X127.655 Y106.738 E.02007
;WIDTH:0.419999
G1 X127.496 Y107.295 E.01707
G1 X127.42 Y107.396 E.00373
G1 X127.144 Y107.576 E.00971
G1 X127.468 Y107.847 E.01245
G1 X127.609 Y108.359 E.01565
G1 X127.499 Y108.905 E.01642
G1 X127.283 Y109.231 E.01153
G1 X126.974 Y109.485 E.01179
G1 X126.605 Y109.625 E.01163
G1 X126.302 Y109.681 E.00908
G1 X125.854 Y109.657 E.01322
G1 X125.448 Y109.523 E.0126
G1 X125.113 Y109.28 E.0122
G1 X124.87 Y108.957 E.01191
G1 X124.745 Y108.578 E.01176
G1 X124.759 Y108.118 E.01356
G1 X124.952 Y107.704 E.01346
G1 X125.108 Y107.594 E.00563
G1 E-1.12 F2400
;WIPE_START
G1 F4800
G1 X125.157 Y107.56 E-.02833
G1 X124.826 Y107.322 E-.19365
G1 X124.638 Y106.973 E-.1883
G1 X124.604 Y106.83 E-.06972
;WIPE_END
G1 X127.982 Y108.921 F6000
G1 E1.6 F2400
;TYPE:Perimeter
;WIDTH:0.59467
G1 F1200
G1 X128.005 Y108.641 E.01212
;WIDTH:0.550811
G1 X128.029 Y108.362 E.01112
;WIDTH:0.531266
G1 X128.018 Y108.19 E.00658
G1 E-1.12 F2400
;WIPE_START
G1 F4800
G1 X128.029 Y108.362 E-.08187
G1 X128.005 Y108.641 E-.13301
G1 X127.982 Y108.921 E-.13345
;WIPE_END
G1 E-.13167 F2400
G1 X131.315 Y107.65 F6000
G1 E1.6 F2400
;TYPE:External perimeter
;WIDTH:0.419999
G1 F1200
G1 X131.397 Y107.099 E.01642
;WIDTH:0.39434
G1 X131.448 Y106.994 E.00321
;WIDTH:0.419999
G1 X131.534 Y106.935 E.00307
G1 X131.935 Y106.86 E.01202
G1 X132.351 Y106.841 E.01227
G1 X132.35 Y105.938 E.02661
G1 X132.426 Y105.787 E.00498
G1 X132.582 Y105.749 E.00473
G1 X133.24 Y105.749 E.01939
G1 X133.382 Y105.815 E.00462
G1 X133.427 Y105.946 E.00408
G1 X133.427 Y106.829 E.02602
G1 X134.311 Y106.829 E.02605
G1 X134.457 Y106.899 E.00477
G1 X134.498 Y107.017 E.00368
G1 X134.498 Y107.711 E.02045
G1 X134.465 Y107.819 E.00333
G1 X134.377 Y107.888 E.0033
G1 X133.427 Y107.9 E.028
G1 X133.427 Y108.783 E.02602
G1 X133.353 Y108.933 E.00493
G1 X133.172 Y108.971 E.00545
G1 X132.535 Y108.971 E.01877
G1 X132.389 Y108.898 E.00481
G1 X132.35 Y108.747 E.0046
G1 X132.35 Y107.892 E.0252
G1 X131.495 Y107.861 E.02522
G1 X131.405 Y107.835 E.00276
G1 X131.341 Y107.704 E.0043
G1 E-1.12 F2400
;WIPE_START
G1 F4800
G1 X131.315 Y107.65 E-.02847
G1 X131.397 Y107.099 E-.26461
G1 X131.448 Y106.994 E-.05545
G1 X131.534 Y106.935 E-.04954
G1 X131.703 Y106.903 E-.08193
;WIPE_END
G1 X136.006 Y107.014 F6000
G1 E1.6 F2400
;TYPE:Perimeter
G1 F1200
G1 X135.921 Y107.172 E.00529
G1 X135.905 Y107.434 E.00774
G1 X136.029 Y107.7 E.00865
G1 X136.134 Y107.797 E.00421
G1 X136.818 Y108.285 E.02476
G1 X137.348 Y108.745 E.02068
G1 X137.821 Y109.243 E.02024
G1 X138.185 Y109.693 E.01706
G1 X138.502 Y110.143 E.01622
G1 X138.786 Y110.624 E.01646
G1 X139.09 Y111.244 E.02035
G1 X139.345 Y111.903 E.02083
G1 X139.541 Y112.597 E.02125
G1 X139.678 Y113.335 E.02212
G1 X139.742 Y113.998 E.01963
