; generated by PrusaSlicer 2.7.4+win64 on 2024-04-23 at 08:02:53 UTC

; 

; external perimeters extrusion width = 0.42mm
; perimeters extrusion width = 0.44mm
; infill extrusion width = 0.44mm
; solid infill extrusion width = 0.44mm
; top infill extrusion width = 0.40mm
; first layer extrusion width = 0.42mm


; printing object Shape-Box id:0 copy 0
; stop printing object Shape-Box id:0 copy 0

;TYPE:Custom
; Ender 3 Custom Start G-code
G92 E0 ; Reset Extruder

M140 S55 ; set bed temp
M104 S160 ; set extruder temp
M109 S160 ; wait for extruder temp
M190 S55 ; wait for bed temp

G28 ; Home all axes
M104 S210 ; set extruder temp 
BED_MESH_CALIBRATE AREA_START=83.7695,88.5673 AREA_END=143.764,126.206

G1 Z2.0 F3000 ; Move Z Axis up little to prevent scratching of Heat Bed
M109 S210 ; wait for extruder temp
G1 X0.1 Y20 Z0.3 F5000.0 ; Move to start position

G1 X0.1 Y200.0 Z0.3 F1500.0 E15 ; Draw the first line
G1 X0.4 Y200.0 Z0.3 F5000.0 ; Move to side a little
G1 X0.4 Y20 Z0.3 F1500.0 E30 ; Draw the second line
G92 E0 ; Reset Extruder
G1 Z2.0 F3000 ; Move Z Axis up little to prevent scratching of Heat Bed
G1 X5 Y20 Z0.3 F5000.0 ; Move over to prevent blob squish
G21 ; set units to millimeters
G90 ; use absolute coordinates
M83 ; use relative distances for extrusion
; Filament gcode
M107
;LAYER_CHANGE
;Z:0.2
;HEIGHT:0.2
G1 E-1.6 F2400
G1 Z.2 F6000
G1 X87.851 Y91.707
G1 Z.2
G1 E1.6 F2400
M204 S500
;TYPE:Skirt/Brim
;WIDTH:0.42
G1 F1200
G1 X88.728 Y90.995 E.03471
G1 X89.7 Y90.359 E.03569
G1 X91.391 Y89.539 E.05775
G1 X93.086 Y89.029 E.05439
G1 X94.716 Y88.789 E.05063
G1 X131.77 Y88.757 E1.13857
G1 X133.845 Y88.938 E.064
G1 X135.873 Y89.495 E.06462
G1 X137.686 Y90.356 E.06167
G1 X139.132 Y91.367 E.05421
G1 X140.549 Y92.734 E.0605
G1 X141.375 Y93.79 E.0412
G1 X141.84 Y94.524 E.0267
G1 X142.683 Y96.305 E.06055
G1 X143.022 Y97.349 E.03373
G1 X143.242 Y98.349 E.03146
G1 X143.426 Y100.341 E.06147
G1 X143.576 Y114.341 E.43021
G1 X143.502 Y115.686 E.04139
G1 X143.297 Y116.893 E.03762
G1 X142.674 Y118.871 E.06372
G1 X141.691 Y120.732 E.06467
G1 X140.465 Y122.299 E.06114
G1 X139.838 Y122.93 E.02733
G1 X138.838 Y123.754 E.03981
G1 X137.175 Y124.777 E.05999
G1 X136.056 Y125.266 E.03752
G1 X134.31 Y125.778 E.05591
G1 X132.447 Y126.007 E.05768
G1 X95.087 Y126.009 E1.14797
G1 X93.364 Y125.806 E.05331
G1 X92.289 Y125.541 E.03402
G1 X91.199 Y125.158 E.0355
G1 X89.845 Y124.501 E.04624
G1 X88.806 Y123.84 E.03784
G1 X87.86 Y123.084 E.03721
G1 X86.756 Y121.956 E.0485
G1 X86.176 Y121.219 E.02882
G1 X85.325 Y119.857 E.04935
G1 X84.775 Y118.676 E.04003
G1 X84.281 Y117.115 E.05031
G1 X84.002 Y115.402 E.05333
G1 X83.988 Y99.563 E.48669
G1 X84.262 Y97.741 E.05661
G1 X84.537 Y96.769 E.03104
G1 X84.964 Y95.656 E.03663
G1 X85.462 Y94.668 E.034
G1 X86.25 Y93.458 E.04437
G1 X86.886 Y92.672 E.03107
G1 X87.809 Y91.749 E.04011
G1 X87.809 Y91.749 F6000
G1 X88.076 Y92.015
G1 F1200
G1 X88.104 Y91.986 E.00124
G1 X88.939 Y91.307 E.03307
G1 X89.827 Y90.719 E.03273
G1 X91.449 Y89.919 E.05557
G1 X93.159 Y89.399 E.05492
G1 X94.764 Y89.165 E.04984
G1 X132.831 Y89.178 E1.16969
G1 X133.768 Y89.308 E.02907
G1 X135.75 Y89.851 E.06315
G1 X137.497 Y90.682 E.05944
G1 X138.887 Y91.654 E.05212
G1 X140.266 Y92.983 E.05885
G1 X141.071 Y94.014 E.04019
G1 X141.573 Y94.814 E.02902
G1 X142.413 Y96.666 E.06249
G1 X142.882 Y98.469 E.05724
G1 X143.049 Y100.345 E.05787
G1 X143.199 Y114.345 E.43021
G1 X143.109 Y115.755 E.04341
G1 X142.894 Y116.983 E.03831
G1 X142.637 Y117.894 E.02909
G1 X142.329 Y118.718 E.02703
G1 X141.724 Y119.958 E.04239
G1 X140.981 Y121.096 E.04176
G1 X140.32 Y121.9 E.03198
G1 X139.579 Y122.657 E.03255
G1 X138.623 Y123.445 E.03807
G1 X136.998 Y124.445 E.05863
G1 X135.932 Y124.91 E.03574
G1 X134.244 Y125.407 E.05407
G1 X132.48 Y125.628 E.05463
G1 X95.113 Y125.633 E1.14818
G1 X93.426 Y125.434 E.0522
G1 X92.309 Y125.155 E.03538
G1 X91.349 Y124.812 E.03132
G1 X90.022 Y124.168 E.04532
G1 X89.024 Y123.533 E.03635
G1 X88.093 Y122.787 E.03666
G1 X87.036 Y121.703 E.04652
G1 X86.429 Y120.924 E.03035
G1 X85.653 Y119.672 E.04526
G1 X85.13 Y118.549 E.03807
G1 X84.691 Y117.212 E.04324
G1 X84.378 Y115.371 E.05738
G1 X84.364 Y99.59 E.48491
G1 X84.7 Y97.538 E.06389
G1 X85.302 Y95.827 E.05573
G1 X85.701 Y95.014 E.02783
G1 X86.195 Y94.191 E.02949
G1 X87.155 Y92.938 E.0485
G1 X88.033 Y92.058 E.0382
G1 X88.033 Y92.058 F6000
G1 X88.3 Y92.324
G1 F1200
G1 X88.357 Y92.266 E.0025
G1 X89.162 Y91.61 E.03191
G1 X90.032 Y91.037 E.03201
G1 X91.583 Y90.272 E.05314
G1 X93.233 Y89.769 E.053
G1 X94.783 Y89.541 E.04814
G1 X131.694 Y89.51 E1.13417
G1 X133.69 Y89.677 E.06155
G1 X135.63 Y90.209 E.06181
G1 X137.308 Y91.008 E.05711
G1 X138.641 Y91.94 E.04998
G1 X139.993 Y93.244 E.05772
G1 X140.767 Y94.237 E.03869
G1 X141.244 Y94.998 E.0276
G1 X142.054 Y96.78 E.06015
G1 X142.511 Y98.542 E.05593
G1 X142.672 Y100.349 E.05574
G1 X142.822 Y114.349 E.43021
G1 X142.747 Y115.633 E.03952
G1 X142.527 Y116.898 E.03945
G1 X142.275 Y117.79 E.02848
G1 X141.397 Y119.77 E.06655
G1 X140.673 Y120.878 E.04067
G1 X140.035 Y121.653 E.03084
G1 X139.32 Y122.383 E.0314
G1 X138.408 Y123.135 E.03632
G1 X136.863 Y124.089 E.05579
G1 X135.826 Y124.548 E.03485
G1 X134.245 Y125.023 E.05072
G1 X132.453 Y125.252 E.05551
G1 X95.138 Y125.257 E1.14659
G1 X93.488 Y125.062 E.05105
G1 X92.414 Y124.793 E.03402
G1 X91.498 Y124.466 E.02989
G1 X90.199 Y123.835 E.04437
G1 X89.243 Y123.225 E.03485
G1 X88.396 Y122.551 E.03326
G1 X87.315 Y121.45 E.04741
G1 X86.74 Y120.711 E.02877
G1 X85.982 Y119.487 E.04424
G1 X85.485 Y118.422 E.03611
G1 X85.055 Y117.114 E.04231
G1 X84.756 Y115.364 E.05455
G1 X84.74 Y99.618 E.48383
G1 X85.061 Y97.647 E.06136
G1 X85.652 Y95.965 E.05478
G1 X86.037 Y95.185 E.02673
G1 X86.503 Y94.408 E.02784
G1 X87.437 Y93.188 E.04721
G1 X88.257 Y92.366 E.03568
G1 E-1.12 F2400
;WIPE_START
G1 F4800
G1 X88.3 Y92.324 E-.02855
G1 X88.357 Y92.266 E-.03863
G1 X89.031 Y91.717 E-.41282
;WIPE_END
; printing object Shape-Box id:0 copy 0
G1 X119.412 Y106.656 F6000
G1 E1.6 F2400
;TYPE:Perimeter
G1 F1200
G1 X119.24 Y106.66 E.00529
G1 X119.164 Y106.625 E.00257
G1 X119.176 Y106.495 E.00401
G1 X119.224 Y106.452 E.00198
G1 X119.305 Y106.452 E.00249
G1 X119.343 Y106.489 E.00163
G1 X119.389 Y106.6 E.00369
G1 X119.389 Y106.6 F6000
G1 X120.161 Y107.603
G1 F1200
G1 X120.208 Y107.42 E.00581
G1 X120.233 Y107.131 E.00891
G1 X120.53 Y107.064 E.00936
G1 X120.523 Y107.245 E.00557
G1 X120.653 Y107.648 E.01301
G1 X120.699 Y107.728 E.00284
G1 X120.139 Y107.69 E.01725
G1 X120.146 Y107.661 E.00092
G1 E-1.12 F2400
;WIPE_START
G1 F4800
G1 X120.161 Y107.603 E-.02846
G1 X120.208 Y107.42 E-.08975
G1 X120.233 Y107.131 E-.13779
G1 X120.53 Y107.064 E-.14462
G1 X120.524 Y107.231 E-.07938
;WIPE_END
G1 X122.329 Y106.615 F6000
G1 E1.6 F2400
G1 F1200
G1 X122.353 Y106.532 E.00265
G1 X122.429 Y106.452 E.00339
G1 X122.499 Y106.451 E.00215
G1 X122.548 Y106.478 E.00172
G1 X122.736 Y106.838 E.01248
G1 X122.603 Y106.906 E.00459
G1 X122.469 Y106.921 E.00414
G1 X122.391 Y106.906 E.00244
G1 X122.339 Y106.85 E.00235
G1 X122.324 Y106.773 E.00241
G1 X122.327 Y106.675 E.00301
G1 E-1.12 F2400
;WIPE_START
G1 F4800
G1 X122.329 Y106.615 E-.02852
G1 X122.353 Y106.532 E-.04104
G1 X122.429 Y106.452 E-.05241
G1 X122.499 Y106.451 E-.03325
G1 X122.548 Y106.478 E-.02657
G1 X122.736 Y106.838 E-.19291
G1 X122.603 Y106.906 E-.07095
G1 X122.531 Y106.914 E-.03435
;WIPE_END
G1 X126.277 Y107.584 F6000
G1 E1.6 F2400
;TYPE:External perimeter
G1 F1200
G1 X126.297 Y107.576 E.00066
G1 X126.172 Y107.474 E.00496
G1 X125.979 Y107.37 E.00674
G1 X125.773 Y106.995 E.01315
G1 X125.703 Y106.778 E.00701
G1 X125.687 Y106.548 E.00708
G1 X125.71 Y106.248 E.00925
G1 X125.797 Y105.961 E.00921
G1 X125.942 Y105.703 E.00909
G1 X126.139 Y105.473 E.00931
G1 X126.381 Y105.285 E.00942
G1 X126.658 Y105.149 E.00948
G1 X126.961 Y105.071 E.00961
G1 X127.144 Y105.05 E.00566
G1 X127.46 Y105.051 E.00971
G1 X127.778 Y105.104 E.00991
G1 X128.072 Y105.218 E.00969
G1 X128.33 Y105.391 E.00954
G1 X128.534 Y105.618 E.00938
G1 X128.627 Y105.76 E.00522
G1 X128.745 Y106.149 E.01249
G1 X128.793 Y106.418 E.0084
G1 X128.785 Y106.77 E.01082
G1 X128.741 Y106.979 E.00656
G1 X128.582 Y107.344 E.01223
G1 X128.292 Y107.584 E.01157
G1 X128.416 Y107.707 E.00537
G1 X128.578 Y107.808 E.00587
G1 X128.66 Y108.014 E.00681
G1 X128.735 Y108.343 E.01037
G1 X128.713 Y108.623 E.00863
G1 X128.636 Y108.883 E.00833
G1 X128.431 Y109.211 E.01189
G1 X128.12 Y109.475 E.01253
G1 X127.862 Y109.597 E.00877
G1 X127.448 Y109.682 E.01299
G1 X127.013 Y109.665 E.01338
G1 X126.857 Y109.633 E.00489
G1 X126.597 Y109.537 E.00852
G1 X126.367 Y109.395 E.00831
G1 X126.25 Y109.293 E.00477
G1 X126.015 Y108.997 E.01161
G1 X125.945 Y108.861 E.0047
G1 X125.873 Y108.611 E.00799
G1 X125.848 Y108.344 E.00824
G1 X125.872 Y108.149 E.00604
G1 X125.986 Y107.854 E.00972
G1 X126.101 Y107.663 E.00685
G1 X126.222 Y107.609 E.00407
G1 E-1.12 F2400
;WIPE_START
G1 F4800
G1 X126.277 Y107.584 E-.0287
G1 X126.297 Y107.576 E-.01023
G1 X126.172 Y107.474 E-.07663
G1 X125.979 Y107.37 E-.10414
G1 X125.773 Y106.995 E-.20323
G1 X125.736 Y106.881 E-.05707
;WIPE_END
G1 X129.002 Y106.184 F6000
G1 E1.6 F2400
G1 F1200
G1 X129.453 Y106.117 E.01401
G1 X129.431 Y105.113 E.03086
G1 X130.535 Y105.113 E.03392
G1 X130.535 Y106.056 E.02898
G1 X131.514 Y106.061 E.03008
G1 X132.24 Y106.101 E.02234
G1 X132.137 Y106.886 E.02433
G1 X131.993 Y107.092 E.00772
G1 X131.543 Y107.872 E.02767
G1 X131.291 Y108.257 E.01414
G1 X130.301 Y109.669 E.05299
G1 X129.435 Y109.669 E.02661
G1 X129.45 Y107.072 E.0798
G1 X129.002 Y106.978 E.01407
G1 X129.002 Y106.244 E.02255
G1 X129.002 Y106.244 F6000
G1 X128.986 Y107.36
;TYPE:Perimeter
G1 F1200
G1 X129.065 Y107.377 E.00248
G1 X129.059 Y108.068 E.02123
G1 X129.021 Y107.902 E.00523
G1 X128.892 Y107.577 E.01074
G1 X128.962 Y107.415 E.00542
G1 E-1.12 F2400
;WIPE_START
G1 F4800
G1 X128.986 Y107.36 E-.0285
G1 X129.065 Y107.377 E-.03838
G1 X129.059 Y108.068 E-.32824
G1 X129.021 Y107.902 E-.08089
G1 X129.018 Y107.894 E-.00399
;WIPE_END
G1 X132.186 Y107.812 F6000
G1 E1.6 F2400
;TYPE:External perimeter
G1 F1200
G1 X132.247 Y106.956 E.02637
G1 X132.78 Y106.875 E.01657
G1 X133.21 Y106.848 E.01324
G1 X133.207 Y105.749 E.03377
G1 X134.283 Y105.749 E.03306
G1 X134.283 Y106.828 E.03315
G1 X135.353 Y106.828 E.03288
G1 X135.353 Y107.9 E.03294
G1 X134.283 Y107.9 E.03288
G1 X134.283 Y108.972 E.03294
G1 X133.208 Y108.972 E.03303
G1 X133.208 Y107.891 E.03322
G1 X132.787 Y107.876 E.01294
G1 X132.245 Y107.818 E.01675
G1 E-1.12 F2400
;WIPE_START
G1 F4800
G1 X132.186 Y107.812 E-.02817
G1 X132.247 Y106.956 E-.40763
G1 X132.339 Y106.942 E-.0442
;WIPE_END
G1 X124.216 Y107.083 F6000
G1 E1.6 F2400
;TYPE:Perimeter
G1 F1200
G1 X124.276 Y107.416 E.0104
G1 X124.207 Y107.965 E.017
G1 X123.831 Y109.996 E.06347
G1 X120.604 Y109.975 E.09916
G1 X120.624 Y109.526 E.01381
G1 X120.405 Y109.728 E.00915
G1 X120.113 Y109.895 E.01034
G1 X119.798 Y110.006 E.01026
G1 X119.462 Y110.059 E.01045
G1 X119.059 Y110.054 E.01238
G1 X118.606 Y109.946 E.01431
G1 X118.2 Y109.74 E.01399
G1 X118.002 Y109.58 E.00782
G1 X117.825 Y109.397 E.00782
G1 X117.605 Y109.033 E.01307
G1 X117.514 Y108.778 E.00832
G1 X117.461 Y108.358 E.01301
G1 X117.492 Y108.074 E.00878
G1 X117.592 Y107.82 E.00839
G1 X117.428 Y108.089 E.00968
G1 X116.063 Y110.046 E.07332
G1 X114.623 Y110.046 E.04425
G1 X114.623 Y107.495 E.07839
G1 X114.089 Y107.495 E.01641
G1 X114.089 Y105.678 E.05583
G1 X114.623 Y105.678 E.01641
G1 X114.623 Y104.736 E.02895
G1 X116.481 Y104.736 E.05709
G1 X116.48 Y105.691 E.02934
G1 X116.682 Y105.695 E.00621
G1 X117.557 Y105.781 E.02702
G1 X117.676 Y105.488 E.00972
G1 X117.851 Y105.258 E.00888
G1 X118.131 Y105.014 E.01141
G1 X118.328 Y104.884 E.00725
G1 X118.692 Y104.741 E.01202
G1 X119.094 Y104.672 E.01253
G1 X119.46 Y104.67 E.01125
G1 X119.821 Y104.73 E.01124
G1 X120.164 Y104.857 E.01124
G1 X120.49 Y105.065 E.01188
G1 X120.839 Y105.455 E.01608
G1 X120.864 Y105.507 E.00177
G1 X121.175 Y105.129 E.01504
G1 X121.393 Y104.958 E.00851
G1 X121.795 Y104.768 E.01366
G1 X122.249 Y104.675 E.01424
G1 X122.647 Y104.674 E.01223
G1 X123.001 Y104.728 E.011
G1 X123.344 Y104.845 E.01114
G1 X123.66 Y105.029 E.01124
G1 X123.926 Y105.271 E.01105
G1 X124.16 Y105.579 E.01189
G1 X124.323 Y106.048 E.01526
G1 X124.373 Y106.316 E.00838
G1 X124.25 Y107.035 E.02241
G1 X124.22 Y107.036 E.00092
G1 E-1.12 F2400
;WIPE_START
G1 F4800
G1 X124.216 Y107.083 E-.02241
G1 X124.276 Y107.416 E-.16072
G1 X124.207 Y107.965 E-.26283
G1 X124.194 Y108.035 E-.03404
;WIPE_END
G1 X117.71 Y106.175 F6000
G1 E1.6 F2400
;TYPE:External perimeter
G1 F1200
G1 X117.71 Y106.874 E.02148
G1 X117.56 Y107.088 E.00803
G1 X117.354 Y107.485 E.01374
G1 X117.112 Y107.883 E.01431
G1 X115.866 Y109.669 E.06691
G1 X115 Y109.669 E.02661
G1 X115 Y107.118 E.07839
G1 X114.467 Y107.118 E.01638
G1 X114.467 Y106.055 E.03266
G1 X115 Y106.055 E.01638
G1 X115 Y105.113 E.02895
G1 X116.103 Y105.113 E.03389
G1 X116.103 Y106.06 E.0291
G1 X116.659 Y106.071 E.01709
G1 X117.65 Y106.169 E.0306
G1 E-1.12 F2400
;WIPE_START
G1 F4800
G1 X117.71 Y106.175 E-.02864
G1 X117.71 Y106.874 E-.33202
G1 X117.566 Y107.079 E-.11934
;WIPE_END
G1 X119.866 Y106.993 F6000
G1 E1.6 F2400
G1 F1200
G1 X119.835 Y107.357 E.01123
G1 X119.687 Y107.932 E.01824
G1 X119.481 Y107.918 E.00634
G1 X119.154 Y108.045 E.01078
G1 X119.046 Y108.126 E.00415
G1 X118.985 Y108.206 E.00309
G1 X118.958 Y108.312 E.00336
G1 X118.974 Y108.479 E.00515
G1 X119.041 Y108.577 E.00365
G1 X119.201 Y108.66 E.00554
G1 X119.383 Y108.662 E.00559
G1 X119.579 Y108.572 E.00663
G1 X119.752 Y108.332 E.00909
G1 X119.857 Y108.049 E.00928
G1 X120.805 Y108.113 E.0292
G1 X120.722 Y108.54 E.01337
G1 X120.602 Y108.921 E.01227
G1 X120.38 Y109.239 E.01192
G1 X120.181 Y109.421 E.00829
G1 X119.955 Y109.551 E.00801
G1 X119.705 Y109.639 E.00814
G1 X119.435 Y109.681 E.0084
G1 X119.106 Y109.677 E.01011
G1 X118.737 Y109.589 E.01166
G1 X118.406 Y109.421 E.01141
G1 X118.257 Y109.302 E.00586
G1 X118.126 Y109.165 E.00582
G1 X117.947 Y108.87 E.0106
G1 X117.883 Y108.689 E.0059
G1 X117.841 Y108.355 E.01034
G1 X117.862 Y108.165 E.00587
G1 X117.975 Y107.877 E.00951
G1 X118.081 Y107.689 E.00663
G1 X118.255 Y107.6 E.00601
G1 X118.112 Y107.491 E.00552
G1 X117.98 Y107.347 E.006
G1 X117.874 Y107.182 E.00603
G1 X117.8 Y106.995 E.00618
G1 X117.757 Y106.797 E.00623
G1 X117.745 Y106.583 E.00659
G1 X117.769 Y106.296 E.00885
G1 X117.853 Y106.029 E.0086
G1 X117.965 Y105.813 E.00748
G1 X118.014 Y105.667 E.00473
G1 X118.128 Y105.517 E.00579
G1 X118.359 Y105.315 E.00943
G1 X118.503 Y105.221 E.00528
G1 X118.794 Y105.106 E.00961
G1 X119.127 Y105.049 E.01038
G1 X119.43 Y105.047 E.00931
G1 X119.723 Y105.096 E.00913
G1 X119.995 Y105.197 E.00892
G1 X120.243 Y105.355 E.00904
G1 X120.523 Y105.668 E.0129
G1 X120.599 Y105.823 E.0053
G1 X120.786 Y106.619 E.02512
G1 X119.889 Y106.822 E.02826
G1 X119.677 Y106.311 E.017
G1 X119.626 Y106.234 E.00284
G1 X119.502 Y106.121 E.00515
G1 X119.366 Y106.073 E.00443
G1 X119.165 Y106.076 E.00618
G1 X119 Y106.144 E.00548
G1 X118.859 Y106.286 E.00615
G1 X118.817 Y106.369 E.00286
G1 X118.788 Y106.466 E.00311
G1 X118.788 Y106.679 E.00654
G1 X118.847 Y106.834 E.0051
G1 X118.966 Y106.954 E.00519
G1 X119.15 Y107.03 E.00612
G1 X119.306 Y107.044 E.00481
G1 X119.806 Y106.998 E.01543
G1 X119.806 Y106.998 F6000
G1 X121.045 Y108.563
G1 F1200
G1 X122.092 Y108.619 E.03222
G1 X122.69 Y108.605 E.01838
G1 X122.74 Y108.44 E.0053
G1 X122.795 Y108.168 E.00853
G1 X122.567 Y108.225 E.00722
G1 X122.207 Y108.248 E.01108
G1 X121.792 Y108.195 E.01286
G1 X121.511 Y108.076 E.00938
G1 X121.271 Y107.89 E.00933
G1 X121.152 Y107.763 E.00535
G1 X121 Y107.495 E.00947
G1 X120.902 Y107.192 E.00979
G1 X120.928 Y106.47 E.0222
G1 X120.992 Y106.201 E.0085
G1 X121.12 Y105.819 E.01238
G1 X121.205 Y105.669 E.0053
G1 X121.436 Y105.403 E.01083
G1 X121.592 Y105.281 E.00609
G1 X121.915 Y105.128 E.01098
G1 X122.288 Y105.052 E.0117
G1 X122.619 Y105.051 E.01017
G1 X122.91 Y105.096 E.00905
G1 X123.187 Y105.19 E.00899
G1 X123.436 Y105.335 E.00885
G1 X123.647 Y105.527 E.00877
G1 X123.823 Y105.759 E.00895
G1 X123.957 Y106.145 E.01256
G1 X123.99 Y106.32 E.00547
