; generated by PrusaSlicer 2.7.4+win64 on 2024-04-22 at 18:27:19 UTC

; 

; external perimeters extrusion width = 0.42mm
; perimeters extrusion width = 0.44mm
; infill extrusion width = 0.44mm
; solid infill extrusion width = 0.44mm
; top infill extrusion width = 0.40mm
; first layer extrusion width = 0.42mm


; printing object Shape-Box id:0 copy 0
; stop printing object Shape-Box id:0 copy 0

;TYPE:Custom
; Ender 3 Custom Start G-code
G92 E0 ; Reset Extruder

M140 S55 ; set bed temp
M104 S160 ; set extruder temp
M109 S160 ; wait for extruder temp
M190 S55 ; wait for bed temp

G28 ; Home all axes
M104 S210 ; set extruder temp 
BED_MESH_CALIBRATE AREA_START=83.7684,88.5669 AREA_END=143.763,126.207

G1 Z2.0 F3000 ; Move Z Axis up little to prevent scratching of Heat Bed
M109 S210 ; wait for extruder temp
G1 X0.1 Y20 Z0.3 F5000.0 ; Move to start position

G1 X0.1 Y200.0 Z0.3 F1500.0 E15 ; Draw the first line
G1 X0.4 Y200.0 Z0.3 F5000.0 ; Move to side a little
G1 X0.4 Y20 Z0.3 F1500.0 E30 ; Draw the second line
G92 E0 ; Reset Extruder
G1 Z2.0 F3000 ; Move Z Axis up little to prevent scratching of Heat Bed
G1 X5 Y20 Z0.3 F5000.0 ; Move over to prevent blob squish
G21 ; set units to millimeters
G90 ; use absolute coordinates
M83 ; use relative distances for extrusion
; Filament gcode
M107
;LAYER_CHANGE
;Z:0.2
;HEIGHT:0.2
G1 E-1.6 F2400
G1 Z.2 F6000
G1 X87.857 Y91.701
G1 Z.2
G1 E1.6 F2400
M204 S500
;TYPE:Skirt/Brim
;WIDTH:0.42
G1 F1200
G1 X88.725 Y90.996 E.03506
G1 X89.656 Y90.382 E.03497
G1 X91.322 Y89.564 E.05819
G1 X93.099 Y89.026 E.05821
G1 X94.721 Y88.79 E.05139
G1 X132.884 Y88.805 E1.19657
G1 X133.843 Y88.938 E.03036
G1 X135.87 Y89.494 E.0659
G1 X137.7 Y90.365 E.06355
G1 X139.14 Y91.376 E.05517
G1 X140.583 Y92.775 E.06302
G1 X141.374 Y93.79 E.04035
G1 X141.835 Y94.519 E.02704
G1 X142.681 Y96.304 E.06194
G1 X143.24 Y98.341 E.06623
G1 X143.425 Y100.341 E.06298
G1 X143.575 Y114.341 E.43899
G1 X143.503 Y115.668 E.04167
G1 X143.296 Y116.888 E.0388
G1 X142.676 Y118.864 E.06493
G1 X141.69 Y120.733 E.06626
G1 X140.467 Y122.296 E.06223
G1 X139.688 Y123.064 E.0343
G1 X138.815 Y123.771 E.03522
G1 X137.173 Y124.778 E.06039
G1 X136.08 Y125.257 E.03742
G1 X134.281 Y125.783 E.05877
G1 X132.523 Y126.003 E.05555
G1 X95.078 Y126.009 E1.17406
G1 X93.39 Y125.81 E.05329
G1 X92.295 Y125.542 E.03535
G1 X91.185 Y125.153 E.03688
G1 X89.854 Y124.506 E.0464
G1 X88.8 Y123.835 E.03918
G1 X87.851 Y123.075 E.03812
G1 X86.76 Y121.96 E.04891
G1 X86.154 Y121.19 E.03072
G1 X85.328 Y119.862 E.04904
G1 X84.772 Y118.665 E.04138
G1 X84.319 Y117.276 E.04581
G1 X84.013 Y115.506 E.05632
G1 X83.957 Y114.505 E.03143
G1 X83.987 Y99.578 E.46803
G1 X84.339 Y97.433 E.06815
G1 X84.956 Y95.673 E.05848
G1 X85.359 Y94.854 E.02862
G1 X86.242 Y93.468 E.05153
G1 X86.875 Y92.684 E.03159
G1 X87.814 Y91.744 E.04166
G1 X87.814 Y91.744 F6000
G1 X88.08 Y92.01
G1 F1200
G1 X88.109 Y91.982 E.00126
G1 X88.937 Y91.308 E.03348
G1 X89.836 Y90.714 E.03378
G1 X91.455 Y89.917 E.05658
G1 X92.992 Y89.437 E.05049
G1 X94.74 Y89.166 E.05546
G1 X131.692 Y89.133 E1.1586
G1 X133.767 Y89.308 E.06529
G1 X135.748 Y89.851 E.0644
G1 X137.509 Y90.69 E.06116
G1 X138.893 Y91.661 E.05301
G1 X140.304 Y93.029 E.06162
G1 X141.07 Y94.013 E.0391
G1 X141.565 Y94.802 E.0292
G1 X142.414 Y96.673 E.06442
G1 X142.882 Y98.473 E.05831
G1 X143.048 Y100.345 E.05893
G1 X143.198 Y114.345 E.43899
G1 X143.13 Y115.614 E.03985
G1 X142.924 Y116.824 E.03848
G1 X142.331 Y118.712 E.06205
G1 X141.369 Y120.534 E.0646
G1 X140.198 Y122.031 E.05959
G1 X139.594 Y122.642 E.02694
G1 X138.603 Y123.459 E.04027
G1 X136.981 Y124.453 E.05965
G1 X135.395 Y125.098 E.05368
G1 X134.218 Y125.411 E.03819
G1 X132.355 Y125.634 E.05883
G1 X95.105 Y125.633 E1.16795
G1 X93.449 Y125.437 E.05229
G1 X92.304 Y125.154 E.03698
G1 X91.337 Y124.807 E.03221
G1 X90.03 Y124.173 E.04555
G1 X89.019 Y123.528 E.0376
G1 X88.102 Y122.794 E.03683
G1 X87.039 Y121.706 E.04769
G1 X86.452 Y120.958 E.02981
G1 X85.657 Y119.676 E.0473
G1 X85.128 Y118.539 E.03932
G1 X84.684 Y117.182 E.04477
G1 X84.387 Y115.46 E.05479
G1 X84.334 Y114.505 E.02999
G1 X84.363 Y99.603 E.46724
G1 X84.7 Y97.541 E.06551
G1 X85.307 Y95.811 E.05748
G1 X85.705 Y95.004 E.02821
G1 X86.553 Y93.681 E.04927
G1 X87.156 Y92.934 E.0301
G1 X88.038 Y92.052 E.03911
G1 X88.038 Y92.052 F6000
G1 X88.304 Y92.318
G1 F1200
G1 X88.361 Y92.262 E.00251
G1 X89.149 Y91.62 E.03187
G1 X90.029 Y91.037 E.0331
G1 X91.588 Y90.27 E.05448
G1 X93.208 Y89.774 E.05312
G1 X94.758 Y89.543 E.04914
G1 X131.692 Y89.51 E1.15804
G1 X133.69 Y89.677 E.06286
G1 X135.628 Y90.208 E.063
G1 X137.318 Y91.015 E.05872
G1 X138.647 Y91.947 E.0509
G1 X140.013 Y93.269 E.0596
G1 X140.766 Y94.236 E.03843
G1 X141.237 Y94.988 E.02782
G1 X142.054 Y96.785 E.06189
G1 X142.512 Y98.545 E.05702
G1 X142.671 Y100.349 E.05678
G1 X142.821 Y114.349 E.43899
G1 X142.744 Y115.641 E.04058
G1 X142.521 Y116.917 E.04061
G1 X142.276 Y117.78 E.02813
G1 X141.409 Y119.75 E.06749
G1 X140.675 Y120.874 E.04209
G1 X140.018 Y121.672 E.03241
G1 X139.333 Y122.37 E.03066
G1 X138.39 Y123.147 E.03831
G1 X136.804 Y124.12 E.05834
G1 X135.27 Y124.742 E.0519
G1 X134.141 Y125.042 E.03663
G1 X132.345 Y125.257 E.05671
G1 X95.131 Y125.257 E1.16682
G1 X93.508 Y125.065 E.05124
G1 X92.409 Y124.792 E.03551
G1 X91.488 Y124.462 E.03068
G1 X90.206 Y123.839 E.04469
G1 X89.238 Y123.221 E.03601
G1 X88.306 Y122.47 E.03753
G1 X87.318 Y121.453 E.04446
G1 X86.76 Y120.741 E.02836
G1 X85.985 Y119.491 E.04611
G1 X85.483 Y118.413 E.03729
G1 X85.05 Y117.087 E.04374
G1 X84.761 Y115.415 E.0532
G1 X84.739 Y99.629 E.49496
G1 X85.061 Y97.651 E.06284
G1 X85.658 Y95.949 E.05655
G1 X86.04 Y95.178 E.02698
G1 X86.862 Y93.897 E.04772
G1 X87.438 Y93.185 E.02871
G1 X88.262 Y92.361 E.03654
G1 E-1.12 F2400
;WIPE_START
G1 F4800
G1 X88.304 Y92.318 E-.02855
G1 X88.361 Y92.262 E-.03796
G1 X89.036 Y91.712 E-.41349
;WIPE_END
; printing object Shape-Box id:0 copy 0
G1 X119.412 Y106.658 F6000
G1 E1.6 F2400
;TYPE:Perimeter
G1 F1200
G1 X119.245 Y106.662 E.00524
G1 X119.163 Y106.623 E.00285
G1 X119.16 Y106.534 E.00279
G1 X119.193 Y106.475 E.00212
G1 X119.224 Y106.452 E.00121
G1 X119.306 Y106.453 E.00257
G1 X119.343 Y106.487 E.00158
G1 X119.39 Y106.602 E.0039
G1 X119.39 Y106.602 F6000
G1 X120.15 Y107.605
G1 F1200
G1 X120.258 Y107.125 E.01543
G1 X120.531 Y107.064 E.00877
G1 X120.525 Y107.247 E.00574
G1 X120.654 Y107.646 E.01315
G1 X120.7 Y107.729 E.00298
G1 X120.131 Y107.69 E.01788
G1 X120.137 Y107.664 E.00084
G1 E-1.12 F2400
;WIPE_START
G1 F4800
G1 X120.15 Y107.605 E-.0287
G1 X120.258 Y107.125 E-.2337
G1 X120.531 Y107.064 E-.13287
G1 X120.525 Y107.242 E-.08473
;WIPE_END
G1 X122.329 Y106.618 F6000
G1 E1.6 F2400
G1 F1200
G1 X122.354 Y106.53 E.00287
G1 X122.429 Y106.452 E.00339
G1 X122.498 Y106.451 E.00216
G1 X122.546 Y106.478 E.00173
G1 X122.736 Y106.838 E.01276
G1 X122.602 Y106.906 E.00471
G1 X122.471 Y106.921 E.00413
G1 X122.39 Y106.906 E.00258
G1 X122.339 Y106.848 E.00242
G1 X122.323 Y106.772 E.00244
G1 X122.326 Y106.678 E.00295
G1 E-1.12 F2400
;WIPE_START
G1 F4800
G1 X122.329 Y106.618 E-.02854
G1 X122.354 Y106.53 E-.04345
G1 X122.429 Y106.452 E-.0514
G1 X122.498 Y106.451 E-.03278
G1 X122.546 Y106.478 E-.02616
G1 X122.736 Y106.838 E-.19335
G1 X122.602 Y106.906 E-.07138
G1 X122.533 Y106.914 E-.03294
;WIPE_END
G1 X126.276 Y107.585 F6000
G1 E1.6 F2400
;TYPE:External perimeter
G1 F1200
G1 X126.297 Y107.576 E.00072
G1 X126.173 Y107.474 E.00503
G1 X125.978 Y107.371 E.00691
G1 X125.769 Y106.993 E.01354
G1 X125.705 Y106.776 E.00709
G1 X125.688 Y106.549 E.00714
G1 X125.711 Y106.248 E.00947
G1 X125.797 Y105.963 E.00933
G1 X125.94 Y105.703 E.0093
G1 X126.137 Y105.474 E.00947
G1 X126.38 Y105.285 E.00965
G1 X126.658 Y105.149 E.0097
G1 X126.96 Y105.071 E.00978
G1 X127.144 Y105.05 E.00581
G1 X127.459 Y105.051 E.00988
G1 X127.777 Y105.104 E.01011
G1 X128.071 Y105.216 E.00986
G1 X128.335 Y105.394 E.00998
G1 X128.625 Y105.75 E.0144
G1 X128.743 Y106.149 E.01305
G1 X128.794 Y106.418 E.00858
G1 X128.786 Y106.77 E.01104
G1 X128.742 Y106.978 E.00667
G1 X128.583 Y107.344 E.01251
G1 X128.292 Y107.584 E.01183
G1 X128.416 Y107.706 E.00545
G1 X128.58 Y107.809 E.00607
G1 X128.66 Y108.015 E.00693
G1 X128.736 Y108.345 E.01062
G1 X128.712 Y108.623 E.00875
G1 X128.639 Y108.881 E.00841
G1 X128.43 Y109.212 E.01227
G1 X128.122 Y109.474 E.01268
G1 X127.862 Y109.597 E.00902
G1 X127.45 Y109.682 E.01319
G1 X127.003 Y109.664 E.01403
G1 X126.597 Y109.539 E.01332
G1 X126.256 Y109.302 E.01302
G1 X126.01 Y108.99 E.01246
G1 X125.905 Y108.746 E.00833
G1 X125.872 Y108.605 E.00454
G1 X125.85 Y108.344 E.00821
G1 X125.871 Y108.151 E.00609
G1 X125.988 Y107.853 E.01004
G1 X126.101 Y107.663 E.00693
G1 X126.221 Y107.609 E.00413
G1 E-1.12 F2400
;WIPE_START
G1 F4800
G1 X126.276 Y107.585 E-.0285
G1 X126.297 Y107.576 E-.01085
G1 X126.173 Y107.474 E-.07627
G1 X125.978 Y107.371 E-.10475
G1 X125.769 Y106.993 E-.20517
G1 X125.737 Y106.883 E-.05446
;WIPE_END
G1 X129.002 Y106.184 F6000
G1 E1.6 F2400
G1 F1200
G1 X129.451 Y106.117 E.01423
G1 X129.429 Y105.113 E.03149
G1 X130.537 Y105.112 E.03474
G1 X130.537 Y106.056 E.0296
G1 X131.514 Y106.061 E.03063
G1 X132.24 Y106.101 E.0228
G1 X132.137 Y106.887 E.02486
G1 X131.859 Y107.281 E.01512
G1 X131.66 Y107.678 E.01392
G1 X131.418 Y108.071 E.01447
G1 X130.3 Y109.67 E.06117
G1 X129.434 Y109.67 E.02715
G1 X129.448 Y107.072 E.08146
G1 X129.002 Y106.979 E.01428
G1 X129.002 Y106.244 E.02305
G1 X129.002 Y106.244 F6000
G1 X128.987 Y107.361
;TYPE:Perimeter
G1 F1200
G1 X129.063 Y107.377 E.00244
G1 X129.057 Y108.059 E.02138
G1 X129.021 Y107.904 E.00499
G1 X128.894 Y107.577 E.011
G1 X128.963 Y107.416 E.00549
G1 E-1.12 F2400
;WIPE_START
G1 F4800
G1 X128.987 Y107.361 E-.0285
G1 X129.063 Y107.377 E-.03689
G1 X129.057 Y108.059 E-.32396
G1 X129.021 Y107.904 E-.07558
G1 X129.009 Y107.874 E-.01507
;WIPE_END
G1 X132.186 Y107.812 F6000
G1 E1.6 F2400
;TYPE:External perimeter
G1 F1200
G1 X132.248 Y106.956 E.02691
G1 X132.78 Y106.875 E.01687
G1 X133.209 Y106.848 E.01348
G1 X133.206 Y105.749 E.03446
G1 X134.283 Y105.749 E.03377
G1 X134.283 Y106.829 E.03386
G1 X135.355 Y106.829 E.03361
G1 X135.355 Y107.9 E.03358
G1 X134.283 Y107.9 E.03361
G1 X134.283 Y108.971 E.03358
G1 X133.207 Y108.971 E.03374
G1 X133.207 Y107.891 E.03386
G1 X132.788 Y107.876 E.01315
G1 X132.246 Y107.818 E.01709
G1 E-1.12 F2400
;WIPE_START
G1 F4800
G1 X132.186 Y107.812 E-.02864
G1 X132.248 Y106.956 E-.40767
G1 X132.339 Y106.942 E-.04369
;WIPE_END
G1 X124.229 Y107.567 F6000
G1 E1.6 F2400
;TYPE:Perimeter
G1 F1200
G1 X124.221 Y107.752 E.00581
G1 X124.163 Y108.201 E.0142
G1 X123.832 Y109.996 E.05723
G1 X120.603 Y109.975 E.10125
G1 X120.623 Y109.528 E.01403
G1 X120.405 Y109.727 E.00925
G1 X120.11 Y109.897 E.01068
G1 X119.796 Y110.007 E.01043
G1 X119.463 Y110.059 E.01057
G1 X119.058 Y110.052 E.0127
G1 X118.607 Y109.946 E.01453
G1 X118.204 Y109.741 E.01418
G1 X118.003 Y109.583 E.00802
G1 X117.825 Y109.395 E.00812
G1 X117.604 Y109.031 E.01335
G1 X117.515 Y108.776 E.00847
G1 X117.461 Y108.353 E.01337
G1 X117.496 Y108.073 E.00885
G1 X117.691 Y107.59 E.01633
G1 X117.555 Y107.862 E.00954
G1 X117.299 Y108.279 E.01534
G1 X116.061 Y110.047 E.06767
G1 X114.622 Y110.047 E.04512
G1 X114.622 Y107.495 E.08002
G1 X114.09 Y107.495 E.01668
G1 X114.09 Y105.678 E.05697
G1 X114.622 Y105.678 E.01668
G1 X114.622 Y104.735 E.02957
G1 X116.479 Y104.735 E.05822
G1 X116.479 Y105.691 E.02997
G1 X116.681 Y105.695 E.00633
G1 X117.557 Y105.781 E.0276
G1 X117.692 Y105.465 E.01077
G1 X117.855 Y105.258 E.00826
G1 X118.128 Y105.014 E.01148
G1 X118.329 Y104.884 E.00751
G1 X118.694 Y104.741 E.01229
G1 X119.095 Y104.671 E.01276
G1 X119.463 Y104.671 E.01154
G1 X119.822 Y104.73 E.01141
G1 X120.165 Y104.859 E.01149
G1 X120.491 Y105.066 E.01211
G1 X120.84 Y105.458 E.01646
G1 X120.864 Y105.507 E.00171
G1 X121.175 Y105.13 E.01532
G1 X121.39 Y104.96 E.00859
G1 X121.793 Y104.768 E.014
G1 X122.249 Y104.676 E.01459
G1 X122.644 Y104.673 E.01239
G1 X123.003 Y104.728 E.01139
G1 X123.344 Y104.845 E.0113
G1 X123.66 Y105.028 E.01145
G1 X123.928 Y105.272 E.01136
G1 X124.16 Y105.581 E.01212
G1 X124.321 Y106.046 E.01543
G1 X124.374 Y106.317 E.00866
G1 X124.259 Y106.947 E.02008
G1 X124.232 Y107.507 E.01758
G1 E-1.12 F2400
;WIPE_START
G1 F4800
G1 X124.229 Y107.567 E-.02854
G1 X124.221 Y107.752 E-.08796
G1 X124.163 Y108.201 E-.21505
G1 X124.106 Y108.508 E-.14845
;WIPE_END
G1 X117.71 Y106.175 F6000
G1 E1.6 F2400
;TYPE:External perimeter
G1 F1200
G1 X117.71 Y106.875 E.02195
G1 X117.424 Y107.281 E.01557
G1 X117.225 Y107.678 E.01392
G1 X116.983 Y108.071 E.01447
G1 X115.865 Y109.67 E.06117
G1 X114.999 Y109.67 E.02715
G1 X114.999 Y107.118 E.08002
G1 X114.467 Y107.118 E.01668
G1 X114.467 Y106.055 E.03333
G1 X114.999 Y106.055 E.01668
G1 X114.999 Y105.113 E.02954
G1 X116.102 Y105.113 E.03458
G1 X116.102 Y106.06 E.02969
G1 X116.659 Y106.071 E.01747
G1 X117.651 Y106.169 E.03125
G1 E-1.12 F2400
;WIPE_START
G1 F4800
G1 X117.71 Y106.175 E-.02817
G1 X117.71 Y106.875 E-.3325
G1 X117.565 Y107.08 E-.11933
;WIPE_END
G1 X119.902 Y106.986 F6000
G1 E1.6 F2400
G1 F1200
G1 X119.691 Y107.933 E.03042
G1 X119.48 Y107.918 E.00663
G1 X119.154 Y108.045 E.01097
G1 X119.046 Y108.126 E.00423
G1 X118.985 Y108.206 E.00315
G1 X118.958 Y108.314 E.00349
G1 X118.962 Y108.427 E.00355
G1 X119.034 Y108.572 E.00508
G1 X119.199 Y108.659 E.00585
G1 X119.384 Y108.661 E.0058
G1 X119.581 Y108.572 E.00678
G1 X119.753 Y108.331 E.00928
G1 X119.859 Y108.049 E.00945
G1 X120.825 Y108.116 E.03036
G1 X120.605 Y108.916 E.02601
G1 X120.38 Y109.239 E.01234
G1 X120.181 Y109.421 E.00846
G1 X119.952 Y109.552 E.00827
G1 X119.704 Y109.639 E.00824
G1 X119.436 Y109.681 E.00851
G1 X119.104 Y109.676 E.01041
G1 X118.737 Y109.59 E.01182
G1 X118.408 Y109.422 E.01158
G1 X118.258 Y109.303 E.006
G1 X118.126 Y109.165 E.00599
G1 X117.947 Y108.869 E.01085
G1 X117.884 Y108.689 E.00598
G1 X117.841 Y108.353 E.01062
G1 X117.864 Y108.165 E.00594
G1 X117.973 Y107.878 E.00963
G1 X118.079 Y107.691 E.00674
G1 X118.255 Y107.6 E.00621
G1 X118.112 Y107.492 E.00562
G1 X117.98 Y107.347 E.00615
G1 X117.875 Y107.181 E.00616
G1 X117.801 Y106.996 E.00625
G1 X117.758 Y106.797 E.00638
G1 X117.743 Y106.577 E.00691
G1 X117.803 Y106.163 E.01312
G1 X118.019 Y105.659 E.01719
G1 X118.13 Y105.517 E.00565
G1 X118.358 Y105.315 E.00955
G1 X118.502 Y105.221 E.00539
G1 X118.796 Y105.106 E.0099
G1 X119.128 Y105.048 E.01057
G1 X119.433 Y105.048 E.00956
G1 X119.724 Y105.096 E.00925
G1 X119.995 Y105.198 E.00908
G1 X120.244 Y105.356 E.00925
G1 X120.524 Y105.67 E.01319
G1 X120.598 Y105.823 E.00533
G1 X120.785 Y106.62 E.02567
G1 X119.887 Y106.822 E.02886
G1 X119.678 Y106.31 E.01734
G1 X119.628 Y106.235 E.00283
G1 X119.502 Y106.122 E.00531
G1 X119.365 Y106.073 E.00456
G1 X119.165 Y106.076 E.00627
G1 X119.002 Y106.144 E.00554
G1 X118.859 Y106.288 E.00636
G1 X118.815 Y106.371 E.00295
G1 X118.788 Y106.464 E.00304
G1 X118.787 Y106.678 E.00671
G1 X118.849 Y106.836 E.00532
G1 X118.966 Y106.955 E.00523
G1 X119.152 Y107.031 E.0063
G1 X119.307 Y107.048 E.00489
G1 X119.843 Y106.992 E.0169
G1 X119.843 Y106.992 F6000
G1 X121.044 Y108.564
G1 F1200
G1 X122.092 Y108.619 E.0329
G1 X122.691 Y108.606 E.01879
G1 X122.741 Y108.44 E.00544
G1 X122.795 Y108.169 E.00866
G1 X122.567 Y108.226 E.00737
G1 X122.208 Y108.248 E.01128
G1 X121.793 Y108.195 E.01312
G1 X121.511 Y108.076 E.0096
G1 X121.272 Y107.891 E.00948
G1 X121.151 Y107.764 E.0055
G1 X121.001 Y107.495 E.00966
G1 X120.904 Y107.194 E.00992
G1 X120.928 Y106.465 E.02287
G1 X121.119 Y105.822 E.02103
G1 X121.205 Y105.67 E.00548
G1 X121.436 Y105.404 E.01105
G1 X121.591 Y105.282 E.00618
G1 X121.913 Y105.128 E.01119
G1 X122.288 Y105.053 E.01199
G1 X122.617 Y105.05 E.01032
G1 X122.913 Y105.096 E.00939
G1 X123.187 Y105.19 E.00908
G1 X123.436 Y105.334 E.00902
G1 X123.648 Y105.527 E.00899
G1 X123.823 Y105.76 E.00914
G1 X123.956 Y106.145 E.01277
G1 X123.99 Y106.32 E.00559
G1 X123.926 Y106.672 E.01122
G1 X123.096 Y106.713 E.02606
G1 X122.832 Y106.227 E.01734
G1 X122.78 Y106.177 E.00226
G1 X122.563 Y106.072 E.00756
G1 X122.356 Y106.076 E.00649
G1 X122.226 Y106.126 E.00437
G1 X122.103 Y106.226 E.00497
G1 X122.009 Y106.369 E.00537
G1 X121.954 Y106.557 E.00614
