; generated by PrusaSlicer 2.6.0+win64 on 2023-07-24 at 10:07:17 UTC

; 

; external perimeters extrusion width = 0.42mm
; perimeters extrusion width = 0.44mm
; infill extrusion width = 0.44mm
; solid infill extrusion width = 0.44mm
; top infill extrusion width = 0.40mm
; first layer extrusion width = 0.42mm

;TYPE:Custom
; Ender 3 Custom Start G-code
G92 E0 ; Reset Extruder

M140 S80 ; set bed temp
M190 S80 ; wait for bed temp

G28 ; Home all axes
M104 S235 ; set extruder temp 
BED_MESH_CALIBRATE AREA_START=96.0643,97.7882 AREA_END=129.893,131.617

G1 Z2.0 F3000 ; Move Z Axis up little to prevent scratching of Heat Bed
M109 S235 ; wait for extruder temp
G1 X0.1 Y20 Z0.3 F5000.0 ; Move to start position

G1 X0.1 Y200.0 Z0.3 F1500.0 E15 ; Draw the first line
G1 X0.4 Y200.0 Z0.3 F5000.0 ; Move to side a little
G1 X0.4 Y20 Z0.3 F1500.0 E30 ; Draw the second line
G92 E0 ; Reset Extruder
G1 Z2.0 F3000 ; Move Z Axis up little to prevent scratching of Heat Bed
G1 X5 Y20 Z0.3 F5000.0 ; Move over to prevent blob squish
G21 ; set units to millimeters
G90 ; use absolute coordinates
M83 ; use relative distances for extrusion
; Filament gcode
M107
;LAYER_CHANGE
;Z:0.22
;HEIGHT:0.22
;BEFORE_LAYER_CHANGE
G92 E0
;0.22


G1 E-1.6 F2400
G1 Z.22 F6000
;AFTER_LAYER_CHANGE
;0.22
G1 X101.374 Y102.654
G1 E1.6 F2400
M204 S500
;TYPE:Skirt/Brim
;WIDTH:0.42
G1 F1200
G1 X102.465 Y101.691 E.04664
G1 X103.998 Y100.59 E.06049
G1 X105.263 Y99.861 E.0468
G1 X106.989 Y99.084 E.06067
G1 X108.481 Y98.592 E.05035
G1 X110.22 Y98.204 E.05711
G1 X111.648 Y98.028 E.04612
G1 X113.106 Y97.976 E.04676
G1 X114.901 Y98.086 E.05764
G1 X116.305 Y98.309 E.04556
G1 X117.768 Y98.676 E.04834
G1 X119.494 Y99.296 E.05878
G1 X120.865 Y99.951 E.0487
G1 X122.423 Y100.896 E.0584
G1 X123.646 Y101.818 E.04909
G1 X124.944 Y103.014 E.05657
G1 X125.947 Y104.136 E.04824
G1 X126.799 Y105.279 E.04569
G1 X127.729 Y106.814 E.05752
G1 X128.399 Y108.221 E.04995
G1 X129.001 Y109.9 E.05717
G1 X129.382 Y111.423 E.05032
G1 X129.647 Y113.299 E.06073
G1 X129.706 Y114.757 E.04677
G1 X129.594 Y116.64 E.06046
G1 X129.362 Y118.078 E.04669
G1 X128.875 Y119.911 E.06079
G1 X128.366 Y121.264 E.04633
G1 X127.518 Y122.974 E.06118
G1 X126.757 Y124.189 E.04595
G1 X125.853 Y125.382 E.04798
G1 X124.657 Y126.679 E.05655
G1 X123.468 Y127.733 E.05093
G1 X122.036 Y128.766 E.05659
G1 X120.823 Y129.477 E.04506
G1 X119.446 Y130.129 E.04883
G1 X117.784 Y130.725 E.05659
G1 X116.318 Y131.094 E.04845
G1 X114.496 Y131.361 E.05902
G1 X112.909 Y131.43 E.05091
G1 X111.147 Y131.329 E.05657
G1 X109.675 Y131.101 E.04774
G1 X108.276 Y130.756 E.04618
G1 X106.485 Y130.119 E.06093
G1 X105.172 Y129.497 E.04657
G1 X103.553 Y128.522 E.06057
G1 X102.384 Y127.648 E.04678
G1 X100.991 Y126.37 E.06059
G1 X99.949 Y125.191 E.05043
G1 X98.907 Y123.748 E.05705
G1 X98.181 Y122.504 E.04617
G1 X97.523 Y121.1 E.0497
G1 X96.934 Y119.436 E.05658
G1 X96.569 Y117.948 E.04911
G1 X96.313 Y116.145 E.05837
G1 X96.251 Y114.625 E.04876
G1 X96.36 Y112.796 E.05873
G1 X96.599 Y111.305 E.0484
G1 X97.073 Y109.523 E.0591
G1 X97.6 Y108.121 E.04801
G1 X98.219 Y106.83 E.04589
G1 X99.213 Y105.198 E.06125
G1 X100.084 Y104.047 E.04626
G1 X101.333 Y102.698 E.05892
G1 X101.607 Y102.951 F6000
G1 F1200
G1 X102.695 Y101.985 E.04663
G1 X104.203 Y100.901 E.05953
G1 X105.43 Y100.194 E.04539
G1 X107.128 Y99.43 E.05968
G1 X108.579 Y98.951 E.04898
G1 X110.287 Y98.57 E.05609
G1 X111.673 Y98.4 E.04476
G1 X113.102 Y98.349 E.04583
G1 X114.863 Y98.457 E.05655
G1 X116.228 Y98.674 E.0443
G1 X117.657 Y99.031 E.04721
G1 X119.347 Y99.638 E.05755
G1 X120.685 Y100.277 E.04752
G1 X122.212 Y101.204 E.05725
G1 X123.404 Y102.102 E.04783
G1 X124.68 Y103.277 E.0556
G1 X125.66 Y104.374 E.04715
G1 X126.488 Y105.484 E.04438
G1 X127.401 Y106.991 E.05647
G1 X128.054 Y108.36 E.04861
G1 X128.645 Y110.009 E.05614
G1 X129.015 Y111.491 E.04896
G1 X129.276 Y113.335 E.05969
G1 X129.333 Y114.75 E.04539
G1 X129.223 Y116.603 E.0595
G1 X128.998 Y117.998 E.04529
G1 X128.519 Y119.801 E.05979
G1 X128.025 Y121.114 E.04496
G1 X127.192 Y122.794 E.0601
G1 X126.452 Y123.974 E.04464
G1 X125.569 Y125.141 E.0469
G1 X124.393 Y126.416 E.05559
G1 X123.237 Y127.44 E.0495
G1 X121.83 Y128.455 E.05561
G1 X120.65 Y129.147 E.04384
G1 X119.306 Y129.784 E.04767
G1 X117.673 Y130.369 E.0556
G1 X116.241 Y130.729 E.04733
G1 X114.458 Y130.99 E.05776
G1 X112.916 Y131.058 E.04947
G1 X111.184 Y130.958 E.05561
G1 X109.745 Y130.735 E.04667
G1 X108.386 Y130.4 E.04486
G1 X106.625 Y129.773 E.05991
G1 X105.351 Y129.17 E.04518
G1 X103.758 Y128.211 E.0596
G1 X102.624 Y127.363 E.04538
G1 X101.254 Y126.106 E.05959
G1 X100.24 Y124.959 E.04907
G1 X99.217 Y123.541 E.05604
G1 X98.512 Y122.333 E.04483
G1 X97.869 Y120.962 E.04854
G1 X97.291 Y119.326 E.05561
G1 X96.934 Y117.875 E.04789
G1 X96.684 Y116.108 E.0572
G1 X96.623 Y114.625 E.04757
G1 X96.731 Y112.834 E.05751
G1 X96.965 Y111.378 E.04727
G1 X97.429 Y109.635 E.05781
G1 X97.944 Y108.264 E.04694
G1 X98.546 Y107.01 E.04458
G1 X99.522 Y105.406 E.06018
G1 X100.367 Y104.289 E.04489
G1 X101.566 Y102.995 E.05654
G1 X101.839 Y103.248 F6000
G1 F1200
G1 X102.924 Y102.279 E.04663
G1 X104.408 Y101.212 E.05858
G1 X105.597 Y100.527 E.04398
G1 X107.266 Y99.776 E.05866
G1 X108.677 Y99.311 E.04762
G1 X110.354 Y98.937 E.05507
G1 X111.699 Y98.771 E.04344
G1 X113.098 Y98.721 E.04487
G1 X114.825 Y98.827 E.05546
G1 X116.152 Y99.038 E.04307
G1 X117.546 Y99.387 E.04606
G1 X119.2 Y99.981 E.05633
G1 X120.505 Y100.604 E.04635
G1 X122.001 Y101.511 E.05607
G1 X123.163 Y102.386 E.04662
G1 X124.417 Y103.541 E.05464
G1 X125.372 Y104.612 E.04599
G1 X126.177 Y105.69 E.04312
G1 X127.061 Y107.148 E.05465
G1 X127.708 Y108.5 E.04804
G1 X128.288 Y110.118 E.05509
G1 X128.648 Y111.558 E.04757
G1 X128.905 Y113.372 E.05872
G1 X128.961 Y114.742 E.04395
G1 X128.852 Y116.566 E.05857
G1 X128.634 Y117.917 E.04386
G1 X128.163 Y119.69 E.0588
G1 X127.684 Y120.964 E.04362
G1 X126.865 Y122.615 E.05907
G1 X126.147 Y123.76 E.04332
G1 X125.285 Y124.899 E.04578
G1 X124.129 Y126.153 E.05466
G1 X123.007 Y127.146 E.04802
G1 X121.624 Y128.144 E.05466
G1 X120.476 Y128.817 E.04265
G1 X119.167 Y129.438 E.04644
G1 X117.561 Y130.013 E.05467
G1 X116.165 Y130.364 E.04614
G1 X114.42 Y130.619 E.05652
G1 X112.923 Y130.685 E.04803
G1 X111.22 Y130.587 E.05467
G1 X109.814 Y130.369 E.0456
G1 X108.496 Y130.044 E.04351
G1 X106.765 Y129.428 E.05889
G1 X105.53 Y128.843 E.0438
G1 X103.964 Y127.9 E.05859
G1 X102.865 Y127.078 E.04399
G1 X101.517 Y125.841 E.05864
G1 X100.532 Y124.727 E.04766
G1 X99.528 Y123.335 E.05501
G1 X98.844 Y122.163 E.04349
G1 X98.215 Y120.823 E.04745
G1 X97.647 Y119.216 E.05463
G1 X97.3 Y117.802 E.04667
G1 X97.055 Y116.071 E.05603
G1 X96.996 Y114.625 E.04638
G1 X97.102 Y112.872 E.05629
G1 X97.33 Y111.452 E.0461
G1 X97.785 Y109.746 E.05659
G1 X98.288 Y108.408 E.04581
G1 X99.077 Y106.819 E.05686
G1 X99.831 Y105.615 E.04553
G1 X100.651 Y104.531 E.04356
G1 X101.798 Y103.292 E.05412
; printing object sprayhead_v2_360dgNOdosage.stl id:0 copy 0
G1 E-1.12 F2400
;WIPE_START
G1 F4800
G1 X102.549 Y102.616 E-.48
;WIPE_END
G1 X115.796 Y106.079 F6000
G1 E1.6 F2400
;TYPE:Perimeter
G1 F1200
G1 X115.863 Y105.851 E.00762
G1 X116.358 Y106.028 E.01685
G1 X115.853 Y106.06 E.01622
G1 X117.519 Y106.531 F6000
G1 F1200
G1 X117.446 Y106.46 E.00326
G1 X117.537 Y106.496 E.00314
G1 X117.625 Y107.195 F6000
;TYPE:External perimeter
G1 F1200
G1 X117.502 Y107.035 E.00647
G1 X117.122 Y106.665 E.017
G1 X117.003 Y106.582 E.00465
G1 X116.569 Y106.42 E.01485
G1 X116.421 Y106.399 E.00479
G1 X115.934 Y106.426 E.01563
G1 X115.78 Y106.477 E.0052
G1 X115.688 Y106.542 E.00361
G1 X115.419 Y106.637 E.00914
G1 X115.17 Y106.78 E.0092
G1 X115.268 Y106.387 E.01298
G1 X115.441 Y105.966 E.01459
G1 X115.61 Y105.385 E.01939
G1 X116.19 Y105.561 E.01943
G1 X117.892 Y106.236 E.05868
G1 X118.28 Y106.486 E.01479
G1 X118.204 Y106.5 E.00248
G1 X118.045 Y106.574 E.00562
G1 X117.81 Y106.772 E.00985
G1 X117.651 Y107.046 E.01015
G1 X117.636 Y107.136 E.00292
G1 X117.565 Y107.002 F6000
G1 E-1.12 F2400
;WIPE_START
G1 F4800
G1 X117.502 Y107.035 E-.07971
G1 X117.122 Y106.665 E-.25193
G1 X117.003 Y106.582 E-.06892
G1 X116.846 Y106.524 E-.07944
;WIPE_END
G1 X112.873 Y108.023 F6000
G1 E1.6 F2400
;TYPE:Perimeter
G1 F1200
G1 X113.081 Y107.978 E.00682
G1 X113.301 Y107.96 E.00707
G1 X113.828 Y107.972 E.0169
G1 X113.727 Y108.447 E.01556
G1 X113.587 Y108.331 E.00583
G1 X113.3 Y108.156 E.01077
G1 X112.932 Y108.032 E.01245
G1 X114.136 Y107.31 F6000
G1 F1200
G1 X114.136 Y106.613 E.02234
G1 X114.415 Y107 E.01529
G1 X114.172 Y107.262 E.01145
G1 E-1.12 F2400
;WIPE_START
G1 F4800
G1 X114.136 Y106.613 E-.30875
G1 X114.347 Y106.905 E-.17125
;WIPE_END
G1 X112.146 Y106.191 F6000
G1 E1.6 F2400
G1 F1200
G1 X112.57 Y105.546 E.02474
G1 X112.983 Y104.781 E.02786
G1 X113.144 Y105.113 E.01183
G1 X113.393 Y105.551 E.01615
G1 X113.681 Y105.983 E.01664
G1 X113.327 Y105.989 E.01135
G1 X112.67 Y106.057 E.02117
G1 X112.202 Y106.171 E.01544
G1 E-1.12 F2400
;WIPE_START
G1 F4800
G1 X112.57 Y105.546 E-.34451
G1 X112.706 Y105.295 E-.13549
;WIPE_END
G1 X110.297 Y107.542 F6000
G1 E1.6 F2400
G1 F1200
G1 X110.21 Y107.21 E.011
G1 X109.995 Y106.828 E.01405
G1 X109.82 Y106.622 E.00866
G1 X109.451 Y106.33 E.01508
G1 X109.122 Y106.197 E.01137
G1 X110.074 Y105.857 E.0324
G1 X110.276 Y106.536 E.02271
G1 X110.559 Y107.225 E.02387
G1 X110.336 Y107.496 E.01125
G1 X110.944 Y107.181 F6000
;TYPE:External perimeter
G1 F1200
G1 X111.732 Y106.142 E.0418
G1 X112.25 Y105.354 E.03022
G1 X112.976 Y104.026 E.04851
G1 X113.272 Y104.522 E.01851
G1 X113.475 Y104.94 E.01489
G1 X113.711 Y105.355 E.0153
G1 X114.234 Y106.141 E.03026
G1 X114.528 Y106.505 E.015
G1 X114.879 Y107.018 E.01992
G1 X114.602 Y107.366 E.01426
G1 X114.501 Y107.444 E.00409
G1 X114.398 Y107.581 E.00549
G1 X114.212 Y107.966 E.0137
G1 X114.085 Y108.576 E.01997
G1 X114.101 Y108.892 E.01014
G1 X114.068 Y109.372 E.01542
G1 X114.076 Y109.637 E.0085
G1 X114.043 Y109.537 E.00338
G1 X113.866 Y109.205 E.01206
G1 X113.578 Y108.808 E.01572
G1 X113.37 Y108.635 E.00867
G1 X113.139 Y108.494 E.00867
G1 X112.873 Y108.4 E.00904
G1 X112.59 Y108.36 E.00916
G1 X112.214 Y108.372 E.01206
G1 X111.754 Y108.509 E.01538
G1 X111.48 Y108.616 E.00943
G1 X111.372 Y108.68 E.00402
G1 X111.561 Y108.344 E.01236
G1 X111.76 Y108.108 E.00989
G1 X112.147 Y107.887 E.01428
G1 X112.598 Y107.702 E.01562
G1 X113.026 Y107.608 E.01404
G1 X113.29 Y107.587 E.00849
G1 X113.763 Y107.598 E.01516
G1 X113.763 Y106.355 E.03984
G1 X113.349 Y106.361 E.01327
G1 X112.731 Y106.426 E.01992
G1 X112.354 Y106.512 E.01239
G1 X112.165 Y106.581 E.00645
G1 X111.826 Y106.746 E.01208
G1 X111.256 Y107.153 E.02245
G1 X111.01 Y107.37 E.01051
G1 X110.821 Y107.494 E.00725
G1 X110.518 Y107.86 E.01523
G1 X110.39 Y108.08 E.00816
G1 X110.136 Y108.772 E.02363
G1 X110.071 Y109.033 E.00862
G1 X110.038 Y109.307 E.00885
G1 X110.008 Y109.996 E.0221
G1 X110.023 Y110.215 E.00704
G1 X109.936 Y109.975 E.00818
G1 X109.763 Y109.703 E.01033
G1 X109.543 Y109.474 E.01018
G1 X109.284 Y109.292 E.01015
G1 X109.173 Y109.241 E.00392
G1 X109.267 Y109.182 E.00356
G1 X109.667 Y108.818 E.01733
G1 X109.753 Y108.676 E.00532
G1 X109.9 Y108.311 E.01261
G1 X109.967 Y107.958 E.01152
G1 X109.95 Y107.689 E.00864
G1 X109.862 Y107.351 E.01119
G1 X109.688 Y107.043 E.01134
G1 X109.559 Y106.891 E.00639
G1 X109.262 Y106.656 E.01214
G1 X108.887 Y106.504 E.01297
G1 X108.655 Y106.458 E.00758
G1 X108.436 Y106.47 E.00703
G1 X108.088 Y106.448 E.01118
G1 X107.675 Y106.487 E.0133
G1 X108.071 Y106.232 E.0151
G1 X108.472 Y106.041 E.01424
G1 X109.764 Y105.561 E.04418
G1 X110.338 Y105.388 E.01921
G1 X110.485 Y105.961 E.01896
G1 X110.627 Y106.409 E.01506
G1 X110.922 Y107.126 E.02485
G1 X111.213 Y107.478 F6000
G1 E-1.12 F2400
;WIPE_START
G1 F4800
G1 X111.564 Y106.346 E-.48
;WIPE_END
G1 X112.929 Y102.93 F6000
G1 E1.6 F2400
;TYPE:Perimeter
G1 F1200
G1 X112.132 Y102.375 E.03113
G1 X111.269 Y101.883 E.03184
G1 X112.441 Y101.787 E.03769
G1 X113.066 Y101.777 E.02003
G1 X113.996 Y101.816 E.02983
G1 X114.692 Y101.881 E.0224
G1 X113.437 Y102.587 E.04615
G1 X112.976 Y102.893 E.01773
G1 X112.961 Y103.377 F6000
;TYPE:External perimeter
G1 F1200
G1 X112.689 Y103.222 E.01003
G1 X111.929 Y102.688 E.02977
G1 X111.521 Y102.445 E.01522
G1 X111.104 Y102.217 E.01523
G1 X110.258 Y101.835 E.02975
G1 X109.943 Y101.655 E.01163
G1 X110.39 Y101.557 E.01467
G1 X110.924 Y101.537 E.01713
G1 X112.422 Y101.415 E.04817
G1 X113.07 Y101.404 E.02077
G1 X114.021 Y101.444 E.03051
G1 X115.101 Y101.545 E.03477
G1 X115.635 Y101.569 E.01713
G1 X116.016 Y101.654 E.01251
G1 X115.7 Y101.834 E.01166
G1 X114.854 Y102.217 E.02976
G1 X113.63 Y102.906 E.04502
G1 X113.229 Y103.168 E.01535
G1 X113.008 Y103.34 E.00898
G1 X112.844 Y103.087 F6000
G1 E-1.12 F2400
;WIPE_START
G1 F4800
G1 X112.689 Y103.222 E-.16156
G1 X112.14 Y102.837 E-.31844
;WIPE_END
G1 X109.398 Y103.068 F6000
G1 E1.6 F2400
;TYPE:Perimeter
G1 F1200
G1 X109.019 Y103.181 E.01268
G1 X108.51 Y103.369 E.01739
G1 X107.546 Y103.797 E.03381
G1 X106.623 Y104.308 E.03381
G1 X106.166 Y104.602 E.01742
G1 X105.318 Y105.229 E.0338
G1 X104.522 Y105.932 E.03404
G1 X103.791 Y106.701 E.03401
G1 X103.13 Y107.53 E.03398
G1 X102.623 Y108.288 E.02923
G1 X102.277 Y108.879 E.02195
G1 X101.812 Y109.829 E.0339
G1 X101.431 Y110.819 E.034
G1 X101.138 Y111.833 E.03383
G1 X101.022 Y112.363 E.01739
G1 X100.884 Y113.258 E.02902
G1 X100.82 Y113.933 E.02173
G1 X100.798 Y114.472 E.01729
G1 X100.823 Y115.527 E.03382
G1 X100.941 Y116.582 E.03402
G1 X101.15 Y117.622 E.034
G1 X101.447 Y118.634 E.0338
G1 X101.634 Y119.144 E.01741
G1 X101.997 Y119.973 E.02901
G1 X102.305 Y120.577 E.02173
G1 X102.576 Y121.044 E.01731
G1 X103.163 Y121.921 E.03382
G1 X103.829 Y122.747 E.03401
G1 X104.559 Y123.508 E.0338
G1 X104.96 Y123.875 E.01742
G1 X105.784 Y124.535 E.03384
G1 X106.667 Y125.124 E.03402
G1 X107.597 Y125.633 E.03398
G1 X108.569 Y126.06 E.03403
G1 X109.574 Y126.401 E.03402
G1 X110.599 Y126.651 E.03382
G1 X111.134 Y126.745 E.01741
G1 X112.183 Y126.86 E.03382
G1 X113.244 Y126.883 E.03401
G1 X114.303 Y126.814 E.03401
G1 X115.346 Y126.654 E.03382
G1 X116.389 Y126.399 E.03441
G1 X117.388 Y126.06 E.03381
G1 X118.36 Y125.633 E.03403
G1 X119.29 Y125.124 E.03398
G1 X120.173 Y124.535 E.03402
G1 X121.002 Y123.871 E.03404
G1 X121.769 Y123.138 E.034
G1 X122.466 Y122.346 E.03381
G1 X122.797 Y121.915 E.01742
G1 X123.384 Y121.039 E.0338
G1 X123.896 Y120.109 E.03403
G1 X124.323 Y119.145 E.03379
G1 X124.51 Y118.634 E.01744
G1 X124.807 Y117.622 E.0338
G1 X125.016 Y116.582 E.034
G1 X125.134 Y115.527 E.03402
G1 X125.159 Y114.472 E.03382
G1 X125.137 Y113.93 E.01739
G1 X125.044 Y113.029 E.02903
G1 X124.934 Y112.36 E.02173
G1 X124.82 Y111.839 E.01709
G1 X124.682 Y111.32 E.01721
G1 X124.348 Y110.326 E.03361
G1 X124.142 Y109.823 E.01742
G1 X123.681 Y108.881 E.03361
G1 X123.411 Y108.41 E.0174
G1 X122.827 Y107.531 E.03382
G1 X122.17 Y106.706 E.0338
G1 X121.805 Y106.305 E.01738
G1 X121.155 Y105.674 E.02904
G1 X120.641 Y105.231 E.02175
G1 X120.214 Y104.901 E.0173
G1 X119.344 Y104.315 E.03362
G1 X118.875 Y104.042 E.01739
G1 X117.931 Y103.571 E.03381
G1 X116.944 Y103.183 E.03399
G1 X116.559 Y103.068 E.01288
G1 X116.62 Y102.772 E.00969
G1 X116.689 Y102.228 E.01758
G1 X116.983 Y102.373 E.01051
G1 X117.996 Y102.789 E.0351
G1 X118.574 Y103.05 E.02033
G1 X119.397 Y103.482 E.02979
G1 X119.837 Y103.745 E.01643
G1 X120.363 Y104.093 E.02021
G1 X121.105 Y104.65 E.02974
G1 X121.582 Y105.055 E.02006
G1 X122.252 Y105.698 E.02976
G1 X122.681 Y106.161 E.02023
G1 X123.011 Y106.551 E.01637
G1 X123.638 Y107.39 E.03357
G1 X123.917 Y107.814 E.01627
G1 X124.383 Y108.618 E.02978
G1 X124.667 Y109.182 E.02024
G1 X125.069 Y110.129 E.03297
G1 X125.366 Y111.011 E.02983
G1 X125.532 Y111.619 E.0202
G1 X125.645 Y112.123 E.01655
G1 X125.738 Y112.628 E.01646
G1 X125.852 Y113.551 E.02981
G1 X125.895 Y114.18 E.02021
G1 X125.906 Y114.696 E.01654
G1 X125.895 Y115.212 E.01654
G1 X125.853 Y115.842 E.02024
G1 X125.74 Y116.765 E.0298
G1 X125.648 Y117.27 E.01645
G1 X125.535 Y117.774 E.01655
G1 X125.369 Y118.383 E.02023
G1 X125.074 Y119.265 E.02981
G1 X124.883 Y119.741 E.01644
G1 X124.672 Y120.212 E.01654
