; generated by PrusaSlicer 2.6.0+win64 on 2023-07-24 at 11:29:33 UTC

; 

; external perimeters extrusion width = 0.42mm
; perimeters extrusion width = 0.44mm
; infill extrusion width = 0.44mm
; solid infill extrusion width = 0.44mm
; top infill extrusion width = 0.40mm
; first layer extrusion width = 0.42mm

;TYPE:Custom
; Ender 3 Custom Start G-code
G92 E0 ; Reset Extruder

M140 S80 ; set bed temp
M190 S80 ; wait for bed temp

G28 ; Home all axes
M104 S235 ; set extruder temp 
BED_MESH_CALIBRATE AREA_START=98.1966,98.1961 AREA_END=132.803,132.804

G1 Z2.0 F3000 ; Move Z Axis up little to prevent scratching of Heat Bed
M109 S235 ; wait for extruder temp
G1 X0.1 Y20 Z0.3 F5000.0 ; Move to start position

G1 X0.1 Y200.0 Z0.3 F1500.0 E15 ; Draw the first line
G1 X0.4 Y200.0 Z0.3 F5000.0 ; Move to side a little
G1 X0.4 Y20 Z0.3 F1500.0 E30 ; Draw the second line
G92 E0 ; Reset Extruder
G1 Z2.0 F3000 ; Move Z Axis up little to prevent scratching of Heat Bed
G1 X5 Y20 Z0.3 F5000.0 ; Move over to prevent blob squish
G21 ; set units to millimeters
G90 ; use absolute coordinates
M83 ; use relative distances for extrusion
; Filament gcode
M107
;LAYER_CHANGE
;Z:0.22
;HEIGHT:0.22
;BEFORE_LAYER_CHANGE
G92 E0
;0.22


G1 E-1.6 F2400
G1 Z.22 F6000
;AFTER_LAYER_CHANGE
;0.22
G1 X103.653 Y103.143
G1 E1.6 F2400
M204 S500
;TYPE:Skirt/Brim
;WIDTH:0.42
G1 F1200
G1 X104.761 Y102.169 E.04728
G1 X106.309 Y101.058 E.06107
G1 X107.587 Y100.32 E.0473
G1 X109.322 Y99.535 E.06104
G1 X110.72 Y99.063 E.04729
G1 X112.576 Y98.633 E.06106
G1 X114.04 Y98.444 E.04731
G1 X115.898 Y98.387 E.05958
G1 X117.294 Y98.477 E.04484
G1 X118.753 Y98.694 E.04728
G1 X120.601 Y99.16 E.06108
G1 X121.989 Y99.66 E.04729
G1 X123.709 Y100.48 E.06107
G1 X124.972 Y101.243 E.04729
G1 X126.498 Y102.384 E.06107
G1 X127.587 Y103.38 E.0473
G1 X128.859 Y104.798 E.06106
G1 X129.731 Y105.988 E.04729
G1 X130.699 Y107.629 E.06107
G1 X131.321 Y108.967 E.04729
G1 X131.949 Y110.766 E.06107
G1 X132.295 Y112.2 E.04728
G1 X132.558 Y114.087 E.06107
G1 X132.616 Y115.562 E.04731
G1 X132.504 Y117.463 E.06104
G1 X132.271 Y118.921 E.04732
G1 X131.787 Y120.763 E.06104
G1 X131.273 Y122.147 E.04732
G1 X130.437 Y123.858 E.06104
G1 X129.662 Y125.114 E.0473
G1 X128.506 Y126.628 E.06105
G1 X127.499 Y127.707 E.0473
G1 X126.068 Y128.965 E.06107
G1 X124.869 Y129.825 E.04729
G1 X123.219 Y130.778 E.06107
G1 X121.875 Y131.386 E.04728
G1 X120.07 Y131.996 E.06107
G1 X118.632 Y132.329 E.04731
G1 X116.743 Y132.573 E.06105
G1 X115.268 Y132.616 E.0473
G1 X113.367 Y132.485 E.06107
G1 X111.912 Y132.238 E.0473
G1 X110.075 Y131.736 E.06104
G1 X108.697 Y131.208 E.0473
G1 X106.993 Y130.355 E.06108
G1 X105.847 Y129.637 E.04334
G1 X104.665 Y128.754 E.04729
G1 X103.259 Y127.468 E.06107
G1 X102.274 Y126.369 E.0473
G1 X101.148 Y124.832 E.06107
G1 X100.398 Y123.562 E.04727
G1 X99.596 Y121.834 E.06106
G1 X99.109 Y120.44 E.04733
G1 X98.662 Y118.589 E.06103
G1 X98.458 Y117.127 E.04731
G1 X98.383 Y115.223 E.06107
G1 X98.47 Y113.75 E.04729
G1 X98.77 Y111.869 E.06105
G1 X99.145 Y110.442 E.04729
G1 X99.809 Y108.656 E.06107
G1 X100.456 Y107.33 E.04729
G1 X101.457 Y105.709 E.06106
G1 X102.353 Y104.536 E.04731
G1 X103.612 Y103.187 E.05914
G1 X103.884 Y103.441 F6000
G1 F1200
G1 X104.99 Y102.463 E.04732
G1 X106.514 Y101.369 E.06013
G1 X107.754 Y100.654 E.04588
G1 X109.463 Y99.881 E.06012
G1 X110.819 Y99.422 E.04588
G1 X112.646 Y99 E.0601
G1 X114.066 Y98.816 E.04589
G1 X115.894 Y98.76 E.05862
G1 X117.261 Y98.848 E.0439
G1 X118.677 Y99.059 E.04589
G1 X120.495 Y99.518 E.0601
G1 X121.842 Y100.003 E.04589
G1 X123.536 Y100.81 E.06014
G1 X124.761 Y101.55 E.04587
G1 X126.263 Y102.673 E.06011
G1 X127.319 Y103.639 E.04587
G1 X128.571 Y105.036 E.06013
G1 X129.417 Y106.19 E.04586
G1 X130.371 Y107.805 E.06012
G1 X130.974 Y109.104 E.0459
G1 X131.592 Y110.875 E.06012
G1 X131.929 Y112.266 E.04587
G1 X132.187 Y114.124 E.06012
G1 X132.244 Y115.554 E.04587
G1 X132.133 Y117.427 E.06014
G1 X131.907 Y118.84 E.04586
G1 X131.431 Y120.654 E.06011
G1 X130.932 Y121.996 E.04589
G1 X130.109 Y123.682 E.06013
G1 X129.357 Y124.9 E.04588
G1 X128.219 Y126.39 E.06009
G1 X127.242 Y127.437 E.0459
G1 X125.833 Y128.675 E.06012
G1 X124.67 Y129.51 E.04589
G1 X123.046 Y130.448 E.06011
G1 X121.742 Y131.038 E.04587
G1 X119.965 Y131.639 E.06012
G1 X118.57 Y131.961 E.04589
G1 X116.71 Y132.201 E.06011
G1 X115.279 Y132.244 E.04589
G1 X113.408 Y132.114 E.06011
G1 X112.103 Y131.897 E.0424
G1 X110.715 Y131.547 E.04588
G1 X108.95 Y130.911 E.06013
G1 X107.658 Y130.296 E.04586
G1 X106.052 Y129.326 E.06013
G1 X104.906 Y128.469 E.04587
G1 X103.522 Y127.203 E.06012
G1 X102.566 Y126.137 E.04589
G1 X101.458 Y124.624 E.06011
G1 X100.73 Y123.391 E.04589
G1 X99.94 Y121.69 E.06011
G1 X99.468 Y120.339 E.04587
G1 X99.027 Y118.515 E.06015
G1 X98.83 Y117.098 E.04585
G1 X98.756 Y115.223 E.06014
G1 X98.841 Y113.794 E.04588
G1 X99.136 Y111.942 E.06011
G1 X99.499 Y110.558 E.04586
G1 X100.153 Y108.799 E.06015
G1 X100.781 Y107.513 E.04587
G1 X101.767 Y105.917 E.06013
G1 X102.635 Y104.779 E.04587
G1 X103.843 Y103.485 E.05674
G1 X104.115 Y103.739 F6000
G1 F1200
G1 X105.219 Y102.757 E.04736
G1 X106.719 Y101.681 E.05917
G1 X107.921 Y100.987 E.04449
G1 X109.603 Y100.226 E.05917
G1 X110.917 Y99.782 E.04445
G1 X112.716 Y99.366 E.05918
G1 X114.092 Y99.188 E.04447
G1 X115.89 Y99.133 E.05766
G1 X117.228 Y99.219 E.04297
G1 X118.6 Y99.424 E.04446
G1 X120.39 Y99.875 E.05916
G1 X121.695 Y100.346 E.04447
G1 X123.362 Y101.14 E.05918
G1 X124.549 Y101.857 E.04445
G1 X126.028 Y102.963 E.05919
G1 X127.052 Y103.899 E.04447
G1 X128.284 Y105.273 E.05915
G1 X129.104 Y106.393 E.04449
G1 X130.043 Y107.982 E.05916
G1 X130.627 Y109.241 E.04448
G1 X131.236 Y110.984 E.05918
G1 X131.562 Y112.332 E.04445
G1 X131.816 Y114.161 E.05918
G1 X131.871 Y115.547 E.04446
G1 X131.762 Y117.39 E.05917
G1 X131.543 Y118.76 E.04447
G1 X131.074 Y120.546 E.05918
G1 X130.591 Y121.846 E.04445
G1 X129.781 Y123.505 E.05917
G1 X129.052 Y124.685 E.04446
G1 X127.931 Y126.153 E.0592
G1 X126.985 Y127.167 E.04445
G1 X125.598 Y128.386 E.05918
G1 X124.471 Y129.195 E.04446
G1 X122.872 Y130.118 E.05918
G1 X121.608 Y130.69 E.04447
G1 X119.859 Y131.281 E.05917
G1 X118.508 Y131.593 E.04444
G1 X116.677 Y131.83 E.05918
G1 X115.29 Y131.871 E.04447
G1 X113.448 Y131.743 E.05918
G1 X112.172 Y131.531 E.04146
G1 X110.827 Y131.192 E.04446
G1 X109.09 Y130.566 E.05918
G1 X107.838 Y129.969 E.04446
G1 X106.257 Y129.015 E.05918
G1 X105.146 Y128.184 E.04447
G1 X103.784 Y126.938 E.05917
G1 X102.858 Y125.905 E.04446
G1 X101.767 Y124.416 E.05916
G1 X101.061 Y123.221 E.04449
G1 X100.284 Y121.547 E.05915
G1 X99.826 Y120.237 E.04448
G1 X99.393 Y118.442 E.05918
G1 X99.202 Y117.068 E.04446
G1 X99.129 Y115.223 E.05918
G1 X99.211 Y113.839 E.04444
G1 X99.501 Y112.015 E.0592
G1 X99.854 Y110.674 E.04445
G1 X100.497 Y108.943 E.05918
G1 X101.106 Y107.696 E.04448
G1 X102.076 Y106.125 E.05918
G1 X102.918 Y105.023 E.04445
G1 X104.074 Y103.783 E.05434
; printing object sprayhead_v2_360dgNOdosage.stl id:0 copy 0
G1 E-1.12 F2400
;WIPE_START
G1 F4800
G1 X104.827 Y103.109 E-.48
;WIPE_END
G1 X105.948 Y106.22 F6000
G1 E1.6 F2400
;TYPE:Perimeter
G1 F1200
G1 X106.313 Y105.858 E.01648
G1 X107.112 Y105.155 E.03411
G1 X107.518 Y104.839 E.01649
G1 X108.395 Y104.236 E.03411
G1 X108.835 Y103.97 E.01648
G1 X109.732 Y103.497 E.0325
G1 X110.739 Y103.063 E.03515
G1 X111.741 Y102.724 E.0339
G1 X112.237 Y102.589 E.01648
G1 X113.273 Y102.371 E.03393
G1 X114.322 Y102.235 E.0339
G1 X114.837 Y102.199 E.01655
G1 X115.607 Y102.186 E.02468
G1 X116.423 Y102.215 E.02617
G1 X116.937 Y102.261 E.01654
G1 X117.989 Y102.418 E.03409
G1 X118.493 Y102.524 E.01651
G1 X119.514 Y102.803 E.03392
G1 X120.503 Y103.16 E.0337
G1 X121.462 Y103.593 E.03373
G1 X122.389 Y104.104 E.03393
G1 X122.824 Y104.379 E.01649
G1 X123.688 Y104.999 E.03408
G1 X124.088 Y105.323 E.0165
G1 X124.868 Y106.037 E.03389
G1 X125.59 Y106.811 E.03393
G1 X125.918 Y107.207 E.01648
G1 X126.544 Y108.061 E.03394
G1 X127.1 Y108.961 E.03391
G1 X127.344 Y109.414 E.01649
G1 X127.789 Y110.374 E.03391
G1 X128.155 Y111.36 E.03371
G1 X128.444 Y112.378 E.03392
G1 X128.555 Y112.88 E.01648
G1 X128.723 Y113.931 E.03411
G1 X128.774 Y114.443 E.01649
G1 X128.815 Y115.5 E.0339
G1 X128.774 Y116.557 E.0339
G1 X128.723 Y117.069 E.01649
G1 X128.555 Y118.12 E.03411
G1 X128.444 Y118.622 E.01648
G1 X128.155 Y119.64 E.03392
G1 X127.789 Y120.626 E.03371
G1 X127.344 Y121.586 E.03391
G1 X127.1 Y122.039 E.01649
G1 X126.544 Y122.939 E.03391
G1 X125.922 Y123.788 E.03373
G1 X125.231 Y124.59 E.03393
G1 X124.873 Y124.959 E.01648
G1 X124.088 Y125.677 E.0341
G1 X123.688 Y126.001 E.0165
G1 X122.828 Y126.618 E.03392
G1 X121.928 Y127.162 E.03371
G1 X120.982 Y127.636 E.03391
G1 X120.509 Y127.839 E.0165
G1 X119.514 Y128.197 E.03389
G1 X118.493 Y128.476 E.03392
G1 X117.984 Y128.583 E.01667
G1 X117.471 Y128.67 E.01668
G1 X116.419 Y128.785 E.03392
G1 X115.361 Y128.816 E.03392
G1 X114.847 Y128.801 E.01648
G1 X113.793 Y128.707 E.03392
G1 X112.756 Y128.531 E.03371
G1 X111.73 Y128.273 E.03391
G1 X111.239 Y128.117 E.01651
G1 X110.246 Y127.737 E.03408
G1 X109.777 Y127.525 E.0165
G1 X108.84 Y127.033 E.03392
G1 X107.951 Y126.471 E.03371
G1 X107.108 Y125.841 E.03373
G1 X106.313 Y125.142 E.03393
G1 X105.948 Y124.78 E.01648
G1 X105.241 Y123.992 E.03393
G1 X104.625 Y123.187 E.03249
G1 X104.308 Y122.719 E.01812
G1 X104.035 Y122.277 E.01665
G1 X103.553 Y121.385 E.0325
G1 X103.107 Y120.377 E.03533
G1 X102.928 Y119.895 E.01648
G1 X102.619 Y118.883 E.03391
G1 X102.392 Y117.856 E.03371
G1 X102.247 Y116.813 E.03375
G1 X102.186 Y115.801 E.03249
G1 X102.184 Y115.242 E.01792
G1 X102.247 Y114.186 E.03391
G1 X102.386 Y113.182 E.03249
G1 X102.494 Y112.633 E.01793
G1 X102.764 Y111.605 E.03407
G1 X102.924 Y111.116 E.01649
G1 X103.314 Y110.126 E.0341
G1 X103.531 Y109.659 E.0165
G1 X104.011 Y108.766 E.03249
G1 X104.603 Y107.843 E.03515
G1 X105.241 Y107.008 E.03368
G1 X105.908 Y106.265 E.032
G1 X104.954 Y106.77 F6000
;TYPE:External perimeter
G1 F1200
G1 X105.677 Y105.963 E.03473
G1 X106.059 Y105.585 E.01722
G1 X106.874 Y104.868 E.03479
G1 X107.298 Y104.538 E.01722
G1 X108.192 Y103.923 E.03478
G1 X108.652 Y103.645 E.01723
G1 X109.571 Y103.161 E.03329
G1 X110.605 Y102.715 E.03609
G1 X111.632 Y102.368 E.03474
G1 X112.15 Y102.226 E.01722
G1 X113.21 Y102.003 E.03472
G1 X114.285 Y101.864 E.03474
G1 X114.821 Y101.827 E.01722
G1 X115.611 Y101.813 E.02532
G1 X116.446 Y101.843 E.02678
G1 X116.981 Y101.891 E.01722
G1 X118.055 Y102.051 E.0348
G1 X118.581 Y102.162 E.01723
G1 X119.626 Y102.447 E.03472
G1 X120.644 Y102.814 E.03468
G1 X121.629 Y103.26 E.03466
G1 X122.578 Y103.783 E.03473
G1 X123.032 Y104.069 E.0172
G1 X123.914 Y104.702 E.0348
G1 X124.331 Y105.041 E.01722
G1 X125.131 Y105.772 E.03473
G1 X125.87 Y106.564 E.03472
G1 X126.213 Y106.978 E.01723
G1 X126.853 Y107.852 E.03472
G1 X127.422 Y108.774 E.03473
G1 X127.677 Y109.247 E.01722
G1 X128.133 Y110.23 E.03473
G1 X128.51 Y111.244 E.03467
G1 X128.806 Y112.286 E.03472
G1 X128.922 Y112.811 E.01723
G1 X129.093 Y113.883 E.03479
G1 X129.146 Y114.417 E.0172
G1 X129.188 Y115.5 E.03474
G1 X129.146 Y116.583 E.03474
G1 X129.093 Y117.117 E.0172
G1 X128.922 Y118.189 E.03479
G1 X128.806 Y118.714 E.01723
G1 X128.51 Y119.756 E.03472
G1 X128.133 Y120.77 E.03467
G1 X127.677 Y121.753 E.03473
G1 X127.422 Y122.226 E.01722
G1 X126.853 Y123.148 E.03473
G1 X126.214 Y124.02 E.03465
G1 X125.506 Y124.841 E.03475
G1 X125.132 Y125.226 E.0172
G1 X124.331 Y125.959 E.0348
G1 X123.914 Y126.298 E.01722
G1 X123.034 Y126.929 E.03471
G1 X122.108 Y127.489 E.03468
G1 X121.139 Y127.974 E.03473
G1 X120.646 Y128.185 E.01719
G1 X119.626 Y128.553 E.03475
G1 X118.581 Y128.838 E.03472
G1 X117.522 Y129.04 E.03455
G1 X116.445 Y129.157 E.03472
G1 X115.361 Y129.189 E.03476
G1 X114.825 Y129.173 E.01719
G1 X113.745 Y129.077 E.03475
G1 X112.679 Y128.896 E.03466
G1 X111.628 Y128.631 E.03474
G1 X111.116 Y128.469 E.01721
G1 X110.102 Y128.081 E.0348
G1 X109.613 Y127.86 E.0172
G1 X108.654 Y127.356 E.03472
G1 X107.739 Y126.778 E.03469
G1 X106.873 Y126.13 E.03467
G1 X106.059 Y125.415 E.03473
G1 X105.677 Y125.037 E.01722
G1 X104.954 Y124.23 E.03473
G1 X104.322 Y123.405 E.03331
G1 X103.995 Y122.922 E.01869
G1 X103.712 Y122.463 E.01728
G1 X103.219 Y121.549 E.03328
G1 X102.761 Y120.517 E.03619
G1 X102.574 Y120.014 E.0172
G1 X102.258 Y118.978 E.03472
G1 X102.025 Y117.922 E.03466
G1 X101.876 Y116.85 E.03469
G1 X101.813 Y115.813 E.0333
G1 X101.811 Y115.231 E.01865
G1 X101.876 Y114.15 E.03471
G1 X102.018 Y113.12 E.03333
G1 X102.13 Y112.55 E.01862
G1 X102.406 Y111.5 E.0348
G1 X102.573 Y110.99 E.0172
G1 X102.971 Y109.979 E.03482
G1 X103.197 Y109.492 E.01721
G1 X103.689 Y108.577 E.0333
G1 X104.298 Y107.629 E.03611
G1 X104.918 Y106.817 E.03274
G1 X105.348 Y106.836 F6000
G1 E-1.12 F2400
;WIPE_START
G1 F4800
G1 X105.589 Y106.062 E-.48
;WIPE_END
G1 X123.26 Y104.839 F6000
G1 E1.6 F2400
;TYPE:Solid infill
;WIDTH:0.424794
G1 F1200
G1 X124.712 Y106.29 E.06664
G1 X125.374 Y107 E.03151
G1 X125.692 Y107.384 E.01619
G1 X126.305 Y108.221 E.03368
G1 X126.623 Y108.735 E.01962
G1 X122.234 Y104.347 E.20148
G1 X121.333 Y103.85 E.0334
G1 X121.096 Y103.743 E.00844
G1 X127.252 Y109.898 E.2826
G1 X127.524 Y110.484 E.02097
G1 X127.654 Y110.834 E.01212
G1 X120.161 Y103.341 E.34401
G1 X119.338 Y103.053 E.02831
G1 X127.941 Y111.655 E.39494
G1 X128.153 Y112.401 E.02518
G1 X118.604 Y102.852 E.4384
G1 X117.915 Y102.697 E.02293
G1 X128.296 Y113.079 E.47662
G1 X128.398 Y113.714 E.02088
G1 X117.287 Y102.603 E.51011
G1 X116.676 Y102.526 E.01999
G1 X128.473 Y114.324 E.54163
G1 X128.504 Y114.888 E.01834
G1 X116.107 Y102.491 E.56915
G1 X115.556 Y102.474 E.0179
G1 X128.526 Y115.444 E.59546
G1 X128.51 Y115.962 E.01682
G1 X115.031 Y102.483 E.61883
G1 X114.523 Y102.509 E.01651
G1 X128.49 Y116.476 E.64123
G1 X128.445 Y116.965 E.01594
G1 X114.041 Y102.561 E.66129
G1 X113.568 Y102.622 E.01548
G1 X128.375 Y117.429 E.67979
G1 X128.301 Y117.89 E.01516
G1 X113.11 Y102.698 E.69745
G1 X112.669 Y102.791 E.01463
G1 X128.214 Y118.336 E.71368
G1 X128.106 Y118.762 E.01427
G1 X112.232 Y102.888 E.72878
G1 X111.813 Y103.003 E.01411
G1 X127.988 Y119.178 E.7426
G1 X127.867 Y119.591 E.01397
G1 X111.414 Y103.138 E.75536
G1 X111.015 Y103.273 E.01367
G1 X127.723 Y119.981 E.76707
G1 X127.578 Y120.37 E.01348
G1 X110.63 Y103.422 E.77809
G1 X110.257 Y103.583 E.01319
G1 X127.418 Y120.744 E.78787
G1 X127.249 Y121.109 E.01306
G1 X109.884 Y103.744 E.79723
G1 X109.533 Y103.927 E.01285
G1 X127.079 Y121.473 E.80554
G1 X126.892 Y121.82 E.0128
G1 X109.183 Y104.111 E.81303
G1 X108.84 Y104.302 E.01274
G1 X126.692 Y122.153 E.81957
G1 X126.488 Y122.484 E.01262
G1 X108.51 Y104.505 E.8254
G1 X108.193 Y104.723 E.01249
G1 X126.282 Y122.811 E.83045
G1 X126.056 Y123.12 E.01243
G1 X107.877 Y104.941 E.8346
G1 X107.567 Y105.165 E.01242
G1 X125.83 Y123.428 E.83846
G1 X125.595 Y123.727 E.01235
G1 X107.268 Y105.4 E.8414
G1 X106.984 Y105.65 E.01228
G1 X125.348 Y124.014 E.8431
G1 X125.101 Y124.301 E.01229
G1 X106.7 Y105.9 E.8448
G1 X106.421 Y106.155 E.01227
G1 X124.843 Y124.577 E.84576
G1 X124.673 Y124.753 E.00794
G1 X124.575 Y124.842 E.0043
G1 X106.153 Y106.421 E.84574
G1 X105.901 Y106.702 E.01225
G1 X124.296 Y125.098 E.84454
G1 X124.017 Y125.353 E.01227
G1 X105.648 Y106.984 E.84333
G1 X105.401 Y107.271 E.01229
G1 X123.729 Y125.598 E.84142
G1 X123.43 Y125.833 E.01235
G1 X105.17 Y107.574 E.8383
G1 X104.939 Y107.877 E.01237
G1 X123.119 Y126.056 E.83463
G1 X122.808 Y126.279 E.01242
G1 X104.72 Y108.192 E.8304
G1 X104.512 Y108.517 E.01253
G1 X122.485 Y126.49 E.82515
G1 X122.152 Y126.691 E.01263
G1 X104.303 Y108.843 E.81943
G1 X104.112 Y109.185 E.01272
G1 X121.819 Y126.892 E.81294
G1 X121.465 Y127.073 E.01291
G1 X103.925 Y109.532 E.80529
G1 X103.743 Y109.884 E.01286
G1 X121.109 Y127.251 E.7973
G1 X120.748 Y127.424 E.013
G1 X103.574 Y110.25 E.78846
G1 X103.423 Y110.633 E.01336
G1 X120.373 Y127.582 E.77816
G1 X119.98 Y127.724 E.01357
G1 X103.272 Y111.016 E.76707
G1 X103.13 Y111.408 E.01353
G1 X119.588 Y127.865 E.75557
G1 X119.179 Y127.991 E.01389
G1 X103.005 Y111.817 E.74255
G1 X102.894 Y112.24 E.0142
G1 X118.76 Y128.105 E.72839
G1 X118.334 Y128.214 E.01427
