; generated by PrusaSlicer 2.6.0-alpha4+MacOS-x64 on 2023-02-28 at 11:54:39 UTC

; 

; external perimeters extrusion width = 0.42mm
; perimeters extrusion width = 0.44mm
; infill extrusion width = 0.44mm
; solid infill extrusion width = 0.44mm
; top infill extrusion width = 0.40mm
; first layer extrusion width = 0.42mm

M201 X500 Y500 Z100 E5000 ; sets maximum accelerations, mm/sec^2
M203 X500 Y500 Z10 E60 ; sets maximum feedrates, mm / sec
M204 P500 R1000 T500 ; sets acceleration (P, T) and retract acceleration (R), mm/sec^2
M205 X8.00 Y8.00 Z0.40 E5.00 ; sets the jerk limits, mm/sec
M205 S0 T0 ; sets the minimum extruding and travel feed rate, mm/sec
M107
;TYPE:Custom
; Ender 3 Custom Start G-code
G92 E0 ; Reset Extruder

M140 S50 ; set bed temp
M190 S50 ; wait for bed temp

G28 ; Home all axes
BED_MESH_CALIBRATE AREA_START=98.415,101.005 AREA_END=130.911,130.222
M104 S210 ; set extruder temp

G1 Z2.0 F3000 ; Move Z Axis up little to prevent scratching of Heat Bed
M109 S210 ; wait for extruder temp
G1 X0.1 Y20 Z0.3 F5000.0 ; Move to start position

G1 X0.1 Y200.0 Z0.3 F1500.0 E15 ; Draw the first line
G1 X0.4 Y200.0 Z0.3 F5000.0 ; Move to side a little
G1 X0.4 Y20 Z0.3 F1500.0 E30 ; Draw the second line
G92 E0 ; Reset Extruder
G1 Z2.0 F3000 ; Move Z Axis up little to prevent scratching of Heat Bed
G1 X5 Y20 Z0.3 F5000.0 ; Move over to prevent blob squish
G21 ; set units to millimeters
G90 ; use absolute coordinates
M83 ; use relative distances for extrusion
; Filament gcode
M107
;LAYER_CHANGE
;Z:0.2
;HEIGHT:0.2
;BEFORE_LAYER_CHANGE
G92 E0
;0.2


G1 E-5 F3600
G1 Z.2 F9000
;AFTER_LAYER_CHANGE
;0.2
G1 X104.245 Y107.125
G1 E5 F2400
M204 S500
;TYPE:Skirt/Brim
;WIDTH:0.42
G1 F1200
G1 X108.691 Y102.813 E.19419
G1 X109.435 Y102.269 E.0289
G1 X110.278 Y101.876 E.02916
G1 X111.462 Y101.625 E.03795
G1 X121.198 Y101.202 E.30555
G1 X122.645 Y101.38 E.04571
G1 X123.76 Y101.768 E.03702
G1 X124.651 Y102.329 E.03301
G1 X125.553 Y103.238 E.04015
G1 X126.129 Y104.142 E.03361
G1 X129.33 Y110.386 E.22
G1 X129.634 Y111.159 E.02604
G1 X129.822 Y111.942 E.02525
G1 X130.661 Y117.196 E.16682
G1 X130.705 Y118.407 E.038
G1 X130.569 Y119.337 E.02947
G1 X130.239 Y120.399 E.03487
G1 X129.19 Y123.02 E.08852
G1 X128.563 Y123.992 E.03627
G1 X127.831 Y124.669 E.03126
G1 X121.857 Y129.011 E.23156
G1 X120.927 Y129.457 E.03234
G1 X120.106 Y129.727 E.0271
G1 X118.121 Y130.014 E.06289
G1 X110.58 Y129.979 E.23645
G1 X105.495 Y128.955 E.16264
G1 X105.005 Y128.824 E.0159
G1 X104.029 Y128.402 E.03334
G1 X101.016 Y126.714 E.10829
G1 X100.169 Y126.118 E.03247
G1 X99.713 Y125.668 E.02009
G1 X99.093 Y124.788 E.03375
G1 X98.667 Y123.535 E.0415
G1 X98.605 Y122.935 E.01891
G1 X99.494 Y114.274 E.27299
G1 X99.812 Y113.33 E.03123
G1 X100.236 Y112.537 E.02819
G1 X102.168 Y109.686 E.10798
G1 X104.208 Y107.171 E.10154
G1 X104.5 Y107.409 F9000
G1 F1200
G1 X108.938 Y103.098 E.19399
G1 X109.621 Y102.596 E.02658
G1 X110.412 Y102.229 E.02734
G1 X111.629 Y101.992 E.03888
G1 X121.173 Y101.578 E.29953
G1 X122.556 Y101.746 E.04368
G1 X123.593 Y102.106 E.03442
G1 X124.423 Y102.63 E.03078
G1 X125.25 Y103.464 E.03683
G1 X125.793 Y104.314 E.03163
G1 X128.993 Y110.555 E.21991
G1 X129.276 Y111.276 E.02429
G1 X129.449 Y112.002 E.0234
G1 X130.289 Y117.256 E.16683
G1 X130.328 Y118.385 E.03542
G1 X130.203 Y119.245 E.02725
G1 X129.888 Y120.261 E.03335
G1 X128.852 Y122.852 E.08749
G1 X128.279 Y123.743 E.03321
G1 X127.607 Y124.365 E.02871
G1 X121.677 Y128.679 E.22993
G1 X120.784 Y129.108 E.03106
G1 X120.014 Y129.361 E.02541
G1 X118.084 Y129.639 E.06114
G1 X110.609 Y129.603 E.23438
G1 X105.573 Y128.586 E.16109
G1 X104.213 Y128.073 E.04557
G1 X101.204 Y126.387 E.10815
G1 X100.415 Y125.832 E.03025
G1 X99.988 Y125.409 E.01885
G1 X99.423 Y124.605 E.03081
G1 X99.04 Y123.479 E.03729
G1 X98.982 Y122.925 E.01747
G1 X99.86 Y114.364 E.26983
G1 X100.16 Y113.476 E.02939
G1 X100.549 Y112.747 E.02591
G1 X102.468 Y109.915 E.10726
G1 X104.463 Y107.455 E.09931
; printing object ghost-hole.stl id:0 copy 0
G1 E-3.5 F3600
;WIPE_START
G1 F7200
G1 X106.726 Y105.252 E-1.5
;WIPE_END
G1 X118.671 Y125.021 F9000
G1 E5 F2400
;TYPE:Perimeter
;WIDTH:0.419999
G1 F1200
G1 X118.932 Y124.437 E.02006
G1 X119.875 Y122.959 E.05497
G1 X120.387 Y121.956 E.03531
G1 X120.685 Y121.533 E.01622
G1 X121.476 Y120.654 E.03708
G1 X121.898 Y120.46 E.01456
;WIDTH:0.462549
G1 X122.388 Y120.303 E.01795
;WIDTH:0.505098
G1 X122.879 Y120.146 E.01981
G1 X123.379 Y119.853 E.02227
;WIDTH:0.460955
G1 X123.984 Y119.451 E.02525
;WIDTH:0.419999
G1 X125.099 Y118.891 E.03912
G1 X125.578 Y118.706 E.0161
G1 X125.193 Y119.124 E.01782
G1 X124.94 Y119.625 E.0176
G1 X124.789 Y120.271 E.0208
G1 X124.405 Y120.189 E.01231
G1 X124.107 Y120.214 E.00938
;WIDTH:0.455091
G1 X123.777 Y120.282 E.01155
;WIDTH:0.490183
G1 X123.447 Y120.351 E.01254
;WIDTH:0.505098
G1 X123.112 Y120.544 E.01486
G1 X122.99 Y120.705 E.00776
;WIDTH:0.462549
G1 X122.867 Y120.865 E.00704
;WIDTH:0.419999
G1 X122.25 Y121.905 E.03792
G1 X122.003 Y122.371 E.01654
G1 X121.639 Y122.784 E.01726
G1 X120.778 Y123.636 E.03798
G1 X119.794 Y124.353 E.03817
G1 X119.304 Y124.756 E.01989
G1 X118.895 Y124.958 E.0143
G1 X118.728 Y125.005 E.00544
G1 X117.718 Y125.15 F9000
;WIDTH:0.390785
G1 F1200
G1 X117.754 Y125.145 E.00105
;WIDTH:0.420044
G1 X118.013 Y125.109 E.0082
G1 X118.262 Y124.973 E.0089
G1 X118.413 Y124.734 E.00887
G1 X118.608 Y124.245 E.01651
G1 X119.006 Y123.598 E.02382
G1 X119.515 Y122.832 E.02884
G1 X119.841 Y122.229 E.0215
G1 X120.068 Y121.756 E.01645
G1 X120.426 Y121.246 E.01954
G1 X120.88 Y120.769 E.02065
G1 X121.24 Y120.348 E.01737
G1 X121.788 Y120.1 E.01886
G1 X122.439 Y119.894 E.02141
G1 X123.028 Y119.604 E.02059
G1 X123.799 Y119.122 E.02851
G1 X124.956 Y118.542 E.04058
G1 X125.561 Y118.314 E.02027
G1 X126.165 Y118.115 E.01994
G1 X126.126 Y118.461 E.01092
G1 X125.999 Y118.783 E.01085
G1 X125.917 Y118.903 E.00456
G1 X125.542 Y119.278 E.01663
G1 X125.305 Y119.719 E.0157
G1 X125.174 Y120.232 E.0166
G1 X125.142 Y120.851 E.01944
G1 X124.905 Y120.712 E.00862
G1 X124.47 Y120.58 E.01425
G1 X124.197 Y120.58 E.00856
G1 X123.674 Y120.71 E.0169
G1 X123.352 Y120.888 E.01154
G1 X123.19 Y121.06 E.00741
G1 X122.745 Y121.84 E.02816
G1 X122.523 Y122.187 E.01292
G1 X122.269 Y122.651 E.01659
G1 X121.911 Y123.045 E.01669
G1 X121.044 Y123.904 E.03827
G1 X120.034 Y124.644 E.03926
G1 X119.484 Y125.097 E.02234
G1 X119.017 Y125.318 E.0162
G1 X118.514 Y125.445 E.01627
G1 X117.767 Y125.489 E.02347
;WIDTH:0.390785
G1 X117.462 Y125.498 E.00883
;WIDTH:0.361526
G1 X117.188 Y125.357 E.00816
;WIDTH:0.327833
G1 X117.065 Y125.188 E.00495
;WIDTH:0.340058
G1 X116.934 Y124.773 E.01075
G1 X117.23 Y125.044 E.00992
;WIDTH:0.361526
G1 X117.495 Y125.182 E.00792
;WIDTH:0.390785
G1 X117.659 Y125.159 E.00479
G1 E-3.5 F3600
;WIPE_START
G1 F7200
G1 X117.754 Y125.145 E-.04561
G1 X118.013 Y125.109 E-.12421
G1 X118.262 Y124.973 E-.13477
G1 X118.413 Y124.734 E-.13428
G1 X118.608 Y124.245 E-.25006
G1 X119.006 Y123.598 E-.36082
G1 X119.515 Y122.832 E-.43685
G1 X119.528 Y122.807 E-.0134
;WIPE_END
G1 X112.457 Y125.062 F9000
G1 E5 F2400
;WIDTH:0.419999
G1 F1200
G1 X111.65 Y125.119 E.02537
G1 X111.054 Y125.072 E.01875
G1 X110.993 Y124.852 E.00716
G1 X110.767 Y124.461 E.01416
G1 X110.562 Y124.224 E.00983
G1 X110.069 Y123.826 E.01987
G1 X110.854 Y124.03 E.02543
G1 X111.382 Y124.259 E.01805
G1 X111.854 Y124.566 E.01765
G1 X112.411 Y125.024 E.02261
G1 E-3.5 F3600
;WIPE_START
G1 F7200
G1 X111.65 Y125.119 E-.36428
G1 X111.054 Y125.072 E-.28398
G1 X110.993 Y124.852 E-.10844
G1 X110.767 Y124.461 E-.21452
G1 X110.562 Y124.224 E-.14885
G1 X110.069 Y123.826 E-.30096
G1 X110.23 Y123.868 E-.07897
;WIPE_END
G1 X106.143 Y123.213 F9000
G1 E5 F2400
G1 F1200
G1 X105.998 Y123.801 E.01899
G1 X106.038 Y123.916 E.00382
G1 X105.915 Y123.86 E.00424
G1 X104.873 Y123.221 E.03833
G1 X103.758 Y122.691 E.03871
G1 X103.99 Y122.457 E.01033
G1 X104.247 Y121.969 E.01729
G1 X104.283 Y121.616 E.01113
G1 X104.267 Y121.156 E.01443
G1 X104.021 Y120.209 E.03068
G1 X103.914 Y119.515 E.02202
G1 X103.937 Y118.883 E.01983
G1 X104 Y118.52 E.01155
G1 X104.546 Y118.892 E.02072
G1 X105.103 Y119.238 E.02056
G1 X105.626 Y119.694 E.02176
G1 X107.06 Y121.321 E.068
G1 X107.479 Y121.897 E.02233
G1 X107.919 Y122.621 E.02656
G1 X108.287 Y123.06 E.01796
G1 X107.716 Y122.759 E.02024
G1 X107.081 Y122.588 E.02062
G1 X106.694 Y122.645 E.01227
G1 X106.444 Y122.784 E.00897
G1 X106.173 Y123.091 E.01284
G1 X106.157 Y123.155 E.00207
G1 X106.488 Y123.347 F9000
G1 F1200
G1 X106.371 Y123.742 E.01292
G1 X106.438 Y123.933 E.00635
G1 X106.708 Y124.447 E.0182
G1 X106.126 Y124.362 E.01844
G1 X105.736 Y124.194 E.01331
G1 X104.715 Y123.563 E.03763
G1 X103.7 Y123.089 E.03512
G1 X103.15 Y122.746 E.02032
G1 X103.609 Y122.318 E.01968
G1 X103.78 Y122.106 E.00854
G1 X103.889 Y121.815 E.00974
G1 X103.903 Y121.252 E.01766
G1 X103.651 Y120.286 E.0313
G1 X103.536 Y119.537 E.02376
G1 X103.561 Y118.846 E.02168
G1 X103.624 Y118.295 E.01739
G1 X103.722 Y117.918 E.01221
G1 X103.813 Y117.803 E.0046
G1 X104.053 Y118.058 E.01098
G1 X104.492 Y118.399 E.01743
G1 X105.098 Y118.783 E.02249
G1 X105.526 Y119.082 E.01637
G1 X105.901 Y119.435 E.01615
G1 X107.354 Y121.085 E.06893
G1 X107.793 Y121.688 E.02339
G1 X108.2 Y122.356 E.02453
G1 X108.46 Y122.701 E.01355
;WIDTH:0.461572
G1 X108.589 Y122.824 E.0062
;WIDTH:0.503145
G1 X108.719 Y122.948 E.00688
;WIDTH:0.544718
G1 X108.849 Y123.071 E.00747
G1 X109.238 Y123.239 E.01768
;WIDTH:0.540789
G1 X109.718 Y123.406 E.02104
G1 X109.886 Y123.429 E.00702
;WIDTH:0.500526
G1 X110.054 Y123.452 E.00645
;WIDTH:0.460263
G1 X110.222 Y123.474 E.00588
;WIDTH:0.419999
G1 X110.97 Y123.67 E.02424
G1 X111.5 Y123.891 E.018
G1 X111.958 Y124.158 E.01662
G1 X112.525 Y124.641 E.02335
G1 X112.938 Y124.949 E.01615
G1 X113.445 Y125.177 E.01743
;WIDTH:0.43117
G1 X113.979 Y125.238 E.01735
G1 X113.29 Y125.371 E.02265
;WIDTH:0.419999
G1 X111.648 Y125.497 E.05164
G1 X111.017 Y125.448 E.01984
G1 X110.753 Y125.37 E.00863
G1 X110.645 Y124.997 E.01218
G1 X110.445 Y124.657 E.01237
G1 X110.205 Y124.419 E.0106
;WIDTH:0.455471
G1 X109.986 Y124.241 E.00968
;WIDTH:0.490942
G1 X109.768 Y124.063 E.01048
;WIDTH:0.526413
G1 X109.55 Y123.885 E.01131
;WIDTH:0.52825
G1 X109.144 Y123.723 E.01764
;WIDTH:0.544718
G1 X108.658 Y123.535 E.02174
G1 X108.476 Y123.488 E.00784
;WIDTH:0.503145
G1 X108.294 Y123.441 E.00719
;WIDTH:0.461572
G1 X108.112 Y123.395 E.00653
;WIDTH:0.419999
G1 X107.603 Y123.118 E.01817
G1 X107.058 Y122.964 E.01776
G1 X106.826 Y122.998 E.00735
G1 X106.676 Y123.082 E.00539
G1 X106.505 Y123.289 E.00842
G1 X106.814 Y123.493 F9000
;TYPE:External perimeter
G1 F1200
G1 X106.743 Y123.683 E.00636
G1 X106.903 Y124.011 E.01144
G1 X107.034 Y124.174 E.00656
G1 X107.248 Y124.861 E.02256
G1 X107.095 Y124.87 E.00481
G1 X106.055 Y124.732 E.03289
G1 X105.558 Y124.527 E.01686
G1 X104.557 Y123.906 E.03693
G1 X103.779 Y123.548 E.02685
G1 X103.236 Y123.267 E.01917
G1 X102.836 Y122.984 E.01536
G1 X102.706 Y122.844 E.00599
G1 X102.736 Y122.717 E.00409
G1 X102.891 Y122.454 E.00957
G1 X103.358 Y122.037 E.01963
G1 X103.51 Y121.81 E.00857
G1 X103.538 Y121.347 E.01454
G1 X103.281 Y120.362 E.03192
G1 X103.158 Y119.559 E.02547
G1 X103.185 Y118.818 E.02325
G1 X103.25 Y118.252 E.01786
G1 X103.394 Y117.708 E.01764
G1 X103.535 Y117.548 E.00669
G1 X103.685 Y117.44 E.0058
G1 X103.985 Y117.437 E.00941
G1 X104.327 Y117.799 E.01561
G1 X104.705 Y118.087 E.0149
G1 X105.157 Y118.386 E.01699
G1 X105.484 Y118.53 E.0112
G1 X105.536 Y118.619 E.00323
G1 X105.75 Y118.778 E.00836
G1 X106.175 Y119.177 E.01828
G1 X107.649 Y120.848 E.06986
G1 X108.107 Y121.479 E.02445
G1 X108.522 Y122.16 E.025
G1 X108.752 Y122.463 E.01193
G1 X108.997 Y122.651 E.00968
G1 X109.436 Y122.854 E.01516
G1 X110.175 Y123.076 E.02419
G1 X110.754 Y123.214 E.01866
G1 X111.353 Y123.421 E.01987
G1 X111.935 Y123.709 E.02036
G1 X112.343 Y123.992 E.01557
G1 X113.162 Y124.646 E.03286
G1 X113.461 Y124.79 E.01041
G1 X113.843 Y124.862 E.01219
;WIDTH:0.46823
G1 X114.027 Y124.842 E.00655
;WIDTH:0.516461
G1 X114.211 Y124.822 E.00729
;WIDTH:0.564692
G1 X114.395 Y124.801 E.00803
G1 X114.753 Y124.41 E.023
;WIDTH:0.532918
G1 X114.91 Y123.924 E.02081
;WIDTH:0.519249
G1 X114.92 Y123.705 E.00868
G1 X114.859 Y123.153 E.022
;WIDTH:0.526134
G1 X114.632 Y122.467 E.02903
;WIDTH:0.529272
G1 X114.561 Y122.035 E.0177
;WIDTH:0.53892
G1 X114.596 Y121.63 E.01677
G1 X114.739 Y121.219 E.01795
;WIDTH:0.535674
G1 X115.013 Y120.801 E.02048
;WIDTH:0.548185
G1 X115.458 Y120.442 E.02402
;WIDTH:0.553047
G1 X115.721 Y120.321 E.01228
;WIDTH:0.557853
G1 X116.177 Y120.245 E.01979
;WIDTH:0.56118
G1 X116.532 Y120.292 E.01543
G1 X116.872 Y120.47 E.01654
;WIDTH:0.543292
G1 X117.157 Y120.769 E.01719
;WIDTH:0.52064
G1 X117.355 Y121.209 E.01917
;WIDTH:0.478446
G1 X117.425 Y121.76 E.02011
;WIDTH:0.491963
G1 X117.399 Y122.525 E.02858
;WIDTH:0.535112
G1 X117.304 Y123.206 E.02814
G1 X117.084 Y124.197 E.04154
;WIDTH:0.554096
G1 X117.114 Y124.545 E.01485
G1 X117.255 Y124.642 E.00727
;WIDTH:0.509397
G1 X117.396 Y124.739 E.00664
;WIDTH:0.464698
G1 X117.537 Y124.836 E.006
;WIDTH:0.419999
G1 X117.667 Y124.811 E.00415
G1 X118.004 Y124.698 E.01114
G1 X118.148 Y124.329 E.01242
G1 X118.284 Y124.052 E.00968
G1 X118.693 Y123.389 E.02443
G1 X119.211 Y122.601 E.02957
G1 X119.583 Y121.85 E.02628
G1 X119.86 Y121.395 E.0167
G1 X120.282 Y120.851 E.02159
G1 X120.654 Y120.459 E.01694
G1 X121.005 Y120.043 E.01707
G1 X121.678 Y119.739 E.02315
G1 X122.274 Y119.555 E.01956
G1 X122.828 Y119.284 E.01934
G1 X123.614 Y118.793 E.02906
G1 X124.675 Y118.259 E.03724
G1 X125.164 Y118.049 E.01669
G1 X126.35 Y117.657 E.03916
G1 X126.546 Y118.022 E.01299
G1 X126.486 Y118.591 E.01794
G1 X126.263 Y119.094 E.01725
G1 X125.873 Y119.468 E.01694
G1 X125.671 Y119.812 E.01251
G1 X125.533 Y120.365 E.01787
G1 X125.517 Y120.922 E.01747
G1 X125.435 Y121.205 E.00924
G1 X125.327 Y121.336 E.00532
G1 X125.169 Y121.303 E.00506
G1 X124.667 Y121.018 E.0181
G1 X124.288 Y120.946 E.0121
G1 X123.764 Y121.076 E.01693
G1 X123.513 Y121.255 E.00967
G1 X123.13 Y121.89 E.02325
G1 X123.064 Y122.133 E.0079
G1 X122.864 Y122.347 E.00918
G1 X122.566 Y122.884 E.01926
G1 X122.184 Y123.306 E.01785
G1 X121.309 Y124.172 E.0386
G1 X120.274 Y124.935 E.04032
G1 X119.784 Y125.339 E.01991
G1 X119.492 Y125.51 E.01061
G1 X119.011 Y125.717 E.01642
G1 X118.5 Y125.827 E.01639
G1 X117.818 Y125.872 E.02143
G1 X117.299 Y125.816 E.01637
G1 X116.986 Y125.619 E.0116
G1 X116.741 Y125.296 E.01271
;WIDTH:0.427608
G1 X116.64 Y124.988 E.01037
;WIDTH:0.463829
G1 X116.623 Y124.782 E.00723
;WIDTH:0.50005
G1 X116.607 Y124.577 E.00782
;WIDTH:0.53627
G1 X116.591 Y124.371 E.00848
;WIDTH:0.540289
G1 X116.642 Y123.864 E.02107
G1 X116.824 Y123.094 E.03272
;WIDTH:0.535112
G1 X116.961 Y122.418 E.02823
;WIDTH:0.490049
G1 X117.011 Y121.749 E.02494
;WIDTH:0.48706
G1 X116.91 Y121.249 E.01884
;WIDTH:0.531837
G1 X116.668 Y120.93 E.01628
;WIDTH:0.554705
G1 X116.306 Y120.763 E.01697
G1 X115.869 Y120.804 E.01868
;WIDTH:0.553459
G1 X115.45 Y121.059 E.02082
;WIDTH:0.536505
G1 X115.158 Y121.465 E.02052
;WIDTH:0.531845
G1 X115.047 Y121.922 E.01912
G1 X115.092 Y122.317 E.01616
;WIDTH:0.526134
G1 X115.334 Y123.131 E.03412
;WIDTH:0.519249
G1 X115.394 Y123.664 E.02124
G1 X115.37 Y124.045 E.01512
;WIDTH:0.524491
G1 X115.228 Y124.53 E.02024
;WIDTH:0.556413
G1 X114.993 Y124.924 E.01959
;WIDTH:0.560782
G1 X114.724 Y125.205 E.01675
G1 X114.585 Y125.315 E.00763
;WIDTH:0.513855
G1 X114.446 Y125.425 E.00694
;WIDTH:0.466927
G1 X114.306 Y125.534 E.00626
;WIDTH:0.419999
G1 X114.186 Y125.589 E.00414
G1 X113.34 Y125.746 E.02698
G1 X111.645 Y125.875 E.0533
G1 X110.988 Y125.823 E.02066
G1 X110.674 Y125.746 E.01014
G1 X110.376 Y125.572 E.01082
G1 X110.311 Y125.194 E.01203
G1 X110.083 Y124.807 E.01408
G1 X109.645 Y124.447 E.01778
G1 X109.296 Y124.239 E.01274
G1 X107.98 Y123.753 E.04399
G1 X107.527 Y123.494 E.01636
G1 X107.079 Y123.349 E.01476
G1 X106.957 Y123.352 E.00383
G1 X106.857 Y123.451 E.00441
G1 X106.611 Y123.478 F9000
G1 E-3.5 F3600
;WIPE_START
G1 F7200
G1 X106.743 Y123.683 E-.12279
G1 X106.903 Y124.011 E-.17335
G1 X107.034 Y124.174 E-.09933
G1 X107.248 Y124.861 E-.34179
