; generated by PrusaSlicer 2.6.0+win64 on 2023-08-02 at 06:13:30 UTC

; 

; external perimeters extrusion width = 0.42mm
; perimeters extrusion width = 0.44mm
; infill extrusion width = 0.44mm
; solid infill extrusion width = 0.44mm
; top infill extrusion width = 0.40mm
; first layer extrusion width = 0.42mm

; external perimeters extrusion width = 0.42mm
; perimeters extrusion width = 0.44mm
; infill extrusion width = 0.44mm
; solid infill extrusion width = 0.44mm
; top infill extrusion width = 0.40mm
; first layer extrusion width = 0.42mm

; external perimeters extrusion width = 0.42mm
; perimeters extrusion width = 0.44mm
; infill extrusion width = 0.44mm
; solid infill extrusion width = 0.44mm
; top infill extrusion width = 0.40mm
; first layer extrusion width = 0.42mm

; external perimeters extrusion width = 0.42mm
; perimeters extrusion width = 0.44mm
; infill extrusion width = 0.44mm
; solid infill extrusion width = 0.44mm
; top infill extrusion width = 0.40mm
; first layer extrusion width = 0.42mm

; external perimeters extrusion width = 0.42mm
; perimeters extrusion width = 0.44mm
; infill extrusion width = 0.44mm
; solid infill extrusion width = 0.44mm
; top infill extrusion width = 0.40mm
; first layer extrusion width = 0.42mm

; external perimeters extrusion width = 0.42mm
; perimeters extrusion width = 0.44mm
; infill extrusion width = 0.44mm
; solid infill extrusion width = 0.44mm
; top infill extrusion width = 0.40mm
; first layer extrusion width = 0.42mm

; external perimeters extrusion width = 0.42mm
; perimeters extrusion width = 0.44mm
; infill extrusion width = 0.44mm
; solid infill extrusion width = 0.44mm
; top infill extrusion width = 0.40mm
; first layer extrusion width = 0.42mm

; external perimeters extrusion width = 0.42mm
; perimeters extrusion width = 0.44mm
; infill extrusion width = 0.44mm
; solid infill extrusion width = 0.44mm
; top infill extrusion width = 0.40mm
; first layer extrusion width = 0.42mm

; external perimeters extrusion width = 0.42mm
; perimeters extrusion width = 0.44mm
; infill extrusion width = 0.44mm
; solid infill extrusion width = 0.44mm
; top infill extrusion width = 0.40mm
; first layer extrusion width = 0.42mm

; external perimeters extrusion width = 0.42mm
; perimeters extrusion width = 0.44mm
; infill extrusion width = 0.44mm
; solid infill extrusion width = 0.44mm
; top infill extrusion width = 0.40mm
; first layer extrusion width = 0.42mm

; external perimeters extrusion width = 0.42mm
; perimeters extrusion width = 0.44mm
; infill extrusion width = 0.44mm
; solid infill extrusion width = 0.44mm
; top infill extrusion width = 0.40mm
; first layer extrusion width = 0.42mm

; external perimeters extrusion width = 0.42mm
; perimeters extrusion width = 0.44mm
; infill extrusion width = 0.44mm
; solid infill extrusion width = 0.44mm
; top infill extrusion width = 0.40mm
; first layer extrusion width = 0.42mm

; external perimeters extrusion width = 0.42mm
; perimeters extrusion width = 0.44mm
; infill extrusion width = 0.44mm
; solid infill extrusion width = 0.44mm
; top infill extrusion width = 0.40mm
; first layer extrusion width = 0.42mm

; external perimeters extrusion width = 0.42mm
; perimeters extrusion width = 0.44mm
; infill extrusion width = 0.44mm
; solid infill extrusion width = 0.44mm
; top infill extrusion width = 0.40mm
; first layer extrusion width = 0.42mm

; external perimeters extrusion width = 0.42mm
; perimeters extrusion width = 0.44mm
; infill extrusion width = 0.44mm
; solid infill extrusion width = 0.44mm
; top infill extrusion width = 0.40mm
; first layer extrusion width = 0.42mm

; external perimeters extrusion width = 0.42mm
; perimeters extrusion width = 0.44mm
; infill extrusion width = 0.44mm
; solid infill extrusion width = 0.44mm
; top infill extrusion width = 0.40mm
; first layer extrusion width = 0.42mm

; external perimeters extrusion width = 0.42mm
; perimeters extrusion width = 0.44mm
; infill extrusion width = 0.44mm
; solid infill extrusion width = 0.44mm
; top infill extrusion width = 0.40mm
; first layer extrusion width = 0.42mm

; external perimeters extrusion width = 0.42mm
; perimeters extrusion width = 0.44mm
; infill extrusion width = 0.44mm
; solid infill extrusion width = 0.44mm
; top infill extrusion width = 0.40mm
; first layer extrusion width = 0.42mm

; external perimeters extrusion width = 0.42mm
; perimeters extrusion width = 0.44mm
; infill extrusion width = 0.44mm
; solid infill extrusion width = 0.44mm
; top infill extrusion width = 0.40mm
; first layer extrusion width = 0.42mm

; external perimeters extrusion width = 0.42mm
; perimeters extrusion width = 0.44mm
; infill extrusion width = 0.44mm
; solid infill extrusion width = 0.44mm
; top infill extrusion width = 0.40mm
; first layer extrusion width = 0.42mm

; external perimeters extrusion width = 0.42mm
; perimeters extrusion width = 0.44mm
; infill extrusion width = 0.44mm
; solid infill extrusion width = 0.44mm
; top infill extrusion width = 0.40mm
; first layer extrusion width = 0.42mm

;TYPE:Custom
; Ender 3 Custom Start G-code
G92 E0 ; Reset Extruder

M140 S50 ; set bed temp
M190 S50 ; wait for bed temp

G28 ; Home all axes
M104 S205 ; set extruder temp 
BED_MESH_CALIBRATE AREA_START=83.7695,88.5673 AREA_END=143.764,126.206

G1 Z2.0 F3000 ; Move Z Axis up little to prevent scratching of Heat Bed
M109 S205 ; wait for extruder temp
G1 X0.1 Y20 Z0.3 F5000.0 ; Move to start position

G1 X0.1 Y200.0 Z0.3 F1500.0 E15 ; Draw the first line
G1 X0.4 Y200.0 Z0.3 F5000.0 ; Move to side a little
G1 X0.4 Y20 Z0.3 F1500.0 E30 ; Draw the second line
G92 E0 ; Reset Extruder
G1 Z2.0 F3000 ; Move Z Axis up little to prevent scratching of Heat Bed
G1 X5 Y20 Z0.3 F5000.0 ; Move over to prevent blob squish
G21 ; set units to millimeters
G90 ; use absolute coordinates
M83 ; use relative distances for extrusion
; Filament gcode
M107
;LAYER_CHANGE
;Z:0.2
;HEIGHT:0.2
;BEFORE_LAYER_CHANGE
G92 E0
;0.2


G1 E-1.6 F2400
G1 Z.2 F6000
;AFTER_LAYER_CHANGE
;0.2
G1 X87.852 Y91.706
G1 E1.6 F2400
M204 S500
;TYPE:Skirt/Brim
;WIDTH:0.42
G1 F1200
G1 X88.728 Y90.994 E.03327
G1 X89.698 Y90.36 E.03415
G1 X91.39 Y89.54 E.05542
G1 X93.086 Y89.029 E.05221
G1 X94.715 Y88.79 E.04853
G1 X131.77 Y88.757 E1.09212
G1 X133.845 Y88.938 E.06139
G1 X135.873 Y89.495 E.06198
G1 X137.686 Y90.356 E.05915
G1 X139.132 Y91.367 E.052
G1 X140.55 Y92.734 E.05805
G1 X141.375 Y93.79 E.0395
G1 X141.84 Y94.524 E.02561
G1 X142.683 Y96.305 E.05807
G1 X143.022 Y97.349 E.03235
G1 X143.242 Y98.349 E.03018
G1 X143.426 Y100.341 E.05896
G1 X143.576 Y114.341 E.41265
G1 X143.502 Y115.685 E.03967
G1 X143.297 Y116.893 E.03611
G1 X142.674 Y118.871 E.06112
G1 X141.691 Y120.732 E.06203
G1 X140.465 Y122.299 E.05864
G1 X139.838 Y122.93 E.02622
G1 X138.838 Y123.755 E.03821
G1 X137.175 Y124.777 E.05753
G1 X136.056 Y125.266 E.03599
G1 X134.31 Y125.778 E.05363
G1 X132.507 Y126.004 E.05356
G1 X95.087 Y126.009 E1.10288
G1 X93.364 Y125.806 E.05113
G1 X92.289 Y125.541 E.03263
G1 X91.199 Y125.158 E.03405
G1 X89.845 Y124.501 E.04436
G1 X88.806 Y123.84 E.03629
G1 X87.86 Y123.084 E.03569
G1 X86.756 Y121.956 E.04652
G1 X86.176 Y121.219 E.02764
G1 X85.325 Y119.857 E.04733
G1 X84.775 Y118.677 E.03837
G1 X84.281 Y117.115 E.04828
G1 X84.002 Y115.402 E.05115
G1 X83.988 Y99.564 E.46679
G1 X84.262 Y97.743 E.05427
G1 X84.535 Y96.774 E.02967
G1 X84.964 Y95.656 E.03529
G1 X85.461 Y94.668 E.0326
G1 X86.25 Y93.458 E.04257
G1 X86.886 Y92.673 E.02978
G1 X87.81 Y91.749 E.03851
G1 X88.076 Y92.015 F6000
G1 F1200
G1 X88.94 Y91.307 E.03292
G1 X89.828 Y90.719 E.03139
G1 X91.449 Y89.92 E.05326
G1 X93.16 Y89.399 E.05271
G1 X94.761 Y89.165 E.04769
G1 X131.761 Y89.134 E1.0905
G1 X133.768 Y89.308 E.05937
G1 X135.75 Y89.851 E.06057
G1 X137.497 Y90.682 E.05702
G1 X138.887 Y91.654 E.04999
G1 X140.266 Y92.983 E.05645
G1 X141.071 Y94.014 E.03855
G1 X141.573 Y94.814 E.02784
G1 X142.413 Y96.666 E.05994
G1 X142.882 Y98.469 E.05491
G1 X143.049 Y100.345 E.05551
G1 X143.199 Y114.345 E.41265
G1 X143.109 Y115.755 E.04164
G1 X142.894 Y116.983 E.03674
G1 X142.637 Y117.894 E.0279
G1 X142.329 Y118.718 E.02593
G1 X141.724 Y119.958 E.04066
G1 X140.981 Y121.096 E.04006
G1 X140.321 Y121.9 E.03066
G1 X139.579 Y122.657 E.03124
G1 X138.623 Y123.445 E.03651
G1 X136.998 Y124.445 E.05624
G1 X135.932 Y124.91 E.03428
G1 X134.244 Y125.407 E.05186
G1 X132.48 Y125.628 E.0524
G1 X95.113 Y125.633 E1.10132
G1 X93.426 Y125.434 E.05007
G1 X92.309 Y125.155 E.03393
G1 X91.349 Y124.812 E.03005
G1 X90.022 Y124.168 E.04347
G1 X89.024 Y123.532 E.03488
G1 X88.093 Y122.787 E.03514
G1 X87.036 Y121.703 E.04462
G1 X86.429 Y120.924 E.02911
G1 X85.653 Y119.672 E.04341
G1 X85.13 Y118.549 E.03651
G1 X84.691 Y117.212 E.04148
G1 X84.378 Y115.371 E.05504
G1 X84.364 Y99.591 E.46508
G1 X84.7 Y97.539 E.06128
G1 X85.302 Y95.825 E.05354
G1 X85.701 Y95.014 E.02664
G1 X86.194 Y94.192 E.02825
G1 X87.155 Y92.938 E.04656
G1 X88.034 Y92.057 E.03668
G1 X88.3 Y92.323 F6000
G1 F1200
G1 X89.151 Y91.619 E.03255
G1 X90.032 Y91.037 E.03112
G1 X91.582 Y90.272 E.05094
G1 X93.233 Y89.769 E.05087
G1 X94.781 Y89.541 E.04612
G1 X131.694 Y89.51 E1.08794
G1 X133.691 Y89.677 E.05906
G1 X135.63 Y90.209 E.05926
G1 X137.307 Y91.008 E.05475
G1 X138.641 Y91.94 E.04796
G1 X139.993 Y93.244 E.05536
G1 X140.767 Y94.237 E.03711
G1 X141.244 Y94.998 E.02647
G1 X142.054 Y96.78 E.05769
G1 X142.511 Y98.542 E.05365
G1 X142.672 Y100.349 E.05347
G1 X142.822 Y114.349 E.41265
G1 X142.747 Y115.633 E.03791
G1 X142.527 Y116.898 E.03784
G1 X142.275 Y117.79 E.02732
G1 X141.397 Y119.77 E.06384
G1 X140.673 Y120.877 E.03898
G1 X140.035 Y121.653 E.02961
G1 X139.32 Y122.383 E.03012
G1 X138.408 Y123.135 E.03484
G1 X136.863 Y124.089 E.05352
G1 X135.826 Y124.548 E.03342
G1 X134.245 Y125.023 E.04865
G1 X132.453 Y125.252 E.05325
G1 X95.138 Y125.257 E1.09979
G1 X93.488 Y125.062 E.04897
G1 X92.414 Y124.793 E.03263
G1 X91.498 Y124.466 E.02867
G1 X90.199 Y123.835 E.04256
G1 X89.243 Y123.225 E.03342
G1 X88.309 Y122.472 E.03536
G1 X87.315 Y121.45 E.04202
G1 X86.74 Y120.712 E.02757
G1 X85.982 Y119.487 E.04246
G1 X85.485 Y118.422 E.03464
G1 X85.055 Y117.114 E.04058
G1 X84.756 Y115.364 E.05233
G1 X84.74 Y99.618 E.46408
G1 X85.061 Y97.647 E.05886
G1 X85.653 Y95.964 E.05258
G1 X86.037 Y95.186 E.02557
G1 X86.503 Y94.409 E.0267
G1 X87.437 Y93.188 E.04531
G1 X88.258 Y92.366 E.03424
; printing object Shape-Box id:9 copy 0
G1 E-1.12 F2400
;WIPE_START
G1 F4800
G1 X89.033 Y91.718 E-.48
;WIPE_END
G1 X93.733 Y108.863 F6000
G1 E1.6 F2400
;TYPE:External perimeter
G1 F1200
G1 X93.813 Y108.863 E.00236
G1 X93.813 Y109.443 E.01709
G1 X93.733 Y109.443 E.00236
G1 X93.733 Y108.923 E.01533
G1 X93.804 Y108.9 F6000
; stop printing object Shape-Box id:9 copy 0
; printing object Shape-Box id:8 copy 0
G1 E-1.12 F2400
;WIPE_START
G1 F4800
G1 X93.813 Y108.863 E-.0475
G1 X93.813 Y109.443 E-.2755
G1 X93.733 Y109.443 E-.038
G1 X93.733 Y109.192 E-.119
;WIPE_END
G1 X93.759 Y111.267 F6000
G1 E1.6 F2400
G1 F1200
G1 X93.839 Y111.267 E.00236
G1 X93.839 Y111.847 E.01709
G1 X93.759 Y111.847 E.00236
G1 X93.759 Y111.327 E.01533
G1 X93.83 Y111.304 F6000
; stop printing object Shape-Box id:8 copy 0
; printing object Shape-Box id:7 copy 0
G1 E-1.12 F2400
;WIPE_START
G1 F4800
G1 X93.839 Y111.267 E-.0475
G1 X93.839 Y111.847 E-.2755
G1 X93.759 Y111.847 E-.038
G1 X93.759 Y111.596 E-.119
;WIPE_END
G1 X93.777 Y113.391 F6000
G1 E1.6 F2400
G1 F1200
G1 X93.857 Y113.391 E.00236
G1 X93.857 Y113.971 E.01709
G1 X93.777 Y113.971 E.00236
G1 X93.777 Y113.451 E.01533
G1 X93.848 Y113.428 F6000
; stop printing object Shape-Box id:7 copy 0
; printing object Shape-Box id:5 copy 0
G1 E-1.12 F2400
;WIPE_START
G1 F4800
G1 X93.857 Y113.391 E-.0475
G1 X93.857 Y113.971 E-.2755
G1 X93.777 Y113.971 E-.038
G1 X93.777 Y113.72 E-.119
;WIPE_END
G1 X102.275 Y112.047 F6000
G1 E1.6 F2400
G1 F1200
G1 X102.275 Y111.467 E.01709
G1 X102.355 Y111.467 E.00236
G1 X102.355 Y112.047 E.01709
G1 X102.335 Y112.047 E.00059
G1 X102.293 Y111.647 F6000
; stop printing object Shape-Box id:5 copy 0
; printing object Shape-Box id:6 copy 0
G1 E-1.12 F2400
;WIPE_START
G1 F4800
G1 X102.275 Y111.467 E-.27697
G1 X102.355 Y111.467 E-.038
G1 X102.355 Y111.814 E-.16503
;WIPE_END
G1 X102.377 Y109.288 F6000
G1 E1.6 F2400
G1 F1200
G1 X102.377 Y108.708 E.01709
G1 X102.457 Y108.708 E.00236
G1 X102.457 Y109.288 E.01709
G1 X102.437 Y109.288 E.00059
G1 X102.396 Y108.889 F6000
; stop printing object Shape-Box id:6 copy 0
; printing object Shape-Box id:16 copy 0
G1 E-1.12 F2400
;WIPE_START
G1 F4800
G1 X102.377 Y108.708 E-.27697
G1 X102.457 Y108.708 E-.038
G1 X102.457 Y109.055 E-.16503
;WIPE_END
G1 X98.501 Y102.074 F6000
G1 E1.6 F2400
G1 F1200
G1 X98.421 Y102.074 E.00236
G1 X98.421 Y101.494 E.01709
G1 X98.501 Y101.494 E.00236
G1 X98.501 Y102.014 E.01533
G1 X98.43 Y102.038 F6000
; stop printing object Shape-Box id:16 copy 0
; printing object Shape-Box id:3 copy 0
G1 E-1.12 F2400
;WIPE_START
G1 F4800
G1 X98.421 Y102.074 E-.0475
G1 X98.421 Y101.494 E-.2755
G1 X98.501 Y101.494 E-.038
G1 X98.501 Y101.745 E-.119
;WIPE_END
G1 X113.613 Y113.413 F6000
G1 E1.6 F2400
G1 F1200
G1 X113.693 Y113.413 E.00236
G1 X113.693 Y113.993 E.01709
G1 X113.613 Y113.993 E.00236
G1 X113.613 Y113.473 E.01533
G1 X113.684 Y113.45 F6000
; stop printing object Shape-Box id:3 copy 0
; printing object Shape-Box id:4 copy 0
G1 E-1.12 F2400
;WIPE_START
G1 F4800
G1 X113.693 Y113.413 E-.0475
G1 X113.693 Y113.993 E-.2755
G1 X113.613 Y113.993 E-.038
G1 X113.613 Y113.742 E-.119
;WIPE_END
G1 X113.674 Y111.152 F6000
G1 E1.6 F2400
G1 F1200
G1 X113.674 Y110.572 E.01709
G1 X113.754 Y110.572 E.00236
G1 X113.754 Y111.152 E.01709
G1 X113.734 Y111.152 E.00059
G1 X113.692 Y110.752 F6000
; stop printing object Shape-Box id:4 copy 0
; printing object Shape-Box id:0 copy 0
G1 X115.64 Y110.8
;TYPE:Perimeter
G1 F1200
G1 X115.643 Y110.836 E.00106
G1 X115.505 Y110.681 E.00612
G1 X115.631 Y110.69 E.00372
G1 X115.635 Y110.74 E.00148
G1 E-1.12 F2400
;WIPE_START
G1 F4800
G1 X115.643 Y110.836 E-.04576
G1 X115.505 Y110.681 E-.09858
G1 X115.631 Y110.69 E-.06
G1 X115.635 Y110.74 E-.02383
;WIPE_END
G1 E-.25183 F2400
G1 X116.714 Y112.578 F6000
G1 E1.6 F2400
G1 F1200
G1 X116.047 Y112.576 E.01966
G1 X116.073 Y112.234 E.01011
G1 X116.052 Y111.961 E.00807
G1 X116.288 Y112.251 E.01102
G1 X116.661 Y112.55 E.01409
G1 E-1.12 F2400
;WIPE_START
G1 F4800
G1 X116.047 Y112.576 E-.29191
G1 X116.073 Y112.234 E-.16292
G1 X116.069 Y112.181 E-.02517
;WIPE_END
G1 X118.484 Y110.732 F6000
G1 E1.6 F2400
G1 F1200
G1 X118.315 Y110.899 E.007
G1 X118.176 Y110.965 E.00454
G1 X118.009 Y110.973 E.00493
G1 X117.86 Y110.94 E.0045
G1 X117.783 Y110.888 E.00274
G1 X117.707 Y110.779 E.00392
G1 X117.666 Y110.602 E.00535
G1 X117.675 Y110.358 E.0072
G1 X117.723 Y110.192 E.00509
G1 X117.798 Y110.08 E.00397
G1 X117.886 Y110.008 E.00335
G1 X117.986 Y109.97 E.00315
G1 X118.109 Y109.968 E.00363
G1 X118.224 Y110.023 E.00376
G1 X118.283 Y110.105 E.00298
G1 X118.466 Y110.675 E.01764
G1 E-1.12 F2400
;WIPE_START
G1 F4800
G1 X118.315 Y110.899 E-.12832
G1 X118.176 Y110.965 E-.07309
G1 X118.009 Y110.973 E-.07942
G1 X117.86 Y110.94 E-.07249
G1 X117.783 Y110.888 E-.04413
G1 X117.707 Y110.779 E-.06312
G1 X117.698 Y110.739 E-.01943
;WIPE_END
G1 X125.387 Y110.435 F6000
G1 E1.6 F2400
G1 F1200
G1 X125.421 Y110.558 E.00376
G1 X125.12 Y110.622 E.00907
G1 X124.968 Y110.629 E.00448
G1 X124.872 Y110.607 E.0029
G1 X124.753 Y110.51 E.00452
G1 X124.717 Y110.431 E.00256
G1 X124.708 Y110.302 E.00381
G1 X124.737 Y110.181 E.00367
G1 X124.841 Y110.038 E.00521
G1 X124.997 Y109.969 E.00503
G1 X125.126 Y109.968 E.0038
G1 X125.201 Y109.995 E.00235
G1 X125.244 Y110.034 E.00171
G1 X125.314 Y110.168 E.00446
G1 X125.371 Y110.377 E.00638
G1 X126.997 Y110.84 F6000
G1 F1200
G1 X126.987 Y111.743 E.02662
G1 X127.012 Y112.002 E.00767
G1 X126.051 Y111.859 E.02864
G1 X126.097 Y111.632 E.00683
G1 X126.177 Y110.95 E.02024
G1 X126.938 Y110.848 E.02263
G1 E-1.12 F2400
;WIPE_START
G1 F4800
G1 X126.987 Y111.743 E-.42576
G1 X126.998 Y111.857 E-.05424
;WIPE_END
G1 X125.309 Y112.478 F6000
G1 E1.6 F2400
G1 F1200
G1 X125.263 Y112.63 E.00468
