; generated by PrusaSlicer 2.6.0+win64 on 2023-07-24 at 12:34:12 UTC

; 

; external perimeters extrusion width = 0.42mm
; perimeters extrusion width = 0.44mm
; infill extrusion width = 0.44mm
; solid infill extrusion width = 0.44mm
; top infill extrusion width = 0.40mm
; first layer extrusion width = 0.42mm

;TYPE:Custom
; Ender 3 Custom Start G-code
G92 E0 ; Reset Extruder

M140 S80 ; set bed temp
M190 S80 ; wait for bed temp

G28 ; Home all axes
M104 S235 ; set extruder temp 
BED_MESH_CALIBRATE AREA_START=101.087,101.087 AREA_END=129.913,129.913

G1 Z2.0 F3000 ; Move Z Axis up little to prevent scratching of Heat Bed
M109 S235 ; wait for extruder temp
G1 X0.1 Y20 Z0.3 F5000.0 ; Move to start position

G1 X0.1 Y200.0 Z0.3 F1500.0 E15 ; Draw the first line
G1 X0.4 Y200.0 Z0.3 F5000.0 ; Move to side a little
G1 X0.4 Y20 Z0.3 F1500.0 E30 ; Draw the second line
G92 E0 ; Reset Extruder
G1 Z2.0 F3000 ; Move Z Axis up little to prevent scratching of Heat Bed
G1 X5 Y20 Z0.3 F5000.0 ; Move over to prevent blob squish
G21 ; set units to millimeters
G90 ; use absolute coordinates
M83 ; use relative distances for extrusion
; Filament gcode
M107
;LAYER_CHANGE
;Z:0.22
;HEIGHT:0.22
;BEFORE_LAYER_CHANGE
G92 E0
;0.22


G1 E-1.6 F2400
G1 Z.22 F6000
;AFTER_LAYER_CHANGE
;0.22
G1 X105.66 Y105.225
G1 E1.6 F2400
M204 S500
;TYPE:Skirt/Brim
;WIDTH:0.42
G1 F1200
G1 X106.534 Y104.454 E.03735
G1 X107.878 Y103.486 E.05309
G1 X108.754 Y102.974 E.03252
G1 X110.235 Y102.282 E.05239
G1 X111.803 Y101.763 E.05294
G1 X112.94 Y101.505 E.03737
G1 X114.523 Y101.306 E.05114
G1 X115.674 Y101.275 E.0369
G1 X117.355 Y101.394 E.05401
G1 X118.931 Y101.693 E.05141
G1 X120.011 Y102.007 E.03605
G1 X121.449 Y102.576 E.04957
G1 X122.487 Y103.107 E.03737
G1 X123.852 Y103.982 E.05197
G1 X124.678 Y104.63 E.03365
G1 X125.775 Y105.66 E.04823
G1 X126.546 Y106.534 E.03735
G1 X127.514 Y107.878 E.05309
G1 X128.026 Y108.754 E.03252
G1 X128.718 Y110.235 E.05239
G1 X129.066 Y111.212 E.03324
G1 X129.464 Y112.773 E.05163
G1 X129.686 Y114.433 E.05368
G1 X129.727 Y115.594 E.03723
G1 X129.628 Y117.18 E.05093
G1 X129.464 Y118.227 E.03397
G1 X129.066 Y119.788 E.05163
G1 X128.668 Y120.884 E.03737
G1 X127.964 Y122.362 E.05247
G1 X127.086 Y123.757 E.05283
G1 X126.37 Y124.678 E.03739
G1 X125.34 Y125.775 E.04823
G1 X124.466 Y126.546 E.03735
G1 X123.122 Y127.514 E.05309
G1 X122.246 Y128.026 E.03252
G1 X120.765 Y128.718 E.05239
G1 X119.788 Y129.066 E.03324
G1 X118.227 Y129.464 E.05163
G1 X116.567 Y129.686 E.05368
G1 X115.406 Y129.727 E.03723
G1 X113.82 Y129.628 E.05093
G1 X112.773 Y129.464 E.03397
G1 X111.212 Y129.066 E.05163
G1 X110.116 Y128.668 E.03737
G1 X108.638 Y127.964 E.05247
G1 X107.243 Y127.086 E.05283
G1 X106.322 Y126.37 E.03739
G1 X105.225 Y125.34 E.04823
G1 X104.454 Y124.466 E.03735
G1 X103.486 Y123.122 E.05309
G1 X102.974 Y122.246 E.03252
G1 X102.282 Y120.765 E.05239
G1 X101.934 Y119.788 E.03324
G1 X101.536 Y118.227 E.05163
G1 X101.314 Y116.567 E.05368
G1 X101.273 Y115.406 E.03723
G1 X101.372 Y113.82 E.05093
G1 X101.536 Y112.773 E.03397
G1 X101.934 Y111.212 E.05163
G1 X102.332 Y110.116 E.03737
G1 X103.036 Y108.638 E.05247
G1 X103.914 Y107.243 E.05283
G1 X104.63 Y106.322 E.03739
G1 X105.619 Y105.269 E.0463
G1 X105.89 Y105.524 F6000
G1 F1200
G1 X106.763 Y104.748 E.03744
G1 X108.081 Y103.799 E.05205
G1 X108.924 Y103.306 E.0313
G1 X110.377 Y102.627 E.0514
G1 X111.907 Y102.121 E.05165
G1 X112.998 Y101.873 E.03586
G1 X114.557 Y101.677 E.05036
G1 X115.663 Y101.648 E.03546
G1 X117.299 Y101.763 E.05257
G1 X118.85 Y102.056 E.05059
G1 X119.889 Y102.36 E.0347
G1 X121.301 Y102.918 E.04866
G1 X122.297 Y103.428 E.03586
G1 X123.631 Y104.282 E.05077
G1 X124.431 Y104.909 E.03258
G1 X125.511 Y105.923 E.04748
G1 X126.252 Y106.763 E.0359
G1 X127.201 Y108.081 E.05205
G1 X127.694 Y108.924 E.0313
G1 X128.373 Y110.377 E.0514
G1 X128.708 Y111.316 E.03195
G1 X129.099 Y112.851 E.05077
G1 X129.314 Y114.468 E.05228
G1 X129.354 Y115.583 E.03576
G1 X129.257 Y117.145 E.05016
G1 X129.099 Y118.149 E.03258
G1 X128.708 Y119.684 E.05077
G1 X128.326 Y120.736 E.03587
G1 X127.639 Y122.179 E.05122
G1 X126.777 Y123.548 E.05185
G1 X126.091 Y124.431 E.03584
G1 X125.077 Y125.511 E.04748
G1 X124.237 Y126.252 E.0359
G1 X122.919 Y127.201 E.05205
G1 X122.076 Y127.694 E.0313
G1 X120.623 Y128.373 E.0514
G1 X119.684 Y128.708 E.03195
G1 X118.149 Y129.099 E.05077
G1 X116.532 Y129.314 E.05228
G1 X115.417 Y129.354 E.03576
G1 X113.855 Y129.257 E.05016
G1 X112.851 Y129.099 E.03258
G1 X111.316 Y128.708 E.05077
G1 X110.264 Y128.326 E.03587
G1 X108.821 Y127.639 E.05122
G1 X107.452 Y126.777 E.05185
G1 X106.569 Y126.091 E.03584
G1 X105.489 Y125.077 E.04748
G1 X104.748 Y124.237 E.0359
G1 X103.799 Y122.919 E.05205
G1 X103.306 Y122.076 E.0313
G1 X102.627 Y120.623 E.0514
G1 X102.292 Y119.684 E.03195
G1 X101.901 Y118.149 E.05077
G1 X101.686 Y116.532 E.05228
G1 X101.646 Y115.417 E.03576
G1 X101.743 Y113.855 E.05016
G1 X101.901 Y112.851 E.03258
G1 X102.292 Y111.316 E.05077
G1 X102.674 Y110.264 E.03587
G1 X103.361 Y108.821 E.05122
G1 X104.223 Y107.453 E.05182
G1 X104.909 Y106.569 E.03586
G1 X105.849 Y105.568 E.04401
G1 X106.121 Y105.823 F6000
G1 F1200
G1 X106.991 Y105.043 E.03745
G1 X108.283 Y104.112 E.05104
G1 X109.093 Y103.638 E.03008
G1 X110.52 Y102.971 E.05049
G1 X112.011 Y102.479 E.05032
G1 X113.056 Y102.241 E.03435
G1 X114.591 Y102.049 E.04958
G1 X115.651 Y102.021 E.03399
G1 X117.243 Y102.131 E.05115
G1 X118.768 Y102.42 E.04975
G1 X119.767 Y102.712 E.03336
G1 X121.152 Y103.26 E.04774
G1 X122.107 Y103.749 E.03439
G1 X123.411 Y104.582 E.04959
G1 X124.185 Y105.189 E.03153
G1 X125.248 Y106.187 E.04673
G1 X125.957 Y106.991 E.03436
G1 X126.888 Y108.283 E.05104
G1 X127.362 Y109.093 E.03008
G1 X128.029 Y110.52 E.05049
G1 X128.35 Y111.42 E.03063
G1 X128.735 Y112.93 E.04995
G1 X128.943 Y114.503 E.05086
G1 X128.982 Y115.572 E.03429
G1 X128.885 Y117.109 E.04936
G1 X128.735 Y118.07 E.03117
G1 X128.35 Y119.58 E.04995
G1 X127.984 Y120.588 E.03437
G1 X127.315 Y121.995 E.04993
G1 X126.469 Y123.338 E.05087
G1 X125.811 Y124.185 E.03438
G1 X124.813 Y125.248 E.04673
G1 X124.009 Y125.957 E.03436
G1 X122.717 Y126.888 E.05104
G1 X121.907 Y127.362 E.03008
G1 X120.48 Y128.029 E.05049
G1 X119.58 Y128.35 E.03063
G1 X118.07 Y128.735 E.04995
G1 X116.497 Y128.943 E.05086
G1 X115.428 Y128.982 E.03429
G1 X113.891 Y128.885 E.04936
G1 X112.93 Y128.735 E.03117
G1 X111.42 Y128.35 E.04995
G1 X110.412 Y127.984 E.03437
G1 X109.005 Y127.315 E.04993
G1 X107.662 Y126.469 E.05087
G1 X106.815 Y125.811 E.03438
G1 X105.752 Y124.813 E.04673
G1 X105.043 Y124.009 E.03436
G1 X104.112 Y122.717 E.05104
G1 X103.638 Y121.907 E.03008
G1 X102.971 Y120.48 E.05049
G1 X102.65 Y119.58 E.03063
G1 X102.265 Y118.07 E.04995
G1 X102.057 Y116.497 E.05086
G1 X102.018 Y115.428 E.03429
G1 X102.115 Y113.891 E.04936
G1 X102.265 Y112.93 E.03117
G1 X102.65 Y111.42 E.04995
G1 X103.016 Y110.412 E.03437
G1 X103.685 Y109.005 E.04993
G1 X104.531 Y107.662 E.05087
G1 X105.189 Y106.815 E.03438
G1 X106.08 Y105.866 E.04172
; printing object ground_holder_v2.stl id:0 copy 0
G1 E-1.12 F2400
;WIPE_START
G1 F4800
G1 X106.83 Y105.189 E-.48
;WIPE_END
G1 X125.638 Y113.814 F6000
G1 E1.6 F2400
;TYPE:External perimeter
G1 F1200
G1 X125.853 Y114.078 E.01091
G1 X126.137 Y114.627 E.01981
G1 X126.228 Y114.87 E.00832
G1 X126.298 Y115.181 E.01022
G1 X126.321 Y115.5 E.01025
G1 X126.303 Y115.759 E.00832
G1 X126.228 Y116.129 E.0121
G1 X126.113 Y116.427 E.01024
G1 X125.852 Y116.922 E.01794
G1 X125.638 Y117.186 E.01089
G1 X125.378 Y117.407 E.01094
G1 X125.084 Y117.575 E.01085
G1 X124.831 Y117.671 E.00867
G1 X124.442 Y117.761 E.0128
G1 X124.173 Y117.78 E.00864
G1 X123.841 Y117.762 E.01066
G1 X123.512 Y117.694 E.01077
G1 X123.197 Y117.578 E.01076
G1 X122.904 Y117.418 E.0107
G1 X122.689 Y117.258 E.00859
G1 X122.402 Y116.979 E.01283
G1 X122.204 Y116.707 E.01078
G1 X122.076 Y116.473 E.00855
G1 X121.956 Y116.161 E.01071
G1 X121.882 Y115.834 E.01075
G1 X121.857 Y115.5 E.01074
G1 X121.877 Y115.233 E.00858
G1 X121.955 Y114.841 E.01281
G1 X122.076 Y114.527 E.01079
G1 X122.204 Y114.293 E.00855
G1 X122.402 Y114.021 E.01078
G1 X122.689 Y113.742 E.01283
G1 X122.904 Y113.582 E.00859
G1 X123.138 Y113.454 E.00855
G1 X123.509 Y113.307 E.01279
G1 X123.841 Y113.238 E.01087
G1 X124.173 Y113.22 E.01066
G1 X124.44 Y113.239 E.00858
G1 X124.767 Y113.307 E.0107
G1 X125.084 Y113.425 E.01084
G1 X125.378 Y113.593 E.01085
G1 X125.592 Y113.775 E.009
G1 X125.968 Y113.729 F6000
G1 X125.72 Y113.394
;TYPE:Perimeter
G1 F1200
G1 X125.593 Y113.287 E.00532
G1 X125.242 Y113.086 E.01296
G1 X124.871 Y112.948 E.01269
G1 X124.491 Y112.869 E.01244
G1 X124.176 Y112.846 E.01012
G1 X123.792 Y112.868 E.01233
G1 X123.402 Y112.948 E.01276
G1 X122.979 Y113.116 E.01459
G1 X122.701 Y113.267 E.01014
G1 X122.446 Y113.458 E.01021
G1 X122.119 Y113.776 E.01462
G1 X121.889 Y114.093 E.01255
G1 X121.737 Y114.37 E.01013
G1 X121.596 Y114.737 E.0126
G1 X121.506 Y115.183 E.01458
G1 X121.484 Y115.501 E.01022
G1 X121.512 Y115.889 E.01247
G1 X121.598 Y116.27 E.01252
G1 X121.737 Y116.63 E.01237
G1 X121.889 Y116.907 E.01013
G1 X122.119 Y117.224 E.01255
G1 X122.446 Y117.542 E.01462
G1 X122.702 Y117.733 E.01024
G1 X123.043 Y117.919 E.01245
G1 X123.41 Y118.053 E.01252
G1 X123.792 Y118.132 E.0125
G1 X124.176 Y118.154 E.01233
G1 X124.498 Y118.131 E.01035
G1 X124.94 Y118.028 E.01455
G1 X125.244 Y117.913 E.01042
G1 X125.593 Y117.713 E.01289
G1 X125.72 Y117.606 E.00532
G1 X125.421 Y118.708 E.0366
G1 X125.201 Y119.322 E.0209
G1 X124.944 Y119.92 E.02086
G1 X124.611 Y120.568 E.02335
G1 X124.318 Y121.064 E.01846
G1 X123.953 Y121.604 E.02089
G1 X123.506 Y122.179 E.02334
G1 X123.125 Y122.611 E.01846
G1 X122.665 Y123.074 E.02092
G1 X122.121 Y123.555 E.02327
G1 X121.605 Y123.952 E.02087
G1 X121.065 Y124.317 E.02089
G1 X120.502 Y124.648 E.02093
G1 X119.988 Y124.91 E.01849
G1 X119.321 Y125.201 E.02332
G1 X118.708 Y125.421 E.02087
G1 X118.154 Y125.582 E.01849
G1 X117.444 Y125.744 E.02334
G1 X116.801 Y125.845 E.02086
G1 X116.226 Y125.9 E.01851
G1 X115.5 Y125.927 E.02329
G1 X114.774 Y125.9 E.02329
G1 X114.199 Y125.845 E.01851
G1 X113.556 Y125.744 E.02086
G1 X112.846 Y125.582 E.02334
G1 X112.292 Y125.421 E.01849
G1 X111.679 Y125.201 E.02087
G1 X111.012 Y124.91 E.02332
G1 X110.498 Y124.648 E.01849
G1 X109.935 Y124.317 E.02093
G1 X109.395 Y123.952 E.02089
G1 X108.879 Y123.555 E.02087
G1 X108.335 Y123.074 E.02327
G1 X107.875 Y122.611 E.02092
G1 X107.494 Y122.179 E.01846
G1 X107.047 Y121.604 E.02334
G1 X106.682 Y121.064 E.02089
G1 X106.389 Y120.568 E.01846
G1 X106.056 Y119.92 E.02335
G1 X105.799 Y119.322 E.02086
G1 X105.579 Y118.708 E.0209
G1 X105.28 Y117.606 E.0366
G1 X105.407 Y117.713 E.00532
G1 X105.758 Y117.914 E.01296
G1 X106.126 Y118.051 E.01259
G1 X106.441 Y118.12 E.01034
G1 X106.892 Y118.154 E.0145
G1 X107.212 Y118.131 E.01028
G1 X107.59 Y118.053 E.01237
G1 X107.957 Y117.919 E.01252
G1 X108.299 Y117.732 E.01249
G1 X108.609 Y117.499 E.01243
G1 X108.835 Y117.272 E.01027
G1 X109.112 Y116.908 E.01466
G1 X109.292 Y116.563 E.01247
G1 X109.403 Y116.267 E.01013
G1 X109.488 Y115.889 E.01242
G1 X109.516 Y115.5 E.0125
G1 X109.488 Y115.113 E.01244
G1 X109.42 Y114.801 E.01023
G1 X109.266 Y114.376 E.01449
G1 X109.111 Y114.093 E.01034
G1 X108.885 Y113.782 E.01232
G1 X108.611 Y113.503 E.01253
G1 X108.299 Y113.268 E.01252
G1 X107.959 Y113.082 E.01242
G1 X107.659 Y112.97 E.01026
G1 X107.214 Y112.868 E.01463
G1 X106.824 Y112.846 E.01252
G1 X106.509 Y112.869 E.01012
G1 X106.129 Y112.948 E.01244
G1 X105.758 Y113.086 E.01269
G1 X105.407 Y113.287 E.01296
G1 X105.28 Y113.394 E.00532
G1 X105.579 Y112.292 E.0366
G1 X105.799 Y111.678 E.0209
G1 X106.056 Y111.08 E.02086
G1 X106.388 Y110.432 E.02334
G1 X106.682 Y109.936 E.01848
G1 X107.047 Y109.396 E.02089
G1 X107.494 Y108.821 E.02334
G1 X107.875 Y108.389 E.01846
G1 X108.335 Y107.926 E.02092
G1 X108.879 Y107.445 E.02327
G1 X109.395 Y107.048 E.02087
G1 X109.935 Y106.683 E.02089
G1 X110.498 Y106.352 E.02093
G1 X111.012 Y106.09 E.01849
G1 X111.679 Y105.799 E.02332
G1 X112.292 Y105.579 E.02087
G1 X112.846 Y105.418 E.01849
G1 X113.556 Y105.256 E.02334
G1 X114.199 Y105.155 E.02086
G1 X114.846 Y105.094 E.02083
G1 X115.575 Y105.075 E.02337
G1 X116.152 Y105.094 E.0185
G1 X116.801 Y105.155 E.02089
G1 X117.444 Y105.256 E.02086
G1 X118.154 Y105.418 E.02334
G1 X118.708 Y105.579 E.01849
G1 X119.321 Y105.799 E.02087
G1 X119.988 Y106.09 E.02332
G1 X120.502 Y106.352 E.01849
G1 X121.065 Y106.682 E.02092
G1 X121.605 Y107.048 E.02091
G1 X122.121 Y107.445 E.02087
G1 X122.665 Y107.926 E.02327
G1 X123.125 Y108.389 E.02092
G1 X123.506 Y108.821 E.01846
G1 X123.953 Y109.396 E.02334
G1 X124.318 Y109.936 E.02089
G1 X124.611 Y110.432 E.01846
G1 X124.944 Y111.08 E.02335
G1 X125.201 Y111.678 E.02086
G1 X125.421 Y112.292 E.0209
G1 X125.706 Y113.336 E.03469
G1 E-1.12 F2400
;WIPE_START
G1 F4800
G1 X125.593 Y113.287 E-.0585
G1 X125.242 Y113.086 E-.19213
G1 X124.871 Y112.948 E-.18802
G1 X124.786 Y112.93 E-.04135
;WIPE_END
G1 X105.362 Y117.186 F6000
G1 E1.6 F2400
;TYPE:External perimeter
G1 F1200
G1 X105.147 Y116.922 E.01091
G1 X104.863 Y116.373 E.01981
G1 X104.772 Y116.13 E.00832
G1 X104.702 Y115.819 E.01022
G1 X104.679 Y115.5 E.01025
G1 X104.702 Y115.181 E.01025
G1 X104.772 Y114.87 E.01022
G1 X104.863 Y114.627 E.00832
G1 X105.147 Y114.078 E.01981
G1 X105.362 Y113.814 E.01091
G1 X105.622 Y113.593 E.01094
G1 X105.916 Y113.425 E.01085
G1 X106.233 Y113.307 E.01084
G1 X106.56 Y113.239 E.0107
G1 X106.827 Y113.22 E.00858
G1 X107.162 Y113.239 E.01075
G1 X107.552 Y113.328 E.01282
G1 X107.804 Y113.422 E.00862
G1 X108.097 Y113.582 E.0107
G1 X108.364 Y113.784 E.01073
G1 X108.6 Y114.023 E.01077
G1 X108.796 Y114.293 E.01069
G1 X108.925 Y114.529 E.00862
G1 X109.061 Y114.904 E.01279
G1 X109.118 Y115.167 E.00863
G1 X109.143 Y115.5 E.0107
G1 X109.118 Y115.834 E.01074
G1 X109.044 Y116.16 E.01071
G1 X108.951 Y116.411 E.00858
G1 X108.796 Y116.707 E.01071
G1 X108.554 Y117.027 E.01286
G1 X108.364 Y117.217 E.00861
G1 X108.097 Y117.418 E.01071
G1 X107.803 Y117.578 E.01073
G1 X107.488 Y117.694 E.01076
G1 X107.161 Y117.761 E.0107
G1 X106.892 Y117.781 E.00865
G1 X106.495 Y117.75 E.01276
G1 X106.232 Y117.693 E.00863
G1 X105.916 Y117.575 E.01081
G1 X105.622 Y117.407 E.01085
G1 X105.408 Y117.225 E.009
G1 X105.032 Y117.271 F6000
G1 X104.684 Y116.844
G1 F1200
G1 X104.621 Y116.181 E.02135
G1 X104.6 Y115.5 E.02184
G1 X104.621 Y114.819 E.02184
G1 X104.684 Y114.156 E.02135
G1 X104.797 Y113.797 E.01206
G1 X105.035 Y112.828 E.03198
G1 X105.224 Y112.177 E.02173
G1 X105.452 Y111.541 E.02165
G1 X105.719 Y110.921 E.02164
G1 X106.062 Y110.252 E.0241
G1 X106.367 Y109.736 E.01921
G1 X106.745 Y109.177 E.02163
G1 X107.206 Y108.583 E.0241
G1 X107.603 Y108.134 E.01921
G1 X108.079 Y107.655 E.02164
G1 X108.642 Y107.158 E.02407
G1 X109.177 Y106.745 E.02166
G1 X109.736 Y106.367 E.02163
G1 X110.318 Y106.025 E.02164
G1 X110.853 Y105.752 E.01925
G1 X111.542 Y105.452 E.02409
G1 X112.177 Y105.224 E.02162
G1 X112.753 Y105.057 E.01922
G1 X113.486 Y104.89 E.0241
G1 X114.152 Y104.785 E.02161
G1 X114.824 Y104.721 E.02164
G1 X115.576 Y104.702 E.02411
G1 X116.175 Y104.721 E.01921
G1 X116.848 Y104.785 E.02167
G1 X117.514 Y104.89 E.02161
G1 X118.247 Y105.057 E.0241
G1 X118.823 Y105.224 E.01922
G1 X119.458 Y105.452 E.02162
G1 X120.147 Y105.752 E.02409
G1 X120.682 Y106.025 E.01925
G1 X121.264 Y106.367 E.02164
G1 X121.823 Y106.745 E.02163
G1 X122.358 Y107.158 E.02166
G1 X122.921 Y107.655 E.02407
G1 X123.397 Y108.134 E.02164
G1 X123.794 Y108.583 E.01921
G1 X124.255 Y109.177 E.0241
G1 X124.633 Y109.736 E.02163
G1 X124.938 Y110.252 E.01921
G1 X125.281 Y110.921 E.0241
G1 X125.548 Y111.541 E.02164
G1 X125.776 Y112.177 E.02165
G1 X125.965 Y112.828 E.02173
G1 X126.203 Y113.797 E.03198
G1 X126.316 Y114.156 E.01206
G1 X126.379 Y114.819 E.02135
G1 X126.4 Y115.5 E.02184
G1 X126.379 Y116.181 E.02184
G1 X126.316 Y116.844 E.02135
G1 X126.203 Y117.203 E.01206
G1 X125.965 Y118.172 E.03198
G1 X125.776 Y118.823 E.02173
G1 X125.548 Y119.459 E.02165
G1 X125.281 Y120.079 E.02164
G1 X124.938 Y120.748 E.0241
G1 X124.633 Y121.264 E.01921
G1 X124.255 Y121.823 E.02163
G1 X123.794 Y122.417 E.0241
