; generated by PrusaSlicer 2.7.2+win64 on 2024-03-11 at 12:38:58 UTC

; 

; external perimeters extrusion width = 0.42mm
; perimeters extrusion width = 0.44mm
; infill extrusion width = 0.44mm
; solid infill extrusion width = 0.44mm
; top infill extrusion width = 0.40mm
; first layer extrusion width = 0.42mm


; printing object Shape-Box id:0 copy 0
; stop printing object Shape-Box id:0 copy 0

;TYPE:Custom
; Ender 3 Custom Start G-code
G92 E0 ; Reset Extruder

M140 S55 ; set bed temp
M104 S160 ; set extruder temp
M109 S160 ; wait for extruder temp
M190 S55 ; wait for bed temp

G28 ; Home all axes
M104 S210 ; set extruder temp 
BED_MESH_CALIBRATE AREA_START=83.7684,88.5669 AREA_END=143.763,126.207

G1 Z2.0 F3000 ; Move Z Axis up little to prevent scratching of Heat Bed
M109 S210 ; wait for extruder temp
G1 X0.1 Y20 Z0.3 F5000.0 ; Move to start position

G1 X0.1 Y200.0 Z0.3 F1500.0 E15 ; Draw the first line
G1 X0.4 Y200.0 Z0.3 F5000.0 ; Move to side a little
G1 X0.4 Y20 Z0.3 F1500.0 E30 ; Draw the second line
G92 E0 ; Reset Extruder
G1 Z2.0 F3000 ; Move Z Axis up little to prevent scratching of Heat Bed
G1 X5 Y20 Z0.3 F5000.0 ; Move over to prevent blob squish
G21 ; set units to millimeters
G90 ; use absolute coordinates
M83 ; use relative distances for extrusion
; Filament gcode
M107
;LAYER_CHANGE
;Z:0.2
;HEIGHT:0.2
G1 E-1.6 F2400
G1 Z.2 F6000
G1 X87.857 Y91.701
G1 Z.2
G1 E1.6 F2400
M204 S500
;TYPE:Skirt/Brim
;WIDTH:0.42
G1 F1200
G1 X88.725 Y90.996 E.03296
G1 X89.656 Y90.382 E.03287
G1 X91.322 Y89.564 E.0547
G1 X93.099 Y89.026 E.05472
G1 X94.721 Y88.79 E.04831
G1 X132.884 Y88.805 E1.12478
G1 X133.843 Y88.938 E.02854
G1 X135.87 Y89.494 E.06195
G1 X137.7 Y90.365 E.05973
G1 X139.14 Y91.376 E.05186
G1 X140.583 Y92.775 E.05924
G1 X141.374 Y93.79 E.03793
G1 X141.835 Y94.519 E.02542
G1 X142.681 Y96.304 E.05822
G1 X143.24 Y98.341 E.06226
G1 X143.425 Y100.341 E.0592
G1 X143.575 Y114.341 E.41265
G1 X143.503 Y115.668 E.03917
G1 X143.296 Y116.888 E.03647
G1 X142.676 Y118.864 E.06104
G1 X141.69 Y120.733 E.06228
G1 X140.467 Y122.296 E.05849
G1 X139.688 Y123.064 E.03224
G1 X138.815 Y123.771 E.03311
G1 X137.173 Y124.778 E.05677
G1 X136.08 Y125.257 E.03517
G1 X134.281 Y125.783 E.05524
G1 X132.523 Y126.003 E.05222
G1 X95.078 Y126.009 E1.10362
G1 X93.39 Y125.81 E.0501
G1 X92.295 Y125.542 E.03323
G1 X91.185 Y125.153 E.03467
G1 X89.854 Y124.506 E.04362
G1 X88.8 Y123.835 E.03683
G1 X87.851 Y123.075 E.03583
G1 X86.76 Y121.96 E.04598
G1 X86.154 Y121.19 E.02888
G1 X85.328 Y119.862 E.04609
G1 X84.772 Y118.665 E.0389
G1 X84.319 Y117.276 E.04306
G1 X84.013 Y115.506 E.05294
G1 X83.957 Y114.505 E.02955
G1 X83.987 Y99.578 E.43994
G1 X84.339 Y97.433 E.06407
G1 X84.956 Y95.673 E.05497
G1 X85.359 Y94.854 E.0269
G1 X86.242 Y93.468 E.04844
G1 X86.875 Y92.684 E.0297
G1 X87.814 Y91.744 E.03916
G1 X87.814 Y91.744 F6000
G1 X88.08 Y92.01
G1 F1200
G1 X88.109 Y91.982 E.00119
G1 X88.937 Y91.308 E.03147
G1 X89.836 Y90.714 E.03176
G1 X91.455 Y89.917 E.05319
G1 X92.992 Y89.437 E.04746
G1 X94.74 Y89.166 E.05213
G1 X131.692 Y89.133 E1.08909
G1 X133.767 Y89.308 E.06137
G1 X135.748 Y89.851 E.06054
G1 X137.509 Y90.69 E.05749
G1 X138.893 Y91.661 E.04983
G1 X140.304 Y93.029 E.05792
G1 X141.07 Y94.013 E.03675
G1 X141.565 Y94.802 E.02745
G1 X142.414 Y96.673 E.06056
G1 X142.882 Y98.473 E.05482
G1 X143.048 Y100.345 E.05539
G1 X143.198 Y114.345 E.41265
G1 X143.13 Y115.614 E.03745
G1 X142.924 Y116.824 E.03618
G1 X142.331 Y118.712 E.05833
G1 X141.369 Y120.534 E.06073
G1 X140.198 Y122.031 E.05602
G1 X139.594 Y122.642 E.02532
G1 X138.603 Y123.459 E.03785
G1 X136.981 Y124.453 E.05607
G1 X135.395 Y125.098 E.05046
G1 X134.218 Y125.411 E.0359
G1 X132.355 Y125.634 E.0553
G1 X95.105 Y125.633 E1.09787
G1 X93.449 Y125.437 E.04915
G1 X92.304 Y125.154 E.03476
G1 X91.337 Y124.807 E.03028
G1 X90.03 Y124.173 E.04281
G1 X89.019 Y123.528 E.03534
G1 X88.102 Y122.794 E.03462
G1 X87.039 Y121.706 E.04483
G1 X86.452 Y120.958 E.02802
G1 X85.657 Y119.676 E.04446
G1 X85.128 Y118.539 E.03696
G1 X84.684 Y117.182 E.04208
G1 X84.387 Y115.46 E.0515
G1 X84.334 Y114.505 E.02819
G1 X84.363 Y99.603 E.43921
G1 X84.7 Y97.541 E.06158
G1 X85.307 Y95.811 E.05404
G1 X85.705 Y95.004 E.02652
G1 X86.553 Y93.681 E.04632
G1 X87.156 Y92.934 E.02829
G1 X88.038 Y92.052 E.03676
G1 X88.038 Y92.052 F6000
G1 X88.304 Y92.318
G1 F1200
G1 X88.361 Y92.262 E.00236
G1 X89.149 Y91.62 E.02996
G1 X90.029 Y91.037 E.03111
G1 X91.588 Y90.27 E.05121
G1 X93.208 Y89.774 E.04993
G1 X94.758 Y89.543 E.04619
G1 X131.692 Y89.51 E1.08856
G1 X133.69 Y89.677 E.05909
G1 X135.628 Y90.208 E.05922
G1 X137.318 Y91.015 E.0552
G1 X138.647 Y91.947 E.04784
G1 X140.013 Y93.269 E.05603
G1 X140.766 Y94.236 E.03612
G1 X141.237 Y94.988 E.02615
G1 X142.054 Y96.785 E.05818
G1 X142.512 Y98.545 E.0536
G1 X142.671 Y100.349 E.05338
G1 X142.821 Y114.349 E.41265
G1 X142.744 Y115.641 E.03815
G1 X142.521 Y116.917 E.03818
G1 X142.276 Y117.78 E.02644
G1 X141.409 Y119.75 E.06344
G1 X140.675 Y120.874 E.03957
G1 X140.018 Y121.672 E.03047
G1 X139.333 Y122.37 E.02882
G1 X138.39 Y123.147 E.03601
G1 X136.804 Y124.12 E.05484
G1 X135.27 Y124.742 E.04879
G1 X134.141 Y125.042 E.03443
G1 X132.345 Y125.257 E.05331
G1 X95.131 Y125.257 E1.09681
G1 X93.508 Y125.065 E.04817
G1 X92.409 Y124.792 E.03338
G1 X91.488 Y124.462 E.02883
G1 X90.206 Y123.839 E.04201
G1 X89.238 Y123.221 E.03385
G1 X88.306 Y122.47 E.03528
G1 X87.318 Y121.453 E.04179
G1 X86.76 Y120.741 E.02666
G1 X85.985 Y119.491 E.04335
G1 X85.483 Y118.413 E.03505
G1 X85.05 Y117.087 E.04111
G1 X84.761 Y115.415 E.05001
G1 X84.739 Y99.629 E.46526
G1 X85.061 Y97.651 E.05907
G1 X85.658 Y95.949 E.05316
G1 X86.04 Y95.178 E.02536
G1 X86.862 Y93.897 E.04486
G1 X87.438 Y93.185 E.02699
G1 X88.262 Y92.361 E.03435
; printing object Shape-Box id:0 copy 0
G1 E-1.12 F2400
;WIPE_START
G1 F4800
G1 X88.304 Y92.318 E-.02855
G1 X88.361 Y92.262 E-.03796
G1 X89.036 Y91.712 E-.41349
;WIPE_END
G1 X114.047 Y110.782 F6000
G1 E1.6 F2400
;TYPE:Perimeter
G1 F1200
G1 X114.066 Y110.849 E.00205
G1 X113.774 Y110.911 E.0088
G1 X113.626 Y110.917 E.00437
G1 X113.534 Y110.896 E.00278
G1 X113.421 Y110.804 E.00429
G1 X113.387 Y110.729 E.00243
G1 X113.378 Y110.605 E.00366
G1 X113.406 Y110.489 E.00352
G1 X113.454 Y110.408 E.00278
G1 X113.533 Y110.336 E.00315
G1 X113.611 Y110.299 E.00254
G1 X113.778 Y110.285 E.00494
G1 X113.835 Y110.304 E.00177
G1 X113.916 Y110.385 E.00338
G1 X113.957 Y110.47 E.00278
G1 X114.03 Y110.724 E.00779
G1 X115.462 Y111.114 F6000
G1 F1200
G1 X115.435 Y111.396 E.00835
G1 X115.436 Y112.025 E.01854
G1 X115.456 Y112.256 E.00683
G1 X115.052 Y112.174 E.01215
G1 X114.699 Y112.136 E.01046
G1 X114.746 Y111.923 E.00643
G1 X114.824 Y111.243 E.02017
G1 X115.135 Y111.196 E.00927
G1 X115.404 Y111.129 E.00817
G1 E-1.12 F2400
;WIPE_START
G1 F4800
G1 X115.462 Y111.114 E-.02846
G1 X115.435 Y111.396 E-.13456
G1 X115.436 Y112.025 E-.29878
G1 X115.439 Y112.063 E-.0182
;WIPE_END
G1 X113.954 Y112.756 F6000
G1 E1.6 F2400
G1 F1200
G1 X113.911 Y112.891 E.00418
G1 X113.871 Y112.951 E.00213
G1 X113.786 Y113.002 E.00292
G1 X113.677 Y113.002 E.00321
G1 X113.609 Y112.962 E.00233
G1 X113.615 Y112.857 E.0031
G1 X113.674 Y112.821 E.00204
G1 X113.865 Y112.762 E.00589
G1 X113.895 Y112.76 E.00089
G1 E-1.12 F2400
;WIPE_START
G1 F4800
G1 X113.954 Y112.756 E-.02809
G1 X113.911 Y112.891 E-.0673
G1 X113.871 Y112.951 E-.03425
G1 X113.786 Y113.002 E-.04708
G1 X113.677 Y113.002 E-.05177
G1 X113.609 Y112.962 E-.03747
G1 X113.615 Y112.857 E-.04996
G1 X113.674 Y112.821 E-.03283
G1 X113.865 Y112.762 E-.09495
G1 X113.895 Y112.76 E-.01428
;WIPE_END
G1 E-.02202 F2400
G1 X103.711 Y112.756 F6000
G1 E1.6 F2400
G1 F1200
G1 X103.668 Y112.891 E.00418
G1 X103.627 Y112.951 E.00214
G1 X103.543 Y113.002 E.0029
G1 X103.433 Y113.002 E.00324
G1 X103.366 Y112.962 E.0023
G1 X103.372 Y112.857 E.0031
G1 X103.43 Y112.821 E.00201
G1 X103.621 Y112.762 E.00589
G1 X103.651 Y112.76 E.00089
G1 X103.651 Y112.76 F6000
G1 X103.815 Y110.851
G1 F1200
G1 X103.531 Y110.911 E.00856
G1 X103.382 Y110.917 E.0044
G1 X103.29 Y110.896 E.00278
G1 X103.177 Y110.804 E.00429
G1 X103.143 Y110.729 E.00243
G1 X103.135 Y110.605 E.00366
G1 X103.162 Y110.489 E.00351
G1 X103.218 Y110.396 E.0032
G1 X103.301 Y110.325 E.00322
G1 X103.411 Y110.286 E.00344
G1 X103.535 Y110.285 E.00365
G1 X103.63 Y110.329 E.00309
G1 X103.713 Y110.476 E.00498
G1 X103.8 Y110.793 E.00969
G1 E-1.12 F2400
;WIPE_START
G1 F4800
G1 X103.815 Y110.851 E-.02846
G1 X103.531 Y110.911 E-.13788
G1 X103.382 Y110.917 E-.07083
G1 X103.29 Y110.896 E-.04482
G1 X103.177 Y110.804 E-.06921
G1 X103.143 Y110.729 E-.03911
G1 X103.135 Y110.605 E-.05902
G1 X103.15 Y110.542 E-.03067
;WIPE_END
G1 X96.661 Y103.801 F6000
G1 E1.6 F2400
G1 F1200
G1 X96.648 Y103.095 E.02081
G1 X96.807 Y103.5 E.01282
G1 X96.953 Y103.725 E.00791
G1 X97.105 Y103.893 E.00668
G1 X96.668 Y103.855 E.01293
G1 E-1.12 F2400
;WIPE_START
G1 F4800
G1 X96.661 Y103.801 E-.02586
G1 X96.648 Y103.095 E-.33541
G1 X96.739 Y103.328 E-.11873
;WIPE_END
G1 X130.231 Y111.938 F6000
G1 E1.6 F2400
G1 F1200
G1 X130.004 Y112.385 E.01478
G1 X129.884 Y112.037 E.01085
G1 X129.769 Y111.949 E.00427
G1 X129.87 Y111.899 E.00332
G1 X130.019 Y111.579 E.0104
G1 X130.2 Y111.886 E.0105
G1 E-1.12 F2400
;WIPE_START
G1 F4800
G1 X130.231 Y111.938 E-.02876
G1 X130.004 Y112.385 E-.23813
G1 X129.884 Y112.037 E-.17485
G1 X129.82 Y111.988 E-.03826
;WIPE_END
G1 X124.198 Y112.756 F6000
G1 E1.6 F2400
G1 F1200
G1 X124.155 Y112.891 E.00418
G1 X124.115 Y112.951 E.00213
G1 X124.03 Y113.002 E.00292
G1 X123.921 Y113.002 E.00321
G1 X123.853 Y112.962 E.00233
G1 X123.859 Y112.857 E.0031
G1 X123.918 Y112.821 E.00204
G1 X124.108 Y112.762 E.00586
G1 X124.138 Y112.76 E.00089
G1 E-1.12 F2400
;WIPE_START
G1 F4800
G1 X124.198 Y112.756 E-.02856
G1 X124.155 Y112.891 E-.0673
G1 X124.115 Y112.951 E-.03425
G1 X124.03 Y113.002 E-.04708
G1 X123.921 Y113.002 E-.05177
G1 X123.853 Y112.962 E-.03747
G1 X123.859 Y112.857 E-.04996
G1 X123.918 Y112.821 E-.03283
G1 X124.108 Y112.762 E-.0945
G1 X124.138 Y112.76 E-.01428
;WIPE_END
G1 E-.022 F2400
G1 X126.169 Y111.934 F6000
G1 E1.6 F2400
G1 F1200
G1 X125.974 Y112.294 E.01207
G1 X125.288 Y112.171 E.02054
G1 X124.943 Y112.136 E.01022
G1 X124.99 Y111.923 E.00643
G1 X125.069 Y111.233 E.02047
G1 X125.414 Y111.17 E.01034
G1 X125.744 Y111.051 E.01034
G1 X125.754 Y111.21 E.0047
G1 X126.026 Y111.755 E.01795
G1 X126.132 Y111.887 E.00499
G1 E-1.12 F2400
;WIPE_START
G1 F4800
G1 X126.169 Y111.934 E-.02841
G1 X125.974 Y112.294 E-.19447
G1 X125.441 Y112.198 E-.25712
;WIPE_END
G1 X124.29 Y110.76 F6000
G1 E1.6 F2400
G1 F1200
G1 X124.317 Y110.848 E.00271
G1 X124.018 Y110.911 E.00901
G1 X123.869 Y110.917 E.0044
G1 X123.777 Y110.896 E.00278
G1 X123.665 Y110.804 E.00427
G1 X123.63 Y110.729 E.00244
G1 X123.622 Y110.605 E.00366
G1 X123.649 Y110.489 E.00351
G1 X123.705 Y110.396 E.0032
G1 X123.788 Y110.325 E.00322
G1 X123.898 Y110.286 E.00344
G1 X124.022 Y110.285 E.00365
G1 X124.118 Y110.329 E.00311
G1 X124.207 Y110.485 E.00529
G1 X124.273 Y110.703 E.00671
G1 E-1.12 F2400
;WIPE_START
G1 F4800
G1 X124.29 Y110.76 E-.02825
G1 X124.317 Y110.848 E-.04372
G1 X124.018 Y110.911 E-.14514
G1 X123.869 Y110.917 E-.07083
G1 X123.777 Y110.896 E-.04482
G1 X123.665 Y110.804 E-.06885
G1 X123.63 Y110.729 E-.03931
G1 X123.625 Y110.647 E-.03908
;WIPE_END
G1 X127.777 Y104.354 F6000
G1 E1.6 F2400
G1 F1200
G1 X127.734 Y104.49 E.0042
G1 X127.693 Y104.55 E.00214
G1 X127.609 Y104.601 E.0029
G1 X127.499 Y104.601 E.00324
G1 X127.432 Y104.56 E.00232
G1 X127.438 Y104.455 E.0031
G1 X127.496 Y104.419 E.00201
G1 X127.687 Y104.361 E.00588
G1 X127.717 Y104.359 E.00089
G1 E-1.12 F2400
;WIPE_START
G1 F4800
G1 X127.777 Y104.354 E-.0286
G1 X127.734 Y104.49 E-.06775
G1 X127.693 Y104.55 E-.03452
G1 X127.609 Y104.601 E-.04668
G1 X127.499 Y104.601 E-.05225
G1 X127.432 Y104.56 E-.03731
G1 X127.438 Y104.455 E-.04996
G1 X127.496 Y104.419 E-.03243
G1 X127.687 Y104.361 E-.09482
G1 X127.717 Y104.359 E-.01428
;WIPE_END
G1 E-.0214 F2400
G1 X129.789 Y104.436 F6000
G1 E1.6 F2400
G1 F1200
G1 X129.854 Y104.13 E.00922
G1 X130.242 Y104.437 E.01458
G1 X129.849 Y104.436 E.01158
G1 X129.849 Y104.436 F6000
G1 X128.916 Y103.778
G1 F1200
G1 X128.866 Y103.769 E.0015
G1 X128.521 Y103.735 E.01022
G1 X128.569 Y103.521 E.00646
G1 X128.648 Y102.832 E.02044
G1 X128.993 Y102.769 E.01034
G1 X129.249 Y102.676 E.00803
G1 X129.289 Y103.111 E.01287
G1 X129.44 Y103.558 E.01391
G1 X129.665 Y103.912 E.01236
G1 X128.975 Y103.789 E.02066
G1 X128.975 Y103.789 F6000
G1 X127.861 Y102.339
G1 F1200
G1 X127.895 Y102.446 E.00331
G1 X127.597 Y102.51 E.00898
G1 X127.448 Y102.516 E.0044
G1 X127.356 Y102.495 E.00278
G1 X127.295 Y102.459 E.00209
G1 X127.215 Y102.341 E.0042
G1 X127.201 Y102.237 E.00309
G1 X127.217 Y102.117 E.00357
G1 X127.256 Y102.034 E.0027
G1 X127.328 Y101.954 E.00317
G1 X127.406 Y101.907 E.00268
G1 X127.503 Y101.884 E.00294
G1 X127.614 Y101.887 E.00327
G1 X127.697 Y101.928 E.00273
G1 X127.762 Y102.026 E.00347
G1 X127.843 Y102.282 E.00791
G1 E-1.12 F2400
;WIPE_START
G1 F4800
G1 X127.861 Y102.339 E-.02839
G1 X127.895 Y102.446 E-.05333
G1 X127.597 Y102.51 E-.14478
G1 X127.448 Y102.516 E-.07083
G1 X127.356 Y102.495 E-.04482
G1 X127.295 Y102.459 E-.03364
G1 X127.215 Y102.341 E-.06772
G1 X127.205 Y102.265 E-.03649
;WIPE_END
G1 X131.232 Y102.399 F6000
G1 E1.6 F2400
G1 F1200
G1 X131.238 Y102.26 E.0041
G1 X131.285 Y102.099 E.00494
G1 X131.357 Y101.991 E.00383
G1 X131.441 Y101.922 E.0032
G1 X131.537 Y101.885 E.00303
G1 X131.655 Y101.884 E.00348
G1 X131.744 Y101.921 E.00284
G1 X131.831 Y102.038 E.0043
G1 X132.026 Y102.623 E.01817
G1 X131.871 Y102.772 E.00634
G1 X131.691 Y102.853 E.00582
G1 X131.558 Y102.856 E.00392
G1 X131.376 Y102.803 E.00559
G1 X131.268 Y102.669 E.00507
G1 X131.229 Y102.499 E.00514
G1 X131.23 Y102.459 E.00118
G1 E-1.12 F2400
;WIPE_START
G1 F4800
G1 X131.232 Y102.399 E-.02852
G1 X131.238 Y102.26 E-.06609
G1 X131.285 Y102.099 E-.07967
G1 X131.357 Y101.991 E-.06165
G1 X131.441 Y101.922 E-.05164
G1 X131.537 Y101.885 E-.04887
G1 X131.655 Y101.884 E-.05605
G1 X131.744 Y101.921 E-.04578
G1 X131.796 Y101.992 E-.04173
;WIPE_END
G1 X115.784 Y109.69 F6000
G1 E1.6 F2400
G1 F1200
G1 X115.851 Y109.52 E.00539
G1 X116.153 Y109.085 E.01561
G1 X116.548 Y108.734 E.01557
G1 X117.032 Y108.5 E.01584
G1 X117.57 Y108.402 E.01612
G1 X117.981 Y108.407 E.01211
G1 X118.244 Y108.446 E.00784
G1 X118.684 Y108.586 E.01361
G1 X119.09 Y108.835 E.01404
G1 X119.419 Y109.166 E.01375
G1 X119.593 Y109.418 E.00903
G1 X119.73 Y109.682 E.00877
G1 X119.845 Y109.975 E.00928
G1 X119.992 Y110.577 E.01826
G1 X120.062 Y111.268 E.02047
G1 X120.058 Y112.103 E.02461
G1 X119.99 Y112.734 E.01871
G1 X119.855 Y113.291 E.01689
G1 X119.64 Y113.781 E.01577
G1 X119.342 Y114.206 E.0153
G1 X118.948 Y114.554 E.01549
G1 X118.465 Y114.786 E.01579
G1 X117.939 Y114.885 E.01578
G1 X117.47 Y114.877 E.01382
G1 X116.957 Y114.758 E.01552
G1 X116.494 Y114.512 E.01545
G1 X116.115 Y114.159 E.01526
G1 X115.835 Y113.729 E.01512
G1 X115.769 Y113.567 E.00516
G1 X115.578 Y113.944 E.01246
G1 X115.332 Y114.252 E.01162
G1 X115.035 Y114.504 E.01148
G1 X114.698 Y114.697 E.01145
G1 X114.331 Y114.823 E.01144
G1 X113.94 Y114.884 E.01166
G1 X113.479 Y114.877 E.01359
G1 X113.195 Y114.827 E.0085
G1 X112.929 Y114.748 E.00818
G1 X112.678 Y114.637 E.00809
G1 X112.441 Y114.498 E.0081
G1 X112.223 Y114.327 E.00817
G1 X112.032 Y114.126 E.00817
G1 X111.865 Y113.887 E.00859
G1 X111.667 Y113.438 E.01446
G1 X111.606 Y113.138 E.00902
G1 X111.611 Y112.635 E.01483
G1 X111.703 Y112.343 E.00902
G1 X111.877 Y112.004 E.01123
G1 X111.509 Y111.493 E.01856
G1 X111.403 Y111.145 E.01072
G1 X111.351 Y110.819 E.00973
G1 X111.356 Y110.419 E.01179
G1 X111.442 Y109.982 E.01313
G1 X111.619 Y109.57 E.01322
G1 X111.878 Y109.203 E.01324
G1 X112.212 Y108.885 E.01359
G1 X112.6 Y108.641 E.01351
G1 X113.031 Y108.479 E.01357
G1 X113.503 Y108.401 E.0141
G1 X113.939 Y108.401 E.01285
G1 X114.358 Y108.469 E.01251
G1 X114.755 Y108.611 E.01243
G1 X115.117 Y108.828 E.01244
G1 X115.431 Y109.112 E.01248
G1 X115.693 Y109.461 E.01286
G1 X115.762 Y109.634 E.00549
G1 X115.762 Y109.634 F6000
G1 X115.573 Y110.314
;TYPE:External perimeter
G1 F1200
