; generated by PrusaSlicer 2.6.1+win64 on 2023-10-21 at 01:58:40 UTC

; 

; external perimeters extrusion width = 0.42mm
; perimeters extrusion width = 0.44mm
; infill extrusion width = 0.44mm
; solid infill extrusion width = 0.44mm
; top infill extrusion width = 0.40mm
; first layer extrusion width = 0.42mm

;TYPE:Custom
; Ender 3 Custom Start G-code
G92 E0 ; Reset Extruder

M140 S55 ; set bed temp
M104 S160 ; set extruder temp
M109 S160 ; wait for extruder temp
M190 S55 ; wait for bed temp

G28 ; Home all axes
M104 S210 ; set extruder temp 
BED_MESH_CALIBRATE AREA_START=83.7684,88.5669 AREA_END=143.763,126.207

G1 Z2.0 F3000 ; Move Z Axis up little to prevent scratching of Heat Bed
M109 S210 ; wait for extruder temp
G1 X0.1 Y20 Z0.3 F5000.0 ; Move to start position

G1 X0.1 Y200.0 Z0.3 F1500.0 E15 ; Draw the first line
G1 X0.4 Y200.0 Z0.3 F5000.0 ; Move to side a little
G1 X0.4 Y20 Z0.3 F1500.0 E30 ; Draw the second line
G92 E0 ; Reset Extruder
G1 Z2.0 F3000 ; Move Z Axis up little to prevent scratching of Heat Bed
G1 X5 Y20 Z0.3 F5000.0 ; Move over to prevent blob squish
G21 ; set units to millimeters
G90 ; use absolute coordinates
M83 ; use relative distances for extrusion
; Filament gcode
M107
;LAYER_CHANGE
;Z:0.2
;HEIGHT:0.2
;BEFORE_LAYER_CHANGE
G92 E0
;0.2


G1 E-1.6 F2400
G1 Z.2 F6000
;AFTER_LAYER_CHANGE
;0.2
G1 X87.857 Y91.701
G1 E1.6 F2400
M204 S500
;TYPE:Skirt/Brim
;WIDTH:0.42
G1 F1200
G1 X88.725 Y90.996 E.03296
G1 X89.656 Y90.382 E.03287
G1 X91.322 Y89.564 E.0547
G1 X93.099 Y89.026 E.05472
G1 X94.721 Y88.79 E.04831
G1 X131.692 Y88.755 E1.08965
G1 X132.884 Y88.805 E.03516
G1 X133.843 Y88.938 E.02854
G1 X135.87 Y89.494 E.06195
G1 X137.7 Y90.365 E.05973
G1 X139.14 Y91.376 E.05186
G1 X140.583 Y92.775 E.05924
G1 X141.374 Y93.79 E.03793
G1 X141.835 Y94.519 E.02542
G1 X142.681 Y96.304 E.05822
G1 X143.24 Y98.341 E.06226
G1 X143.425 Y100.341 E.0592
G1 X143.575 Y114.341 E.41265
G1 X143.503 Y115.668 E.03917
G1 X143.296 Y116.888 E.03647
G1 X142.676 Y118.864 E.06104
G1 X141.69 Y120.733 E.06228
G1 X140.467 Y122.296 E.05849
G1 X139.688 Y123.064 E.03224
G1 X138.815 Y123.771 E.03311
G1 X137.173 Y124.778 E.05677
G1 X136.08 Y125.257 E.03517
G1 X134.281 Y125.783 E.05524
G1 X132.523 Y126.003 E.05222
G1 X95.078 Y126.009 E1.10362
G1 X93.39 Y125.81 E.0501
G1 X92.295 Y125.542 E.03323
G1 X91.185 Y125.153 E.03467
G1 X89.854 Y124.506 E.04362
G1 X88.8 Y123.835 E.03683
G1 X87.851 Y123.075 E.03583
G1 X86.76 Y121.96 E.04598
G1 X86.154 Y121.19 E.02888
G1 X85.328 Y119.862 E.04609
G1 X84.772 Y118.665 E.0389
G1 X84.319 Y117.276 E.04306
G1 X84.013 Y115.506 E.05294
G1 X83.957 Y114.505 E.02955
G1 X83.987 Y99.578 E.43994
G1 X84.339 Y97.433 E.06407
G1 X84.956 Y95.673 E.05497
G1 X85.359 Y94.854 E.0269
G1 X86.242 Y93.468 E.04844
G1 X86.875 Y92.684 E.0297
G1 X87.814 Y91.744 E.03916
G1 X88.08 Y92.01 F6000
G1 F1200
G1 X88.937 Y91.308 E.03265
G1 X89.836 Y90.714 E.03176
G1 X91.455 Y89.917 E.05319
G1 X92.992 Y89.437 E.04746
G1 X94.74 Y89.166 E.05213
G1 X131.692 Y89.133 E1.08909
G1 X133.767 Y89.308 E.06137
G1 X135.748 Y89.851 E.06054
G1 X137.509 Y90.69 E.05749
G1 X138.893 Y91.661 E.04983
G1 X140.304 Y93.029 E.05792
G1 X141.07 Y94.013 E.03675
G1 X141.565 Y94.802 E.02745
G1 X142.414 Y96.673 E.06056
G1 X142.882 Y98.473 E.05482
G1 X143.048 Y100.345 E.05539
G1 X143.198 Y114.345 E.41265
G1 X143.13 Y115.614 E.03745
G1 X142.924 Y116.824 E.03618
G1 X142.331 Y118.712 E.05833
G1 X141.369 Y120.534 E.06073
G1 X140.198 Y122.031 E.05602
G1 X139.594 Y122.642 E.02532
G1 X138.603 Y123.459 E.03785
G1 X136.981 Y124.453 E.05607
G1 X135.395 Y125.098 E.05046
G1 X134.218 Y125.411 E.0359
G1 X132.355 Y125.634 E.0553
G1 X95.105 Y125.633 E1.09787
G1 X93.449 Y125.437 E.04915
G1 X92.304 Y125.154 E.03476
G1 X91.337 Y124.807 E.03028
G1 X90.03 Y124.173 E.04281
G1 X89.019 Y123.528 E.03534
G1 X88.102 Y122.794 E.03462
G1 X87.039 Y121.706 E.04483
G1 X86.452 Y120.958 E.02802
G1 X85.657 Y119.676 E.04446
G1 X85.128 Y118.539 E.03696
G1 X84.684 Y117.182 E.04208
G1 X84.387 Y115.46 E.0515
G1 X84.334 Y114.505 E.02819
G1 X84.363 Y99.603 E.43921
G1 X84.7 Y97.541 E.06158
G1 X85.307 Y95.811 E.05404
G1 X85.705 Y95.004 E.02652
G1 X86.553 Y93.681 E.04632
G1 X87.156 Y92.934 E.02829
G1 X88.038 Y92.052 E.03676
G1 X88.304 Y92.318 F6000
G1 F1200
G1 X89.149 Y91.62 E.0323
G1 X90.029 Y91.037 E.03111
G1 X91.588 Y90.27 E.05121
G1 X93.208 Y89.774 E.04993
G1 X94.758 Y89.543 E.04619
G1 X131.692 Y89.51 E1.08856
G1 X133.69 Y89.677 E.05909
G1 X135.628 Y90.208 E.05922
G1 X137.318 Y91.015 E.0552
G1 X138.647 Y91.947 E.04784
G1 X140.013 Y93.269 E.05603
G1 X140.766 Y94.236 E.03612
G1 X141.237 Y94.988 E.02615
G1 X142.054 Y96.785 E.05818
G1 X142.512 Y98.545 E.0536
G1 X142.671 Y100.349 E.05338
G1 X142.821 Y114.349 E.41265
G1 X142.744 Y115.641 E.03815
G1 X142.521 Y116.917 E.03818
G1 X142.276 Y117.78 E.02644
G1 X141.409 Y119.75 E.06344
G1 X140.675 Y120.874 E.03957
G1 X140.018 Y121.672 E.03047
G1 X139.333 Y122.37 E.02882
G1 X138.39 Y123.147 E.03601
G1 X136.804 Y124.12 E.05484
G1 X135.27 Y124.742 E.04879
G1 X134.141 Y125.042 E.03443
G1 X132.345 Y125.257 E.05331
G1 X95.131 Y125.257 E1.09681
G1 X93.508 Y125.065 E.04817
G1 X92.409 Y124.792 E.03338
G1 X91.488 Y124.462 E.02883
G1 X90.206 Y123.839 E.04201
G1 X89.238 Y123.221 E.03385
G1 X88.306 Y122.47 E.03528
G1 X87.318 Y121.453 E.04179
G1 X86.76 Y120.741 E.02666
G1 X85.985 Y119.491 E.04335
G1 X85.483 Y118.413 E.03505
G1 X85.05 Y117.087 E.04111
G1 X84.761 Y115.415 E.05001
G1 X84.739 Y99.629 E.46526
G1 X85.061 Y97.651 E.05907
G1 X85.658 Y95.949 E.05316
G1 X86.04 Y95.178 E.02536
G1 X86.862 Y93.897 E.04486
G1 X87.438 Y93.185 E.02699
G1 X88.262 Y92.361 E.03435
; printing object Shape-Box id:0 copy 0
G1 E-1.12 F2400
;WIPE_START
G1 F4800
G1 X89.038 Y91.713 E-.48
;WIPE_END
G1 X131.947 Y101.783 F6000
G1 E1.6 F2400
;TYPE:Perimeter
G1 F1200
G1 X132.062 Y101.789 E.00339
G1 X132.173 Y101.839 E.00359
G1 X132.276 Y101.929 E.00403
G1 X132.333 Y102.021 E.00319
G1 X132.412 Y102.287 E.00818
G1 X132.414 Y102.467 E.00531
G1 X132.364 Y102.664 E.00599
G1 X132.258 Y102.798 E.00504
G1 X132.194 Y102.843 E.00231
G1 X132.054 Y102.884 E.0043
G1 X131.888 Y102.87 E.00491
G1 X131.775 Y102.805 E.00384
G1 X131.679 Y102.676 E.00474
G1 X131.646 Y102.578 E.00305
G1 X131.626 Y102.269 E.00913
G1 X131.648 Y102.12 E.00444
G1 X131.73 Y101.929 E.00613
G1 X131.789 Y101.862 E.00263
G1 X131.889 Y101.797 E.00352
G1 X131.91 Y101.405 F6000
;TYPE:External perimeter
G1 F1200
G1 X132.18 Y101.428 E.00799
G1 X132.379 Y101.519 E.00645
G1 X132.555 Y101.671 E.00685
G1 X132.68 Y101.869 E.0069
G1 X132.769 Y102.132 E.00818
G1 X132.789 Y102.254 E.00364
G1 X132.792 Y102.495 E.0071
G1 X132.762 Y102.676 E.00541
G1 X132.704 Y102.832 E.00491
G1 X132.618 Y102.968 E.00474
G1 X132.504 Y103.086 E.00484
G1 X132.378 Y103.174 E.00453
G1 X132.242 Y103.232 E.00436
G1 X132.091 Y103.262 E.00454
G1 X131.926 Y103.262 E.00486
G1 X131.776 Y103.232 E.00451
G1 X131.643 Y103.175 E.00426
G1 X131.523 Y103.088 E.00437
G1 X131.416 Y102.972 E.00465
G1 X131.335 Y102.833 E.00474
G1 X131.278 Y102.667 E.00517
G1 X131.249 Y102.469 E.0059
G1 X131.249 Y102.242 E.00669
G1 X131.279 Y102.033 E.00622
G1 X131.337 Y101.857 E.00546
G1 X131.421 Y101.709 E.00502
G1 X131.53 Y101.585 E.00487
G1 X131.65 Y101.493 E.00446
G1 X131.851 Y101.418 E.00632
G1 X132.066 Y101.626 F6000
G1 X131.879 Y101.948
;TYPE:Solid infill
;WIDTH:0.42675
G1 F1200
G1 X132.288 Y102.357 E.01735
G1 E-1.12 F2400
;WIPE_START
G1 F4800
G1 X131.879 Y101.948 E-.27475
;WIPE_END
G1 E-.20525 F2400
G1 X128.141 Y101.857 F6000
G1 E1.6 F2400
;TYPE:Perimeter
;WIDTH:0.42
G1 F1200
G1 X128.27 Y102.021 E.00615
G1 X128.338 Y102.223 E.00628
G1 X128.35 Y102.467 E.0072
G1 X128.332 Y102.579 E.00334
G1 X128.256 Y102.734 E.00509
G1 X128.13 Y102.843 E.00491
G1 X127.99 Y102.884 E.0043
G1 X127.824 Y102.87 E.00491
G1 X127.711 Y102.805 E.00384
G1 X127.657 Y102.746 E.00236
G1 X127.582 Y102.578 E.00542
G1 X127.562 Y102.269 E.00913
G1 X127.584 Y102.12 E.00444
G1 X127.666 Y101.929 E.00613
G1 X127.783 Y101.817 E.00477
G1 X127.883 Y101.783 E.00311
G1 X127.978 Y101.784 E.0028
G1 X128.088 Y101.83 E.00351
G1 X127.846 Y101.405 F6000
;TYPE:External perimeter
G1 F1200
G1 X128.116 Y101.428 E.00799
G1 X128.323 Y101.522 E.0067
G1 X128.4 Y101.58 E.00284
G1 X128.561 Y101.768 E.0073
G1 X128.616 Y101.869 E.00339
G1 X128.705 Y102.132 E.00818
G1 X128.725 Y102.254 E.00364
G1 X128.728 Y102.495 E.0071
G1 X128.698 Y102.676 E.00541
G1 X128.64 Y102.832 E.00491
G1 X128.554 Y102.968 E.00474
G1 X128.441 Y103.086 E.00482
G1 X128.314 Y103.174 E.00455
G1 X128.178 Y103.232 E.00436
G1 X128.027 Y103.262 E.00454
G1 X127.862 Y103.262 E.00486
G1 X127.712 Y103.232 E.00451
G1 X127.579 Y103.175 E.00426
G1 X127.459 Y103.088 E.00437
G1 X127.352 Y102.972 E.00465
G1 X127.271 Y102.833 E.00474
G1 X127.214 Y102.667 E.00517
G1 X127.185 Y102.469 E.0059
G1 X127.185 Y102.242 E.00669
G1 X127.215 Y102.033 E.00622
G1 X127.273 Y101.857 E.00546
G1 X127.357 Y101.709 E.00502
G1 X127.467 Y101.585 E.00489
G1 X127.586 Y101.493 E.00443
G1 X127.787 Y101.418 E.00632
G1 X128.002 Y101.626 F6000
G1 E-1.12 F2400
;WIPE_START
G1 F4800
G1 X128.116 Y101.428 E-.15635
G1 X128.323 Y101.522 E-.10799
G1 X128.4 Y101.58 E-.04579
G1 X128.561 Y101.768 E-.11757
G1 X128.614 Y101.865 E-.0523
;WIPE_END
G1 X127.765 Y112.044 F6000
G1 E1.6 F2400
;TYPE:Perimeter
G1 F1200
G1 X127.901 Y112.004 E.00418
G1 X127.993 Y112.004 E.00271
G1 X128.145 Y112.047 E.00466
G1 X128.266 Y112.151 E.0047
G1 X128.341 Y112.306 E.00508
G1 X128.359 Y112.573 E.00789
G1 X128.298 Y112.829 E.00776
G1 X128.17 Y113.002 E.00634
G1 X128.036 Y113.086 E.00466
G1 X127.896 Y113.101 E.00415
G1 X127.785 Y113.064 E.00345
G1 X127.667 Y112.953 E.00477
G1 X127.585 Y112.769 E.00594
G1 X127.564 Y112.626 E.00426
G1 X127.584 Y112.312 E.00927
G1 X127.618 Y112.211 E.00314
G1 X127.716 Y112.079 E.00485
G1 X127.46 Y111.798 F6000
;TYPE:External perimeter
G1 F1200
G1 X127.579 Y111.713 E.00431
G1 X127.712 Y111.657 E.00425
G1 X127.865 Y111.627 E.0046
G1 X128.028 Y111.627 E.0048
G1 X128.189 Y111.657 E.00483
G1 X128.326 Y111.714 E.00437
G1 X128.453 Y111.801 E.00454
G1 X128.565 Y111.918 E.00477
G1 X128.649 Y112.054 E.00471
G1 X128.707 Y112.209 E.00488
G1 X128.737 Y112.39 E.00541
G1 X128.736 Y112.603 E.00628
G1 X128.704 Y112.81 E.00617
G1 X128.641 Y112.989 E.00559
G1 X128.548 Y113.146 E.00538
G1 X128.427 Y113.281 E.00534
G1 X128.295 Y113.381 E.00488
G1 X128.158 Y113.445 E.00446
G1 X128.011 Y113.477 E.00443
G1 X127.857 Y113.478 E.00454
G1 X127.718 Y113.448 E.00419
G1 X127.591 Y113.39 E.00411
G1 X127.47 Y113.299 E.00446
G1 X127.36 Y113.176 E.00486
G1 X127.275 Y113.03 E.00498
G1 X127.217 Y112.858 E.00535
G1 X127.187 Y112.654 E.00608
G1 X127.187 Y112.427 E.00669
G1 X127.216 Y112.224 E.00604
G1 X127.273 Y112.055 E.00526
G1 X127.354 Y111.914 E.00479
G1 X127.419 Y111.843 E.00284
G1 X127.599 Y111.844 F6000
G1 X127.84 Y112.148
;TYPE:Solid infill
;WIDTH:0.439093
G1 F1200
G1 X128.055 Y112.382 E.00984
G1 X128.067 Y112.561 E.00556
G1 X128.038 Y112.692 E.00415
G1 X127.937 Y112.804 E.00467
G1 X127.689 Y112.557 E.01084
G1 E-1.12 F2400
;WIPE_START
G1 F4800
G1 X127.937 Y112.804 E-.16626
G1 X128.038 Y112.692 E-.07164
G1 X128.067 Y112.561 E-.06373
G1 X128.055 Y112.382 E-.08522
G1 X127.922 Y112.238 E-.09315
;WIPE_END
G1 X123.757 Y111.144 F6000
G1 E1.6 F2400
;TYPE:External perimeter
;WIDTH:0.42
G1 F1200
G1 X124.715 Y111.144 E.02824
G1 X123.757 Y112.523 E.04949
G1 X123.757 Y111.204 E.03887
G1 X124.157 Y111.144 F6000
G1 E-1.12 F2400
;WIPE_START
G1 F4800
G1 X124.715 Y111.144 E-.45594
G1 X124.686 Y111.186 E-.02406
;WIPE_END
G1 X118.061 Y103.749 F6000
G1 E1.6 F2400
;TYPE:Perimeter
G1 F1200
G1 X118.136 Y103.905 E.0051
G1 X118.155 Y104.019 E.00341
G1 X118.155 Y104.172 E.00451
G1 X118.093 Y104.428 E.00776
G1 X117.966 Y104.601 E.00633
G1 X117.831 Y104.685 E.00469
G1 X117.692 Y104.699 E.00412
G1 X117.581 Y104.663 E.00344
G1 X117.462 Y104.552 E.0048
G1 X117.381 Y104.368 E.00593
G1 X117.359 Y104.053 E.00931
G1 X117.414 Y103.809 E.00737
G1 X117.507 Y103.681 E.00466
G1 X117.618 Y103.618 E.00376
G1 X117.697 Y103.603 E.00237
G1 X117.876 Y103.619 E.0053
G1 X118.02 Y103.706 E.00496
G1 X118.36 Y103.517 F6000
;TYPE:External perimeter
G1 F1200
G1 X118.445 Y103.652 E.0047
G1 X118.503 Y103.808 E.00491
G1 X118.532 Y103.988 E.00537
G1 X118.532 Y104.202 E.00631
G1 X118.5 Y104.409 E.00617
G1 X118.437 Y104.588 E.00559
G1 X118.344 Y104.744 E.00535
G1 X118.222 Y104.879 E.00536
G1 X118.09 Y104.98 E.0049
G1 X117.953 Y105.044 E.00446
G1 X117.806 Y105.076 E.00443
G1 X117.653 Y105.076 E.00451
G1 X117.514 Y105.047 E.00418
G1 X117.386 Y104.988 E.00415
G1 X117.266 Y104.898 E.00442
G1 X117.156 Y104.775 E.00486
G1 X117.071 Y104.629 E.00498
G1 X117.013 Y104.456 E.00538
G1 X116.982 Y104.253 E.00605
G1 X116.982 Y104.026 E.00669
G1 X117.012 Y103.823 E.00605
G1 X117.068 Y103.653 E.00528
G1 X117.15 Y103.512 E.00481
G1 X117.256 Y103.397 E.00461
G1 X117.375 Y103.312 E.00431
G1 X117.508 Y103.255 E.00426
G1 X117.661 Y103.226 E.00459
G1 X117.823 Y103.226 E.00477
G1 X117.984 Y103.256 E.00483
G1 X118.122 Y103.313 E.0044
G1 X118.319 Y103.473 E.00748
G1 X118.305 Y103.667 F6000
G1 X117.636 Y103.746
;TYPE:Solid infill
;WIDTH:0.439095
G1 F1200
G1 X117.851 Y103.981 E.00986
G1 X117.863 Y104.16 E.00556
G1 X117.834 Y104.291 E.00415
G1 X117.732 Y104.403 E.00469
G1 X117.485 Y104.156 E.01082
G1 E-1.12 F2400
;WIPE_START
G1 F4800
G1 X117.732 Y104.403 E-.16592
G1 X117.834 Y104.291 E-.07196
G1 X117.863 Y104.16 E-.06373
G1 X117.851 Y103.981 E-.08522
G1 X117.719 Y103.836 E-.09317
;WIPE_END
G1 X117.772 Y110.307 F6000
G1 E1.6 F2400
;TYPE:Perimeter
;WIDTH:0.42
G1 F1200
G1 X117.843 Y110.38 E.003
G1 X117.897 Y110.49 E.00361
G1 X117.958 Y110.737 E.0075
G1 X118.003 Y111.122 E.01142
G1 X118.015 Y111.91 E.02323
G1 X117.949 Y112.569 E.01952
G1 X117.922 Y112.69 E.00365
G1 X117.847 Y112.895 E.00643
G1 X117.792 Y112.974 E.00284
G1 X117.717 Y113.001 E.00235
G1 X117.643 Y112.972 E.00234
G1 X117.564 Y112.889 E.00338
G1 X117.516 Y112.792 E.00319
G1 X117.429 Y112.378 E.01247
G1 X117.396 Y111.914 E.01371
G1 X117.396 Y111.378 E.0158
G1 X117.456 Y110.734 E.01906
G1 X117.516 Y110.496 E.00723
G1 X117.572 Y110.382 E.00374
G1 X117.661 Y110.294 E.00369
G1 X117.715 Y110.29 E.0016
G1 X117.949 Y109.968 F6000
;TYPE:External perimeter
G1 F1200
G1 X118.054 Y110.047 E.00387
G1 X118.161 Y110.171 E.00483
G1 X118.253 Y110.36 E.0062
G1 X118.33 Y110.669 E.00939
G1 X118.38 Y111.097 E.0127
G1 X118.392 Y111.926 E.02444
G1 X118.322 Y112.63 E.02085
G1 X118.285 Y112.796 E.00501
G1 X118.186 Y113.066 E.00848
G1 X118.088 Y113.214 E.00523
G1 X118.001 Y113.293 E.00346
G1 X117.835 Y113.368 E.00537
G1 X117.714 Y113.381 E.00359
G1 X117.592 Y113.366 E.00362
G1 X117.416 Y113.281 E.00576
G1 X117.252 Y113.108 E.00703
G1 X117.16 Y112.924 E.00606
G1 X117.082 Y112.613 E.00945
G1 X117.054 Y112.419 E.00578
G1 X117.019 Y111.927 E.01454
G1 X117.019 Y111.36 E.01671
G1 X117.083 Y110.67 E.02042
G1 X117.16 Y110.364 E.0093
G1 X117.255 Y110.173 E.00629
G1 X117.362 Y110.048 E.00485
G1 X117.472 Y109.964 E.00408
G1 X117.576 Y109.921 E.00332
G1 X117.769 Y109.909 E.0057
G1 X117.892 Y109.949 E.00381
G1 X117.956 Y110.1 F6000
G1 X117.693 Y110.587
;TYPE:Gap fill
;WIDTH:0.175234
G1 F1200
G1 X117.709 Y110.962 E.00388
;WIDTH:0.249897
G1 X117.702 Y112.49 E.02472
;WIDTH:0.173818
G1 X117.717 Y112.689 E.00204
G1 E-1.12 F2400
;WIPE_START
G1 F4800
G1 X117.702 Y112.49 E-.09479
G1 X117.699 Y112.349 E-.06699
G1 X117.702 Y112.126 E-.10593
G1 X117.705 Y111.903 E-.10593
G1 X117.706 Y111.897 E-.00289
G1 X117.704 Y111.679 E-.10347
;WIPE_END
G1 X113.514 Y111.144 F6000
G1 E1.6 F2400
;TYPE:External perimeter
;WIDTH:0.42
G1 F1200
G1 X114.471 Y111.144 E.02821
G1 X113.514 Y112.523 E.04947
G1 X113.514 Y111.204 E.03887
G1 X113.914 Y111.144 F6000
G1 E-1.12 F2400
;WIPE_START
G1 F4800
G1 X114.471 Y111.144 E-.45547
G1 X114.442 Y111.186 E-.02453
;WIPE_END
G1 X109.356 Y111.246 F6000
G1 E1.6 F2400
;TYPE:Perimeter
G1 F1200
G1 X109.246 Y111.148 E.00434
G1 X109.171 Y110.98 E.00542
G1 X109.151 Y110.671 E.00913
G1 X109.173 Y110.521 E.00447
G1 X109.209 Y110.412 E.00338
G1 X109.314 Y110.263 E.00537
G1 X109.422 Y110.195 E.00376
G1 X109.567 Y110.186 E.00428
