; generated by PrusaSlicer 2.6.0+win64 on 2023-09-02 at 16:19:04 UTC

; 

; external perimeters extrusion width = 0.42mm
; perimeters extrusion width = 0.44mm
; infill extrusion width = 0.44mm
; solid infill extrusion width = 0.44mm
; top infill extrusion width = 0.40mm
; first layer extrusion width = 0.42mm

; external perimeters extrusion width = 0.42mm
; perimeters extrusion width = 0.44mm
; infill extrusion width = 0.44mm
; solid infill extrusion width = 0.44mm
; top infill extrusion width = 0.40mm
; first layer extrusion width = 0.42mm

; external perimeters extrusion width = 0.42mm
; perimeters extrusion width = 0.44mm
; infill extrusion width = 0.44mm
; solid infill extrusion width = 0.44mm
; top infill extrusion width = 0.40mm
; first layer extrusion width = 0.42mm

; external perimeters extrusion width = 0.42mm
; perimeters extrusion width = 0.44mm
; infill extrusion width = 0.44mm
; solid infill extrusion width = 0.44mm
; top infill extrusion width = 0.40mm
; first layer extrusion width = 0.42mm

; external perimeters extrusion width = 0.42mm
; perimeters extrusion width = 0.44mm
; infill extrusion width = 0.44mm
; solid infill extrusion width = 0.44mm
; top infill extrusion width = 0.40mm
; first layer extrusion width = 0.42mm

; external perimeters extrusion width = 0.42mm
; perimeters extrusion width = 0.44mm
; infill extrusion width = 0.44mm
; solid infill extrusion width = 0.44mm
; top infill extrusion width = 0.40mm
; first layer extrusion width = 0.42mm

; external perimeters extrusion width = 0.42mm
; perimeters extrusion width = 0.44mm
; infill extrusion width = 0.44mm
; solid infill extrusion width = 0.44mm
; top infill extrusion width = 0.40mm
; first layer extrusion width = 0.42mm

; external perimeters extrusion width = 0.42mm
; perimeters extrusion width = 0.44mm
; infill extrusion width = 0.44mm
; solid infill extrusion width = 0.44mm
; top infill extrusion width = 0.40mm
; first layer extrusion width = 0.42mm

; external perimeters extrusion width = 0.42mm
; perimeters extrusion width = 0.44mm
; infill extrusion width = 0.44mm
; solid infill extrusion width = 0.44mm
; top infill extrusion width = 0.40mm
; first layer extrusion width = 0.42mm

; external perimeters extrusion width = 0.42mm
; perimeters extrusion width = 0.44mm
; infill extrusion width = 0.44mm
; solid infill extrusion width = 0.44mm
; top infill extrusion width = 0.40mm
; first layer extrusion width = 0.42mm

; external perimeters extrusion width = 0.42mm
; perimeters extrusion width = 0.44mm
; infill extrusion width = 0.44mm
; solid infill extrusion width = 0.44mm
; top infill extrusion width = 0.40mm
; first layer extrusion width = 0.42mm

; external perimeters extrusion width = 0.42mm
; perimeters extrusion width = 0.44mm
; infill extrusion width = 0.44mm
; solid infill extrusion width = 0.44mm
; top infill extrusion width = 0.40mm
; first layer extrusion width = 0.42mm

; external perimeters extrusion width = 0.42mm
; perimeters extrusion width = 0.44mm
; infill extrusion width = 0.44mm
; solid infill extrusion width = 0.44mm
; top infill extrusion width = 0.40mm
; first layer extrusion width = 0.42mm

; external perimeters extrusion width = 0.42mm
; perimeters extrusion width = 0.44mm
; infill extrusion width = 0.44mm
; solid infill extrusion width = 0.44mm
; top infill extrusion width = 0.40mm
; first layer extrusion width = 0.42mm

; external perimeters extrusion width = 0.42mm
; perimeters extrusion width = 0.44mm
; infill extrusion width = 0.44mm
; solid infill extrusion width = 0.44mm
; top infill extrusion width = 0.40mm
; first layer extrusion width = 0.42mm

; external perimeters extrusion width = 0.42mm
; perimeters extrusion width = 0.44mm
; infill extrusion width = 0.44mm
; solid infill extrusion width = 0.44mm
; top infill extrusion width = 0.40mm
; first layer extrusion width = 0.42mm

;TYPE:Custom
; Ender 3 Custom Start G-code
G92 E0 ; Reset Extruder

M140 S55 ; set bed temp
M104 S160 ; set extruder temp
M109 S160 ; wait for extruder temp
M190 S55 ; wait for bed temp

G28 ; Home all axes
M104 S210 ; set extruder temp 
BED_MESH_CALIBRATE AREA_START=83.7684,88.5669 AREA_END=143.763,126.207

G1 Z2.0 F3000 ; Move Z Axis up little to prevent scratching of Heat Bed
M109 S210 ; wait for extruder temp
G1 X0.1 Y20 Z0.3 F5000.0 ; Move to start position

G1 X0.1 Y200.0 Z0.3 F1500.0 E15 ; Draw the first line
G1 X0.4 Y200.0 Z0.3 F5000.0 ; Move to side a little
G1 X0.4 Y20 Z0.3 F1500.0 E30 ; Draw the second line
G92 E0 ; Reset Extruder
G1 Z2.0 F3000 ; Move Z Axis up little to prevent scratching of Heat Bed
G1 X5 Y20 Z0.3 F5000.0 ; Move over to prevent blob squish
G21 ; set units to millimeters
G90 ; use absolute coordinates
M83 ; use relative distances for extrusion
; Filament gcode
M107
;LAYER_CHANGE
;Z:0.2
;HEIGHT:0.2
;BEFORE_LAYER_CHANGE
G92 E0
;0.2


G1 E-1.6 F2400
G1 Z.2 F6000
;AFTER_LAYER_CHANGE
;0.2
G1 X87.857 Y91.701
G1 E1.6 F2400
M204 S500
;TYPE:Skirt/Brim
;WIDTH:0.42
G1 F1200
G1 X88.725 Y90.996 E.03296
G1 X89.656 Y90.382 E.03287
G1 X91.322 Y89.564 E.0547
G1 X93.099 Y89.026 E.05472
G1 X94.721 Y88.79 E.04831
G1 X131.692 Y88.755 E1.08965
G1 X132.884 Y88.805 E.03516
G1 X133.843 Y88.938 E.02854
G1 X135.87 Y89.494 E.06195
G1 X137.7 Y90.365 E.05973
G1 X139.14 Y91.376 E.05186
G1 X140.583 Y92.775 E.05924
G1 X141.374 Y93.79 E.03793
G1 X141.835 Y94.519 E.02542
G1 X142.681 Y96.304 E.05822
G1 X143.24 Y98.341 E.06226
G1 X143.425 Y100.341 E.0592
G1 X143.575 Y114.341 E.41265
G1 X143.503 Y115.668 E.03917
G1 X143.296 Y116.888 E.03647
G1 X142.676 Y118.864 E.06104
G1 X141.69 Y120.733 E.06228
G1 X140.467 Y122.296 E.05849
G1 X139.688 Y123.064 E.03224
G1 X138.815 Y123.771 E.03311
G1 X137.173 Y124.778 E.05677
G1 X136.08 Y125.257 E.03517
G1 X134.281 Y125.783 E.05524
G1 X132.523 Y126.003 E.05222
G1 X95.078 Y126.009 E1.10362
G1 X93.39 Y125.81 E.0501
G1 X92.295 Y125.542 E.03323
G1 X91.185 Y125.153 E.03467
G1 X89.854 Y124.506 E.04362
G1 X88.8 Y123.835 E.03683
G1 X87.851 Y123.075 E.03583
G1 X86.76 Y121.96 E.04598
G1 X86.154 Y121.19 E.02888
G1 X85.328 Y119.862 E.04609
G1 X84.772 Y118.665 E.0389
G1 X84.319 Y117.276 E.04306
G1 X84.013 Y115.506 E.05294
G1 X83.957 Y114.505 E.02955
G1 X83.987 Y99.578 E.43994
G1 X84.339 Y97.433 E.06407
G1 X84.956 Y95.673 E.05497
G1 X85.359 Y94.854 E.0269
G1 X86.242 Y93.468 E.04844
G1 X86.875 Y92.684 E.0297
G1 X87.814 Y91.744 E.03916
G1 X88.08 Y92.01 F6000
G1 F1200
G1 X88.937 Y91.308 E.03265
G1 X89.836 Y90.714 E.03176
G1 X91.455 Y89.917 E.05319
G1 X92.992 Y89.437 E.04746
G1 X94.74 Y89.166 E.05213
G1 X131.692 Y89.133 E1.08909
G1 X133.767 Y89.308 E.06137
G1 X135.748 Y89.851 E.06054
G1 X137.509 Y90.69 E.05749
G1 X138.893 Y91.661 E.04983
G1 X140.304 Y93.029 E.05792
G1 X141.07 Y94.013 E.03675
G1 X141.565 Y94.802 E.02745
G1 X142.414 Y96.673 E.06056
G1 X142.882 Y98.473 E.05482
G1 X143.048 Y100.345 E.05539
G1 X143.198 Y114.345 E.41265
G1 X143.13 Y115.614 E.03745
G1 X142.924 Y116.824 E.03618
G1 X142.331 Y118.712 E.05833
G1 X141.369 Y120.534 E.06073
G1 X140.198 Y122.031 E.05602
G1 X139.594 Y122.642 E.02532
G1 X138.603 Y123.459 E.03785
G1 X136.981 Y124.453 E.05607
G1 X135.395 Y125.098 E.05046
G1 X134.218 Y125.411 E.0359
G1 X132.355 Y125.634 E.0553
G1 X95.105 Y125.633 E1.09787
G1 X93.449 Y125.437 E.04915
G1 X92.304 Y125.154 E.03476
G1 X91.337 Y124.807 E.03028
G1 X90.03 Y124.173 E.04281
G1 X89.019 Y123.528 E.03534
G1 X88.102 Y122.794 E.03462
G1 X87.039 Y121.706 E.04483
G1 X86.452 Y120.958 E.02802
G1 X85.657 Y119.676 E.04446
G1 X85.128 Y118.539 E.03696
G1 X84.684 Y117.182 E.04208
G1 X84.387 Y115.46 E.0515
G1 X84.334 Y114.505 E.02819
G1 X84.363 Y99.603 E.43921
G1 X84.7 Y97.541 E.06158
G1 X85.307 Y95.811 E.05404
G1 X85.705 Y95.004 E.02652
G1 X86.553 Y93.681 E.04632
G1 X87.156 Y92.934 E.02829
G1 X88.038 Y92.052 E.03676
G1 X88.304 Y92.318 F6000
G1 F1200
G1 X89.149 Y91.62 E.0323
G1 X90.029 Y91.037 E.03111
G1 X91.588 Y90.27 E.05121
G1 X93.208 Y89.774 E.04993
G1 X94.758 Y89.543 E.04619
G1 X131.692 Y89.51 E1.08856
G1 X133.69 Y89.677 E.05909
G1 X135.628 Y90.208 E.05922
G1 X137.318 Y91.015 E.0552
G1 X138.647 Y91.947 E.04784
G1 X140.013 Y93.269 E.05603
G1 X140.766 Y94.236 E.03612
G1 X141.237 Y94.988 E.02615
G1 X142.054 Y96.785 E.05818
G1 X142.512 Y98.545 E.0536
G1 X142.671 Y100.349 E.05338
G1 X142.821 Y114.349 E.41265
G1 X142.744 Y115.641 E.03815
G1 X142.521 Y116.917 E.03818
G1 X142.276 Y117.78 E.02644
G1 X141.409 Y119.75 E.06344
G1 X140.675 Y120.874 E.03957
G1 X140.018 Y121.672 E.03047
G1 X139.333 Y122.37 E.02882
G1 X138.39 Y123.147 E.03601
G1 X136.804 Y124.12 E.05484
G1 X135.27 Y124.742 E.04879
G1 X134.141 Y125.042 E.03443
G1 X132.345 Y125.257 E.05331
G1 X95.131 Y125.257 E1.09681
G1 X93.508 Y125.065 E.04817
G1 X92.409 Y124.792 E.03338
G1 X91.488 Y124.462 E.02883
G1 X90.206 Y123.839 E.04201
G1 X89.238 Y123.221 E.03385
G1 X88.306 Y122.47 E.03528
G1 X87.318 Y121.453 E.04179
G1 X86.76 Y120.741 E.02666
G1 X85.985 Y119.491 E.04335
G1 X85.483 Y118.413 E.03505
G1 X85.05 Y117.087 E.04111
G1 X84.761 Y115.415 E.05001
G1 X84.739 Y99.629 E.46526
G1 X85.061 Y97.651 E.05907
G1 X85.658 Y95.948 E.05319
G1 X86.04 Y95.178 E.02533
G1 X86.862 Y93.897 E.04486
G1 X87.438 Y93.185 E.02699
G1 X88.262 Y92.361 E.03435
; printing object 1 id:9 copy 0
G1 E-1.12 F2400
;WIPE_START
G1 F4800
G1 X89.038 Y91.713 E-.48
;WIPE_END
G1 X133.022 Y100.187 F6000
G1 E1.6 F2400
;TYPE:External perimeter
G1 F1200
G1 X133.102 Y100.187 E.00236
G1 X133.102 Y100.767 E.01709
G1 X133.022 Y100.767 E.00236
G1 X133.022 Y100.247 E.01533
G1 X133.093 Y100.224 F6000
; stop printing object 1 id:9 copy 0
; printing object 1 id:11 copy 0
G1 E-1.12 F2400
;WIPE_START
G1 F4800
G1 X133.102 Y100.187 E-.0475
G1 X133.102 Y100.767 E-.2755
G1 X133.022 Y100.767 E-.038
G1 X133.022 Y100.516 E-.119
;WIPE_END
G1 X128.744 Y100.214 F6000
G1 E1.6 F2400
G1 F1200
G1 X128.744 Y100.794 E.01709
G1 X128.664 Y100.794 E.00236
G1 X128.664 Y100.214 E.01709
G1 X128.684 Y100.214 E.00059
G1 X128.725 Y100.614 F6000
; stop printing object 1 id:11 copy 0
; printing object 1 id:10 copy 0
G1 E-1.12 F2400
;WIPE_START
G1 F4800
G1 X128.744 Y100.794 E-.27697
G1 X128.664 Y100.794 E-.038
G1 X128.664 Y100.447 E-.16503
;WIPE_END
G1 X128.92 Y104.765 F6000
G1 E1.6 F2400
G1 F1200
G1 X129 Y104.765 E.00236
G1 X129 Y105.345 E.01709
G1 X128.92 Y105.345 E.00236
G1 X128.92 Y104.825 E.01533
G1 X128.991 Y104.802 F6000
; stop printing object 1 id:10 copy 0
; printing object 1 id:2 copy 0
G1 E-1.12 F2400
;WIPE_START
G1 F4800
G1 X129 Y104.765 E-.0475
G1 X129 Y105.345 E-.2755
G1 X128.92 Y105.345 E-.038
G1 X128.92 Y105.094 E-.119
;WIPE_END
G1 X128.883 Y108.865 F6000
G1 E1.6 F2400
G1 F1200
G1 X128.883 Y109.445 E.01709
G1 X128.803 Y109.445 E.00236
G1 X128.803 Y108.865 E.01709
G1 X128.823 Y108.865 E.00059
G1 X128.864 Y109.265 F6000
; stop printing object 1 id:2 copy 0
; printing object 1 id:1 copy 0
G1 E-1.12 F2400
;WIPE_START
G1 F4800
G1 X128.883 Y109.445 E-.27697
G1 X128.803 Y109.445 E-.038
G1 X128.803 Y109.098 E-.16503
;WIPE_END
G1 X128.874 Y113.388 F6000
G1 E1.6 F2400
G1 F1200
G1 X128.954 Y113.388 E.00236
G1 X128.954 Y113.968 E.01709
G1 X128.874 Y113.968 E.00236
G1 X128.874 Y113.448 E.01533
G1 X128.945 Y113.425 F6000
; stop printing object 1 id:1 copy 0
; printing object 1 id:3 copy 0
G1 E-1.12 F2400
;WIPE_START
G1 F4800
G1 X128.954 Y113.388 E-.0475
G1 X128.954 Y113.968 E-.2755
G1 X128.874 Y113.968 E-.038
G1 X128.874 Y113.717 E-.119
;WIPE_END
G1 X118.039 Y113.355 F6000
G1 E1.6 F2400
G1 F1200
G1 X118.039 Y113.935 E.01709
G1 X117.959 Y113.935 E.00236
G1 X117.959 Y113.355 E.01709
G1 X117.979 Y113.355 E.00059
G1 X118.021 Y113.755 F6000
; stop printing object 1 id:3 copy 0
; printing object 1 id:4 copy 0
G1 E-1.12 F2400
;WIPE_START
G1 F4800
G1 X118.039 Y113.935 E-.27697
G1 X117.959 Y113.935 E-.038
G1 X117.959 Y113.588 E-.16503
;WIPE_END
G1 X113.594 Y113.303 F6000
G1 E1.6 F2400
G1 F1200
G1 X113.594 Y113.883 E.01709
G1 X113.514 Y113.883 E.00236
G1 X113.514 Y113.303 E.01709
G1 X113.534 Y113.303 E.00059
G1 X113.576 Y113.703 F6000
; stop printing object 1 id:4 copy 0
; printing object 1 id:5 copy 0
G1 E-1.12 F2400
;WIPE_START
G1 F4800
G1 X113.594 Y113.883 E-.27697
G1 X113.514 Y113.883 E-.038
G1 X113.514 Y113.536 E-.16503
;WIPE_END
G1 X113.498 Y109.288 F6000
G1 E1.6 F2400
G1 F1200
G1 X113.498 Y108.708 E.01709
G1 X113.578 Y108.708 E.00236
G1 X113.578 Y109.288 E.01709
G1 X113.558 Y109.288 E.00059
G1 X113.516 Y108.888 F6000
; stop printing object 1 id:5 copy 0
; printing object Shape-Box id:0 copy 0
G1 E-1.12 F2400
;WIPE_START
G1 F4800
G1 X113.498 Y108.708 E-.27697
G1 X113.578 Y108.708 E-.038
G1 X113.578 Y109.055 E-.16503
;WIPE_END
G1 X115.932 Y104.054 F6000
G1 E1.6 F2400
;TYPE:Perimeter
G1 F1200
G1 X115.993 Y103.815 E.00727
G1 X116.031 Y103.433 E.01131
G1 X116.092 Y103.531 E.0034
G1 X116.267 Y103.727 E.00774
G1 X116.604 Y104.009 E.01295
G1 X116.693 Y104.057 E.00298
G1 X115.992 Y104.054 E.02066
G1 E-1.12 F2400
;WIPE_START
G1 F4800
G1 X115.993 Y103.815 E-.11353
G1 X116.031 Y103.433 E-.18235
G1 X116.092 Y103.531 E-.05483
G1 X116.267 Y103.727 E-.12481
G1 X116.274 Y103.733 E-.00448
;WIPE_END
G1 X117.648 Y101.993 F6000
G1 E1.6 F2400
G1 F1200
G1 X117.654 Y101.837 E.0046
G1 X117.703 Y101.671 E.0051
G1 X117.777 Y101.558 E.00398
G1 X117.865 Y101.487 E.00333
G1 X117.965 Y101.448 E.00316
G1 X118.088 Y101.447 E.00363
G1 X118.203 Y101.501 E.00374
G1 X118.263 Y101.583 E.00299
G1 X118.463 Y102.211 E.01943
G1 X118.294 Y102.378 E.007
G1 X118.19 Y102.432 E.00345
G1 X117.988 Y102.452 E.00598
G1 X117.839 Y102.419 E.0045
G1 X117.762 Y102.367 E.00274
G1 X117.686 Y102.258 E.00392
G1 X117.646 Y102.053 E.00616
G1 E-1.12 F2400
;WIPE_START
G1 F4800
G1 X117.654 Y101.837 E-.10267
G1 X117.703 Y101.671 E-.08221
G1 X117.777 Y101.558 E-.06416
G1 X117.865 Y101.487 E-.05371
G1 X117.965 Y101.448 E-.05098
G1 X118.088 Y101.447 E-.05843
G1 X118.203 Y101.501 E-.06035
G1 X118.212 Y101.514 E-.00749
;WIPE_END
G1 X111.727 Y103.454 F6000
G1 E1.6 F2400
G1 F1200
G1 X111.742 Y103.314 E.00415
G1 X111.911 Y103.503 E.00747
G1 X111.751 Y103.489 E.00473
G1 E-1.12 F2400
;WIPE_START
G1 F4800
G1 X111.742 Y103.314 E-.08323
G1 X111.911 Y103.503 E-.12043
G1 X111.751 Y103.489 E-.07629
;WIPE_END
G1 E-.20005 F2400
G1 X115.521 Y111.687 F6000
G1 E1.6 F2400
G1 F1200
G1 X115.547 Y111.678 E.00081
G1 X115.632 Y111.555 E.00441
G1 X115.646 Y111.845 E.00856
G1 X115.617 Y111.761 E.00262
G1 X115.569 Y111.724 E.00179
G1 E-1.12 F2400
;WIPE_START
G1 F4800
G1 X115.547 Y111.678 E-.02422
G1 X115.632 Y111.555 E-.07102
G1 X115.646 Y111.845 E-.13791
G1 X115.617 Y111.761 E-.04221
G1 X115.569 Y111.724 E-.02879
;WIPE_END
G1 E-.17585 F2400
G1 X103.077 Y112.478 F6000
G1 E1.6 F2400
G1 F1200
G1 X103.03 Y112.63 E.00469
G1 X102.944 Y112.73 E.00389
G1 X102.787 Y112.744 E.00465
G1 X102.715 Y112.703 E.00244
G1 X102.718 Y112.58 E.00363
G1 X102.781 Y112.542 E.00217
G1 X103.017 Y112.481 E.00718
G1 E-1.12 F2400
;WIPE_START
G1 F4800
G1 X103.03 Y112.63 E-.07104
G1 X102.944 Y112.73 E-.06265
G1 X102.787 Y112.744 E-.07487
G1 X102.715 Y112.703 E-.03936
G1 X102.718 Y112.58 E-.05844
G1 X102.781 Y112.542 E-.03495
G1 X103.017 Y112.481 E-.11578
;WIPE_END
G1 E-.02291 F2400
G1 X100.974 Y111.72 F6000
G1 E1.6 F2400
G1 F1200
G1 X100.81 Y112.036 E.01049
G1 X100.834 Y111.821 E.00638
G1 X100.835 Y111.527 E.00867
G1 X100.939 Y111.671 E.00524
G1 E-1.12 F2400
;WIPE_START
G1 F4800
G1 X100.81 Y112.036 E-.18388
G1 X100.834 Y111.821 E-.10276
G1 X100.835 Y111.527 E-.13965
G1 X100.901 Y111.619 E-.05371
;WIPE_END
G1 X103.188 Y110.558 F6000
G1 E1.6 F2400
G1 F1200
G1 X102.888 Y110.622 E.00904
G1 X102.736 Y110.629 E.00448
G1 X102.64 Y110.607 E.0029
G1 X102.521 Y110.51 E.00452
G1 X102.485 Y110.431 E.00256
G1 X102.476 Y110.302 E.00381
G1 X102.504 Y110.181 E.00366
G1 X102.562 Y110.084 E.00333
G1 X102.65 Y110.01 E.00339
G1 X102.764 Y109.969 E.00357
G1 X102.936 Y109.979 E.00508
G1 X103.011 Y110.034 E.00274
G1 X103.082 Y110.168 E.00447
G1 X103.172 Y110.5 E.01014
G1 E-1.12 F2400
;WIPE_START
G1 F4800
G1 X102.888 Y110.622 E-.14682
G1 X102.736 Y110.629 E-.07228
G1 X102.64 Y110.607 E-.04678
G1 X102.521 Y110.51 E-.07292
G1 X102.485 Y110.431 E-.04124
G1 X102.476 Y110.302 E-.06142
