; generated by PrusaSlicer 2.6.1+win64 on 2023-09-14 at 22:25:10 UTC

; 

; external perimeters extrusion width = 0.42mm
; perimeters extrusion width = 0.44mm
; infill extrusion width = 0.44mm
; solid infill extrusion width = 0.44mm
; top infill extrusion width = 0.40mm
; first layer extrusion width = 0.42mm

;TYPE:Custom
; Ender 3 Custom Start G-code
G92 E0 ; Reset Extruder

M140 S50 ; set bed temp
M190 S50 ; wait for bed temp

G28 ; Home all axes
M104 S205 ; set extruder temp 
BED_MESH_CALIBRATE AREA_START=91.7718,93.2173 AREA_END=135.76,121.557

G1 Z2.0 F3000 ; Move Z Axis up little to prevent scratching of Heat Bed
M109 S205 ; wait for extruder temp
G1 X0.1 Y20 Z0.3 F5000.0 ; Move to start position

G1 X0.1 Y200.0 Z0.3 F1500.0 E15 ; Draw the first line
G1 X0.4 Y200.0 Z0.3 F5000.0 ; Move to side a little
G1 X0.4 Y20 Z0.3 F1500.0 E30 ; Draw the second line
G92 E0 ; Reset Extruder
G1 Z2.0 F3000 ; Move Z Axis up little to prevent scratching of Heat Bed
G1 X5 Y20 Z0.3 F5000.0 ; Move over to prevent blob squish
G21 ; set units to millimeters
G90 ; use absolute coordinates
M83 ; use relative distances for extrusion
; Filament gcode
M107
;LAYER_CHANGE
;Z:0.2
;HEIGHT:0.2
;BEFORE_LAYER_CHANGE
G92 E0
;0.2


G1 E-1.6 F2400
G1 Z.2 F6000
;AFTER_LAYER_CHANGE
;0.2
G1 X94.999 Y95.711
G1 E1.6 F2400
M204 S500
;TYPE:Skirt/Brim
;WIDTH:0.42
G1 F1200
G1 X95.707 Y95.139 E.02683
G1 X96.438 Y94.66 E.02576
G1 X97.727 Y94.031 E.04227
G1 X99.119 Y93.613 E.04284
G1 X100.392 Y93.431 E.0379
G1 X126.313 Y93.406 E.76397
G1 X127.776 Y93.514 E.04324
G1 X129.153 Y93.84 E.04171
G1 X130.423 Y94.355 E.04039
G1 X131.969 Y95.33 E.05387
G1 X133.113 Y96.393 E.04603
G1 X133.992 Y97.526 E.04226
G1 X134.669 Y98.771 E.04177
G1 X135.198 Y100.307 E.04788
G1 X135.362 Y101.134 E.02485
G1 X135.466 Y102.445 E.03876
G1 X135.571 Y112.245 E.28885
G1 X135.496 Y113.418 E.03464
G1 X135.135 Y115.06 E.04955
G1 X134.395 Y116.761 E.05467
G1 X133.801 Y117.673 E.03208
G1 X133.252 Y118.347 E.02562
G1 X132.027 Y119.486 E.0493
G1 X130.654 Y120.357 E.04792
G1 X129.704 Y120.78 E.03065
G1 X128.284 Y121.19 E.04356
G1 X126.97 Y121.355 E.03903
G1 X100.618 Y121.36 E.77667
G1 X99.358 Y121.211 E.03739
G1 X98.507 Y121.007 E.02579
G1 X97.581 Y120.683 E.02891
G1 X96.591 Y120.203 E.03243
G1 X95.756 Y119.674 E.02913
G1 X95.018 Y119.085 E.02783
G1 X93.758 Y117.71 E.05497
G1 X93.044 Y116.586 E.03925
G1 X92.585 Y115.595 E.03219
G1 X92.243 Y114.542 E.03263
G1 X92.006 Y113.184 E.04063
G1 X91.983 Y101.854 E.33393
G1 X92.101 Y100.917 E.02783
G1 X92.405 Y99.688 E.03731
G1 X93.139 Y98.015 E.05385
G1 X94.252 Y96.457 E.05643
G1 X94.956 Y95.754 E.02932
G1 X95.241 Y96.067 F6000
G1 F1200
G1 X95.919 Y95.451 E.027
G1 X96.619 Y94.991 E.02469
G1 X97.86 Y94.384 E.04072
G1 X99.191 Y93.983 E.04097
G1 X100.41 Y93.807 E.0363
G1 X126.313 Y93.783 E.76344
G1 X127.934 Y93.923 E.04795
G1 X129.422 Y94.331 E.04547
G1 X130.802 Y94.986 E.04502
G1 X131.895 Y95.754 E.03937
G1 X132.981 Y96.812 E.04469
G1 X133.942 Y98.168 E.04898
G1 X134.526 Y99.414 E.04056
G1 X134.947 Y100.933 E.04646
G1 X135.089 Y102.449 E.04488
G1 X135.194 Y112.249 E.28885
G1 X135.139 Y113.264 E.02996
G1 X134.992 Y114.13 E.02589
G1 X134.517 Y115.648 E.04688
G1 X133.792 Y117.024 E.04584
G1 X132.856 Y118.219 E.04474
G1 X131.616 Y119.321 E.04889
G1 X130.419 Y120.056 E.0414
G1 X129.559 Y120.432 E.02766
G1 X128.221 Y120.818 E.04104
G1 X126.941 Y120.979 E.03802
G1 X100.645 Y120.984 E.77502
G1 X99.417 Y120.839 E.03644
G1 X98.514 Y120.618 E.0274
G1 X97.732 Y120.338 E.02448
G1 X96.767 Y119.869 E.03162
G1 X95.975 Y119.367 E.02764
G1 X95.249 Y118.787 E.02739
G1 X93.979 Y117.375 E.05597
G1 X93.373 Y116.401 E.03381
G1 X92.94 Y115.469 E.03029
G1 X92.608 Y114.448 E.03164
G1 X92.38 Y113.138 E.03919
G1 X92.36 Y101.88 E.33181
G1 X92.628 Y100.258 E.04845
G1 X93.075 Y98.984 E.03979
G1 X93.39 Y98.339 E.02116
G1 X93.782 Y97.688 E.0224
G1 X94.52 Y96.723 E.03581
G1 X95.197 Y96.107 E.02698
G1 X95.449 Y96.384 F6000
G1 F1200
G1 X96.131 Y95.763 E.02719
G1 X96.812 Y95.315 E.02402
G1 X97.993 Y94.737 E.03875
G1 X99.229 Y94.36 E.03809
G1 X100.429 Y94.184 E.03575
G1 X126.313 Y94.16 E.76288
G1 X127.857 Y94.292 E.04567
G1 X129.299 Y94.687 E.04407
G1 X130.611 Y95.311 E.04282
G1 X131.648 Y96.039 E.03734
G1 X132.69 Y97.052 E.04283
G1 X133.614 Y98.354 E.04706
G1 X134.178 Y99.558 E.03919
G1 X134.578 Y101.012 E.04445
G1 X134.712 Y102.453 E.04265
G1 X134.817 Y112.253 E.28885
G1 X134.765 Y113.21 E.02825
G1 X134.62 Y114.067 E.02562
G1 X134.172 Y115.496 E.04414
G1 X133.441 Y116.873 E.04595
G1 X132.587 Y117.955 E.04063
G1 X131.404 Y119.01 E.04672
G1 X130.242 Y119.723 E.04018
G1 X129.435 Y120.076 E.02596
G1 X128.232 Y120.433 E.03698
G1 X126.912 Y120.603 E.03923
G1 X100.672 Y120.608 E.77337
G1 X99.476 Y120.466 E.0355
G1 X98.62 Y120.256 E.02598
G1 X96.943 Y119.536 E.05379
G1 X96.18 Y119.05 E.02666
G1 X95.454 Y118.463 E.02752
G1 X94.287 Y117.157 E.05162
G1 X93.701 Y116.215 E.0327
G1 X93.296 Y115.343 E.02834
G1 X92.973 Y114.353 E.03069
G1 X92.755 Y113.093 E.03769
G1 X92.736 Y101.905 E.32974
G1 X92.989 Y100.368 E.04591
G1 X93.426 Y99.122 E.03892
G1 X93.725 Y98.513 E.02
G1 X94.802 Y96.974 E.05536
G1 X95.405 Y96.424 E.02405
; printing object Shape-Box id:0 copy 0
G1 E-1.12 F2400
;WIPE_START
G1 F4800
G1 X96.131 Y95.763 E-.46637
G1 X96.155 Y95.747 E-.01363
;WIPE_END
G1 X120.957 Y105.487 F6000
G1 E1.6 F2400
;TYPE:External perimeter
G1 F1200
G1 X120.849 Y105.146 E.01054
G1 X121.115 Y105.214 E.00809
G1 X121.391 Y105.211 E.00814
G1 X121.548 Y105.183 E.0047
G1 X121.846 Y105.064 E.00946
G1 X121.789 Y105.286 E.00676
G1 X121.742 Y105.385 E.00323
G1 X121.617 Y105.554 E.0062
G1 X121.485 Y105.631 E.0045
G1 X121.306 Y105.676 E.00544
G1 X121.129 Y105.642 E.00531
G1 X121.024 Y105.594 E.0034
G1 X120.988 Y105.537 E.00199
G1 X121.147 Y105.184 F6000
G1 E-1.12 F2400
;WIPE_START
G1 F4800
G1 X120.849 Y105.146 E-.19711
G1 X121.115 Y105.214 E-.13041
G1 X121.391 Y105.211 E-.13111
G1 X121.435 Y105.203 E-.02137
;WIPE_END
G1 X114.724 Y104.288 F6000
G1 E1.6 F2400
;TYPE:Perimeter
G1 F1200
G1 X115.564 Y104.28 E.02476
G1 X115.564 Y104.739 E.01353
G1 X114.58 Y104.693 E.02903
G1 X114.637 Y104.289 E.01203
G1 X114.664 Y104.289 E.0008
G1 X113.798 Y103.774 F6000
G1 F1200
G1 X113.719 Y103.763 E.00235
G1 X113.713 Y103.71 E.00157
G1 X113.764 Y103.695 E.00157
G1 X113.774 Y103.718 E.00074
G1 E-1.12 F2400
;WIPE_START
G1 F4800
G1 X113.719 Y103.763 E-.03376
G1 X113.713 Y103.71 E-.02534
G1 X113.764 Y103.695 E-.02525
G1 X113.774 Y103.718 E-.01191
;WIPE_END
G1 E-.38374 F2400
G1 X106.161 Y103.774 F6000
G1 E1.6 F2400
G1 F1200
G1 X106.082 Y103.763 E.00235
G1 X106.076 Y103.71 E.00157
G1 X106.127 Y103.695 E.00157
G1 X106.137 Y103.718 E.00074
G1 X104.591 Y104.737 F6000
G1 F1200
G1 X104.513 Y104.921 E.00589
G1 X104.457 Y105.132 E.00643
G1 X103.686 Y105.156 E.02273
G1 X103.84 Y104.891 E.00903
G1 X103.995 Y104.561 E.01075
G1 X104.122 Y104.216 E.01084
G1 X104.241 Y103.756 E.014
G1 X104.284 Y104.191 E.01288
G1 X104.497 Y104.613 E.01393
G1 X104.555 Y104.689 E.00282
G1 E-1.12 F2400
;WIPE_START
G1 F4800
G1 X104.513 Y104.921 E-.11199
G1 X104.457 Y105.132 E-.10369
G1 X103.901 Y105.149 E-.26432
;WIPE_END
G1 X101.247 Y109.695 F6000
G1 E1.6 F2400
G1 F1200
G1 X101.247 Y110.605 E.02682
G1 X101.727 Y110.605 E.01415
G1 X101.727 Y111.053 E.0132
G1 X100.691 Y111.11 E.03058
G1 X100.839 Y110.856 E.00866
G1 X100.994 Y110.526 E.01075
G1 X101.121 Y110.181 E.01084
G1 X101.232 Y109.753 E.01303
G1 E-1.12 F2400
;WIPE_START
G1 F4800
G1 X101.247 Y110.605 E-.40476
G1 X101.405 Y110.605 E-.07524
;WIPE_END
G1 X127.532 Y109.833 F6000
G1 E1.6 F2400
G1 F1200
G1 X127.561 Y109.938 E.00321
G1 X127.502 Y109.958 E.00184
G1 X127.414 Y109.957 E.00259
G1 X127.35 Y109.924 E.00212
G1 X127.347 Y109.756 E.00495
G1 X127.383 Y109.668 E.0028
G1 X127.434 Y109.66 E.00152
G1 X127.516 Y109.775 E.00416
G1 E-1.12 F2400
;WIPE_START
G1 F4800
G1 X127.561 Y109.938 E-.08032
G1 X127.502 Y109.958 E-.02959
G1 X127.414 Y109.957 E-.0418
G1 X127.35 Y109.924 E-.0342
G1 X127.347 Y109.756 E-.07981
G1 X127.383 Y109.668 E-.04516
G1 X127.434 Y109.66 E-.02452
G1 X127.516 Y109.775 E-.06709
;WIPE_END
G1 E-.07751 F2400
G1 X125.953 Y105.107 F6000
G1 E1.6 F2400
G1 F1200
G1 X125.864 Y105.097 E.00264
G1 X125.86 Y105.016 E.00239
G1 X125.91 Y105.065 E.00206
G1 E-1.12 F2400
;WIPE_START
G1 F4800
G1 X125.864 Y105.097 E-.02662
G1 X125.86 Y105.016 E-.03852
G1 X125.91 Y105.065 E-.03325
;WIPE_END
G1 E-.38161 F2400
G1 X127.526 Y103.868 F6000
G1 E1.6 F2400
G1 F1200
G1 X127.555 Y103.973 E.00321
G1 X127.496 Y103.993 E.00184
G1 X127.408 Y103.992 E.00259
G1 X127.344 Y103.959 E.00212
G1 X127.341 Y103.791 E.00495
G1 X127.377 Y103.703 E.0028
G1 X127.428 Y103.695 E.00152
G1 X127.51 Y103.81 E.00416
G1 E-1.12 F2400
;WIPE_START
G1 F4800
G1 X127.555 Y103.973 E-.08032
G1 X127.496 Y103.993 E-.02959
G1 X127.408 Y103.992 E-.0418
G1 X127.344 Y103.959 E-.0342
G1 X127.341 Y103.791 E-.07981
G1 X127.377 Y103.703 E-.04516
G1 X127.428 Y103.695 E-.02452
G1 X127.51 Y103.81 E-.06709
;WIPE_END
G1 E-.07751 F2400
G1 X115.092 Y107.979 F6000
G1 E1.6 F2400
G1 F1200
G1 X115.04 Y108.954 E.02878
G1 X114.975 Y109.394 E.01311
G1 X114.772 Y110.181 E.02395
G1 X114.644 Y110.526 E.01085
G1 X114.49 Y110.856 E.01073
G1 X114.342 Y111.11 E.00866
G1 X115.543 Y111.044 E.03545
G1 X115.558 Y112.864 E.05364
G1 X111.876 Y112.864 E.10852
G1 X111.876 Y111.585 E.0377
G1 X112.266 Y111.121 E.01786
G1 X112.563 Y110.671 E.01589
G1 X112.774 Y110.278 E.01315
G1 X113.006 Y109.722 E.01776
G1 X113.09 Y109.461 E.00808
G1 X113.182 Y109.06 E.01213
G1 X113.305 Y107.979 E.03207
G1 X115.032 Y107.979 E.0509
G1 X114.694 Y108.356 F6000
;TYPE:External perimeter
G1 F1200
G1 X114.664 Y108.917 E.01656
G1 X114.605 Y109.319 E.01198
G1 X114.411 Y110.068 E.0228
G1 X114.296 Y110.38 E.0098
G1 X114.155 Y110.681 E.0098
G1 X113.982 Y110.98 E.01018
G1 X113.769 Y111.219 E.00944
G1 X113.553 Y111.546 E.01155
G1 X113.979 Y111.547 E.01256
G1 X114.409 Y111.481 E.01282
G1 X115.169 Y111.442 E.02243
G1 X115.178 Y112.487 E.0308
G1 X112.253 Y112.487 E.08621
G1 X112.253 Y111.723 E.02252
G1 X112.569 Y111.347 E.01448
G1 X112.887 Y110.864 E.01704
G1 X113.115 Y110.441 E.01416
G1 X113.36 Y109.853 E.01877
G1 X113.454 Y109.56 E.00907
G1 X113.554 Y109.124 E.01318
G1 X113.641 Y108.356 E.02278
G1 X114.634 Y108.356 E.02927
G1 X115.089 Y108.291 F6000
G1 E-1.12 F2400
;WIPE_START
G1 F4800
G1 X114.664 Y108.917 E-.26686
G1 X114.605 Y109.319 E-.193
G1 X114.594 Y109.36 E-.02014
;WIPE_END
G1 X118.18 Y109.945 F6000
G1 E1.6 F2400
;TYPE:Perimeter
G1 F1200
G1 X118.266 Y111.736 E.05285
G1 X117.603 Y112.11 E.02244
G1 X117.384 Y112.277 E.00812
G1 X117.232 Y112.433 E.00642
G1 X116.917 Y112.925 E.01722
G1 X115.57 Y112.925 E.0397
G1 X115.57 Y107.979 E.14577
G1 X117.384 Y107.979 E.05346
G1 X117.375 Y109.613 E.04816
G1 X117.315 Y110.322 E.02097
G1 X118.125 Y109.969 E.02604
G1 X117.829 Y110.51 F6000
;TYPE:External perimeter
G1 F1200
G1 X117.878 Y111.522 E.02986
G1 X117.395 Y111.794 E.01634
G1 X117.133 Y111.994 E.00971
G1 X116.935 Y112.198 E.00838
G1 X116.711 Y112.548 E.01225
G1 X115.947 Y112.548 E.02252
G1 X115.947 Y108.356 E.12355
G1 X117.005 Y108.356 E.03118
G1 X116.998 Y109.6 E.03667
G1 X116.969 Y110.079 E.01414
G1 X116.904 Y110.536 E.0136
G1 X116.908 Y111.035 E.01471
G1 X117.088 Y110.921 E.00628
G1 X117.188 Y110.789 E.00488
G1 X117.774 Y110.533 E.01885
G1 X118.221 Y110.43 F6000
G1 E-1.12 F2400
;WIPE_START
G1 F4800
G1 X117.878 Y111.522 E-.47237
G1 X117.864 Y111.53 E-.00763
;WIPE_END
G1 X115.639 Y115.03 F6000
G1 E1.6 F2400
;TYPE:Perimeter
G1 F1200
G1 X115.638 Y115.417 E.01141
G1 X115.554 Y115.791 E.0113
G1 X115.405 Y116.123 E.01073
G1 X115.197 Y116.416 E.01059
G1 X114.912 Y116.682 E.01149
G1 X114.622 Y116.86 E.01003
G1 X114.346 Y116.97 E.00876
G1 X114.005 Y117.042 E.01027
G1 X113.593 Y117.042 E.01214
G1 X113.245 Y116.968 E.01049
G1 X112.879 Y116.808 E.01177
G1 X112.586 Y116.598 E.01062
G1 X112.369 Y116.375 E.00917
G1 X112.156 Y116.051 E.01143
G1 X112.028 Y115.736 E.01002
G1 X111.956 Y115.361 E.01125
G1 X111.97 Y114.929 E.01274
G1 X112.047 Y114.61 E.00967
G1 X112.186 Y114.298 E.01007
G1 X112.401 Y113.991 E.01105
G1 X112.679 Y113.731 E.01122
G1 X112.971 Y113.549 E.01014
G1 X113.28 Y113.427 E.00979
G1 X113.646 Y113.359 E.01097
G1 X113.957 Y113.359 E.00917
G1 X114.349 Y113.435 E.01177
G1 X114.724 Y113.599 E.01206
G1 X114.967 Y113.768 E.00872
G1 X115.196 Y113.989 E.00938
G1 X115.419 Y114.305 E.0114
G1 X115.584 Y114.711 E.01292
G1 X115.629 Y114.971 E.00778
G1 E-1.12 F2400
;WIPE_START
G1 F4800
G1 X115.638 Y115.417 E-.21189
G1 X115.554 Y115.791 E-.18208
G1 X115.48 Y115.956 E-.08603
;WIPE_END
G1 X113.632 Y116.665 F6000
G1 E1.6 F2400
;TYPE:External perimeter
G1 F1200
G1 X113.361 Y116.607 E.00817
G1 X113.067 Y116.479 E.00945
G1 X112.832 Y116.311 E.00851
G1 X112.664 Y116.138 E.00711
G1 X112.491 Y115.875 E.00928
G1 X112.391 Y115.629 E.00783
G1 X112.334 Y115.331 E.00894
G1 X112.345 Y114.981 E.01032
G1 X112.406 Y114.732 E.00756
G1 X112.516 Y114.484 E.008
G1 X112.687 Y114.24 E.00878
G1 X112.909 Y114.031 E.00899
G1 X113.141 Y113.887 E.00805
G1 X113.384 Y113.791 E.0077
G1 X113.681 Y113.736 E.0089
G1 X113.921 Y113.736 E.00707
G1 X114.236 Y113.797 E.00946
G1 X114.539 Y113.93 E.00975
G1 X114.727 Y114.061 E.00675
G1 X114.909 Y114.235 E.00742
G1 X115.086 Y114.487 E.00908
G1 X115.22 Y114.815 E.01044
G1 X115.267 Y115.089 E.00819
G1 X115.262 Y115.372 E.00834
G1 X115.195 Y115.672 E.00906
G1 X115.076 Y115.934 E.00848
G1 X114.912 Y116.166 E.00837
G1 X114.683 Y116.38 E.00924
G1 X114.452 Y116.522 E.00799
G1 X114.236 Y116.608 E.00685
G1 X113.965 Y116.665 E.00816
G1 X113.692 Y116.665 E.00805
G1 X113.469 Y116.889 F6000
G1 E-1.12 F2400
;WIPE_START
G1 F4800
G1 X113.361 Y116.607 E-.15962
G1 X113.067 Y116.479 E-.15231
G1 X112.832 Y116.311 E-.13722
G1 X112.787 Y116.264 E-.03085
;WIPE_END
G1 X112.719 Y108.83 F6000
G1 E1.6 F2400
;TYPE:Perimeter
G1 F1200
G1 X112.719 Y110.136 E.03849
G1 X110.765 Y112.91 E.10001
G1 X109.364 Y112.91 E.04129
G1 X109.364 Y110.605 E.06794
G1 X108.884 Y110.605 E.01415
G1 X108.884 Y108.83 E.05231
G1 X109.364 Y108.83 E.01415
G1 X109.364 Y107.979 E.02508
G1 X111.175 Y107.979 E.05338
G1 X111.175 Y108.83 E.02508
G1 X112.659 Y108.83 E.04374
G1 X110.798 Y108.356 F6000
;TYPE:External perimeter
G1 F1200
G1 X110.798 Y109.207 E.02508
G1 X112.342 Y109.207 E.04551
G1 X112.342 Y110.016 E.02384
G1 X110.569 Y112.533 E.09074
G1 X109.742 Y112.533 E.02437
G1 X109.742 Y110.228 E.06794
G1 X109.261 Y110.228 E.01418
G1 X109.261 Y109.207 E.03009
G1 X109.742 Y109.207 E.01418
G1 X109.742 Y108.356 E.02508
G1 X110.738 Y108.356 E.02936
G1 X111.188 Y108.266 F6000
G1 E-1.12 F2400
;WIPE_START
G1 F4800
G1 X110.798 Y109.207 E-.40523
G1 X110.955 Y109.207 E-.07477
;WIPE_END
G1 X106.878 Y108.088 F6000
G1 E1.6 F2400
;TYPE:Perimeter
G1 F1200
G1 X107.175 Y108.27 E.01027
G1 X107.439 Y108.535 E.01102
G1 X107.588 Y108.752 E.00776
G1 X107.773 Y109.161 E.01323
G1 X107.887 Y109.631 E.01425
G1 X107.94 Y110.145 E.01523
G1 X107.937 Y110.759 E.0181
G1 X107.886 Y111.23 E.01396
G1 X107.783 Y111.655 E.01289
G1 X107.616 Y112.037 E.01229
G1 X107.379 Y112.374 E.01214
G1 X107.061 Y112.655 E.01251
G1 X106.669 Y112.844 E.01283
G1 X106.25 Y112.922 E.01256
G1 X105.876 Y112.916 E.01102
G1 X105.466 Y112.821 E.0124
G1 X105.091 Y112.622 E.01251
G1 X104.785 Y112.336 E.01234
G1 X104.562 Y111.994 E.01203
G1 X104.41 Y111.621 E.01187
G1 X104.33 Y111.288 E.01009
G1 X104.322 Y111.176 E.00331
G1 X104.15 Y111.45 E.00953
G1 X103.129 Y112.91 E.05251
G1 X101.727 Y112.91 E.04132
G1 X101.727 Y112.864 E.00136
G1 X98.226 Y112.864 E.10319
G1 X98.226 Y111.585 E.0377
G1 X98.615 Y111.121 E.01785
G1 X98.913 Y110.671 E.01591
G1 X99.123 Y110.278 E.01313
G1 X99.355 Y109.722 E.01776
G1 X99.439 Y109.461 E.00808
G1 X99.531 Y109.06 E.01213
G1 X99.654 Y107.979 E.03207
G1 X101.441 Y107.979 E.05267
G1 X101.396 Y108.83 E.02512
G1 X101.727 Y108.83 E.00976
G1 X101.727 Y107.979 E.02508
G1 X103.538 Y107.979 E.05338
G1 X103.538 Y108.836 E.02526
G1 X104.079 Y108.867 E.01597
G1 X104.597 Y108.957 E.0155
G1 X104.625 Y108.827 E.00392
G1 X104.74 Y108.62 E.00698
G1 X104.993 Y108.323 E.0115
G1 X105.252 Y108.122 E.00966
G1 X105.652 Y107.968 E.01263
G1 X105.984 Y107.919 E.00989
