; generated by PrusaSlicer 2.6.0-alpha4+MacOS-x64 on 2023-04-17 at 22:24:03 UTC

; 

; external perimeters extrusion width = 0.40mm
; perimeters extrusion width = 0.40mm
; infill extrusion width = 0.40mm
; solid infill extrusion width = 0.40mm
; top infill extrusion width = 0.40mm
; first layer extrusion width = 0.40mm

M201 X400 Y400 Z100 E5000 ; sets maximum accelerations, mm/sec^2
M203 X48 Y48 Z10 E60 ; sets maximum feedrates, mm / sec
M204 P400 R1000 T400 ; sets acceleration (P, T) and retract acceleration (R), mm/sec^2
M205 X8.00 Y8.00 Z0.40 E5.00 ; sets the jerk limits, mm/sec
M205 S0 T0 ; sets the minimum extruding and travel feed rate, mm/sec
M107
;TYPE:Custom
; Ender 3 Custom Start G-code
G92 E0 ; Reset Extruder

M140 S50 ; set bed temp
M190 S50 ; wait for bed temp

G28 ; Home all axes
M104 S205 ; set extruder temp 
BED_MESH_CALIBRATE AREA_START=85.8214,125.814 AREA_END=145.035,145.028

G1 Z2.0 F3000 ; Move Z Axis up little to prevent scratching of Heat Bed
M109 S205 ; wait for extruder temp
G1 X0.1 Y20 Z0.3 F5000.0 ; Move to start position

G1 X0.1 Y200.0 Z0.3 F1500.0 E15 ; Draw the first line
G1 X0.4 Y200.0 Z0.3 F5000.0 ; Move to side a little
G1 X0.4 Y20 Z0.3 F1500.0 E30 ; Draw the second line
G92 E0 ; Reset Extruder
G1 Z2.0 F3000 ; Move Z Axis up little to prevent scratching of Heat Bed
G1 X5 Y20 Z0.3 F5000.0 ; Move over to prevent blob squish
G21 ; set units to millimeters
G90 ; use absolute coordinates
M83 ; use relative distances for extrusion
; Filament gcode
M107
;LAYER_CHANGE
;Z:0.2
;HEIGHT:0.2
TIMELAPSE_TAKE_FRAME
;BEFORE_LAYER_CHANGE
G92 E0
;0.2


G1 E-5 F3600
G1 Z.2 F4800
;AFTER_LAYER_CHANGE
;0.2
G1 X87.511 Y127.089
G1 E5 F2400
M204 S400
;TYPE:Skirt/Brim
;WIDTH:0.4
G1 F1440
G1 X89.148 Y126.182 E.05557
G1 X90.428 Y125.993 E.03842
G1 X140.428 Y125.993 E1.48456
G1 X142.258 Y126.388 E.05559
G1 X143.76 Y127.504 E.05556
G1 X144.668 Y129.141 E.05558
G1 X144.857 Y130.421 E.03842
G1 X144.857 Y140.421 E.29691
G1 X144.461 Y142.251 E.05559
G1 X143.345 Y143.753 E.05556
G1 X141.708 Y144.661 E.05558
G1 X140.428 Y144.85 E.03842
G1 X90.428 Y144.85 E1.48456
G1 X88.599 Y144.454 E.05556
G1 X87.096 Y143.338 E.05558
G1 X86.189 Y141.701 E.05557
G1 X86 Y140.421 E.03842
G1 X86 Y130.421 E.29691
G1 X86.395 Y128.592 E.05556
G1 X87.475 Y127.138 E.05378
G1 X87.774 Y127.372 F4800
G1 F1440
G1 X87.861 Y127.262 E.00416
G1 X89.468 Y126.465 E.05326
G1 X90.428 Y126.35 E.02871
G1 X140.428 Y126.35 E1.48456
G1 X142.178 Y126.745 E.05327
G1 X143.588 Y127.854 E.05326
G1 X144.385 Y129.461 E.05326
G1 X144.5 Y130.421 E.02871
G1 X144.5 Y140.421 E.29691
G1 X144.104 Y142.171 E.05327
G1 X142.996 Y143.581 E.05324
G1 X141.389 Y144.378 E.05326
G1 X140.428 Y144.493 E.02874
G1 X90.428 Y144.493 E1.48456
G1 X88.679 Y144.097 E.05324
G1 X87.269 Y142.989 E.05324
G1 X86.472 Y141.382 E.05326
G1 X86.357 Y140.421 E.02874
G1 X86.357 Y130.421 E.29691
G1 X86.752 Y128.672 E.05324
G1 X87.737 Y127.419 E.04732
G1 X88.026 Y127.662 F4800
G1 F1440
G1 X88.209 Y127.443 E.00847
G1 X90.428 Y126.707 E.06941
G1 X140.428 Y126.707 E1.48456
G1 X142.094 Y127.102 E.05084
G1 X143.406 Y128.202 E.05083
G1 X144.142 Y130.421 E.06941
G1 X144.142 Y140.421 E.29691
G1 X143.748 Y142.087 E.05083
G1 X142.648 Y143.399 E.05083
G1 X140.428 Y144.135 E.06944
G1 X90.428 Y144.135 E1.48456
G1 X88.762 Y143.741 E.05083
G1 X87.45 Y142.641 E.05083
G1 X86.714 Y140.421 E.06944
G1 X86.714 Y130.421 E.29691
G1 X87.109 Y128.755 E.05084
G1 X87.987 Y127.708 E.04057
G1 X88.264 Y127.958 F4800
G1 F1440
G1 X88.555 Y127.636 E.01289
G1 X90.428 Y127.064 E.05815
G1 X140.428 Y127.064 E1.48456
G1 X142.006 Y127.458 E.04829
G1 X143.214 Y128.548 E.04831
G1 X143.785 Y130.421 E.05814
G1 X143.785 Y140.421 E.29691
G1 X143.391 Y141.999 E.04829
G1 X142.302 Y143.207 E.04829
G1 X140.428 Y143.778 E.05817
G1 X90.428 Y143.778 E1.48456
G1 X88.85 Y143.384 E.04829
G1 X87.643 Y142.295 E.04827
G1 X87.071 Y140.421 E.05818
G1 X87.071 Y130.421 E.29691
G1 X87.465 Y128.843 E.04829
G1 X88.224 Y128.002 E.03364
; printing object Shape-Box id:0 copy 0
G1 E-3.5 F3600
;WIPE_START
G1 F3840
G1 X88.555 Y127.636 E-.4395
G1 X89.694 Y127.288 E-1.0605
;WIPE_END
G1 X139.414 Y139.407 F4800
G1 E5 F2400
;TYPE:Perimeter
;WIDTH:0.399999
G1 F1440
G1 X91.442 Y139.407 E1.42435
G1 X91.442 Y131.435 E.2367
G1 X139.414 Y131.435 E1.42435
G1 X139.414 Y139.347 E.23492
G1 X139.771 Y139.764 F4800
G1 F1440
G1 X91.085 Y139.764 E1.44555
G1 X91.085 Y131.078 E.2579
G1 X139.771 Y131.078 E1.44555
G1 X139.771 Y139.704 E.25612
G1 X140.128 Y140.121 F4800
;TYPE:External perimeter
G1 F1440
G1 X90.728 Y140.121 E1.46675
G1 X90.728 Y130.721 E.2791
G1 X140.128 Y130.721 E1.46675
G1 X140.128 Y140.061 E.27732
G1 X139.729 Y140.096 F4800
G1 E-3.5 F3600
;WIPE_START
G1 F3840
G1 X138.444 Y140.063 E-1.5
;WIPE_END
G1 X138.578 Y131.55 F4800
G1 E5 F2400
;TYPE:Solid infill
;WIDTH:0.400058
G1 F1440
G1 X139.139 Y132.111 E.02356
G1 X139.139 Y132.616 E.015
G1 X138.234 Y131.71 E.03803
G1 X137.728 Y131.71 E.01503
G1 X139.139 Y133.121 E.05926
G1 X139.139 Y133.626 E.015
G1 X137.223 Y131.71 E.08047
G1 X136.718 Y131.71 E.015
G1 X139.139 Y134.131 E.10167
G1 X139.139 Y134.636 E.015
G1 X136.213 Y131.71 E.12288
G1 X135.708 Y131.71 E.015
G1 X139.139 Y135.141 E.14409
G1 X139.139 Y135.646 E.015
G1 X135.203 Y131.71 E.1653
G1 X134.698 Y131.71 E.015
G1 X139.139 Y136.152 E.18653
G1 X139.139 Y136.657 E.015
G1 X134.193 Y131.71 E.20774
G1 X133.688 Y131.71 E.015
G1 X139.139 Y137.162 E.22894
G1 X139.139 Y137.667 E.015
G1 X133.183 Y131.71 E.25015
G1 X132.678 Y131.71 E.015
G1 X139.139 Y138.172 E.27136
G1 X139.139 Y138.677 E.015
G1 X132.173 Y131.71 E.29257
G1 X131.668 Y131.71 E.015
G1 X139.089 Y139.132 E.31168
G1 X138.584 Y139.132 E.015
G1 X131.163 Y131.71 E.31168
G1 X130.657 Y131.71 E.01503
G1 X138.079 Y139.132 E.3117
G1 X137.574 Y139.132 E.015
G1 X130.152 Y131.71 E.3117
G1 X129.647 Y131.71 E.015
G1 X137.069 Y139.132 E.3117
G1 X136.564 Y139.132 E.015
G1 X129.142 Y131.71 E.3117
G1 X128.637 Y131.71 E.015
G1 X136.059 Y139.132 E.3117
G1 X135.554 Y139.132 E.015
G1 X128.132 Y131.71 E.3117
G1 X127.627 Y131.71 E.015
G1 X135.049 Y139.132 E.3117
G1 X134.544 Y139.132 E.015
G1 X127.122 Y131.71 E.3117
G1 X126.617 Y131.71 E.015
G1 X134.039 Y139.132 E.3117
G1 X133.534 Y139.132 E.015
G1 X126.112 Y131.71 E.3117
G1 X125.607 Y131.71 E.015
G1 X133.029 Y139.132 E.3117
G1 X132.524 Y139.132 E.015
G1 X125.102 Y131.71 E.3117
G1 X124.597 Y131.71 E.015
G1 X132.018 Y139.132 E.31168
G1 X131.513 Y139.132 E.015
G1 X124.092 Y131.71 E.31168
G1 X123.587 Y131.71 E.015
G1 X131.008 Y139.132 E.31168
G1 X130.503 Y139.132 E.015
G1 X123.081 Y131.71 E.3117
G1 X122.576 Y131.71 E.015
G1 X129.998 Y139.132 E.3117
G1 X129.493 Y139.132 E.015
G1 X122.071 Y131.71 E.3117
G1 X121.566 Y131.71 E.015
G1 X128.988 Y139.132 E.3117
G1 X128.483 Y139.132 E.015
G1 X121.061 Y131.71 E.3117
G1 X120.556 Y131.71 E.015
G1 X127.978 Y139.132 E.3117
G1 X127.473 Y139.132 E.015
G1 X120.051 Y131.71 E.3117
G1 X119.546 Y131.71 E.015
G1 X126.968 Y139.132 E.3117
G1 X126.463 Y139.132 E.015
G1 X119.041 Y131.71 E.3117
G1 X118.536 Y131.71 E.015
G1 X125.958 Y139.132 E.3117
G1 X125.453 Y139.132 E.015
G1 X118.031 Y131.71 E.3117
G1 X117.526 Y131.71 E.015
G1 X124.947 Y139.132 E.31168
G1 X124.442 Y139.132 E.015
G1 X117.021 Y131.71 E.31168
G1 X116.516 Y131.71 E.015
G1 X123.937 Y139.132 E.31168
G1 X123.432 Y139.132 E.015
G1 X116.01 Y131.71 E.3117
G1 X115.505 Y131.71 E.015
G1 X122.927 Y139.132 E.3117
G1 X122.422 Y139.132 E.015
G1 X115 Y131.71 E.3117
G1 X114.495 Y131.71 E.015
G1 X121.917 Y139.132 E.3117
G1 X121.412 Y139.132 E.015
G1 X113.99 Y131.71 E.3117
G1 X113.485 Y131.71 E.015
G1 X120.907 Y139.132 E.3117
G1 X120.402 Y139.132 E.015
G1 X112.98 Y131.71 E.3117
G1 X112.475 Y131.71 E.015
G1 X119.897 Y139.132 E.3117
G1 X119.392 Y139.132 E.015
G1 X111.97 Y131.71 E.3117
G1 X111.465 Y131.71 E.015
G1 X118.887 Y139.132 E.3117
G1 X118.382 Y139.132 E.015
G1 X110.96 Y131.71 E.3117
G1 X110.455 Y131.71 E.015
G1 X117.877 Y139.132 E.3117
G1 X117.371 Y139.132 E.01503
G1 X109.95 Y131.71 E.31168
G1 X109.445 Y131.71 E.015
G1 X116.866 Y139.132 E.31168
G1 X116.361 Y139.132 E.015
G1 X108.939 Y131.71 E.3117
G1 X108.434 Y131.71 E.015
G1 X115.856 Y139.132 E.3117
G1 X115.351 Y139.132 E.015
G1 X107.929 Y131.71 E.3117
G1 X107.424 Y131.71 E.015
G1 X114.846 Y139.132 E.3117
G1 X114.341 Y139.132 E.015
G1 X106.919 Y131.71 E.3117
G1 X106.414 Y131.71 E.015
G1 X113.836 Y139.132 E.3117
G1 X113.331 Y139.132 E.015
G1 X105.909 Y131.71 E.3117
G1 X105.404 Y131.71 E.015
G1 X112.826 Y139.132 E.3117
G1 X112.321 Y139.132 E.015
G1 X104.899 Y131.71 E.3117
G1 X104.394 Y131.71 E.015
G1 X111.816 Y139.132 E.3117
G1 X111.311 Y139.132 E.015
G1 X103.889 Y131.71 E.3117
G1 X103.384 Y131.71 E.015
G1 X110.806 Y139.132 E.3117
G1 X110.3 Y139.132 E.01503
G1 X102.879 Y131.71 E.31168
G1 X102.374 Y131.71 E.015
G1 X109.795 Y139.132 E.31168
G1 X109.29 Y139.132 E.015
G1 X101.869 Y131.71 E.31168
G1 X101.363 Y131.71 E.01503
G1 X108.785 Y139.132 E.3117
G1 X108.28 Y139.132 E.015
G1 X100.858 Y131.71 E.3117
G1 X100.353 Y131.71 E.015
G1 X107.775 Y139.132 E.3117
G1 X107.27 Y139.132 E.015
G1 X99.848 Y131.71 E.3117
G1 X99.343 Y131.71 E.015
G1 X106.765 Y139.132 E.3117
G1 X106.26 Y139.132 E.015
G1 X98.838 Y131.71 E.3117
G1 X98.333 Y131.71 E.015
G1 X105.755 Y139.132 E.3117
G1 X105.25 Y139.132 E.015
G1 X97.828 Y131.71 E.3117
G1 X97.323 Y131.71 E.015
G1 X104.745 Y139.132 E.3117
G1 X104.24 Y139.132 E.015
G1 X96.818 Y131.71 E.3117
G1 X96.313 Y131.71 E.015
G1 X103.735 Y139.132 E.3117
G1 X103.23 Y139.132 E.015
G1 X95.808 Y131.71 E.3117
G1 X95.303 Y131.71 E.015
G1 X102.724 Y139.132 E.31168
G1 X102.219 Y139.132 E.015
G1 X94.798 Y131.71 E.31168
G1 X94.292 Y131.71 E.01503
G1 X101.714 Y139.132 E.3117
G1 X101.209 Y139.132 E.015
G1 X93.787 Y131.71 E.3117
G1 X93.282 Y131.71 E.015
G1 X100.704 Y139.132 E.3117
G1 X100.199 Y139.132 E.015
G1 X92.777 Y131.71 E.3117
G1 X92.272 Y131.71 E.015
G1 X99.694 Y139.132 E.3117
G1 X99.189 Y139.132 E.015
G1 X91.767 Y131.71 E.3117
G1 X91.717 Y131.71 E.00148
G1 X91.717 Y132.166 E.01354
G1 X98.684 Y139.132 E.29257
G1 X98.179 Y139.132 E.015
G1 X91.717 Y132.671 E.27136
G1 X91.717 Y133.176 E.015
G1 X97.674 Y139.132 E.25015
G1 X97.169 Y139.132 E.015
G1 X91.717 Y133.681 E.22894
G1 X91.717 Y134.186 E.015
G1 X96.664 Y139.132 E.20774
G1 X96.159 Y139.132 E.015
G1 X91.717 Y134.691 E.18653
G1 X91.717 Y135.196 E.015
G1 X95.653 Y139.132 E.1653
G1 X95.148 Y139.132 E.015
G1 X91.717 Y135.701 E.14409
G1 X91.717 Y136.206 E.015
G1 X94.643 Y139.132 E.12288
G1 X94.138 Y139.132 E.015
G1 X91.717 Y136.711 E.10167
G1 X91.717 Y137.216 E.015
G1 X93.633 Y139.132 E.08047
G1 X93.128 Y139.132 E.015
G1 X91.717 Y137.721 E.05926
G1 X91.717 Y138.227 E.01503
G1 X92.623 Y139.132 E.03803
G1 X92.118 Y139.132 E.015
G1 X91.557 Y138.571 E.02356
; stop printing object Shape-Box id:0 copy 0
M106 S255
;LAYER_CHANGE
;Z:0.4
;HEIGHT:0.2
TIMELAPSE_TAKE_FRAME
;BEFORE_LAYER_CHANGE
G92 E0
;0.4


G1 E-3.5 F3600
;WIPE_START
G1 F3840
G1 X92.118 Y139.132 E-.7066
G1 X92.623 Y139.132 E-.44977
G1 X92.35 Y138.859 E-.34363
;WIPE_END
G1 Z.4 F4800
;AFTER_LAYER_CHANGE
;0.4
; printing object Shape-Box id:0 copy 0
G1 X139.514 Y139.507
G1 E5 F2400
;TYPE:Perimeter
;WIDTH:0.399999
G1 X91.342 Y139.507 E1.43029
G1 X91.342 Y131.335 E.24264
G1 X139.514 Y131.335 E1.43029
G1 X139.514 Y139.447 E.24086
G1 X139.871 Y139.864 F4800
G1 F2400
G1 X90.985 Y139.864 E1.45149
G1 X90.985 Y130.978 E.26384
G1 X139.871 Y130.978 E1.45149
G1 X139.871 Y139.804 E.26205
G1 X140.228 Y140.221 F4800
;TYPE:External perimeter
G1 F1500
G1 X90.628 Y140.221 E1.47269
G1 X90.628 Y130.621 E.28504
G1 X140.228 Y130.621 E1.47269
G1 X140.228 Y140.161 E.28325
G1 X139.829 Y140.196 F4800
G1 X138.672 Y139.393
;TYPE:Solid infill
;WIDTH:0.402629
G1 F2400
G1 X139.239 Y138.826 E.02398
G1 X139.239 Y138.317 E.01522
G1 X138.324 Y139.232 E.0387
G1 X137.816 Y139.232 E.01519
G1 X139.239 Y137.809 E.06019
G1 X139.239 Y137.3 E.01522
G1 X137.307 Y139.232 E.08172
G1 X136.798 Y139.232 E.01522
G1 X139.239 Y136.791 E.10325
G1 X139.239 Y136.283 E.01519
G1 X136.29 Y139.232 E.12474
G1 X135.781 Y139.232 E.01522
G1 X139.239 Y135.774 E.14627
G1 X139.239 Y135.265 E.01522
G1 X135.272 Y139.232 E.1678
G1 X134.763 Y139.232 E.01522
G1 X139.239 Y134.757 E.18931
G1 X139.239 Y134.248 E.01522
G1 X134.255 Y139.232 E.21082
G1 X133.746 Y139.232 E.01522
G1 X139.239 Y133.739 E.23235
G1 X139.239 Y133.23 E.01522
G1 X133.237 Y139.232 E.25388
G1 X132.729 Y139.232 E.01519
G1 X139.239 Y132.722 E.27537
G1 X139.239 Y132.213 E.01522
G1 X132.22 Y139.232 E.2969
G1 X131.711 Y139.232 E.01522
G1 X139.239 Y131.704 E.31843
G1 X139.239 Y131.61 E.00281
G1 X138.824 Y131.61 E.01241
G1 X131.203 Y139.232 E.32238
G1 X130.694 Y139.232 E.01522
G1 X138.316 Y131.61 E.3224
G1 X137.807 Y131.61 E.01522
G1 X130.185 Y139.232 E.3224
G1 X129.676 Y139.232 E.01522
G1 X137.298 Y131.61 E.3224
G1 X136.79 Y131.61 E.01519
G1 X129.168 Y139.232 E.3224
G1 X128.659 Y139.232 E.01522
G1 X136.281 Y131.61 E.3224
G1 X135.772 Y131.61 E.01522
G1 X128.15 Y139.232 E.3224
G1 X127.642 Y139.232 E.01519
G1 X135.263 Y131.61 E.32238
G1 X134.755 Y131.61 E.01519
G1 X127.133 Y139.232 E.3224
G1 X126.624 Y139.232 E.01522
G1 X134.246 Y131.61 E.3224
G1 X133.737 Y131.61 E.01522
G1 X126.115 Y139.232 E.3224
G1 X125.607 Y139.232 E.01519
G1 X133.229 Y131.61 E.3224
G1 X132.72 Y131.61 E.01522
G1 X125.098 Y139.232 E.3224
G1 X124.589 Y139.232 E.01522
G1 X132.211 Y131.61 E.3224
G1 X131.702 Y131.61 E.01522
G1 X124.081 Y139.232 E.32238
G1 X123.572 Y139.232 E.01522
G1 X131.194 Y131.61 E.3224
G1 X130.685 Y131.61 E.01522
G1 X123.063 Y139.232 E.3224
G1 X122.555 Y139.232 E.01519
G1 X130.176 Y131.61 E.32238
G1 X129.668 Y131.61 E.01519
G1 X122.046 Y139.232 E.3224
G1 X121.537 Y139.232 E.01522
G1 X129.159 Y131.61 E.3224
G1 X128.65 Y131.61 E.01522
G1 X121.028 Y139.232 E.3224
G1 X120.52 Y139.232 E.01519
G1 X128.142 Y131.61 E.3224
G1 X127.633 Y131.61 E.01522
G1 X120.011 Y139.232 E.3224
G1 X119.502 Y139.232 E.01522
G1 X127.124 Y131.61 E.3224
G1 X126.615 Y131.61 E.01522
G1 X118.994 Y139.232 E.32238
G1 X118.485 Y139.232 E.01522
G1 X126.107 Y131.61 E.3224
G1 X125.598 Y131.61 E.01522
G1 X117.976 Y139.232 E.3224
G1 X117.468 Y139.232 E.01519
G1 X125.089 Y131.61 E.32238
G1 X124.581 Y131.61 E.01519
G1 X116.959 Y139.232 E.3224
G1 X116.45 Y139.232 E.01522
G1 X124.072 Y131.61 E.3224
G1 X123.563 Y131.61 E.01522
G1 X115.941 Y139.232 E.3224
G1 X115.433 Y139.232 E.01519
G1 X123.054 Y131.61 E.32238
G1 X122.546 Y131.61 E.01519
G1 X114.924 Y139.232 E.3224
G1 X114.415 Y139.232 E.01522
G1 X122.037 Y131.61 E.3224
G1 X121.528 Y131.61 E.01522
G1 X113.907 Y139.232 E.32238
G1 X113.398 Y139.232 E.01522
G1 X121.02 Y131.61 E.3224
G1 X120.511 Y131.61 E.01522
G1 X112.889 Y139.232 E.3224
G1 X112.38 Y139.232 E.01522
G1 X120.002 Y131.61 E.3224
G1 X119.494 Y131.61 E.01519
G1 X111.872 Y139.232 E.3224
G1 X111.363 Y139.232 E.01522
G1 X118.985 Y131.61 E.3224
G1 X118.476 Y131.61 E.01522
G1 X110.854 Y139.232 E.3224
G1 X110.346 Y139.232 E.01519
G1 X117.967 Y131.61 E.32238
G1 X117.459 Y131.61 E.01519
G1 X109.837 Y139.232 E.3224
G1 X109.328 Y139.232 E.01522
G1 X116.95 Y131.61 E.3224
G1 X116.441 Y131.61 E.01522
G1 X108.82 Y139.232 E.32238
G1 X108.311 Y139.232 E.01522
G1 X115.933 Y131.61 E.3224
G1 X115.424 Y131.61 E.01522
G1 X107.802 Y139.232 E.3224
G1 X107.293 Y139.232 E.01522
G1 X114.915 Y131.61 E.3224
G1 X114.406 Y131.61 E.01522
G1 X106.785 Y139.232 E.32238
G1 X106.276 Y139.232 E.01522
G1 X113.898 Y131.61 E.3224
G1 X113.389 Y131.61 E.01522
G1 X105.767 Y139.232 E.3224
G1 X105.259 Y139.232 E.01519
G1 X112.88 Y131.61 E.32238
G1 X112.372 Y131.61 E.01519
G1 X104.75 Y139.232 E.3224
G1 X104.241 Y139.232 E.01522
G1 X111.863 Y131.61 E.3224
G1 X111.354 Y131.61 E.01522
G1 X103.732 Y139.232 E.3224
G1 X103.224 Y139.232 E.01519
G1 X110.846 Y131.61 E.3224
G1 X110.337 Y131.61 E.01522
G1 X102.715 Y139.232 E.3224
G1 X102.206 Y139.232 E.01522
G1 X109.828 Y131.61 E.3224
G1 X109.319 Y131.61 E.01522
G1 X101.698 Y139.232 E.32238
G1 X101.189 Y139.232 E.01522
G1 X108.811 Y131.61 E.3224
G1 X108.302 Y131.61 E.01522
G1 X100.68 Y139.232 E.3224
G1 X100.172 Y139.232 E.01519
G1 X107.793 Y131.61 E.32238
G1 X107.285 Y131.61 E.01519
G1 X99.663 Y139.232 E.3224
