; generated by PrusaSlicer 2.6.1+win64 on 2023-09-29 at 12:20:06 UTC

; 

; external perimeters extrusion width = 0.42mm
; perimeters extrusion width = 0.44mm
; infill extrusion width = 0.44mm
; solid infill extrusion width = 0.44mm
; top infill extrusion width = 0.40mm
; support material extrusion width = 0.36mm
; first layer extrusion width = 0.42mm

;TYPE:Custom
; Ender 3 Custom Start G-code
G92 E0 ; Reset Extruder

M140 S75 ; set bed temp
M104 S230 ; set extruder temp
M109 S230 ; wait for extruder temp
M190 S75 ; wait for bed temp

G28 ; Home all axes
M104 S230 ; set extruder temp 
BED_MESH_CALIBRATE AREA_START=63.3949,57.5402 AREA_END=166.351,190.873

G1 Z2.0 F3000 ; Move Z Axis up little to prevent scratching of Heat Bed
M109 S230 ; wait for extruder temp
G1 X0.1 Y20 Z0.3 F5000.0 ; Move to start position

G1 X0.1 Y200.0 Z0.3 F1500.0 E15 ; Draw the first line
G1 X0.4 Y200.0 Z0.3 F5000.0 ; Move to side a little
G1 X0.4 Y20 Z0.3 F1500.0 E30 ; Draw the second line
G92 E0 ; Reset Extruder
G1 Z2.0 F3000 ; Move Z Axis up little to prevent scratching of Heat Bed
G1 X5 Y20 Z0.3 F5000.0 ; Move over to prevent blob squish
G21 ; set units to millimeters
G90 ; use absolute coordinates
M83 ; use relative distances for extrusion
; Filament gcode
M107
;LAYER_CHANGE
;Z:0.2
;HEIGHT:0.2
;BEFORE_LAYER_CHANGE
G92 E0
;0.2


G1 E-1.6 F2400
G1 Z.2 F6000
;AFTER_LAYER_CHANGE
;0.2
G1 X66.46 Y59.934
G1 E1.6 F2400
M204 S500
;TYPE:Skirt/Brim
;WIDTH:0.42
G1 F1080
G1 X67.465 Y59.131 E.03791
G1 X68.135 Y58.724 E.0231
G1 X69.29 Y58.208 E.03728
G1 X71.004 Y57.799 E.05194
G1 X72.493 Y57.73 E.04393
G1 X163.04 Y57.971 E2.6687
G1 X164.559 Y58.368 E.04627
G1 X165.694 Y59.453 E.04628
G1 X166.163 Y61.11 E.05076
G1 X166.043 Y106.11 E1.32629
G1 X165.651 Y107.618 E.04592
G1 X120.554 Y189.075 E2.74416
G1 X119.471 Y190.212 E.04628
G1 X117.818 Y190.684 E.05067
G1 X91.381 Y190.684 E.77918
G1 X90.465 Y190.547 E.0273
G1 X65.799 Y183.003 E.76022
G1 X64.46 Y182.182 E.04629
G1 X63.689 Y180.814 E.04628
G1 X63.583 Y180 E.02419
G1 X63.898 Y65.593 E3.37193
G1 X64.039 Y64.332 E.0374
G1 X64.225 Y63.568 E.02318
G1 X64.677 Y62.38 E.03746
G1 X65.317 Y61.268 E.03781
G1 X66.421 Y59.98 E.05
G1 X66.704 Y60.222 F6000
G1 F1080
G1 X67.66 Y59.453 E.03616
G1 X68.331 Y59.047 E.02311
G1 X69.434 Y58.557 E.03557
G1 X71.033 Y58.175 E.04845
G1 X72.492 Y58.107 E.04305
G1 X163.039 Y58.348 E2.6687
G1 X164.455 Y58.744 E.04334
G1 X165.466 Y59.813 E.04337
G1 X165.786 Y61.109 E.03934
G1 X165.666 Y106.109 E1.32629
G1 X165.322 Y107.435 E.04037
G1 X120.225 Y188.892 E2.74416
G1 X119.192 Y189.939 E.04335
G1 X117.818 Y190.307 E.04192
G1 X91.381 Y190.307 E.77918
G1 X90.576 Y190.187 E.02399
G1 X65.909 Y182.642 E.76026
G1 X64.669 Y181.852 E.04333
G1 X63.96 Y180.001 E.05842
G1 X64.274 Y65.623 E3.37108
G1 X64.406 Y64.421 E.03564
G1 X64.591 Y63.657 E.02317
G1 X65.026 Y62.525 E.03574
G1 X65.638 Y61.466 E.03605
G1 X66.665 Y60.268 E.04651
G1 X66.948 Y60.51 F6000
G1 F1080
G1 X67.856 Y59.776 E.03441
G1 X68.526 Y59.369 E.0231
G1 X69.578 Y58.905 E.03389
G1 X71.062 Y58.551 E.04497
G1 X72.492 Y58.484 E.04219
G1 X163.038 Y58.725 E2.66868
G1 X164.344 Y59.12 E.04021
G1 X165.217 Y60.168 E.0402
G1 X165.409 Y61.108 E.02828
G1 X165.289 Y106.108 E1.32629
G1 X164.992 Y107.253 E.03486
G1 X119.895 Y188.708 E2.74411
G1 X118.918 Y189.66 E.0402
G1 X117.818 Y189.93 E.03338
G1 X91.381 Y189.93 E.77918
G1 X90.686 Y189.826 E.02071
G1 X66.019 Y182.282 E.76025
G1 X64.884 Y181.525 E.04021
G1 X64.338 Y180.002 E.04768
G1 X64.649 Y65.654 E3.3702
G1 X64.772 Y64.51 E.03391
G1 X64.958 Y63.746 E.02318
G1 X65.374 Y62.67 E.034
G1 X65.959 Y61.664 E.0343
G1 X66.908 Y60.556 E.043
; printing object Stand.STL id:0 copy 0
G1 E-1.12 F2400
;WIPE_START
G1 F4800
G1 X67.688 Y59.914 E-.48
;WIPE_END
G1 X98.314 Y74.874 F6000
G1 E1.6 F2400
;TYPE:Perimeter
G1 F1080
G1 X98.849 Y73.996 E.0303
G1 X99.498 Y73.172 E.03091
G1 X100.241 Y72.434 E.03087
G1 X101.068 Y71.789 E.03091
G1 X101.966 Y71.248 E.0309
G1 X102.925 Y70.818 E.03098
G1 X103.928 Y70.51 E.03092
G1 X104.962 Y70.324 E.03096
G1 X105.978 Y70.265 E.03
G1 X145.029 Y70.369 E1.15096
G1 X146.053 Y70.433 E.03024
G1 X147.086 Y70.625 E.03097
G1 X148.087 Y70.939 E.03092
G1 X149.044 Y71.374 E.03098
G1 X149.94 Y71.919 E.03091
G1 X150.763 Y72.568 E.03089
G1 X151.502 Y73.31 E.03086
G1 X152.149 Y74.138 E.03097
G1 X152.688 Y75.037 E.03089
G1 X153.117 Y75.996 E.03096
G1 X153.426 Y76.998 E.0309
G1 X153.612 Y78.032 E.03096
G1 X153.671 Y79.056 E.03023
G1 X153.612 Y101.275 E.65486
G1 X153.562 Y102.163 E.02621
G1 X153.419 Y103.059 E.02674
G1 X153.182 Y103.938 E.02683
G1 X152.853 Y104.787 E.02684
G1 X152.445 Y105.58 E.02628
G1 X113.248 Y173.06 E2.30002
G1 X112.658 Y173.944 E.03132
G1 X111.952 Y174.759 E.03178
G1 X111.146 Y175.487 E.03201
G1 X110.255 Y176.104 E.03194
G1 X109.297 Y176.607 E.03189
G1 X108.286 Y176.986 E.03182
G1 X107.232 Y177.24 E.03195
G1 X106.155 Y177.357 E.03193
G1 X105.073 Y177.338 E.03189
G1 X104.003 Y177.19 E.03184
G1 X102.955 Y176.907 E.03199
G1 X101.955 Y176.494 E.03189
G1 X101.015 Y175.964 E.0318
G1 X100.142 Y175.318 E.03201
G1 X99.363 Y174.569 E.03185
G1 X98.677 Y173.731 E.03192
G1 X98.105 Y172.812 E.0319
G1 X97.652 Y171.832 E.03182
G1 X97.32 Y170.799 E.03198
G1 X97.123 Y169.734 E.03192
G1 X97.06 Y168.676 E.03124
G1 X97.299 Y78.906 E2.6458
G1 X97.363 Y77.882 E.03024
G1 X97.555 Y76.85 E.03094
G1 X97.868 Y75.849 E.03091
G1 X98.287 Y74.927 E.02985
G1 X98.637 Y75.068 F6000
;TYPE:External perimeter
G1 F1080
G1 X99.159 Y74.211 E.02958
G1 X99.78 Y73.424 E.02955
G1 X100.49 Y72.717 E.02953
G1 X101.281 Y72.1 E.02957
G1 X102.141 Y71.583 E.02957
G1 X103.058 Y71.172 E.02962
G1 X104.017 Y70.877 E.02957
G1 X105.006 Y70.699 E.02962
G1 X105.989 Y70.643 E.02902
G1 X145.017 Y70.746 E1.15028
G1 X146.007 Y70.808 E.02924
G1 X146.995 Y70.992 E.02962
G1 X147.952 Y71.291 E.02955
G1 X148.868 Y71.707 E.02965
G1 X149.724 Y72.229 E.02955
G1 X150.512 Y72.85 E.02957
G1 X151.219 Y73.56 E.02953
G1 X151.838 Y74.352 E.02963
G1 X152.353 Y75.211 E.02952
G1 X152.764 Y76.129 E.02964
G1 X153.059 Y77.087 E.02954
G1 X153.237 Y78.077 E.02965
G1 X153.294 Y79.067 E.02923
G1 X153.235 Y101.264 E.65422
G1 X153.187 Y102.122 E.02533
G1 X153.05 Y102.98 E.02561
G1 X152.823 Y103.821 E.02567
G1 X152.509 Y104.633 E.02566
G1 X152.114 Y105.399 E.0254
G1 X112.927 Y172.86 E2.29939
G1 X112.357 Y173.715 E.03029
G1 X111.682 Y174.494 E.03038
G1 X110.911 Y175.191 E.03063
G1 X110.06 Y175.781 E.03052
G1 X109.143 Y176.262 E.03052
G1 X108.176 Y176.625 E.03044
G1 X107.167 Y176.868 E.03059
G1 X106.138 Y176.979 E.0305
G1 X105.102 Y176.962 E.03054
G1 X104.078 Y176.82 E.03047
G1 X103.077 Y176.549 E.03056
G1 X102.12 Y176.154 E.03051
G1 X101.22 Y175.647 E.03045
G1 X100.386 Y175.029 E.03059
G1 X99.64 Y174.313 E.03048
G1 X98.984 Y173.511 E.03054
G1 X98.437 Y172.633 E.03049
G1 X98.004 Y171.695 E.03045
G1 X97.686 Y170.707 E.03059
G1 X97.498 Y169.688 E.03054
G1 X97.437 Y168.665 E.0302
G1 X97.676 Y78.919 E2.6451
G1 X97.738 Y77.929 E.02924
G1 X97.921 Y76.941 E.02961
G1 X98.221 Y75.983 E.02959
G1 X98.612 Y75.123 E.02784
G1 X98.424 Y74.729 F6000
G1 E-1.12 F2400
;WIPE_START
G1 F4800
G1 X99.132 Y74.256 E-.48
;WIPE_END
G1 X88.707 Y65.219 F6000
G1 E1.6 F2400
;TYPE:Perimeter
G1 F1080
G1 X71.333 Y65.173 E.51207
G1 X71.029 Y179.321 E3.3643
G1 X67.404 Y179.321 E.10684
G1 X67.706 Y65.877 E3.34355
G1 X67.763 Y65.177 E.0207
G1 X67.924 Y64.518 E.01999
G1 X68.184 Y63.892 E.01998
G1 X68.539 Y63.317 E.01992
G1 X68.98 Y62.803 E.01996
G1 X69.494 Y62.365 E.0199
G1 X70.073 Y62.015 E.01994
G1 X70.699 Y61.757 E.01996
G1 X71.356 Y61.601 E.0199
G1 X72.057 Y61.547 E.02072
G1 X162.343 Y61.787 E2.66101
G1 X162.225 Y105.916 E1.30062
G1 X122.392 Y174.49 E2.33732
G1 X121.928 Y175.411 E.03039
G1 X121.575 Y176.399 E.03092
G1 X121.342 Y177.421 E.03089
G1 X121.233 Y178.465 E.03094
G1 X121.247 Y179.321 E.02523
G1 X112.275 Y179.321 E.26443
G1 X116.628 Y186.866 E.25673
G1 X92.571 Y186.866 E.70903
G1 X96.924 Y179.321 E.25673
G1 X88.404 Y179.321 E.25111
G1 X88.707 Y65.279 E3.36118
G1 X88.329 Y65.595 F6000
;TYPE:External perimeter
G1 F1080
G1 X71.709 Y65.551 E.48984
G1 X71.405 Y179.698 E3.36427
G1 X67.025 Y179.698 E.12909
G1 X67.328 Y65.861 E3.35513
G1 X67.39 Y65.116 E.02203
G1 X67.564 Y64.4 E.02172
G1 X67.847 Y63.72 E.02171
G1 X68.233 Y63.094 E.02168
G1 X68.713 Y62.535 E.02172
G1 X69.273 Y62.058 E.02168
G1 X69.902 Y61.677 E.02167
G1 X70.583 Y61.398 E.02169
G1 X71.298 Y61.227 E.02167
G1 X72.043 Y61.17 E.02202
G1 X162.721 Y61.411 E2.67257
G1 X162.602 Y106.018 E1.31471
G1 X122.724 Y174.67 E2.33997
G1 X122.275 Y175.56 E.02938
G1 X121.938 Y176.505 E.02957
G1 X121.715 Y177.482 E.02954
G1 X121.611 Y178.481 E.0296
G1 X121.627 Y179.483 E.02954
G1 X121.657 Y179.698 E.0064
G1 X112.928 Y179.698 E.25727
G1 X117.281 Y187.243 E.25673
G1 X91.918 Y187.243 E.74752
G1 X96.271 Y179.698 E.25673
G1 X88.026 Y179.698 E.24301
G1 X88.329 Y65.655 E3.36121
G1 X88.321 Y65.195 F6000
G1 E-1.12 F2400
;WIPE_START
G1 F4800
G1 X87.318 Y65.649 E-.48
;WIPE_END
G1 X162.22 Y62.669 F6000
G1 E1.6 F2400
;TYPE:Solid infill
;WIDTH:0.420635
G1 F1080
G1 X161.626 Y62.076 E.02478
G1 X161.09 Y62.074 E.01582
G1 X162.049 Y63.033 E.04004
G1 X162.047 Y63.565 E.01571
G1 X160.555 Y62.073 E.06229
G1 X160.019 Y62.071 E.01582
G1 X162.046 Y64.098 E.08463
G1 X162.045 Y64.631 E.01574
G1 X159.484 Y62.07 E.10693
G1 X158.948 Y62.069 E.01582
G1 X162.043 Y65.164 E.12922
G1 X162.042 Y65.696 E.01571
G1 X158.413 Y62.067 E.15152
G1 X157.877 Y62.066 E.01582
G1 X162.04 Y66.229 E.17381
G1 X162.039 Y66.762 E.01574
G1 X157.341 Y62.064 E.19615
G1 X156.806 Y62.063 E.01579
G1 X162.038 Y67.295 E.21844
G1 X162.036 Y67.827 E.01571
G1 X156.27 Y62.061 E.24074
G1 X155.735 Y62.06 E.01579
G1 X162.035 Y68.36 E.26303
G1 X162.033 Y68.893 E.01574
G1 X155.199 Y62.059 E.28533
G1 X154.663 Y62.057 E.01582
G1 X162.032 Y69.426 E.30767
G1 X162.03 Y69.958 E.01571
G1 X154.128 Y62.056 E.32992
G1 X153.592 Y62.054 E.01582
G1 X162.029 Y70.491 E.35226
G1 X162.028 Y71.024 E.01574
G1 X153.057 Y62.053 E.37455
G1 X152.521 Y62.051 E.01582
G1 X162.026 Y71.557 E.39687
G1 X162.025 Y72.089 E.01571
G1 X151.985 Y62.05 E.41916
G1 X151.45 Y62.049 E.01579
G1 X162.023 Y72.622 E.44144
G1 X162.022 Y73.155 E.01574
G1 X150.914 Y62.047 E.46377
G1 X150.379 Y62.046 E.01579
G1 X162.021 Y73.688 E.48607
G1 X162.019 Y74.22 E.01571
G1 X149.843 Y62.044 E.50837
G1 X149.307 Y62.043 E.01582
G1 X162.018 Y74.753 E.53068
G1 X162.016 Y75.286 E.01574
G1 X148.772 Y62.041 E.55298
G1 X148.236 Y62.04 E.01582
G1 X162.015 Y75.819 E.57529
G1 X162.013 Y76.351 E.01571
G1 X147.701 Y62.039 E.59755
G1 X147.165 Y62.037 E.01582
G1 X162.012 Y76.884 E.61988
G1 X162.011 Y77.417 E.01574
G1 X146.629 Y62.036 E.6422
G1 X146.094 Y62.034 E.01579
G1 X162.009 Y77.95 E.66449
G1 X162.008 Y78.482 E.01571
G1 X145.558 Y62.033 E.68679
G1 X145.023 Y62.031 E.01579
G1 X162.006 Y79.015 E.70909
G1 X162.005 Y79.548 E.01574
G1 X144.487 Y62.03 E.7314
G1 X143.951 Y62.029 E.01582
G1 X162.004 Y80.081 E.75372
G1 X162.002 Y80.613 E.01571
G1 X143.416 Y62.027 E.77599
G1 X142.88 Y62.026 E.01582
G1 X162.001 Y81.146 E.79831
G1 X161.999 Y81.679 E.01574
G1 X142.345 Y62.024 E.8206
G1 X141.809 Y62.023 E.01582
G1 X161.998 Y82.212 E.84292
G1 X161.996 Y82.744 E.01571
G1 X141.273 Y62.021 E.86521
G1 X140.738 Y62.02 E.01579
G1 X161.995 Y83.277 E.88751
G1 X161.994 Y83.81 E.01574
G1 X152.736 Y74.553 E.38651
G1 X152.389 Y73.973 E.01995
G1 X151.72 Y73.118 E.03205
G1 X150.957 Y72.351 E.03194
G1 X150.106 Y71.68 E.03199
G1 X149.486 Y71.303 E.02142
G1 X140.202 Y62.019 E.38762
G1 X139.667 Y62.017 E.01579
G1 X148.421 Y70.771 E.36549
G1 X148.191 Y70.667 E.00745
G1 X147.596 Y70.48 E.01841
G1 X139.131 Y62.016 E.3534
G1 X138.595 Y62.014 E.01582
G1 X146.871 Y70.29 E.34553
G1 X146.215 Y70.168 E.0197
G1 X138.06 Y62.013 E.34048
G1 X137.524 Y62.011 E.01582
G1 X145.629 Y70.116 E.3384
G1 X145.059 Y70.08 E.01686
G1 X136.989 Y62.01 E.33693
G1 X136.453 Y62.009 E.01582
G1 X144.522 Y70.077 E.33687
G1 X143.986 Y70.076 E.01582
G1 X135.918 Y62.007 E.33687
G1 X135.382 Y62.006 E.01582
G1 X143.451 Y70.074 E.33687
G1 X142.915 Y70.073 E.01582
G1 X134.846 Y62.004 E.33689
G1 X134.311 Y62.003 E.01579
G1 X142.379 Y70.072 E.33687
G1 X141.844 Y70.07 E.01579
G1 X133.775 Y62.001 E.33689
G1 X133.24 Y62 E.01579
G1 X141.308 Y70.069 E.33687
G1 X140.773 Y70.067 E.01579
G1 X132.704 Y61.999 E.33687
G1 X132.168 Y61.997 E.01582
G1 X140.237 Y70.066 E.33689
G1 X139.701 Y70.065 E.01582
G1 X131.633 Y61.996 E.33687
G1 X131.097 Y61.994 E.01582
G1 X139.166 Y70.063 E.33689
G1 X138.63 Y70.062 E.01582
G1 X130.562 Y61.993 E.33687
G1 X130.026 Y61.992 E.01582
G1 X138.095 Y70.06 E.33687
G1 X137.559 Y70.059 E.01582
G1 X129.49 Y61.99 E.33689
G1 X128.955 Y61.989 E.01579
G1 X137.024 Y70.057 E.33687
G1 X136.488 Y70.056 E.01582
G1 X128.419 Y61.987 E.33689
G1 X127.884 Y61.986 E.01579
G1 X135.952 Y70.055 E.33687
G1 X135.417 Y70.053 E.01579
G1 X127.348 Y61.984 E.33689
G1 X126.812 Y61.983 E.01582
G1 X134.881 Y70.052 E.33689
G1 X134.346 Y70.05 E.01579
G1 X126.277 Y61.982 E.33687
G1 X125.741 Y61.98 E.01582
G1 X133.81 Y70.049 E.33689
G1 X133.274 Y70.047 E.01582
G1 X125.206 Y61.979 E.33685
G1 X124.67 Y61.977 E.01582
G1 X132.739 Y70.046 E.33689
G1 X132.203 Y70.045 E.01582
G1 X124.134 Y61.976 E.33689
G1 X123.599 Y61.974 E.01579
G1 X131.668 Y70.043 E.33689
G1 X131.132 Y70.042 E.01582
G1 X123.063 Y61.973 E.33689
G1 X122.528 Y61.972 E.01579
G1 X130.596 Y70.04 E.33685
G1 X130.061 Y70.039 E.01579
G1 X121.992 Y61.97 E.33689
G1 X121.456 Y61.969 E.01582
G1 X129.525 Y70.038 E.33689
G1 X128.99 Y70.036 E.01579
G1 X120.921 Y61.967 E.33689
G1 X120.385 Y61.966 E.01582
G1 X128.454 Y70.035 E.33689
G1 X127.918 Y70.033 E.01582
G1 X119.85 Y61.964 E.33687
G1 X119.314 Y61.963 E.01582
G1 X127.383 Y70.032 E.33689
G1 X126.847 Y70.03 E.01582
G1 X118.778 Y61.962 E.33687
G1 X118.243 Y61.96 E.01579
G1 X126.312 Y70.029 E.33689
G1 X125.776 Y70.028 E.01582
G1 X117.707 Y61.959 E.33689
G1 X117.172 Y61.957 E.01579
G1 X125.241 Y70.026 E.33689
G1 X124.705 Y70.025 E.01582
G1 X116.636 Y61.956 E.33689
G1 X116.1 Y61.954 E.01582
G1 X124.169 Y70.023 E.33689
G1 X123.634 Y70.022 E.01579
G1 X115.565 Y61.953 E.33689
G1 X115.029 Y61.952 E.01582
G1 X123.098 Y70.021 E.33689
G1 X122.563 Y70.019 E.01579
G1 X114.494 Y61.95 E.33689
G1 X113.958 Y61.949 E.01582
G1 X122.027 Y70.018 E.33689
G1 X121.491 Y70.016 E.01582
G1 X113.422 Y61.947 E.33689
G1 X112.887 Y61.946 E.01579
G1 X120.956 Y70.015 E.33689
G1 X120.42 Y70.013 E.01582
G1 X112.351 Y61.944 E.33689
G1 X111.816 Y61.943 E.01579
G1 X119.885 Y70.012 E.33689
G1 X119.349 Y70.011 E.01582
G1 X111.28 Y61.942 E.33689
G1 X110.745 Y61.94 E.01579
G1 X118.813 Y70.009 E.33687
G1 X118.278 Y70.008 E.01579
G1 X110.209 Y61.939 E.33689
G1 X109.673 Y61.937 E.01582
G1 X117.742 Y70.006 E.33689
G1 X117.207 Y70.005 E.01579
G1 X109.138 Y61.936 E.33689
G1 X108.602 Y61.934 E.01582
G1 X116.671 Y70.003 E.33689
G1 X116.136 Y70.002 E.01579
G1 X108.067 Y61.933 E.33689
G1 X107.531 Y61.932 E.01582
G1 X115.6 Y70.001 E.33689
G1 X115.064 Y69.999 E.01582
G1 X106.995 Y61.93 E.33689
G1 X106.46 Y61.929 E.01579
G1 X114.529 Y69.998 E.33689
G1 X113.993 Y69.996 E.01582
G1 X105.924 Y61.927 E.33689
G1 X105.389 Y61.926 E.01579
G1 X113.458 Y69.995 E.33689
G1 X112.922 Y69.994 E.01582
G1 X104.853 Y61.925 E.33689
G1 X104.317 Y61.923 E.01582
G1 X112.386 Y69.992 E.33689
G1 X111.851 Y69.991 E.01579
G1 X103.782 Y61.922 E.33689
G1 X103.246 Y61.92 E.01582
G1 X111.315 Y69.989 E.33689
G1 X110.78 Y69.988 E.01579
G1 X102.711 Y61.919 E.33689
G1 X102.175 Y61.917 E.01582
G1 X110.244 Y69.986 E.33689
G1 X109.708 Y69.985 E.01582
G1 X101.639 Y61.916 E.33689
G1 X101.104 Y61.915 E.01579
G1 X109.173 Y69.984 E.33689
G1 X108.637 Y69.982 E.01582
G1 X100.568 Y61.913 E.33689
G1 X100.033 Y61.912 E.01579
G1 X108.102 Y69.981 E.33689
G1 X107.566 Y69.979 E.01582
G1 X99.497 Y61.91 E.33689
G1 X98.961 Y61.909 E.01582
G1 X107.031 Y69.978 E.33691
G1 X106.495 Y69.977 E.01582
G1 X98.426 Y61.907 E.33691
G1 X97.89 Y61.906 E.01582
G1 X105.96 Y69.976 E.33693
G1 X105.455 Y70.005 E.01493
G1 X97.355 Y61.905 E.33819
G1 X96.819 Y61.903 E.01582
G1 X104.95 Y70.034 E.33948
G1 X104.495 Y70.113 E.01363
G1 X96.283 Y61.902 E.34284
G1 X95.748 Y61.9 E.01579
