; generated by PrusaSlicer 2.6.1+win64 on 2023-09-29 at 07:58:26 UTC

; 

; external perimeters extrusion width = 0.42mm
; perimeters extrusion width = 0.44mm
; infill extrusion width = 0.44mm
; solid infill extrusion width = 0.44mm
; top infill extrusion width = 0.40mm
; support material extrusion width = 0.36mm
; first layer extrusion width = 0.42mm

;TYPE:Custom
; Ender 3 Custom Start G-code
G92 E0 ; Reset Extruder

M140 S75 ; set bed temp
M104 S225 ; set extruder temp
M109 S225 ; wait for extruder temp
M190 S75 ; wait for bed temp

G28 ; Home all axes
M104 S235 ; set extruder temp 
BED_MESH_CALIBRATE AREA_START=59.6426,69.4343 AREA_END=162.442,167.482

G1 Z2.0 F3000 ; Move Z Axis up little to prevent scratching of Heat Bed
M109 S235 ; wait for extruder temp
G1 X0.1 Y20 Z0.3 F5000.0 ; Move to start position

G1 X0.1 Y200.0 Z0.3 F1500.0 E15 ; Draw the first line
G1 X0.4 Y200.0 Z0.3 F5000.0 ; Move to side a little
G1 X0.4 Y20 Z0.3 F1500.0 E30 ; Draw the second line
G92 E0 ; Reset Extruder
G1 Z2.0 F3000 ; Move Z Axis up little to prevent scratching of Heat Bed
G1 X5 Y20 Z0.3 F5000.0 ; Move over to prevent blob squish
G21 ; set units to millimeters
G90 ; use absolute coordinates
M83 ; use relative distances for extrusion
; Filament gcode
M107
;LAYER_CHANGE
;Z:0.2
;HEIGHT:0.2
;BEFORE_LAYER_CHANGE
G92 E0
;0.2


G1 E-1.6 F2400
G1 Z.2 F6000
;AFTER_LAYER_CHANGE
;0.2
G1 X62.372 Y72.099
G1 E1.6 F2400
M204 S500
;TYPE:Skirt/Brim
;WIDTH:0.42
G1 F1080
G1 X63.373 Y71.29 E.03793
G1 X64.471 Y70.66 E.03731
G1 X65.197 Y70.356 E.0232
G1 X66.424 Y70.017 E.03752
G1 X67.941 Y69.865 E.04493
G1 X158.94 Y69.623 E2.68203
G1 X160.461 Y70.012 E.04627
G1 X161.602 Y71.091 E.04628
G1 X162.08 Y72.746 E.05077
G1 X162.253 Y137.744 E1.9157
G1 X161.863 Y139.264 E.04625
G1 X160.832 Y140.375 E.04467
G1 X120.334 Y166.785 E1.42498
G1 X118.623 Y167.294 E.05261
G1 X63.192 Y167.294 E1.63372
G1 X61.672 Y166.9 E.04628
G1 X60.534 Y165.818 E.04628
G1 X60.061 Y164.171 E.0505
G1 X59.831 Y78.018 E2.5392
G1 X59.975 Y76.509 E.04468
G1 X60.305 Y75.281 E.03748
G1 X60.604 Y74.55 E.02328
G1 X61.236 Y73.44 E.03765
G1 X62.334 Y72.144 E.05006
G1 X62.618 Y72.385 F6000
G1 F1080
G1 X63.57 Y71.611 E.03616
G1 X64.616 Y71.008 E.03558
G1 X65.343 Y70.704 E.02322
G1 X66.514 Y70.383 E.03579
G1 X67.942 Y70.242 E.04229
G1 X158.941 Y70 E2.68203
G1 X160.36 Y70.389 E.04337
G1 X161.376 Y71.452 E.04334
G1 X161.703 Y72.747 E.03937
G1 X161.876 Y137.745 E1.9157
G1 X161.487 Y139.163 E.04334
G1 X160.626 Y140.059 E.03662
G1 X120.128 Y166.47 E1.42499
G1 X118.623 Y166.917 E.04627
G1 X63.192 Y166.917 E1.63372
G1 X61.774 Y166.524 E.04337
G1 X60.761 Y165.458 E.04334
G1 X60.438 Y164.17 E.03914
G1 X60.208 Y78.017 E2.5392
G1 X60.342 Y76.596 E.04207
G1 X60.654 Y75.424 E.03575
G1 X60.953 Y74.693 E.02328
G1 X61.557 Y73.636 E.03588
G1 X62.579 Y72.431 E.04657
G1 X62.863 Y72.672 F6000
G1 F1080
G1 X63.767 Y71.933 E.03441
G1 X64.762 Y71.356 E.0339
G1 X65.488 Y71.052 E.0232
G1 X66.603 Y70.749 E.03405
G1 X67.943 Y70.619 E.03968
G1 X158.942 Y70.377 E2.68203
G1 X160.25 Y70.765 E.04021
G1 X161.13 Y71.809 E.04024
G1 X161.326 Y72.748 E.02827
G1 X161.499 Y137.746 E1.9157
G1 X161.111 Y139.054 E.04021
G1 X160.42 Y139.743 E.02876
G1 X119.922 Y166.154 E1.42499
G1 X118.623 Y166.54 E.03994
G1 X63.192 Y166.54 E1.63372
G1 X61.885 Y166.148 E.04022
G1 X61.008 Y165.102 E.04023
G1 X60.815 Y164.169 E.02808
G1 X60.585 Y78.016 E2.5392
G1 X60.709 Y76.683 E.03946
G1 X61.003 Y75.567 E.03401
G1 X61.302 Y74.836 E.02328
G1 X61.879 Y73.832 E.03413
G1 X62.824 Y72.718 E.04306
; printing object Stand.STL id:0 copy 0
G1 E-1.12 F2400
;WIPE_START
G1 F4800
G1 X63.601 Y72.071 E-.48
;WIPE_END
G1 X93.859 Y87.866 F6000
G1 E1.6 F2400
;TYPE:Perimeter
G1 F1080
G1 X94.295 Y86.886 E.03161
G1 X94.835 Y85.988 E.03088
G1 X95.48 Y85.161 E.03091
G1 X96.219 Y84.418 E.03089
G1 X97.043 Y83.769 E.03091
G1 X97.938 Y83.223 E.0309
G1 X98.895 Y82.788 E.03098
G1 X99.896 Y82.475 E.03091
G1 X100.929 Y82.283 E.03097
G1 X101.953 Y82.219 E.03024
G1 X140.996 Y82.115 E1.15072
G1 X142.02 Y82.174 E.03023
G1 X143.054 Y82.36 E.03096
G1 X144.057 Y82.668 E.03092
G1 X145.017 Y83.098 E.031
G1 X145.915 Y83.639 E.0309
G1 X146.742 Y84.284 E.03091
G1 X147.484 Y85.022 E.03084
G1 X148.136 Y85.846 E.03097
G1 X148.679 Y86.742 E.03088
G1 X149.114 Y87.698 E.03096
G1 X149.428 Y88.699 E.03092
G1 X149.619 Y89.732 E.03096
G1 X149.684 Y90.756 E.03024
G1 X149.781 Y127.406 E1.08019
G1 X149.728 Y128.395 E.02919
G1 X149.553 Y129.39 E.02978
G1 X149.269 Y130.359 E.02976
G1 X148.869 Y131.289 E.02984
G1 X148.366 Y132.162 E.0297
G1 X147.766 Y132.976 E.0298
G1 X147.073 Y133.713 E.02982
G1 X146.302 Y134.364 E.02974
G1 X145.477 Y134.909 E.02914
G1 X117.677 Y151.057 E.94755
G1 X116.758 Y151.522 E.03036
G1 X115.772 Y151.875 E.03087
G1 X114.748 Y152.107 E.03095
G1 X113.707 Y152.217 E.03085
G1 X112.654 Y152.2 E.03104
G1 X111.616 Y152.053 E.0309
G1 X110.601 Y151.786 E.03093
G1 X109.626 Y151.395 E.03096
G1 X108.709 Y150.892 E.03083
G1 X107.856 Y150.282 E.03091
G1 X107.081 Y149.571 E.031
G1 X106.398 Y148.773 E.03096
G1 X105.832 Y147.919 E.0302
G1 X94.567 Y128.526 E.661
G1 X94.159 Y127.733 E.02628
G1 X93.83 Y126.884 E.02684
G1 X93.593 Y126.005 E.02683
G1 X93.45 Y125.108 E.02677
G1 X93.4 Y124.217 E.0263
G1 X93.312 Y90.906 E.98178
G1 X93.371 Y89.882 E.03023
G1 X93.557 Y88.848 E.03096
G1 X93.841 Y87.923 E.02852
G1 X94.219 Y87.978 F6000
;TYPE:External perimeter
G1 F1080
G1 X94.63 Y87.061 E.02962
G1 X95.147 Y86.201 E.02957
G1 X95.764 Y85.41 E.02957
G1 X96.47 Y84.7 E.02951
G1 X97.258 Y84.079 E.02957
G1 X98.115 Y83.557 E.02958
G1 X99.03 Y83.141 E.02962
G1 X99.987 Y82.842 E.02955
G1 X100.976 Y82.658 E.02965
G1 X101.965 Y82.596 E.02921
G1 X140.986 Y82.492 E1.15007
G1 X141.976 Y82.549 E.02923
G1 X142.965 Y82.727 E.02962
G1 X143.924 Y83.022 E.02957
G1 X144.842 Y83.433 E.02964
G1 X145.701 Y83.95 E.02955
G1 X146.492 Y84.567 E.02957
G1 X147.202 Y85.273 E.02951
G1 X147.826 Y86.061 E.02962
G1 X148.345 Y86.918 E.02953
G1 X148.761 Y87.833 E.02962
G1 X149.061 Y88.79 E.02956
G1 X149.244 Y89.779 E.02964
G1 X149.307 Y90.768 E.02921
G1 X149.404 Y127.396 E1.07954
G1 X149.353 Y128.352 E.02822
G1 X149.185 Y129.304 E.02849
G1 X148.914 Y130.231 E.02847
G1 X148.531 Y131.12 E.02853
G1 X148.05 Y131.956 E.02843
G1 X147.476 Y132.734 E.0285
G1 X146.813 Y133.439 E.02852
G1 X146.075 Y134.062 E.02847
G1 X145.278 Y134.589 E.02816
G1 X117.497 Y150.726 E.9469
G1 X116.609 Y151.175 E.02933
G1 X115.666 Y151.512 E.02951
G1 X114.687 Y151.735 E.02959
G1 X113.69 Y151.839 E.02954
G1 X112.684 Y151.823 E.02965
G1 X111.691 Y151.682 E.02956
G1 X110.72 Y151.427 E.02959
G1 X109.788 Y151.054 E.02959
G1 X108.91 Y150.572 E.02952
G1 X108.094 Y149.988 E.02957
G1 X107.352 Y149.309 E.02964
G1 X106.7 Y148.546 E.02958
G1 X106.152 Y147.72 E.02922
G1 X94.898 Y128.345 E.66038
G1 X94.503 Y127.578 E.02543
G1 X94.189 Y126.766 E.02566
G1 X93.962 Y125.926 E.02565
G1 X93.825 Y125.068 E.02561
G1 X93.777 Y124.206 E.02545
G1 X93.689 Y90.917 E.98113
G1 X93.746 Y89.926 E.02926
G1 X93.924 Y88.937 E.02962
G1 X94.201 Y88.036 E.02778
G1 X93.965 Y87.669 F6000
G1 E-1.12 F2400
;WIPE_START
G1 F4800
G1 X94.608 Y87.111 E-.48
;WIPE_END
G1 X84.648 Y77.265 F6000
G1 E1.6 F2400
;TYPE:Perimeter
G1 F1080
G1 X67.273 Y77.311 E.5121
G1 X67.503 Y163.476 E2.53955
G1 X63.877 Y163.476 E.10687
G1 X63.65 Y78.035 E2.51821
G1 X63.703 Y77.334 E.02072
G1 X63.86 Y76.674 E.01999
G1 X64.117 Y76.047 E.01997
G1 X64.469 Y75.471 E.0199
G1 X64.908 Y74.953 E.02001
G1 X65.42 Y74.513 E.0199
G1 X65.996 Y74.16 E.01991
G1 X66.621 Y73.899 E.01996
G1 X67.277 Y73.739 E.0199
G1 X67.977 Y73.683 E.0207
G1 X158.263 Y73.443 E2.66101
G1 X158.434 Y137.357 E1.88375
G1 X122.009 Y158.516 E1.24154
G1 X121.154 Y159.087 E.0303
G1 X120.358 Y159.769 E.03089
G1 X119.647 Y160.541 E.03093
G1 X119.035 Y161.395 E.03097
G1 X118.533 Y162.315 E.03089
G1 X118.143 Y163.289 E.03092
G1 X118.094 Y163.476 E.0057
G1 X111.183 Y163.476 E.20369
G1 X115.594 Y155.831 E.26014
G1 X86.563 Y155.831 E.85563
G1 X90.974 Y163.476 E.26014
G1 X84.877 Y163.476 E.1797
G1 X84.648 Y77.325 E2.53914
G1 X84.271 Y77.643 F6000
;TYPE:External perimeter
G1 F1080
G1 X67.652 Y77.687 E.48981
G1 X67.881 Y163.853 E2.53958
G1 X63.501 Y163.853 E.12909
G1 X63.272 Y78.021 E2.52974
G1 X63.33 Y77.276 E.02202
G1 X63.5 Y76.558 E.02175
G1 X63.78 Y75.877 E.0217
G1 X64.163 Y75.249 E.02168
G1 X64.64 Y74.687 E.02173
G1 X65.197 Y74.207 E.02167
G1 X65.824 Y73.823 E.02167
G1 X66.503 Y73.54 E.02168
G1 X67.217 Y73.365 E.02167
G1 X67.962 Y73.306 E.02203
G1 X158.64 Y73.065 E2.67257
G1 X158.811 Y137.574 E1.90128
G1 X122.208 Y158.837 E1.24762
G1 X121.382 Y159.388 E.02926
G1 X120.62 Y160.04 E.02956
G1 X119.941 Y160.78 E.0296
G1 X119.355 Y161.596 E.02961
G1 X118.875 Y162.476 E.02954
G1 X118.501 Y163.408 E.0296
G1 X118.384 Y163.853 E.01356
G1 X110.53 Y163.853 E.23148
G1 X114.941 Y156.208 E.26014
G1 X87.216 Y156.208 E.81714
G1 X91.627 Y163.853 E.26014
G1 X84.501 Y163.853 E.21002
G1 X84.272 Y77.703 E2.53911
G1 X84.259 Y77.243 F6000
G1 E-1.12 F2400
;WIPE_START
G1 F4800
G1 X83.261 Y77.702 E-.48
;WIPE_END
G1 X157.383 Y73.566 F6000
G1 E1.6 F2400
;TYPE:Solid infill
;WIDTH:0.420068
G1 F1080
G1 X157.975 Y74.158 E.02468
G1 X157.976 Y74.693 E.01577
G1 X157.02 Y73.737 E.03985
G1 X156.488 Y73.738 E.01568
G1 X157.978 Y75.228 E.06212
G1 X157.979 Y75.763 E.01577
G1 X155.956 Y73.74 E.08434
G1 X155.424 Y73.741 E.01568
G1 X157.981 Y76.297 E.10658
G1 X157.982 Y76.832 E.01577
G1 X154.892 Y73.742 E.12882
G1 X154.36 Y73.744 E.01568
G1 X157.984 Y77.367 E.15106
G1 X157.985 Y77.902 E.01577
G1 X153.828 Y73.745 E.1733
G1 X153.296 Y73.747 E.01568
G1 X157.986 Y78.437 E.19552
G1 X157.988 Y78.971 E.01574
G1 X152.764 Y73.748 E.21776
G1 X152.232 Y73.749 E.01568
G1 X157.989 Y79.506 E.24
G1 X157.991 Y80.041 E.01577
G1 X151.701 Y73.751 E.26222
G1 X151.169 Y73.752 E.01568
G1 X157.992 Y80.576 E.28446
G1 X157.994 Y81.111 E.01577
G1 X150.637 Y73.754 E.3067
G1 X150.105 Y73.755 E.01568
G1 X157.995 Y81.645 E.32892
G1 X157.996 Y82.18 E.01577
G1 X149.573 Y73.756 E.35117
G1 X149.041 Y73.758 E.01568
G1 X157.998 Y82.715 E.37341
G1 X157.999 Y83.25 E.01577
G1 X148.509 Y73.759 E.39565
G1 X147.977 Y73.761 E.01568
G1 X158.001 Y83.785 E.41789
G1 X158.002 Y84.319 E.01574
G1 X147.445 Y73.762 E.44011
G1 X146.913 Y73.764 E.01568
G1 X158.004 Y84.854 E.46235
G1 X158.005 Y85.389 E.01577
G1 X146.381 Y73.765 E.48459
G1 X145.849 Y73.766 E.01568
G1 X158.006 Y85.924 E.50683
G1 X158.008 Y86.459 E.01577
G1 X145.317 Y73.768 E.52907
G1 X144.785 Y73.769 E.01568
G1 X158.009 Y86.993 E.55129
G1 X158.011 Y87.528 E.01577
G1 X144.253 Y73.771 E.57353
G1 X143.721 Y73.772 E.01568
G1 X158.012 Y88.063 E.59577
G1 X158.013 Y88.598 E.01577
G1 X143.189 Y73.773 E.61801
G1 X142.657 Y73.775 E.01568
G1 X158.015 Y89.132 E.64023
G1 X158.016 Y89.667 E.01577
G1 X142.125 Y73.776 E.66248
G1 X141.593 Y73.778 E.01568
G1 X158.018 Y90.202 E.68472
G1 X158.019 Y90.737 E.01577
G1 X141.061 Y73.779 E.70696
G1 X140.53 Y73.781 E.01565
G1 X158.021 Y91.272 E.72918
G1 X158.022 Y91.806 E.01574
G1 X139.998 Y73.782 E.7514
G1 X139.466 Y73.783 E.01568
G1 X158.023 Y92.341 E.77364
G1 X158.025 Y92.876 E.01577
G1 X138.934 Y73.785 E.79588
G1 X138.402 Y73.786 E.01568
G1 X158.026 Y93.411 E.81812
G1 X158.028 Y93.946 E.01577
G1 X137.87 Y73.788 E.84036
G1 X137.338 Y73.789 E.01568
G1 X158.029 Y94.48 E.86258
G1 X158.031 Y95.015 E.01577
G1 X136.806 Y73.79 E.88484
G1 X136.274 Y73.792 E.01568
G1 X145.58 Y83.098 E.38796
G1 X146.08 Y83.399 E.0172
G1 X146.934 Y84.065 E.03192
G1 X147.701 Y84.828 E.03189
G1 X148.375 Y85.68 E.03202
G1 X148.703 Y86.221 E.01865
G1 X158.032 Y95.55 E.38891
G1 X158.033 Y96.085 E.01577
G1 X149.255 Y87.306 E.36596
G1 X149.386 Y87.595 E.00935
G1 X149.557 Y88.142 E.01689
G1 X158.035 Y96.62 E.35344
G1 X158.036 Y97.154 E.01574
G1 X149.755 Y88.873 E.34522
G1 X149.877 Y89.528 E.01964
G1 X158.038 Y97.689 E.34022
G1 X158.039 Y98.224 E.01577
G1 X149.935 Y90.119 E.33787
G1 X149.97 Y90.689 E.01683
G1 X158.041 Y98.759 E.33645
G1 X158.042 Y99.294 E.01577
G1 X149.975 Y91.227 E.3363
G1 X149.977 Y91.762 E.01577
G1 X158.043 Y99.828 E.33626
G1 X158.045 Y100.363 E.01577
G1 X149.978 Y92.296 E.3363
G1 X149.98 Y92.831 E.01577
G1 X158.046 Y100.898 E.33628
G1 X158.048 Y101.433 E.01577
G1 X149.981 Y93.366 E.3363
G1 X149.982 Y93.901 E.01577
G1 X158.049 Y101.967 E.33628
G1 X158.05 Y102.502 E.01577
G1 X149.984 Y94.436 E.33626
G1 X149.985 Y94.97 E.01574
G1 X158.052 Y103.037 E.3363
G1 X158.053 Y103.572 E.01577
G1 X149.987 Y95.505 E.33628
G1 X149.988 Y96.04 E.01577
G1 X158.055 Y104.107 E.3363
G1 X158.056 Y104.641 E.01574
G1 X149.99 Y96.575 E.33626
G1 X149.991 Y97.11 E.01577
G1 X158.058 Y105.176 E.33628
G1 X158.059 Y105.711 E.01577
G1 X149.992 Y97.644 E.3363
G1 X149.994 Y98.179 E.01577
G1 X158.06 Y106.246 E.33628
G1 X158.062 Y106.781 E.01577
G1 X149.995 Y98.714 E.3363
G1 X149.997 Y99.249 E.01577
G1 X158.063 Y107.315 E.33626
G1 X158.065 Y107.85 E.01577
G1 X149.998 Y99.784 E.33628
G1 X150 Y100.318 E.01574
G1 X158.066 Y108.385 E.33628
G1 X158.068 Y108.92 E.01577
G1 X150.001 Y100.853 E.3363
G1 X150.002 Y101.388 E.01577
G1 X158.069 Y109.455 E.3363
G1 X158.07 Y109.989 E.01574
G1 X150.004 Y101.923 E.33626
G1 X150.005 Y102.457 E.01574
G1 X158.072 Y110.524 E.3363
G1 X158.073 Y111.059 E.01577
G1 X150.007 Y102.992 E.33628
G1 X150.008 Y103.527 E.01577
G1 X158.075 Y111.594 E.3363
G1 X158.076 Y112.129 E.01577
G1 X150.009 Y104.062 E.3363
G1 X150.011 Y104.597 E.01577
G1 X158.078 Y112.663 E.33628
G1 X158.079 Y113.198 E.01577
G1 X150.012 Y105.131 E.3363
G1 X150.014 Y105.666 E.01577
G1 X158.08 Y113.733 E.33628
G1 X158.082 Y114.268 E.01577
G1 X150.015 Y106.201 E.3363
G1 X150.017 Y106.736 E.01577
G1 X158.083 Y114.802 E.33626
G1 X158.085 Y115.337 E.01577
G1 X150.018 Y107.271 E.33628
G1 X150.019 Y107.805 E.01574
G1 X158.086 Y115.872 E.3363
G1 X158.088 Y116.407 E.01577
G1 X150.021 Y108.34 E.3363
G1 X150.022 Y108.875 E.01577
G1 X158.089 Y116.942 E.3363
G1 X158.09 Y117.476 E.01574
G1 X150.024 Y109.41 E.33626
G1 X150.025 Y109.945 E.01577
G1 X158.092 Y118.011 E.33628
G1 X158.093 Y118.546 E.01577
G1 X150.027 Y110.479 E.33628
G1 X150.028 Y111.014 E.01577
G1 X158.095 Y119.081 E.3363
G1 X158.096 Y119.616 E.01577
G1 X150.029 Y111.549 E.3363
G1 X150.031 Y112.084 E.01577
G1 X158.097 Y120.15 E.33626
G1 X158.099 Y120.685 E.01577
G1 X150.032 Y112.619 E.33628
G1 X150.034 Y113.153 E.01574
G1 X158.1 Y121.22 E.33628
G1 X158.102 Y121.755 E.01577
G1 X150.035 Y113.688 E.3363
G1 X150.037 Y114.223 E.01577
G1 X158.103 Y122.29 E.33628
G1 X158.105 Y122.824 E.01574
G1 X150.038 Y114.758 E.33628
G1 X150.039 Y115.292 E.01574
G1 X158.106 Y123.359 E.3363
G1 X158.107 Y123.894 E.01577
G1 X150.041 Y115.827 E.33628
G1 X150.042 Y116.362 E.01577
G1 X158.109 Y124.429 E.3363
G1 X158.11 Y124.963 E.01574
G1 X150.044 Y116.897 E.33626
G1 X150.045 Y117.432 E.01577
G1 X158.112 Y125.498 E.33628
G1 X158.113 Y126.033 E.01577
G1 X150.046 Y117.966 E.3363
G1 X150.048 Y118.501 E.01577
G1 X158.115 Y126.568 E.3363
G1 X158.116 Y127.103 E.01577
G1 X150.049 Y119.036 E.3363
G1 X150.051 Y119.571 E.01577
G1 X158.117 Y127.637 E.33626
G1 X158.119 Y128.172 E.01577
G1 X150.052 Y120.106 E.33628
G1 X150.054 Y120.64 E.01574
G1 X158.12 Y128.707 E.33628
G1 X158.122 Y129.242 E.01577
G1 X150.055 Y121.175 E.3363
G1 X150.056 Y121.71 E.01577
G1 X158.123 Y129.777 E.3363
G1 X158.125 Y130.311 E.01574
G1 X150.058 Y122.245 E.33628
G1 X150.059 Y122.78 E.01577
G1 X158.126 Y130.846 E.33628
G1 X158.127 Y131.381 E.01577
G1 X150.061 Y123.314 E.33628
G1 X150.062 Y123.849 E.01577
G1 X158.129 Y131.916 E.3363
G1 X158.13 Y132.451 E.01577
G1 X150.064 Y124.384 E.33628
G1 X150.065 Y124.919 E.01577
G1 X158.132 Y132.985 E.33628
G1 X158.133 Y133.52 E.01577
G1 X150.066 Y125.454 E.33628
G1 X150.068 Y125.988 E.01574
G1 X158.134 Y134.055 E.33628
G1 X158.136 Y134.59 E.01577
G1 X150.069 Y126.523 E.3363
G1 X150.071 Y127.058 E.01577
G1 X158.137 Y135.125 E.33628
G1 X158.139 Y135.659 E.01574
G1 X150.063 Y127.583 E.33668
G1 X150.036 Y128.089 E.01494
G1 X158.14 Y136.194 E.33787
G1 X158.142 Y136.729 E.01577
G1 X149.991 Y128.578 E.3398
G1 X149.911 Y129.032 E.01359
G1 X158.096 Y137.217 E.34122
G1 X157.759 Y137.413 E.01149
G1 X149.828 Y129.483 E.33061
