; generated by PrusaSlicer 2.7.1+win64 on 2024-02-12 at 21:07:42 UTC

; 

; external perimeters extrusion width = 0.42mm
; perimeters extrusion width = 0.44mm
; infill extrusion width = 0.44mm
; solid infill extrusion width = 0.44mm
; top infill extrusion width = 0.40mm
; first layer extrusion width = 0.42mm


; printing object Shape-Box id:0 copy 0
; stop printing object Shape-Box id:0 copy 0

;TYPE:Custom
; Ender 3 Custom Start G-code
G92 E0 ; Reset Extruder

M140 S50 ; set bed temp
M190 S50 ; wait for bed temp

G28 ; Home all axes
M104 S205 ; set extruder temp 
BED_MESH_CALIBRATE AREA_START=91.7718,93.2173 AREA_END=135.76,121.557

G1 Z2.0 F3000 ; Move Z Axis up little to prevent scratching of Heat Bed
M109 S205 ; wait for extruder temp
G1 X0.1 Y20 Z0.3 F5000.0 ; Move to start position

G1 X0.1 Y200.0 Z0.3 F1500.0 E15 ; Draw the first line
G1 X0.4 Y200.0 Z0.3 F5000.0 ; Move to side a little
G1 X0.4 Y20 Z0.3 F1500.0 E30 ; Draw the second line
G92 E0 ; Reset Extruder
G1 Z2.0 F3000 ; Move Z Axis up little to prevent scratching of Heat Bed
G1 X5 Y20 Z0.3 F5000.0 ; Move over to prevent blob squish
G21 ; set units to millimeters
G90 ; use absolute coordinates
M83 ; use relative distances for extrusion
; Filament gcode
M107
;LAYER_CHANGE
;Z:0.2
;HEIGHT:0.2
;BEFORE_LAYER_CHANGE
G92 E0
;0.2


G1 E-1.6 F2400
G1 Z.2 F6000
;AFTER_LAYER_CHANGE
;0.2
G1 X94.999 Y95.711
G1 Z.2
G1 E1.6 F2400
M204 S500
;TYPE:Skirt/Brim
;WIDTH:0.42
G1 F1200
G1 X95.707 Y95.139 E.02683
G1 X96.438 Y94.66 E.02576
G1 X97.727 Y94.031 E.04227
G1 X99.119 Y93.613 E.04284
G1 X100.392 Y93.431 E.0379
G1 X126.313 Y93.406 E.76397
G1 X127.776 Y93.514 E.04324
G1 X129.153 Y93.84 E.04171
G1 X130.423 Y94.355 E.04039
G1 X131.969 Y95.33 E.05387
G1 X133.113 Y96.393 E.04603
G1 X133.992 Y97.526 E.04226
G1 X134.669 Y98.771 E.04177
G1 X135.198 Y100.307 E.04788
G1 X135.362 Y101.134 E.02485
G1 X135.466 Y102.445 E.03876
G1 X135.571 Y112.245 E.28885
G1 X135.496 Y113.418 E.03464
G1 X135.135 Y115.06 E.04955
G1 X134.395 Y116.761 E.05467
G1 X133.801 Y117.673 E.03208
G1 X133.252 Y118.347 E.02562
G1 X132.027 Y119.486 E.0493
G1 X130.654 Y120.357 E.04792
G1 X129.704 Y120.78 E.03065
G1 X128.284 Y121.19 E.04356
G1 X126.97 Y121.355 E.03903
G1 X100.618 Y121.36 E.77667
G1 X99.358 Y121.211 E.03739
G1 X98.507 Y121.007 E.02579
G1 X97.581 Y120.683 E.02891
G1 X96.591 Y120.203 E.03243
G1 X95.756 Y119.674 E.02913
G1 X95.018 Y119.085 E.02783
G1 X93.758 Y117.71 E.05497
G1 X93.044 Y116.586 E.03925
G1 X92.585 Y115.595 E.03219
G1 X92.243 Y114.542 E.03263
G1 X92.006 Y113.184 E.04063
G1 X91.983 Y101.854 E.33393
G1 X92.101 Y100.917 E.02783
G1 X92.405 Y99.688 E.03731
G1 X93.139 Y98.015 E.05385
G1 X94.252 Y96.457 E.05643
G1 X94.956 Y95.754 E.02932
G1 X95.241 Y96.067 F6000
G1 F1200
G1 X95.919 Y95.451 E.027
G1 X96.619 Y94.991 E.02469
G1 X97.86 Y94.384 E.04072
G1 X99.191 Y93.983 E.04097
G1 X100.41 Y93.807 E.0363
G1 X126.313 Y93.783 E.76344
G1 X127.934 Y93.923 E.04795
G1 X129.422 Y94.331 E.04547
G1 X130.802 Y94.986 E.04502
G1 X131.895 Y95.754 E.03937
G1 X132.981 Y96.812 E.04469
G1 X133.942 Y98.168 E.04898
G1 X134.526 Y99.414 E.04056
G1 X134.947 Y100.933 E.04646
G1 X135.089 Y102.449 E.04488
G1 X135.194 Y112.249 E.28885
G1 X135.139 Y113.264 E.02996
G1 X134.992 Y114.13 E.02589
G1 X134.517 Y115.648 E.04688
G1 X133.792 Y117.024 E.04584
G1 X132.856 Y118.219 E.04474
G1 X131.616 Y119.321 E.04889
G1 X130.419 Y120.056 E.0414
G1 X129.559 Y120.432 E.02766
G1 X128.221 Y120.818 E.04104
G1 X126.941 Y120.979 E.03802
G1 X100.645 Y120.984 E.77502
G1 X99.417 Y120.839 E.03644
G1 X98.514 Y120.618 E.0274
G1 X97.732 Y120.338 E.02448
G1 X96.767 Y119.869 E.03162
G1 X95.975 Y119.367 E.02764
G1 X95.249 Y118.787 E.02739
G1 X93.979 Y117.375 E.05597
G1 X93.373 Y116.401 E.03381
G1 X92.94 Y115.469 E.03029
G1 X92.608 Y114.448 E.03164
G1 X92.38 Y113.138 E.03919
G1 X92.36 Y101.88 E.33181
G1 X92.628 Y100.258 E.04845
G1 X93.075 Y98.984 E.03979
G1 X93.39 Y98.339 E.02116
G1 X93.782 Y97.688 E.0224
G1 X94.52 Y96.723 E.03581
G1 X95.197 Y96.107 E.02698
G1 X95.449 Y96.384 F6000
G1 F1200
G1 X96.131 Y95.763 E.02719
G1 X96.812 Y95.315 E.02402
G1 X97.993 Y94.737 E.03875
G1 X99.229 Y94.36 E.03809
G1 X100.429 Y94.184 E.03575
G1 X126.313 Y94.16 E.76288
G1 X127.857 Y94.292 E.04567
G1 X129.299 Y94.687 E.04407
G1 X130.611 Y95.311 E.04282
G1 X131.648 Y96.039 E.03734
G1 X132.69 Y97.052 E.04283
G1 X133.614 Y98.354 E.04706
G1 X134.178 Y99.558 E.03919
G1 X134.578 Y101.012 E.04445
G1 X134.712 Y102.453 E.04265
G1 X134.817 Y112.253 E.28885
G1 X134.765 Y113.21 E.02825
G1 X134.62 Y114.067 E.02562
G1 X134.172 Y115.496 E.04414
G1 X133.441 Y116.873 E.04595
G1 X132.587 Y117.955 E.04063
G1 X131.404 Y119.01 E.04672
G1 X130.242 Y119.723 E.04018
G1 X129.435 Y120.076 E.02596
G1 X128.232 Y120.433 E.03698
G1 X126.912 Y120.603 E.03923
G1 X100.672 Y120.608 E.77337
G1 X99.476 Y120.466 E.0355
G1 X98.62 Y120.256 E.02598
G1 X96.943 Y119.536 E.05379
G1 X96.18 Y119.05 E.02666
G1 X95.454 Y118.463 E.02752
G1 X94.287 Y117.157 E.05162
G1 X93.701 Y116.215 E.0327
G1 X93.296 Y115.343 E.02834
G1 X92.973 Y114.353 E.03069
G1 X92.755 Y113.093 E.03769
G1 X92.736 Y101.905 E.32974
G1 X92.989 Y100.368 E.04591
G1 X93.426 Y99.122 E.03892
G1 X93.725 Y98.513 E.02
G1 X94.802 Y96.974 E.05536
G1 X95.405 Y96.424 E.02405
; printing object Shape-Box id:0 copy 0
G1 E-1.12 F2400
;WIPE_START
G1 F4800
G1 X95.449 Y96.384 E-.02825
G1 X96.131 Y95.763 E-.43813
G1 X96.155 Y95.747 E-.01362
;WIPE_END
G1 X114.216 Y105.064 F6000
G1 E1.6 F2400
;TYPE:External perimeter
G1 F1200
G1 X114.158 Y105.286 E.00676
G1 X114.111 Y105.385 E.00323
G1 X113.986 Y105.554 E.0062
G1 X113.854 Y105.631 E.0045
G1 X113.675 Y105.676 E.00544
G1 X113.498 Y105.642 E.00531
G1 X113.392 Y105.594 E.00343
G1 X113.326 Y105.487 E.00371
G1 X113.218 Y105.146 E.01054
G1 X113.484 Y105.214 E.00809
G1 X113.76 Y105.211 E.00814
G1 X113.917 Y105.183 E.0047
G1 X114.16 Y105.086 E.00771
G1 E-1.12 F2400
;WIPE_START
G1 F4800
G1 X114.216 Y105.064 E-.02858
G1 X114.158 Y105.286 E-.10899
G1 X114.111 Y105.385 E-.05206
G1 X113.986 Y105.554 E-.09985
G1 X113.854 Y105.631 E-.07259
G1 X113.675 Y105.676 E-.08767
G1 X113.613 Y105.664 E-.03026
;WIPE_END
G1 X117.222 Y105.057 F6000
G1 E1.6 F2400
G1 F1200
G1 X117.19 Y105.219 E.00487
G1 X117.116 Y105.388 E.00544
G1 X116.993 Y105.554 E.00609
G1 X116.861 Y105.631 E.0045
G1 X116.739 Y105.668 E.00376
G1 X116.593 Y105.665 E.0043
G1 X116.405 Y105.593 E.00593
G1 X116.359 Y105.541 E.00205
G1 X116.223 Y105.142 E.01242
G1 X116.371 Y105.197 E.00465
G1 X116.768 Y105.212 E.01171
G1 X117.06 Y105.141 E.00886
G1 X117.169 Y105.085 E.00361
G1 E-1.12 F2400
;WIPE_START
G1 F4800
G1 X117.222 Y105.057 E-.02847
G1 X117.19 Y105.219 E-.07844
G1 X117.116 Y105.388 E-.08763
G1 X116.993 Y105.554 E-.09814
G1 X116.861 Y105.631 E-.07259
G1 X116.739 Y105.668 E-.06056
G1 X116.625 Y105.666 E-.05417
;WIPE_END
G1 X114.209 Y111.029 F6000
G1 E1.6 F2400
G1 F1200
G1 X114.152 Y111.251 E.00676
G1 X114.105 Y111.35 E.00323
G1 X113.98 Y111.519 E.0062
G1 X113.848 Y111.596 E.0045
G1 X113.669 Y111.641 E.00544
G1 X113.492 Y111.607 E.00531
G1 X113.386 Y111.559 E.00343
G1 X113.32 Y111.452 E.00371
G1 X113.212 Y111.111 E.01054
G1 X113.478 Y111.179 E.00809
G1 X113.754 Y111.176 E.00814
G1 X113.911 Y111.148 E.0047
G1 X114.154 Y111.051 E.00771
G1 E-1.12 F2400
;WIPE_START
G1 F4800
G1 X114.209 Y111.029 E-.02814
G1 X114.152 Y111.251 E-.10887
G1 X114.105 Y111.35 E-.05206
G1 X113.98 Y111.519 E-.09985
G1 X113.848 Y111.596 E-.07259
G1 X113.669 Y111.641 E-.08767
G1 X113.605 Y111.629 E-.03082
;WIPE_END
G1 X106.496 Y109.357 F6000
G1 E1.6 F2400
G1 F1200
G1 X106.611 Y109.736 E.01167
G1 X106.332 Y109.666 E.00848
G1 X106.048 Y109.67 E.00837
G1 X105.884 Y109.702 E.00492
G1 X105.609 Y109.815 E.00876
G1 X105.68 Y109.567 E.0076
G1 X105.82 Y109.329 E.00814
G1 X106.047 Y109.221 E.00741
G1 X106.174 Y109.205 E.00377
G1 X106.324 Y109.228 E.00447
G1 X106.439 Y109.279 E.00371
G1 X106.46 Y109.308 E.00106
G1 E-1.12 F2400
;WIPE_START
G1 F4800
G1 X106.496 Y109.357 E-.02888
G1 X106.611 Y109.736 E-.18813
G1 X106.332 Y109.666 E-.13663
G1 X106.066 Y109.67 E-.12636
;WIPE_END
G1 X106.167 Y103.774 F6000
G1 E1.6 F2400
;TYPE:Perimeter
G1 F1200
G1 X106.088 Y103.763 E.00235
G1 X106.082 Y103.71 E.00157
G1 X106.133 Y103.695 E.00157
G1 X106.143 Y103.718 E.00074
G1 X104.594 Y104.733 F6000
G1 F1200
G1 X104.568 Y104.79 E.00185
G1 X104.564 Y104.701 E.00263
G1 E-1.12 F2400
;WIPE_START
G1 F4800
G1 X104.594 Y104.733 E-.02084
G1 X104.568 Y104.79 E-.02976
G1 X104.564 Y104.701 E-.04232
;WIPE_END
G1 E-.38708 F2400
G1 X101.919 Y104.714 F6000
G1 E1.6 F2400
G1 F1200
G1 X101.919 Y104.739 E.00074
G1 X100.936 Y104.693 E.029
G1 X100.992 Y104.289 E.01202
G1 X101.919 Y104.28 E.02732
G1 X101.919 Y104.654 E.01102
G1 E-1.12 F2400
;WIPE_START
G1 F4800
G1 X101.919 Y104.714 E-.0285
G1 X101.919 Y104.739 E-.01188
G1 X100.994 Y104.696 E-.43962
;WIPE_END
G1 X100.074 Y103.763 F6000
G1 E1.6 F2400
G1 F1200
G1 X100.069 Y103.71 E.00157
G1 X100.12 Y103.695 E.00157
G1 X100.153 Y103.774 E.00252
G1 X100.134 Y103.771 E.00057
G1 E-1.12 F2400
;WIPE_START
G1 F4800
G1 X100.074 Y103.763 E-.02875
G1 X100.069 Y103.71 E-.02529
G1 X100.12 Y103.695 E-.02525
G1 X100.153 Y103.774 E-.04067
G1 X100.134 Y103.771 E-.00914
;WIPE_END
G1 E-.3509 F2400
G1 X117.448 Y108.057 F6000
G1 E1.6 F2400
G1 F1200
G1 X117.483 Y108.069 E.00109
G1 X117.812 Y108.27 E.01136
G1 X118.076 Y108.535 E.01102
G1 X118.226 Y108.752 E.00777
G1 X118.411 Y109.161 E.01323
G1 X118.525 Y109.631 E.01425
G1 X118.578 Y110.145 E.01523
G1 X118.575 Y110.759 E.0181
G1 X118.524 Y111.23 E.01396
G1 X118.421 Y111.655 E.01289
G1 X118.253 Y112.037 E.0123
G1 X118.017 Y112.374 E.01213
G1 X117.698 Y112.655 E.01253
G1 X117.307 Y112.844 E.0128
G1 X116.888 Y112.922 E.01256
G1 X116.514 Y112.916 E.01102
G1 X116.101 Y112.82 E.0125
G1 X115.725 Y112.616 E.01261
G1 X115.411 Y112.316 E.0128
G1 X115.222 Y111.982 E.01131
G1 X114.939 Y112.401 E.0149
G1 X114.608 Y112.666 E.0125
G1 X114.251 Y112.831 E.01159
G1 X114.022 Y112.89 E.00697
G1 X113.627 Y112.928 E.0117
G1 X113.185 Y112.878 E.01311
G1 X112.877 Y112.772 E.0096
G1 X112.608 Y112.611 E.00924
G1 X112.372 Y112.4 E.00933
G1 X112.174 Y112.122 E.01006
G1 X112.071 Y111.835 E.00899
G1 X111.583 Y112.11 E.01651
G1 X111.365 Y112.277 E.00809
G1 X111.213 Y112.433 E.00642
G1 X110.897 Y112.925 E.01723
G1 X109.55 Y112.925 E.0397
G1 X109.55 Y107.979 E.14577
G1 X111.364 Y107.979 E.05346
G1 X111.356 Y109.613 E.04816
G1 X111.296 Y110.322 E.02097
G1 X111.903 Y110.058 E.01951
G1 X111.874 Y109.828 E.00683
G1 X111.92 Y109.361 E.01383
G1 X111.999 Y109.093 E.00823
G1 X112.202 Y108.691 E.01327
G1 X112.364 Y108.483 E.00777
G1 X112.558 Y108.297 E.00792
G1 X112.941 Y108.064 E.01321
G1 X113.196 Y107.976 E.00795
G1 X113.474 Y107.927 E.00832
G1 X113.873 Y107.924 E.01176
G1 X114.268 Y108.004 E.01188
G1 X114.634 Y108.172 E.01187
G1 X114.949 Y108.417 E.01176
G1 X115.114 Y108.613 E.00755
G1 X115.238 Y108.831 E.00739
G1 X115.443 Y108.493 E.01165
G1 X115.766 Y108.195 E.01295
G1 X116.162 Y107.999 E.01302
G1 X116.612 Y107.918 E.01348
G1 X117.109 Y107.949 E.01468
G1 X117.391 Y108.039 E.00872
G1 E-1.12 F2400
;WIPE_START
G1 F4800
G1 X117.448 Y108.057 E-.02839
G1 X117.483 Y108.069 E-.01757
G1 X117.812 Y108.27 E-.18313
G1 X118.076 Y108.535 E-.17768
G1 X118.163 Y108.662 E-.07323
;WIPE_END
G1 X114.687 Y108.69 F6000
G1 E1.6 F2400
;TYPE:External perimeter
G1 F1200
G1 X114.804 Y108.829 E.00535
G1 X114.973 Y109.128 E.01012
G1 X115.027 Y109.324 E.00599
G1 X115.113 Y110.096 E.02289
G1 X115.113 Y110.592 E.01462
G1 X115.013 Y111.457 E.02566
G1 X114.955 Y111.663 E.00631
G1 X114.867 Y111.852 E.00614
G1 X114.662 Y112.14 E.01042
G1 X114.408 Y112.343 E.00958
G1 X114.124 Y112.474 E.00922
G1 X113.956 Y112.518 E.00512
G1 X113.631 Y112.549 E.00962
G1 X113.269 Y112.508 E.01074
G1 X113.037 Y112.428 E.00723
G1 X112.833 Y112.306 E.00701
G1 X112.655 Y112.147 E.00703
G1 X112.512 Y111.945 E.00729
G1 X112.397 Y111.627 E.00997
G1 X112.355 Y111.448 E.00542
G1 X112.479 Y111.153 E.00943
G1 X113.165 Y111.099 E.02028
G1 X113.122 Y111.088 E.00131
G1 X112.814 Y110.891 E.01078
G1 X112.447 Y110.528 E.01521
G1 X112.292 Y110.13 E.01259
G1 X112.253 Y109.823 E.00912
G1 X112.292 Y109.434 E.01152
G1 X112.351 Y109.233 E.00617
G1 X112.522 Y108.893 E.01122
G1 X112.645 Y108.736 E.00588
G1 X112.789 Y108.598 E.00588
G1 X113.102 Y108.408 E.01079
G1 X113.291 Y108.343 E.00589
G1 X113.508 Y108.304 E.0065
G1 X113.837 Y108.302 E.0097
G1 X114.151 Y108.365 E.00944
G1 X114.437 Y108.497 E.00928
G1 X114.639 Y108.653 E.00752
G1 X115.737 Y108.735 F6000
G1 F1200
G1 X115.982 Y108.509 E.00982
G1 X116.282 Y108.361 E.00986
G1 X116.635 Y108.297 E.01057
G1 X117.038 Y108.322 E.0119
G1 X117.325 Y108.414 E.00888
G1 X117.577 Y108.568 E.0087
G1 X117.785 Y108.777 E.00869
G1 X117.896 Y108.938 E.00576
G1 X118.053 Y109.285 E.01123
G1 X118.153 Y109.695 E.01244
G1 X118.2 Y110.163 E.01386
G1 X118.198 Y110.738 E.01695
G1 X118.152 Y111.165 E.01266
G1 X118.062 Y111.534 E.01119
G1 X117.923 Y111.851 E.0102
G1 X117.734 Y112.121 E.00971
G1 X117.488 Y112.338 E.00967
G1 X117.188 Y112.482 E.00981
G1 X116.856 Y112.545 E.00996
G1 X116.56 Y112.54 E.00873
G1 X116.236 Y112.464 E.00981
G1 X115.949 Y112.309 E.00961
G1 X115.712 Y112.082 E.00967
G1 X115.549 Y111.794 E.00975
G1 X115.446 Y111.468 E.01008
G1 X115.371 Y110.682 E.02327
G1 X115.368 Y110.261 E.01241
G1 X115.456 Y109.349 E.027
G1 X115.563 Y109.021 E.01017
G1 X115.706 Y108.786 E.00811
G1 E-1.12 F2400
;WIPE_START
G1 F4800
G1 X115.737 Y108.735 E-.02835
G1 X115.982 Y108.509 E-.15833
G1 X116.282 Y108.361 E-.1589
G1 X116.56 Y108.31 E-.13442
;WIPE_END
G1 X110.985 Y108.356 F6000
G1 E1.6 F2400
G1 F1200
G1 X110.979 Y109.6 E.03666
G1 X110.95 Y110.079 E.01414
G1 X110.884 Y110.536 E.01361
G1 X110.888 Y111.035 E.01471
G1 X111.069 Y110.921 E.0063
G1 X111.169 Y110.789 E.00488
G1 X111.81 Y110.51 E.0206
G1 X111.858 Y111.522 E.02986
G1 X111.375 Y111.794 E.01634
G1 X111.113 Y111.994 E.00971
G1 X110.916 Y112.198 E.00836
G1 X110.691 Y112.548 E.01226
G1 X109.927 Y112.548 E.02252
G1 X109.927 Y108.356 E.12355
G1 X110.925 Y108.356 E.02941
G1 E-1.12 F2400
;WIPE_START
G1 F4800
G1 X110.985 Y108.356 E-.0285
G1 X110.98 Y109.307 E-.4515
;WIPE_END
G1 X111.957 Y115.324 F6000
G1 E1.6 F2400
;TYPE:Perimeter
G1 F1200
G1 X111.97 Y114.928 E.01168
G1 X112.047 Y114.61 E.00964
G1 X112.186 Y114.298 E.01007
G1 X112.402 Y113.99 E.01109
G1 X112.68 Y113.73 E.01122
G1 X112.972 Y113.548 E.01014
G1 X113.278 Y113.427 E.0097
G1 X113.644 Y113.359 E.01097
G1 X113.957 Y113.359 E.00923
G1 X114.349 Y113.435 E.01177
G1 X114.725 Y113.6 E.0121
G1 X114.966 Y113.767 E.00864
G1 X115.196 Y113.988 E.0094
G1 X115.419 Y114.304 E.0114
G1 X115.585 Y114.712 E.01298
G1 X115.645 Y115.061 E.01044
G1 X115.638 Y115.417 E.01049
G1 X115.554 Y115.792 E.01133
G1 X115.406 Y116.122 E.01066
G1 X115.196 Y116.417 E.01067
G1 X114.912 Y116.682 E.01145
G1 X114.622 Y116.86 E.01003
G1 X114.346 Y116.97 E.00876
G1 X114.006 Y117.042 E.01024
G1 X113.593 Y117.042 E.01217
G1 X113.245 Y116.968 E.01049
G1 X112.878 Y116.808 E.0118
G1 X112.584 Y116.597 E.01067
G1 X112.369 Y116.376 E.00909
G1 X112.156 Y116.052 E.01143
G1 X112.028 Y115.736 E.01005
G1 X111.96 Y115.384 E.01057
G1 X113.361 Y116.607 F6000
;TYPE:External perimeter
G1 F1200
G1 X113.066 Y116.478 E.00949
G1 X112.831 Y116.31 E.00851
G1 X112.664 Y116.139 E.00704
G1 X112.492 Y115.876 E.00926
G1 X112.391 Y115.629 E.00786
G1 X112.334 Y115.33 E.00897
G1 X112.345 Y114.979 E.01035
G1 X112.406 Y114.732 E.0075
G1 X112.516 Y114.484 E.008
G1 X112.688 Y114.239 E.00882
G1 X112.91 Y114.03 E.00899
G1 X113.142 Y113.887 E.00803
G1 X113.383 Y113.792 E.00763
G1 X113.679 Y113.736 E.00888
G1 X113.922 Y113.736 E.00716
G1 X114.235 Y113.797 E.0094
G1 X114.54 Y113.931 E.00982
G1 X114.726 Y114.06 E.00667
G1 X114.908 Y114.235 E.00744
G1 X115.086 Y114.487 E.00909
G1 X115.22 Y114.816 E.01047
G1 X115.267 Y115.09 E.00819
G1 X115.262 Y115.372 E.00831
G1 X115.195 Y115.672 E.00906
G1 X115.077 Y115.934 E.00847
G1 X114.911 Y116.167 E.00843
G1 X114.683 Y116.38 E.0092
G1 X114.452 Y116.522 E.00799
G1 X114.236 Y116.608 E.00685
G1 X113.966 Y116.665 E.00813
G1 X113.632 Y116.665 E.00984
G1 X113.42 Y116.62 E.00639
G1 E-1.12 F2400
;WIPE_START
G1 F4800
