; generated by PrusaSlicer 2.6.1+win64 on 2023-10-09 at 17:56:46 UTC

; 

; external perimeters extrusion width = 0.42mm
; perimeters extrusion width = 0.44mm
; infill extrusion width = 0.44mm
; solid infill extrusion width = 0.44mm
; top infill extrusion width = 0.40mm
; first layer extrusion width = 0.42mm

;TYPE:Custom
; Ender 3 Custom Start G-code
G92 E0 ; Reset Extruder

M140 S75 ; set bed temp
M104 S160 ; set extruder temp
M109 S160 ; wait for extruder temp
M190 S75 ; wait for bed temp

G28 ; Home all axes
M104 S235 ; set extruder temp 
BED_MESH_CALIBRATE AREA_START=77.5819,73.6135 AREA_END=153.434,157.338

G1 Z2.0 F3000 ; Move Z Axis up little to prevent scratching of Heat Bed
M109 S235 ; wait for extruder temp
G1 X0.1 Y20 Z0.3 F5000.0 ; Move to start position

G1 X0.1 Y200.0 Z0.3 F1500.0 E15 ; Draw the first line
G1 X0.4 Y200.0 Z0.3 F5000.0 ; Move to side a little
G1 X0.4 Y20 Z0.3 F1500.0 E30 ; Draw the second line
G92 E0 ; Reset Extruder
G1 Z2.0 F3000 ; Move Z Axis up little to prevent scratching of Heat Bed
G1 X5 Y20 Z0.3 F5000.0 ; Move over to prevent blob squish
G21 ; set units to millimeters
G90 ; use absolute coordinates
M83 ; use relative distances for extrusion
; Filament gcode
M107
;LAYER_CHANGE
;Z:0.2
;HEIGHT:0.2
;BEFORE_LAYER_CHANGE
G92 E0
;0.2


G1 E-1.6 F2400
G1 Z.2 F6000
;AFTER_LAYER_CHANGE
;0.2
G1 X83.541 Y92.043
G1 E1.6 F2400
M204 S500
;TYPE:Skirt/Brim
;WIDTH:0.42
G1 F1200
G1 X95.626 Y81.075 E.481
G1 X99.278 Y78.352 E.13426
G1 X102.169 Y76.777 E.09703
G1 X103.479 Y76.165 E.04262
G1 X106.715 Y75.016 E.10121
G1 X107.939 Y74.659 E.03758
G1 X112.632 Y73.867 E.14027
G1 X114.638 Y73.802 E.05915
G1 X116.724 Y73.81 E.06148
G1 X118.09 Y73.916 E.04038
G1 X124.749 Y75.137 E.19953
G1 X126.105 Y75.457 E.04106
G1 X130.426 Y77.279 E.13821
G1 X134.38 Y79.847 E.13896
G1 X151.241 Y95.198 E.67205
G1 X151.917 Y96.378 E.04008
G1 X153.128 Y100.936 E.139
G1 X153.245 Y101.985 E.03111
G1 X153.153 Y103.45 E.04326
G1 X146.16 Y133.96 E.92254
G1 X142.602 Y144.491 E.32762
G1 X142.274 Y145.271 E.02494
G1 X139.431 Y150.691 E.18039
G1 X138.859 Y151.551 E.03044
G1 X136.054 Y155.303 E.13807
G1 X135.225 Y156.236 E.03679
G1 X133.218 Y157.137 E.06484
G1 X95.612 Y157.009 E1.10837
G1 X94.094 Y156.61 E.04626
G1 X93.381 Y156.063 E.02649
G1 X92.845 Y155.442 E.02418
G1 X92.308 Y154.507 E.03178
G1 X88.683 Y146.495 E.25918
G1 X86.78 Y140.94 E.17306
G1 X86.014 Y138.465 E.07636
G1 X84.928 Y134 E.13543
G1 X77.857 Y103.106 E.93409
G1 X77.769 Y101.86 E.03681
G1 X77.866 Y101.34 E.01559
G1 X79.037 Y97.074 E.13038
G1 X79.507 Y95.994 E.03471
G1 X80.029 Y95.231 E.02725
G1 X83.497 Y92.084 E.13802
G1 X83.749 Y92.362 F6000
G1 F1200
G1 X95.855 Y81.375 E.48184
G1 X99.464 Y78.68 E.13275
G1 X102.341 Y77.113 E.09656
G1 X103.606 Y76.52 E.04118
G1 X106.839 Y75.372 E.10112
G1 X108.004 Y75.031 E.03578
G1 X112.682 Y74.241 E.13983
G1 X114.638 Y74.179 E.05768
G1 X116.54 Y74.181 E.05606
G1 X118.023 Y74.287 E.04382
G1 X124.681 Y75.508 E.1995
G1 X126.002 Y75.819 E.04
G1 X130.245 Y77.61 E.13574
G1 X134.167 Y80.158 E.13785
G1 X150.962 Y95.451 E.66946
G1 X151.514 Y96.372 E.03165
G1 X151.616 Y96.671 E.00931
G1 X152.764 Y101.032 E.13291
G1 X152.868 Y101.984 E.02823
G1 X152.785 Y103.366 E.04081
G1 X145.792 Y133.876 E.92254
G1 X142.245 Y144.368 E.32642
G1 X141.94 Y145.097 E.02329
G1 X139.098 Y150.515 E.18032
G1 X138.556 Y151.326 E.02875
G1 X135.753 Y155.076 E.13799
G1 X135.049 Y155.879 E.03147
G1 X133.194 Y156.76 E.06053
G1 X95.613 Y156.632 E1.10763
G1 X93.651 Y155.8 E.06281
G1 X93.158 Y155.231 E.02219
G1 X92.647 Y154.342 E.03022
G1 X89.027 Y146.34 E.25885
G1 X87.138 Y140.82 E.17195
G1 X86.375 Y138.357 E.076
G1 X85.296 Y133.916 E.1347
G1 X78.225 Y103.022 E.93409
G1 X78.144 Y101.904 E.03304
G1 X78.23 Y101.44 E.01391
G1 X79.401 Y97.174 E.13038
G1 X79.842 Y96.168 E.03237
G1 X80.311 Y95.482 E.02449
G1 X83.704 Y92.402 E.13506
G1 X83.956 Y92.68 F6000
G1 F1200
G1 X96.084 Y81.674 E.48269
G1 X99.649 Y79.009 E.13118
G1 X102.512 Y77.448 E.09611
G1 X103.733 Y76.875 E.03975
G1 X108.068 Y75.402 E.13494
G1 X112.732 Y74.614 E.13941
G1 X114.638 Y74.556 E.0562
G1 X116.538 Y74.558 E.056
G1 X117.956 Y74.658 E.0419
G1 X124.613 Y75.879 E.19947
G1 X125.9 Y76.182 E.03897
G1 X130.064 Y77.941 E.13323
G1 X133.955 Y80.47 E.13677
G1 X150.682 Y95.704 E.66681
G1 X151.253 Y96.776 E.0358
G1 X152.399 Y101.128 E.13264
G1 X152.491 Y101.984 E.02537
G1 X152.417 Y103.281 E.03829
G1 X145.425 Y133.792 E.92256
G1 X141.889 Y144.245 E.32523
G1 X141.605 Y144.923 E.02166
G1 X138.764 Y150.339 E.18025
G1 X138.279 Y151.066 E.02576
G1 X135.048 Y155.338 E.15786
G1 X134.694 Y155.7 E.01492
G1 X133.17 Y156.384 E.04923
G1 X95.615 Y156.255 E1.10687
G1 X93.921 Y155.537 E.05423
G1 X93.471 Y155.02 E.0202
G1 X92.986 Y154.177 E.02866
G1 X89.37 Y146.185 E.25854
G1 X87.495 Y140.7 E.17084
G1 X86.736 Y138.248 E.07565
G1 X85.663 Y133.832 E.13394
G1 X78.592 Y102.937 E.93411
G1 X78.518 Y101.947 E.02926
G1 X78.593 Y101.54 E.0122
G1 X79.765 Y97.274 E.13039
G1 X80.176 Y96.343 E.02999
G1 X80.592 Y95.732 E.02179
G1 X83.912 Y92.72 E.13212
; printing object cuteknucklecat.stl id:0 copy 0
G1 E-1.12 F2400
;WIPE_START
G1 F4800
G1 X84.66 Y92.041 E-.48
;WIPE_END
G1 X138.198 Y94.982 F6000
G1 E1.6 F2400
;TYPE:Perimeter
G1 F1200
G1 X138.214 Y95.323 E.01006
G1 X138.279 Y95.525 E.00625
G1 X138.48 Y95.732 E.0085
G1 X138.561 Y96.074 E.01036
G1 X138.598 Y96.13 E.00198
G1 X138.823 Y96.329 E.00885
G1 X138.809 Y96.524 E.00576
G1 X139.011 Y96.817 E.01049
G1 X139.263 Y96.975 E.00877
G1 X139.235 Y97.24 E.00785
G1 X139.318 Y97.324 E.00348
G1 X139.48 Y97.716 E.0125
G1 X139.63 Y97.986 E.0091
G1 X139.755 Y98.117 E.00534
G1 X139.794 Y98.215 E.00311
G1 X140.026 Y98.421 E.00914
G1 X139.99 Y98.867 E.01319
G1 X140.013 Y99.252 E.01137
G1 X140.046 Y99.391 E.00421
G1 X140.039 Y99.694 E.00893
G1 X140.079 Y100.565 E.0257
G1 X140.182 Y100.814 E.00794
G1 X140.181 Y101.501 E.02025
G1 X140.126 Y101.65 E.00468
G1 X140.18 Y102.027 E.01122
G1 X140.197 Y102.429 E.01186
G1 X140.256 Y102.96 E.01575
G1 X140.204 Y103.242 E.00845
G1 X140.235 Y103.553 E.00921
G1 X140.137 Y103.634 E.00375
G1 X140.122 Y103.794 E.00474
G1 X139.966 Y103.956 E.00663
G1 X139.929 Y104.077 E.00373
G1 X139.721 Y104.52 E.01442
G1 X139.715 Y104.784 E.00778
G1 X139.678 Y104.804 E.00124
G1 X139.693 Y104.976 E.00509
G1 X139.518 Y105.096 E.00625
G1 X139.447 Y105.371 E.00837
G1 X139.299 Y105.504 E.00586
G1 X139.113 Y105.962 E.01457
G1 X138.986 Y106.398 E.01338
G1 X138.853 Y106.537 E.00567
G1 X138.745 Y106.83 E.0092
G1 X138.702 Y107.129 E.0089
G1 X138.511 Y107.307 E.00769
G1 X138.376 Y107.625 E.01018
G1 X138.084 Y107.881 E.01145
G1 X137.914 Y108.064 E.00736
G1 X137.784 Y108.316 E.00836
G1 X137.5 Y108.457 E.00935
G1 X137.398 Y108.606 E.00532
G1 X137.072 Y108.942 E.0138
G1 X136.996 Y108.978 E.00248
G1 X136.92 Y109.274 E.00901
G1 X136.464 Y109.378 E.01378
G1 X136.28 Y109.521 E.00687
G1 X135.982 Y109.85 E.01308
G1 X135.717 Y110.093 E.0106
G1 X135.653 Y110.359 E.00806
G1 X135.234 Y110.51 E.01313
G1 X135.059 Y110.774 E.00934
G1 X134.262 Y111.042 E.02478
G1 X134.11 Y111.201 E.00648
G1 X133.889 Y111.193 E.00652
G1 X133.74 Y111.297 E.00536
G1 X133.476 Y111.314 E.0078
G1 X133.368 Y111.345 E.00331
G1 X132.919 Y111.56 E.01467
G1 X132.473 Y111.72 E.01397
G1 X132.158 Y111.915 E.01092
G1 X131.96 Y111.906 E.00584
G1 X131.9 Y111.937 E.00199
G1 X131.425 Y111.904 E.01403
G1 X131.152 Y111.911 E.00805
G1 X130.835 Y111.958 E.00945
G1 X130.686 Y111.912 E.0046
G1 X130.477 Y111.892 E.00619
G1 X130.231 Y111.92 E.0073
G1 X129.627 Y111.799 E.01816
G1 X129.39 Y111.777 E.00702
G1 X129.108 Y111.807 E.00836
G1 X128.698 Y111.794 E.01209
G1 X128.539 Y111.749 E.00487
G1 X127.873 Y111.68 E.01973
G1 X127.419 Y111.684 E.01338
G1 X127.31 Y111.638 E.00349
G1 X126.791 Y111.659 E.01531
G1 X126.616 Y111.493 E.00711
G1 X126.409 Y111.502 E.00611
G1 X126.26 Y111.367 E.00593
G1 X126.099 Y111.364 E.00475
G1 X125.933 Y111.281 E.00547
G1 X125.856 Y111.282 E.00227
G1 X125.392 Y111.12 E.01449
G1 X125.321 Y111.048 E.00298
G1 X125.247 Y111.048 E.00218
G1 X124.836 Y110.893 E.01295
G1 X124.744 Y110.815 E.00355
G1 X124.193 Y110.634 E.01709
G1 X123.914 Y110.256 E.01385
G1 X123.699 Y110.126 E.00741
G1 X123.591 Y109.956 E.00594
G1 X123.448 Y109.832 E.00558
G1 X123.308 Y109.782 E.00438
G1 X123.223 Y109.643 E.0048
G1 X122.968 Y109.577 E.00776
G1 X122.91 Y109.386 E.00588
G1 X122.628 Y109.267 E.00902
G1 X122.525 Y109.049 E.00711
G1 X122.288 Y108.879 E.0086
G1 X122.024 Y108.531 E.01287
G1 X121.773 Y108.324 E.00959
G1 X121.514 Y108.043 E.01126
G1 X121.343 Y107.919 E.00623
G1 X121.273 Y107.764 E.00501
G1 X121.152 Y107.634 E.00523
G1 X121.133 Y107.566 E.00208
G1 X120.998 Y107.388 E.00658
G1 X120.855 Y106.993 E.01238
G1 X120.772 Y106.904 E.00359
G1 X120.736 Y106.755 E.00452
G1 X120.584 Y106.415 E.01098
G1 X120.333 Y106.089 E.01213
G1 X120.322 Y105.889 E.0059
G1 X120.21 Y105.642 E.00799
G1 X120.087 Y105.447 E.0068
G1 X119.994 Y105.233 E.00688
G1 X119.789 Y105.015 E.00882
G1 X119.74 Y104.763 E.00757
G1 X119.664 Y104.605 E.00517
G1 X119.539 Y104.436 E.0062
G1 X119.506 Y104.22 E.00644
G1 X119.354 Y103.886 E.01082
G1 X119.45 Y103.525 E.01101
G1 X119.437 Y103.428 E.00288
G1 X119.321 Y103.203 E.00746
G1 X119.265 Y102.166 E.03061
G1 X119.296 Y101.861 E.00904
G1 X119.231 Y101.319 E.01609
G1 X119.171 Y101.137 E.00565
G1 X119.118 Y100.299 E.02475
G1 X119.235 Y100.165 E.00524
G1 X119.235 Y100.089 E.00224
G1 X119.309 Y100.004 E.00332
G1 X119.342 Y99.779 E.0067
G1 X119.516 Y99.564 E.00815
G1 X119.544 Y99.381 E.00546
G1 X119.577 Y99.32 E.00204
G1 X119.586 Y99.173 E.00434
G1 X119.719 Y98.933 E.00809
G1 X119.746 Y98.684 E.00738
G1 X119.956 Y98.389 E.01067
G1 X120.03 Y98.144 E.00754
G1 X120.052 Y97.91 E.00693
G1 X120.213 Y97.674 E.00842
G1 X120.23 Y97.466 E.00615
G1 X120.424 Y97.093 E.01239
G1 X120.438 Y96.944 E.00441
G1 X120.605 Y96.693 E.00889
G1 X120.667 Y96.495 E.00612
G1 X120.647 Y96.085 E.0121
G1 X120.869 Y95.881 E.00889
G1 X121.015 Y95.443 E.01361
G1 X121.119 Y95.384 E.00352
G1 X121.191 Y95.188 E.00615
G1 X121.427 Y95.103 E.00739
G1 X121.452 Y95.067 E.00129
G1 X121.572 Y94.998 E.00408
G1 X122.065 Y94.515 E.02034
G1 X122.205 Y94.44 E.00468
G1 X122.293 Y94.332 E.00411
G1 X122.362 Y94.098 E.00719
G1 X122.628 Y94.046 E.00799
G1 X122.792 Y93.872 E.00705
G1 X122.88 Y93.805 E.00326
G1 X122.952 Y93.686 E.0041
G1 X123.185 Y93.569 E.00768
G1 X123.339 Y93.427 E.00617
G1 X123.404 Y93.295 E.00434
G1 X123.619 Y93.074 E.00909
G1 X123.734 Y93.02 E.00374
G1 X123.835 Y92.888 E.0049
G1 X124.047 Y92.757 E.00734
G1 X124.11 Y92.689 E.00273
G1 X124.248 Y92.399 E.00947
G1 X124.445 Y92.372 E.00586
G1 X124.643 Y92.109 E.0097
G1 X125.073 Y92.027 E.0129
G1 X125.411 Y91.869 E.011
G1 X125.586 Y91.847 E.0052
G1 X125.798 Y91.738 E.00703
G1 X125.947 Y91.723 E.00441
G1 X126.049 Y91.671 E.00337
G1 X126.144 Y91.663 E.00281
G1 X126.755 Y91.437 E.0192
G1 X127.081 Y91.291 E.01053
G1 X127.657 Y91.167 E.01737
G1 X128.1 Y90.92 E.01495
G1 X128.43 Y90.907 E.00973
G1 X128.58 Y90.858 E.00465
G1 X128.932 Y90.936 E.01063
G1 X129.136 Y90.892 E.00615
G1 X129.529 Y90.932 E.01164
G1 X129.58 Y90.952 E.00161
G1 X129.783 Y90.944 E.00599
G1 X130.008 Y91.079 E.00773
G1 X130.168 Y91.093 E.00473
G1 X130.51 Y91.074 E.0101
G1 X130.791 Y91.177 E.00882
G1 X130.959 Y91.203 E.00501
G1 X131.025 Y91.19 E.00198
G1 X131.318 Y91.255 E.00885
G1 X131.68 Y91.201 E.01079
G1 X132.032 Y91.332 E.01107
G1 X132.159 Y91.359 E.00383
G1 X132.288 Y91.351 E.00381
G1 X132.586 Y91.399 E.0089
G1 X132.823 Y91.35 E.00713
G1 X133.026 Y91.416 E.00629
G1 X133.229 Y91.431 E.006
G1 X133.583 Y91.56 E.0111
G1 X133.76 Y91.674 E.00621
G1 X134.495 Y92.042 E.02423
G1 X134.743 Y92.056 E.00732
G1 X134.934 Y92.274 E.00854
G1 X135.16 Y92.364 E.00717
G1 X135.533 Y92.626 E.01343
G1 X135.633 Y92.738 E.00443
G1 X135.793 Y92.82 E.0053
G1 X135.86 Y92.901 E.0031
G1 X136.035 Y92.989 E.00577
G1 X136.276 Y93.28 E.01114
G1 X137.009 Y93.918 E.02864
G1 X137.203 Y94.128 E.00843
G1 X137.452 Y94.257 E.00827
G1 X137.727 Y94.634 E.01375
G1 X137.839 Y94.718 E.00413
G1 X138.195 Y94.922 E.01209
G1 X137.828 Y95.14 F6000
;TYPE:External perimeter
G1 F1200
G1 X137.839 Y95.391 E.0074
G1 X137.947 Y95.724 E.01032
G1 X138.137 Y95.92 E.00805
G1 X138.209 Y96.226 E.00927
G1 X138.311 Y96.38 E.00544
G1 X138.433 Y96.488 E.0048
G1 X138.424 Y96.612 E.00366
G1 X138.667 Y96.971 E.01278
G1 X138.712 Y97.074 E.00331
G1 X138.863 Y97.169 E.00526
G1 X138.842 Y97.375 E.0061
G1 X138.998 Y97.537 E.00663
G1 X139.14 Y97.88 E.01094
G1 X139.324 Y98.211 E.01116
G1 X139.432 Y98.324 E.00461
G1 X139.477 Y98.437 E.00358
G1 X139.635 Y98.578 E.00624
G1 X139.612 Y98.863 E.00843
G1 X139.639 Y99.307 E.01311
G1 X139.668 Y99.431 E.00375
G1 X139.662 Y99.699 E.0079
G1 X139.705 Y100.649 E.02803
G1 X139.805 Y100.889 E.00766
G1 X139.804 Y101.433 E.01603
G1 X139.744 Y101.594 E.00506
G1 X139.758 Y101.804 E.0062
G1 X139.804 Y102.068 E.0079
G1 X139.82 Y102.457 E.01147
G1 X139.875 Y102.947 E.01453
G1 X139.824 Y103.226 E.00836
G1 X139.84 Y103.392 E.00492
G1 X139.777 Y103.445 E.00243
G1 X139.759 Y103.627 E.00539
G1 X139.632 Y103.76 E.00542
G1 X139.575 Y103.945 E.00571
G1 X139.346 Y104.414 E.01538
G1 X139.343 Y104.554 E.00413
G1 X139.28 Y104.59 E.00214
G1 X139.298 Y104.79 E.00592
G1 X139.189 Y104.866 E.00392
G1 X139.11 Y105.167 E.00917
G1 X138.983 Y105.281 E.00503
G1 X138.757 Y105.837 E.01769
G1 X138.65 Y106.204 E.01127
G1 X138.526 Y106.333 E.00527
G1 X138.377 Y106.737 E.01269
G1 X138.348 Y106.944 E.00616
G1 X138.195 Y107.086 E.00615
G1 X138.062 Y107.398 E.01
G1 X137.821 Y107.61 E.00946
G1 X137.603 Y107.845 E.00945
G1 X137.505 Y108.033 E.00625
G1 X137.244 Y108.163 E.00859
G1 X137.105 Y108.366 E.00725
G1 X136.849 Y108.63 E.01084
G1 X136.675 Y108.712 E.00567
G1 X136.612 Y108.957 E.00746
G1 X136.299 Y109.029 E.00947
G1 X136.023 Y109.243 E.01029
G1 X135.714 Y109.584 E.01356
G1 X135.377 Y109.893 E.01348
G1 X135.334 Y110.073 E.00545
G1 X134.988 Y110.197 E.01083
G1 X134.815 Y110.46 E.00928
G1 X134.221 Y110.666 E.01853
G1 X134.096 Y110.671 E.00369
G1 X133.954 Y110.818 E.00602
G1 X133.776 Y110.812 E.00525
G1 X133.611 Y110.928 E.00594
G1 X133.411 Y110.94 E.00591
G1 X133.233 Y110.992 E.00547
G1 X132.774 Y111.211 E.01499
G1 X132.308 Y111.379 E.0146
G1 X132.059 Y111.533 E.00863
G1 X131.875 Y111.524 E.00543
G1 X131.82 Y111.553 E.00183
G1 X131.434 Y111.527 E.0114
G1 X131.12 Y111.534 E.00926
G1 X130.864 Y111.572 E.00763
G1 X130.74 Y111.534 E.00382
G1 X130.624 Y111.536 E.00342
G1 X130.491 Y111.511 E.00399
G1 X130.247 Y111.538 E.00724
G1 X129.682 Y111.426 E.01698
G1 X129.387 Y111.398 E.00873
G1 X129.094 Y111.429 E.00868
G1 X128.756 Y111.418 E.00997
G1 X128.61 Y111.377 E.00447
G1 X127.891 Y111.303 E.0213
G1 X127.494 Y111.306 E.0117
G1 X127.398 Y111.265 E.00308
G1 X127.276 Y111.258 E.0036
G1 X126.934 Y111.275 E.01009
G1 X126.759 Y111.109 E.00711
G1 X126.547 Y111.119 E.00626
G1 X126.408 Y110.994 E.00551
G1 X126.191 Y110.989 E.0064
G1 X126.019 Y110.903 E.00567
G1 X125.917 Y110.904 E.00301
G1 X125.598 Y110.792 E.00996
G1 X125.478 Y110.673 E.00498
G1 X125.317 Y110.671 E.00475
G1 X125.03 Y110.563 E.00904
G1 X124.931 Y110.48 E.00381
G1 X124.425 Y110.313 E.0157
G1 X124.197 Y110.005 E.01129
G1 X124.093 Y109.906 E.00423
G1 X123.963 Y109.838 E.00432
G1 X123.87 Y109.694 E.00505
G1 X123.76 Y109.613 E.00403
G1 X123.66 Y109.507 E.00429
G1 X123.56 Y109.471 E.00313
G1 X123.511 Y109.392 E.00274
G1 X123.404 Y109.3 E.00416
G1 X123.267 Y109.264 E.00417
G1 X123.225 Y109.129 E.00417
G1 X123.163 Y109.084 E.00226
G1 X122.908 Y108.976 E.00816
G1 X122.818 Y108.795 E.00596
G1 X122.56 Y108.61 E.00936
G1 X122.395 Y108.375 E.00846
G1 X122.283 Y108.255 E.00484
G1 X122.033 Y108.05 E.00953
G1 X121.766 Y107.759 E.01164
G1 X121.645 Y107.672 E.00439
G1 X121.591 Y107.553 E.00385
G1 X121.491 Y107.445 E.00434
G1 X121.478 Y107.396 E.00149
G1 X121.333 Y107.205 E.00707
G1 X121.183 Y106.793 E.01292
G1 X121.116 Y106.72 E.00292
G1 X121.082 Y106.579 E.00427
G1 X121.05 Y106.542 E.00144
G1 X120.911 Y106.222 E.01028
G1 X120.703 Y105.952 E.01005
G1 X120.694 Y105.797 E.00458
G1 X120.543 Y105.463 E.0108
G1 X120.421 Y105.271 E.0067
G1 X120.314 Y105.022 E.00799
G1 X120.138 Y104.835 E.00757
G1 X120.101 Y104.645 E.00571
