; generated by PrusaSlicer 2.7.4+win64 on 2024-04-15 at 21:48:36 UTC

; 

; external perimeters extrusion width = 0.42mm
; perimeters extrusion width = 0.44mm
; infill extrusion width = 0.44mm
; solid infill extrusion width = 0.44mm
; top infill extrusion width = 0.40mm
; first layer extrusion width = 0.42mm


; printing object Shape-Box id:0 copy 0
; stop printing object Shape-Box id:0 copy 0

;TYPE:Custom
; Ender 3 Custom Start G-code
G92 E0 ; Reset Extruder

M140 S55 ; set bed temp
M104 S160 ; set extruder temp
M109 S160 ; wait for extruder temp
M190 S55 ; wait for bed temp

G28 ; Home all axes
M104 S210 ; set extruder temp 
BED_MESH_CALIBRATE AREA_START=83.7684,88.5669 AREA_END=143.763,126.207

G1 Z2.0 F3000 ; Move Z Axis up little to prevent scratching of Heat Bed
M109 S210 ; wait for extruder temp
G1 X0.1 Y20 Z0.3 F5000.0 ; Move to start position

G1 X0.1 Y200.0 Z0.3 F1500.0 E15 ; Draw the first line
G1 X0.4 Y200.0 Z0.3 F5000.0 ; Move to side a little
G1 X0.4 Y20 Z0.3 F1500.0 E30 ; Draw the second line
G92 E0 ; Reset Extruder
G1 Z2.0 F3000 ; Move Z Axis up little to prevent scratching of Heat Bed
G1 X5 Y20 Z0.3 F5000.0 ; Move over to prevent blob squish
G21 ; set units to millimeters
G90 ; use absolute coordinates
M83 ; use relative distances for extrusion
; Filament gcode
M107
;LAYER_CHANGE
;Z:0.2
;HEIGHT:0.2
G1 E-1.6 F2400
G1 Z.2 F6000
G1 X87.857 Y91.701
G1 Z.2
G1 E1.6 F2400
M204 S500
;TYPE:Skirt/Brim
;WIDTH:0.42
G1 F1200
G1 X88.725 Y90.996 E.03506
G1 X89.656 Y90.382 E.03497
G1 X91.322 Y89.564 E.05819
G1 X93.099 Y89.026 E.05821
G1 X94.721 Y88.79 E.05139
G1 X132.884 Y88.805 E1.19657
G1 X133.843 Y88.938 E.03036
G1 X135.87 Y89.494 E.0659
G1 X137.7 Y90.365 E.06355
G1 X139.14 Y91.376 E.05517
G1 X140.583 Y92.775 E.06302
G1 X141.374 Y93.79 E.04035
G1 X141.835 Y94.519 E.02704
G1 X142.681 Y96.304 E.06194
G1 X143.24 Y98.341 E.06623
G1 X143.425 Y100.341 E.06298
G1 X143.575 Y114.341 E.43899
G1 X143.503 Y115.668 E.04167
G1 X143.296 Y116.888 E.0388
G1 X142.676 Y118.864 E.06493
G1 X141.69 Y120.733 E.06626
G1 X140.467 Y122.296 E.06223
G1 X139.688 Y123.064 E.0343
G1 X138.815 Y123.771 E.03522
G1 X137.173 Y124.778 E.06039
G1 X136.08 Y125.257 E.03742
G1 X134.281 Y125.783 E.05877
G1 X132.523 Y126.003 E.05555
G1 X95.078 Y126.009 E1.17406
G1 X93.39 Y125.81 E.05329
G1 X92.295 Y125.542 E.03535
G1 X91.185 Y125.153 E.03688
G1 X89.854 Y124.506 E.0464
G1 X88.8 Y123.835 E.03918
G1 X87.851 Y123.075 E.03812
G1 X86.76 Y121.96 E.04891
G1 X86.154 Y121.19 E.03072
G1 X85.328 Y119.862 E.04904
G1 X84.772 Y118.665 E.04138
G1 X84.319 Y117.276 E.04581
G1 X84.013 Y115.506 E.05632
G1 X83.957 Y114.505 E.03143
G1 X83.987 Y99.578 E.46803
G1 X84.339 Y97.433 E.06815
G1 X84.956 Y95.673 E.05848
G1 X85.359 Y94.854 E.02862
G1 X86.242 Y93.468 E.05153
G1 X86.875 Y92.684 E.03159
G1 X87.814 Y91.744 E.04166
G1 X87.814 Y91.744 F6000
G1 X88.08 Y92.01
G1 F1200
G1 X88.109 Y91.982 E.00126
G1 X88.937 Y91.308 E.03348
G1 X89.836 Y90.714 E.03378
G1 X91.455 Y89.917 E.05658
G1 X92.992 Y89.437 E.05049
G1 X94.74 Y89.166 E.05546
G1 X131.692 Y89.133 E1.1586
G1 X133.767 Y89.308 E.06529
G1 X135.748 Y89.851 E.0644
G1 X137.509 Y90.69 E.06116
G1 X138.893 Y91.661 E.05301
G1 X140.304 Y93.029 E.06162
G1 X141.07 Y94.013 E.0391
G1 X141.565 Y94.802 E.0292
G1 X142.414 Y96.673 E.06442
G1 X142.882 Y98.473 E.05831
G1 X143.048 Y100.345 E.05893
G1 X143.198 Y114.345 E.43899
G1 X143.13 Y115.614 E.03985
G1 X142.924 Y116.824 E.03848
G1 X142.331 Y118.712 E.06205
G1 X141.369 Y120.534 E.0646
G1 X140.198 Y122.031 E.05959
G1 X139.594 Y122.642 E.02694
G1 X138.603 Y123.459 E.04027
G1 X136.981 Y124.453 E.05965
G1 X135.395 Y125.098 E.05368
G1 X134.218 Y125.411 E.03819
G1 X132.355 Y125.634 E.05883
G1 X95.105 Y125.633 E1.16795
G1 X93.449 Y125.437 E.05229
G1 X92.304 Y125.154 E.03698
G1 X91.337 Y124.807 E.03221
G1 X90.03 Y124.173 E.04555
G1 X89.019 Y123.528 E.0376
G1 X88.102 Y122.794 E.03683
G1 X87.039 Y121.706 E.04769
G1 X86.452 Y120.958 E.02981
G1 X85.657 Y119.676 E.0473
G1 X85.128 Y118.539 E.03932
G1 X84.684 Y117.182 E.04477
G1 X84.387 Y115.46 E.05479
G1 X84.334 Y114.505 E.02999
G1 X84.363 Y99.603 E.46724
G1 X84.7 Y97.541 E.06551
G1 X85.307 Y95.811 E.05748
G1 X85.705 Y95.004 E.02821
G1 X86.553 Y93.681 E.04927
G1 X87.156 Y92.934 E.0301
G1 X88.038 Y92.052 E.03911
G1 X88.038 Y92.052 F6000
G1 X88.304 Y92.318
G1 F1200
G1 X88.361 Y92.262 E.00251
G1 X89.149 Y91.62 E.03187
G1 X90.029 Y91.037 E.0331
G1 X91.588 Y90.27 E.05448
G1 X93.208 Y89.774 E.05312
G1 X94.758 Y89.543 E.04914
G1 X131.692 Y89.51 E1.15804
G1 X133.69 Y89.677 E.06286
G1 X135.628 Y90.208 E.063
G1 X137.318 Y91.015 E.05872
G1 X138.647 Y91.947 E.0509
G1 X140.013 Y93.269 E.0596
G1 X140.766 Y94.236 E.03843
G1 X141.237 Y94.988 E.02782
G1 X142.054 Y96.785 E.06189
G1 X142.512 Y98.545 E.05702
G1 X142.671 Y100.349 E.05678
G1 X142.821 Y114.349 E.43899
G1 X142.744 Y115.641 E.04058
G1 X142.521 Y116.917 E.04061
G1 X142.276 Y117.78 E.02813
G1 X141.409 Y119.75 E.06749
G1 X140.675 Y120.874 E.04209
G1 X140.018 Y121.672 E.03241
G1 X139.333 Y122.37 E.03066
G1 X138.39 Y123.147 E.03831
G1 X136.804 Y124.12 E.05834
G1 X135.27 Y124.742 E.0519
G1 X134.141 Y125.042 E.03663
G1 X132.345 Y125.257 E.05671
G1 X95.131 Y125.257 E1.16682
G1 X93.508 Y125.065 E.05124
G1 X92.409 Y124.792 E.03551
G1 X91.488 Y124.462 E.03068
G1 X90.206 Y123.839 E.04469
G1 X89.238 Y123.221 E.03601
G1 X88.306 Y122.47 E.03753
G1 X87.318 Y121.453 E.04446
G1 X86.76 Y120.741 E.02836
G1 X85.985 Y119.491 E.04611
G1 X85.483 Y118.413 E.03729
G1 X85.05 Y117.087 E.04374
G1 X84.761 Y115.415 E.0532
G1 X84.739 Y99.629 E.49496
G1 X85.061 Y97.651 E.06284
G1 X85.658 Y95.949 E.05655
G1 X86.04 Y95.178 E.02698
G1 X86.862 Y93.897 E.04772
G1 X87.438 Y93.185 E.02871
G1 X88.262 Y92.361 E.03654
G1 E-1.12 F2400
;WIPE_START
G1 F4800
G1 X88.304 Y92.318 E-.02855
G1 X88.361 Y92.262 E-.03796
G1 X89.036 Y91.712 E-.41349
;WIPE_END
; printing object Shape-Box id:0 copy 0
G1 X123.954 Y104.545 F6000
G1 E1.6 F2400
;TYPE:Perimeter
G1 F1200
G1 X123.848 Y104.458 E.0043
G1 X123.806 Y104.373 E.00297
G1 X123.746 Y104.137 E.00764
G1 X123.702 Y103.757 E.01199
G1 X123.689 Y102.973 E.02459
G1 X123.773 Y102.22 E.02376
G1 X123.868 Y101.997 E.0076
G1 X123.931 Y101.943 E.0026
G1 X123.985 Y101.952 E.00172
G1 X124.039 Y102.009 E.00246
G1 X124.086 Y102.106 E.00338
G1 X124.145 Y102.344 E.00769
G1 X124.19 Y102.724 E.012
G1 X124.201 Y103.506 E.02452
G1 X124.11 Y104.275 E.02428
G1 X124.039 Y104.47 E.00651
G1 X124.005 Y104.52 E.0019
G1 X124.005 Y104.52 F6000
G1 X123.845 Y104.913
;TYPE:External perimeter
G1 F1200
G1 X123.688 Y104.837 E.00547
G1 X123.536 Y104.676 E.00694
G1 X123.45 Y104.504 E.00603
G1 X123.375 Y104.205 E.00967
G1 X123.325 Y103.782 E.01336
G1 X123.312 Y102.959 E.02581
G1 X123.376 Y102.274 E.02157
G1 X123.409 Y102.118 E.005
G1 X123.493 Y101.879 E.00794
G1 X123.584 Y101.744 E.0051
G1 X123.744 Y101.607 E.0066
G1 X123.829 Y101.571 E.00289
G1 X124.003 Y101.561 E.00546
G1 X124.162 Y101.613 E.00525
G1 X124.257 Y101.685 E.00374
G1 X124.356 Y101.799 E.00473
G1 X124.442 Y101.976 E.00617
G1 X124.517 Y102.277 E.00973
G1 X124.566 Y102.7 E.01335
G1 X124.579 Y103.522 E.02578
G1 X124.509 Y104.218 E.02193
G1 X124.473 Y104.381 E.00523
G1 X124.378 Y104.641 E.00868
G1 X124.287 Y104.778 E.00516
G1 X124.21 Y104.848 E.00326
G1 X124.062 Y104.914 E.00508
G1 X123.954 Y104.926 E.00341
G1 X123.904 Y104.92 E.00158
G1 X123.904 Y104.92 F6000
G1 X123.941 Y103.987
;TYPE:Gap fill
;WIDTH:0.169656
G1 F1200
G1 X123.951 Y102.74 E.01314
;WIDTH:0.118395
G1 X123.948 Y102.474 E.00167
G1 E-1.12 F2400
;WIPE_START
G1 F4800
G1 X123.951 Y102.74 E-.12636
G1 X123.945 Y103.484 E-.35364
;WIPE_END
G1 X104.584 Y110.666 F6000
G1 E1.6 F2400
;TYPE:Perimeter
;WIDTH:0.42
G1 F1200
G1 X104.71 Y110.836 E.00663
G1 X104.799 Y111.032 E.00675
G1 X104.859 Y111.284 E.00812
G1 X104.882 Y111.604 E.01006
G1 X104.83 Y112.188 E.01838
G1 X104.745 Y112.46 E.00894
G1 X104.649 Y112.624 E.00596
G1 X104.522 Y112.748 E.00557
G1 X104.365 Y112.85 E.00587
G1 X104.198 Y112.917 E.00564
G1 X104.016 Y112.951 E.00581
G1 X103.749 Y112.945 E.00837
G1 X103.636 Y112.922 E.00362
G1 X103.53 Y112.883 E.00354
G1 X103.358 Y112.783 E.00624
G1 X103.226 Y112.661 E.00564
G1 X103.116 Y112.498 E.00617
G1 X103.021 Y112.269 E.00777
G1 X102.95 Y111.9 E.01178
G1 X102.94 Y111.678 E.00697
G1 X102.987 Y111.187 E.01547
G1 X103.069 Y110.936 E.00828
G1 X103.172 Y110.755 E.00653
G1 X103.304 Y110.611 E.00612
G1 X103.449 Y110.506 E.00561
G1 X103.608 Y110.438 E.00542
G1 X103.802 Y110.401 E.00619
G1 X104.019 Y110.4 E.0068
G1 X104.215 Y110.438 E.00626
G1 X104.375 Y110.505 E.00544
G1 X104.536 Y110.63 E.00639
G1 X104.536 Y110.63 F6000
G1 X104.868 Y110.416
;TYPE:External perimeter
G1 F1200
G1 X105.036 Y110.643 E.00885
G1 X105.157 Y110.909 E.00916
G1 X105.233 Y111.227 E.01025
G1 X105.26 Y111.602 E.01179
G1 X105.231 Y112.082 E.01508
G1 X105.198 Y112.276 E.00617
G1 X105.092 Y112.614 E.01111
G1 X104.949 Y112.858 E.00887
G1 X104.76 Y113.043 E.00829
G1 X104.54 Y113.186 E.00823
G1 X104.304 Y113.281 E.00798
G1 X104.046 Y113.329 E.00823
G1 X103.707 Y113.322 E.01063
G1 X103.533 Y113.286 E.00557
G1 X103.369 Y113.226 E.00548
G1 X103.132 Y113.087 E.00861
G1 X102.938 Y112.908 E.00828
G1 X102.783 Y112.678 E.0087
G1 X102.662 Y112.389 E.00982
G1 X102.574 Y111.935 E.0145
G1 X102.563 Y111.674 E.00819
G1 X102.59 Y111.264 E.01288
G1 X102.621 Y111.095 E.00539
G1 X102.722 Y110.783 E.01028
G1 X102.865 Y110.532 E.00906
G1 X103.052 Y110.328 E.00868
G1 X103.262 Y110.176 E.00813
G1 X103.497 Y110.075 E.00802
G1 X103.766 Y110.024 E.00858
G1 X104.054 Y110.023 E.00903
G1 X104.325 Y110.075 E.00865
G1 X104.559 Y110.174 E.00797
G1 X104.772 Y110.325 E.00819
G1 X104.824 Y110.374 E.00224
G1 X104.824 Y110.374 F6000
G1 X104.731 Y111.265
;TYPE:Solid infill
;WIDTH:0.475961
G1 F1200
G1 X104.222 Y110.756 E.02592
G1 X103.991 Y110.691 E.00864
G1 X103.83 Y110.691 E.0058
G1 X103.608 Y110.754 E.00831
G1 X104.58 Y111.726 E.0495
G1 X104.544 Y112.131 E.01464
G1 X104.503 Y112.262 E.00494
G1 X103.326 Y111.085 E.05994
G1 X103.273 Y111.247 E.00614
G1 X103.238 Y111.61 E.01313
G1 X104.223 Y112.594 E.05013
G1 X103.992 Y112.66 E.00865
G1 X103.782 Y112.656 E.00756
G1 X103.654 Y112.62 E.00479
G1 X103.11 Y112.094 E.02725
G1 E-1.12 F2400
;WIPE_START
G1 F4800
G1 X103.654 Y112.62 E-.35944
G1 X103.782 Y112.656 E-.06316
G1 X103.903 Y112.658 E-.0574
;WIPE_END
G1 X109.646 Y104.545 F6000
G1 E1.6 F2400
;TYPE:Perimeter
;WIDTH:0.42
G1 F1200
G1 X109.541 Y104.458 E.00428
G1 X109.498 Y104.373 E.00299
G1 X109.439 Y104.137 E.00763
G1 X109.394 Y103.757 E.012
G1 X109.382 Y102.973 E.02458
G1 X109.465 Y102.22 E.02375
G1 X109.561 Y101.997 E.00761
G1 X109.624 Y101.943 E.0026
G1 X109.677 Y101.952 E.00169
G1 X109.731 Y102.009 E.00246
G1 X109.778 Y102.106 E.00338
G1 X109.838 Y102.344 E.0077
G1 X109.882 Y102.724 E.01199
G1 X109.894 Y103.506 E.02452
G1 X109.802 Y104.275 E.02428
G1 X109.731 Y104.47 E.00651
G1 X109.698 Y104.52 E.00188
G1 X109.698 Y104.52 F6000
G1 X109.755 Y104.914
;TYPE:External perimeter
G1 F1200
G1 X109.646 Y104.926 E.00344
G1 X109.537 Y104.913 E.00344
G1 X109.38 Y104.837 E.00547
G1 X109.228 Y104.676 E.00694
G1 X109.143 Y104.504 E.00602
G1 X109.067 Y104.205 E.00967
G1 X109.017 Y103.782 E.01336
G1 X109.004 Y102.959 E.02581
G1 X109.068 Y102.274 E.02157
G1 X109.101 Y102.118 E.005
G1 X109.185 Y101.879 E.00794
G1 X109.276 Y101.744 E.0051
G1 X109.436 Y101.607 E.0066
G1 X109.522 Y101.571 E.00292
G1 X109.695 Y101.561 E.00543
G1 X109.854 Y101.613 E.00525
G1 X109.95 Y101.685 E.00376
G1 X110.048 Y101.799 E.00471
G1 X110.135 Y101.976 E.00618
G1 X110.21 Y102.277 E.00973
G1 X110.259 Y102.7 E.01335
G1 X110.271 Y103.522 E.02578
G1 X110.202 Y104.218 E.02193
G1 X110.165 Y104.381 E.00524
G1 X110.07 Y104.641 E.00868
G1 X109.98 Y104.778 E.00514
G1 X109.903 Y104.848 E.00326
G1 X109.809 Y104.89 E.00323
G1 X109.809 Y104.89 F6000
G1 X109.634 Y103.987
;TYPE:Gap fill
;WIDTH:0.169656
G1 F1200
G1 X109.643 Y102.74 E.01314
;WIDTH:0.118396
G1 X109.64 Y102.474 E.00167
G1 E-1.12 F2400
;WIPE_START
G1 F4800
G1 X109.643 Y102.74 E-.12636
G1 X109.637 Y103.484 E-.35364
;WIPE_END
G1 X103.512 Y104.529 F6000
G1 E1.6 F2400
;TYPE:Perimeter
;WIDTH:0.42
G1 F1200
G1 X103.469 Y104.547 E.00146
G1 X103.361 Y104.458 E.00439
G1 X103.319 Y104.373 E.00297
G1 X103.259 Y104.137 E.00764
G1 X103.214 Y103.757 E.012
G1 X103.202 Y102.973 E.02458
G1 X103.285 Y102.22 E.02375
G1 X103.381 Y101.997 E.00761
G1 X103.444 Y101.943 E.0026
G1 X103.497 Y101.952 E.00169
G1 X103.551 Y102.009 E.00246
G1 X103.599 Y102.106 E.00339
G1 X103.658 Y102.344 E.00769
G1 X103.702 Y102.724 E.01199
G1 X103.714 Y103.506 E.02452
G1 X103.623 Y104.275 E.02428
G1 X103.552 Y104.47 E.00651
G1 X103.545 Y104.479 E.00036
G1 X103.545 Y104.479 F6000
G1 X103.723 Y104.848
;TYPE:External perimeter
G1 F1200
G1 X103.575 Y104.914 E.00508
G1 X103.467 Y104.926 E.00341
G1 X103.357 Y104.913 E.00347
G1 X103.201 Y104.837 E.00544
G1 X103.048 Y104.676 E.00696
G1 X102.963 Y104.504 E.00602
G1 X102.887 Y104.205 E.00967
G1 X102.838 Y103.782 E.01335
G1 X102.825 Y102.959 E.02581
G1 X102.888 Y102.274 E.02157
G1 X102.922 Y102.118 E.00501
G1 X103.006 Y101.879 E.00794
G1 X103.097 Y101.744 E.0051
G1 X103.257 Y101.607 E.0066
G1 X103.342 Y101.571 E.00289
G1 X103.515 Y101.561 E.00543
G1 X103.674 Y101.613 E.00525
G1 X103.77 Y101.685 E.00376
G1 X103.869 Y101.799 E.00473
G1 X103.955 Y101.976 E.00617
G1 X104.03 Y102.277 E.00973
G1 X104.079 Y102.7 E.01335
G1 X104.091 Y103.522 E.02578
G1 X104.022 Y104.218 E.02193
G1 X103.985 Y104.381 E.00524
G1 X103.891 Y104.641 E.00867
G1 X103.8 Y104.778 E.00516
G1 X103.767 Y104.807 E.00138
G1 X103.767 Y104.807 F6000
G1 X103.454 Y103.987
;TYPE:Gap fill
;WIDTH:0.169656
G1 F1200
G1 X103.464 Y102.74 E.01314
;WIDTH:0.118396
G1 X103.461 Y102.474 E.00167
G1 E-1.12 F2400
;WIPE_START
G1 F4800
G1 X103.464 Y102.74 E-.12636
G1 X103.458 Y103.484 E-.35364
;WIPE_END
G1 X95.346 Y104.545 F6000
G1 E1.6 F2400
;TYPE:Perimeter
;WIDTH:0.42
G1 F1200
G1 X95.341 Y104.547 E.00017
G1 X95.233 Y104.458 E.00439
G1 X95.191 Y104.373 E.00297
G1 X95.131 Y104.137 E.00764
G1 X95.087 Y103.757 E.01199
G1 X95.074 Y102.973 E.02459
G1 X95.157 Y102.22 E.02375
G1 X95.253 Y101.997 E.00761
G1 X95.316 Y101.943 E.0026
G1 X95.37 Y101.952 E.00172
G1 X95.423 Y102.009 E.00244
G1 X95.471 Y102.106 E.00339
G1 X95.53 Y102.344 E.00769
G1 X95.574 Y102.724 E.01199
G1 X95.586 Y103.506 E.02452
G1 X95.495 Y104.275 E.02428
G1 X95.424 Y104.47 E.00651
G1 X95.395 Y104.513 E.00163
G1 X95.395 Y104.513 F6000
G1 X95.447 Y104.914
;TYPE:External perimeter
G1 F1200
G1 X95.339 Y104.926 E.00341
G1 X95.229 Y104.913 E.00347
G1 X95.073 Y104.837 E.00544
G1 X94.92 Y104.676 E.00696
G1 X94.835 Y104.504 E.00602
G1 X94.76 Y104.205 E.00967
G1 X94.71 Y103.782 E.01336
G1 X94.697 Y102.959 E.02581
G1 X94.76 Y102.274 E.02157
G1 X94.794 Y102.118 E.00501
G1 X94.878 Y101.879 E.00794
G1 X94.969 Y101.744 E.0051
G1 X95.129 Y101.607 E.0066
G1 X95.214 Y101.571 E.00289
G1 X95.387 Y101.561 E.00543
G1 X95.546 Y101.613 E.00525
G1 X95.642 Y101.685 E.00376
G1 X95.741 Y101.799 E.00473
G1 X95.827 Y101.976 E.00617
G1 X95.902 Y102.277 E.00973
G1 X95.951 Y102.7 E.01335
G1 X95.963 Y103.522 E.02578
G1 X95.894 Y104.218 E.02193
G1 X95.857 Y104.381 E.00524
G1 X95.763 Y104.641 E.00867
G1 X95.672 Y104.778 E.00516
G1 X95.595 Y104.848 E.00326
G1 X95.502 Y104.89 E.0032
G1 X95.502 Y104.89 F6000
G1 X95.326 Y103.987
;TYPE:Gap fill
;WIDTH:0.169658
G1 F1200
G1 X95.336 Y102.74 E.01314
;WIDTH:0.118397
G1 X95.333 Y102.474 E.00167
G1 E-1.12 F2400
;WIPE_START
G1 F4800
G1 X95.336 Y102.74 E-.12636
G1 X95.33 Y103.484 E-.35364
;WIPE_END
G1 X113.948 Y104.377 F6000
G1 E1.6 F2400
;TYPE:Perimeter
;WIDTH:0.42
G1 F1200
G1 X113.924 Y104.431 E.00185
G1 X113.844 Y104.523 E.00382
G1 X113.792 Y104.542 E.00174
G1 X113.679 Y104.54 E.00354
G1 X113.679 Y104.484 E.00176
G1 X113.811 Y104.409 E.00476
G1 X113.889 Y104.391 E.00251
G1 E-1.12 F2400
;WIPE_START
G1 F4800
G1 X113.948 Y104.377 E-.0288
G1 X113.924 Y104.431 E-.02807
G1 X113.844 Y104.523 E-.05791
G1 X113.792 Y104.542 E-.0263
G1 X113.679 Y104.54 E-.05368
G1 X113.679 Y104.484 E-.0266
G1 X113.811 Y104.409 E-.07211
G1 X113.889 Y104.391 E-.03802
;WIPE_END
G1 E-.14851 F2400
G1 X113.969 Y102.234 F6000
G1 E1.6 F2400
