; generated by PrusaSlicer 2.7.4+win64 on 2024-04-15 at 16:02:58 UTC

; 

; external perimeters extrusion width = 0.42mm
; perimeters extrusion width = 0.44mm
; infill extrusion width = 0.44mm
; solid infill extrusion width = 0.44mm
; top infill extrusion width = 0.40mm
; first layer extrusion width = 0.42mm


; printing object Shape-Box id:0 copy 0
; stop printing object Shape-Box id:0 copy 0

;TYPE:Custom
; Ender 3 Custom Start G-code
G92 E0 ; Reset Extruder

M140 S55 ; set bed temp
M104 S160 ; set extruder temp
M109 S160 ; wait for extruder temp
M190 S55 ; wait for bed temp

G28 ; Home all axes
M104 S210 ; set extruder temp 
BED_MESH_CALIBRATE AREA_START=83.7684,88.5669 AREA_END=143.763,126.207

G1 Z2.0 F3000 ; Move Z Axis up little to prevent scratching of Heat Bed
M109 S210 ; wait for extruder temp
G1 X0.1 Y20 Z0.3 F5000.0 ; Move to start position

G1 X0.1 Y200.0 Z0.3 F1500.0 E15 ; Draw the first line
G1 X0.4 Y200.0 Z0.3 F5000.0 ; Move to side a little
G1 X0.4 Y20 Z0.3 F1500.0 E30 ; Draw the second line
G92 E0 ; Reset Extruder
G1 Z2.0 F3000 ; Move Z Axis up little to prevent scratching of Heat Bed
G1 X5 Y20 Z0.3 F5000.0 ; Move over to prevent blob squish
G21 ; set units to millimeters
G90 ; use absolute coordinates
M83 ; use relative distances for extrusion
; Filament gcode
M107
;LAYER_CHANGE
;Z:0.2
;HEIGHT:0.2
G1 E-1.6 F2400
G1 Z.2 F6000
G1 X87.857 Y91.701
G1 Z.2
G1 E1.6 F2400
M204 S500
;TYPE:Skirt/Brim
;WIDTH:0.42
G1 F1200
G1 X88.725 Y90.996 E.03506
G1 X89.656 Y90.382 E.03497
G1 X91.322 Y89.564 E.05819
G1 X93.099 Y89.026 E.05821
G1 X94.721 Y88.79 E.05139
G1 X132.884 Y88.805 E1.19657
G1 X133.843 Y88.938 E.03036
G1 X135.87 Y89.494 E.0659
G1 X137.7 Y90.365 E.06355
G1 X139.14 Y91.376 E.05517
G1 X140.583 Y92.775 E.06302
G1 X141.374 Y93.79 E.04035
G1 X141.835 Y94.519 E.02704
G1 X142.681 Y96.304 E.06194
G1 X143.24 Y98.341 E.06623
G1 X143.425 Y100.341 E.06298
G1 X143.575 Y114.341 E.43899
G1 X143.503 Y115.668 E.04167
G1 X143.296 Y116.888 E.0388
G1 X142.676 Y118.864 E.06493
G1 X141.69 Y120.733 E.06626
G1 X140.467 Y122.296 E.06223
G1 X139.688 Y123.064 E.0343
G1 X138.815 Y123.771 E.03522
G1 X137.173 Y124.778 E.06039
G1 X136.08 Y125.257 E.03742
G1 X134.281 Y125.783 E.05877
G1 X132.523 Y126.003 E.05555
G1 X95.078 Y126.009 E1.17406
G1 X93.39 Y125.81 E.05329
G1 X92.295 Y125.542 E.03535
G1 X91.185 Y125.153 E.03688
G1 X89.854 Y124.506 E.0464
G1 X88.8 Y123.835 E.03918
G1 X87.851 Y123.075 E.03812
G1 X86.76 Y121.96 E.04891
G1 X86.154 Y121.19 E.03072
G1 X85.328 Y119.862 E.04904
G1 X84.772 Y118.665 E.04138
G1 X84.319 Y117.276 E.04581
G1 X84.013 Y115.506 E.05632
G1 X83.957 Y114.505 E.03143
G1 X83.987 Y99.578 E.46803
G1 X84.339 Y97.433 E.06815
G1 X84.956 Y95.673 E.05848
G1 X85.359 Y94.854 E.02862
G1 X86.242 Y93.468 E.05153
G1 X86.875 Y92.684 E.03159
G1 X87.814 Y91.744 E.04166
G1 X87.814 Y91.744 F6000
G1 X88.08 Y92.01
G1 F1200
G1 X88.109 Y91.982 E.00126
G1 X88.937 Y91.308 E.03348
G1 X89.836 Y90.714 E.03378
G1 X91.455 Y89.917 E.05658
G1 X92.992 Y89.437 E.05049
G1 X94.74 Y89.166 E.05546
G1 X131.692 Y89.133 E1.1586
G1 X133.767 Y89.308 E.06529
G1 X135.748 Y89.851 E.0644
G1 X137.509 Y90.69 E.06116
G1 X138.893 Y91.661 E.05301
G1 X140.304 Y93.029 E.06162
G1 X141.07 Y94.013 E.0391
G1 X141.565 Y94.802 E.0292
G1 X142.414 Y96.673 E.06442
G1 X142.882 Y98.473 E.05831
G1 X143.048 Y100.345 E.05893
G1 X143.198 Y114.345 E.43899
G1 X143.13 Y115.614 E.03985
G1 X142.924 Y116.824 E.03848
G1 X142.331 Y118.712 E.06205
G1 X141.369 Y120.534 E.0646
G1 X140.198 Y122.031 E.05959
G1 X139.594 Y122.642 E.02694
G1 X138.603 Y123.459 E.04027
G1 X136.981 Y124.453 E.05965
G1 X135.395 Y125.098 E.05368
G1 X134.218 Y125.411 E.03819
G1 X132.355 Y125.634 E.05883
G1 X95.105 Y125.633 E1.16795
G1 X93.449 Y125.437 E.05229
G1 X92.304 Y125.154 E.03698
G1 X91.337 Y124.807 E.03221
G1 X90.03 Y124.173 E.04555
G1 X89.019 Y123.528 E.0376
G1 X88.102 Y122.794 E.03683
G1 X87.039 Y121.706 E.04769
G1 X86.452 Y120.958 E.02981
G1 X85.657 Y119.676 E.0473
G1 X85.128 Y118.539 E.03932
G1 X84.684 Y117.182 E.04477
G1 X84.387 Y115.46 E.05479
G1 X84.334 Y114.505 E.02999
G1 X84.363 Y99.603 E.46724
G1 X84.7 Y97.541 E.06551
G1 X85.307 Y95.811 E.05748
G1 X85.705 Y95.004 E.02821
G1 X86.553 Y93.681 E.04927
G1 X87.156 Y92.934 E.0301
G1 X88.038 Y92.052 E.03911
G1 X88.038 Y92.052 F6000
G1 X88.304 Y92.318
G1 F1200
G1 X88.361 Y92.262 E.00251
G1 X89.149 Y91.62 E.03187
G1 X90.029 Y91.037 E.0331
G1 X91.588 Y90.27 E.05448
G1 X93.208 Y89.774 E.05312
G1 X94.758 Y89.543 E.04914
G1 X131.692 Y89.51 E1.15804
G1 X133.69 Y89.677 E.06286
G1 X135.628 Y90.208 E.063
G1 X137.318 Y91.015 E.05872
G1 X138.647 Y91.947 E.0509
G1 X140.013 Y93.269 E.0596
G1 X140.766 Y94.236 E.03843
G1 X141.237 Y94.988 E.02782
G1 X142.054 Y96.785 E.06189
G1 X142.512 Y98.545 E.05702
G1 X142.671 Y100.349 E.05678
G1 X142.821 Y114.349 E.43899
G1 X142.744 Y115.641 E.04058
G1 X142.521 Y116.917 E.04061
G1 X142.276 Y117.78 E.02813
G1 X141.409 Y119.75 E.06749
G1 X140.675 Y120.874 E.04209
G1 X140.018 Y121.672 E.03241
G1 X139.333 Y122.37 E.03066
G1 X138.39 Y123.147 E.03831
G1 X136.804 Y124.12 E.05834
G1 X135.27 Y124.742 E.0519
G1 X134.141 Y125.042 E.03663
G1 X132.345 Y125.257 E.05671
G1 X95.131 Y125.257 E1.16682
G1 X93.508 Y125.065 E.05124
G1 X92.409 Y124.792 E.03551
G1 X91.488 Y124.462 E.03068
G1 X90.206 Y123.839 E.04469
G1 X89.238 Y123.221 E.03601
G1 X88.306 Y122.47 E.03753
G1 X87.318 Y121.453 E.04446
G1 X86.76 Y120.741 E.02836
G1 X85.985 Y119.491 E.04611
G1 X85.483 Y118.413 E.03729
G1 X85.05 Y117.087 E.04374
G1 X84.761 Y115.415 E.0532
G1 X84.739 Y99.629 E.49496
G1 X85.061 Y97.651 E.06284
G1 X85.658 Y95.949 E.05655
G1 X86.04 Y95.178 E.02698
G1 X86.862 Y93.897 E.04772
G1 X87.438 Y93.185 E.02871
G1 X88.262 Y92.361 E.03654
G1 E-1.12 F2400
;WIPE_START
G1 F4800
G1 X88.304 Y92.318 E-.02855
G1 X88.361 Y92.262 E-.03796
G1 X89.036 Y91.712 E-.41349
;WIPE_END
; printing object Shape-Box id:0 copy 0
G1 X123.865 Y104.57 F6000
G1 E1.6 F2400
;TYPE:Perimeter
G1 F1200
G1 X123.787 Y104.488 E.00355
G1 X123.739 Y104.391 E.00339
G1 X123.675 Y104.138 E.00818
G1 X123.619 Y103.513 E.01967
G1 X123.619 Y102.976 E.01684
G1 X123.679 Y102.332 E.02028
G1 X123.739 Y102.094 E.0077
G1 X123.795 Y101.981 E.00395
G1 X123.883 Y101.893 E.0039
G1 X123.994 Y101.906 E.0035
G1 X124.066 Y101.979 E.00321
G1 X124.119 Y102.088 E.0038
G1 X124.181 Y102.335 E.00798
G1 X124.226 Y102.72 E.01215
G1 X124.238 Y103.508 E.02471
G1 X124.172 Y104.168 E.0208
G1 X124.145 Y104.288 E.00386
G1 X124.07 Y104.494 E.00687
G1 X124.014 Y104.572 E.00301
G1 X123.939 Y104.6 E.00251
G1 X123.921 Y104.593 E.00061
G1 X123.921 Y104.593 F6000
G1 X123.639 Y104.88
;TYPE:External perimeter
G1 F1200
G1 X123.474 Y104.706 E.00752
G1 X123.383 Y104.522 E.00644
G1 X123.304 Y104.212 E.01003
G1 X123.276 Y104.017 E.00618
G1 X123.242 Y103.526 E.01543
G1 X123.242 Y102.959 E.01778
G1 X123.306 Y102.268 E.02176
G1 X123.383 Y101.963 E.00986
G1 X123.477 Y101.772 E.00667
G1 X123.584 Y101.646 E.00518
G1 X123.694 Y101.563 E.00432
G1 X123.799 Y101.52 E.00356
G1 X123.992 Y101.508 E.00606
G1 X124.171 Y101.567 E.00591
G1 X124.277 Y101.646 E.00415
G1 X124.383 Y101.769 E.00509
G1 X124.476 Y101.959 E.00663
G1 X124.553 Y102.268 E.00998
G1 X124.602 Y102.696 E.01351
G1 X124.615 Y103.524 E.02596
G1 X124.545 Y104.228 E.02218
G1 X124.507 Y104.395 E.00537
G1 X124.408 Y104.665 E.00902
G1 X124.31 Y104.813 E.00557
G1 X124.224 Y104.891 E.00364
G1 X124.058 Y104.966 E.00571
G1 X123.937 Y104.98 E.00382
G1 X123.814 Y104.965 E.00389
G1 X123.693 Y104.906 E.00422
G1 X123.693 Y104.906 F6000
G1 X123.939 Y104.288
;TYPE:Gap fill
;WIDTH:0.173813
G1 F1200
G1 X123.924 Y104.089 E.00217
;WIDTH:0.249899
G1 X123.932 Y102.56 E.02631
;WIDTH:0.175231
G1 X123.915 Y102.186 E.00412
G1 E-1.12 F2400
;WIPE_START
G1 F4800
G1 X123.932 Y102.56 E-.17783
G1 X123.929 Y103.196 E-.30217
;WIPE_END
G1 X114.479 Y112.557 F6000
G1 E1.6 F2400
;TYPE:Perimeter
;WIDTH:0.42
G1 F1200
G1 X114.479 Y113.039 E.01511
G1 X113.381 Y113.037 E.03443
G1 X113.219 Y113.018 E.00511
G1 X113.134 Y112.994 E.00277
G1 X113.026 Y112.924 E.00404
G1 X112.998 Y112.828 E.00314
G1 X113.011 Y112.732 E.00304
G1 X113.058 Y112.661 E.00267
G1 X113.154 Y112.609 E.00342
G1 X113.303 Y112.577 E.00478
G1 X113.657 Y112.557 E.01112
G1 X114.419 Y112.557 E.02389
G1 X114.419 Y112.557 F6000
G1 X114.856 Y112.18
;TYPE:External perimeter
G1 F1200
G1 X114.856 Y113.417 E.03879
G1 X113.358 Y113.414 E.04697
G1 X113.145 Y113.389 E.00672
G1 X112.984 Y113.344 E.00524
G1 X112.8 Y113.234 E.00672
G1 X112.665 Y113.052 E.0071
G1 X112.63 Y112.942 E.00362
G1 X112.618 Y112.819 E.00387
G1 X112.645 Y112.632 E.00592
G1 X112.775 Y112.405 E.0082
G1 X112.827 Y112.357 E.00222
G1 X113.01 Y112.258 E.00652
G1 X113.117 Y112.227 E.00349
G1 X113.646 Y112.18 E.01665
G1 X114.796 Y112.18 E.03606
G1 X114.796 Y112.18 F6000
G1 X114.29 Y112.798
;TYPE:Gap fill
;WIDTH:0.147672
G1 F1200
G1 X113.25 Y112.804 E.00906
;WIDTH:0.0944847
G1 X113.223 Y112.804 E.00012
G1 E-1.12 F2400
;WIPE_START
G1 F4800
G1 X113.25 Y112.804 E-.01283
G1 X114.234 Y112.798 E-.46717
;WIPE_END
G1 X109.315 Y111.438 F6000
G1 E1.6 F2400
;TYPE:External perimeter
;WIDTH:0.42
G1 F1200
G1 X108.906 Y112.53 E.03656
G1 X108.776 Y112.92 E.01289
G1 X108.222 Y111.438 E.04961
G1 X109.255 Y111.438 E.03239
G1 E-1.12 F2400
;WIPE_START
G1 F4800
G1 X109.315 Y111.438 E-.0285
G1 X108.982 Y112.328 E-.4515
;WIPE_END
G1 X109.648 Y104.594 F6000
G1 E1.6 F2400
;TYPE:Perimeter
G1 F1200
G1 X109.631 Y104.6 E.00057
G1 X109.557 Y104.57 E.0025
G1 X109.479 Y104.488 E.00355
G1 X109.431 Y104.391 E.00339
G1 X109.367 Y104.138 E.00818
G1 X109.311 Y103.513 E.01967
G1 X109.311 Y102.976 E.01684
G1 X109.371 Y102.332 E.02028
G1 X109.431 Y102.094 E.0077
G1 X109.487 Y101.981 E.00395
G1 X109.575 Y101.893 E.0039
G1 X109.687 Y101.906 E.00354
G1 X109.758 Y101.979 E.00319
G1 X109.812 Y102.088 E.00381
G1 X109.873 Y102.335 E.00798
G1 X109.918 Y102.72 E.01215
G1 X109.93 Y103.508 E.02471
G1 X109.864 Y104.168 E.0208
G1 X109.837 Y104.288 E.00386
G1 X109.762 Y104.494 E.00687
G1 X109.707 Y104.572 E.00299
G1 X109.704 Y104.573 E.0001
G1 X109.704 Y104.573 F6000
G1 X109.75 Y104.966
;TYPE:External perimeter
G1 F1200
G1 X109.629 Y104.98 E.00382
G1 X109.507 Y104.965 E.00385
G1 X109.331 Y104.88 E.00613
G1 X109.167 Y104.706 E.0075
G1 X109.075 Y104.522 E.00645
G1 X108.997 Y104.212 E.01002
G1 X108.969 Y104.017 E.00618
G1 X108.934 Y103.526 E.01543
G1 X108.934 Y102.959 E.01778
G1 X108.998 Y102.268 E.02176
G1 X109.075 Y101.963 E.00986
G1 X109.17 Y101.772 E.00669
G1 X109.276 Y101.646 E.00516
G1 X109.386 Y101.563 E.00432
G1 X109.491 Y101.52 E.00356
G1 X109.684 Y101.508 E.00606
G1 X109.863 Y101.567 E.00591
G1 X109.969 Y101.646 E.00415
G1 X110.076 Y101.769 E.00511
G1 X110.168 Y101.959 E.00662
G1 X110.245 Y102.268 E.00998
G1 X110.295 Y102.696 E.01351
G1 X110.307 Y103.524 E.02596
G1 X110.237 Y104.228 E.02218
G1 X110.2 Y104.395 E.00536
G1 X110.101 Y104.665 E.00902
G1 X110.003 Y104.813 E.00557
G1 X109.916 Y104.891 E.00366
G1 X109.805 Y104.942 E.00383
G1 X109.805 Y104.942 F6000
G1 X109.631 Y104.288
;TYPE:Gap fill
;WIDTH:0.173813
G1 F1200
G1 X109.617 Y104.089 E.00217
;WIDTH:0.249898
G1 X109.624 Y102.56 E.02631
;WIDTH:0.17523
G1 X109.607 Y102.186 E.00412
G1 E-1.12 F2400
;WIPE_START
G1 F4800
G1 X109.624 Y102.56 E-.17783
G1 X109.621 Y103.196 E-.30217
;WIPE_END
G1 X103.527 Y104.572 F6000
G1 E1.6 F2400
;TYPE:Perimeter
;WIDTH:0.42
G1 F1200
G1 X103.452 Y104.6 E.00251
G1 X103.378 Y104.57 E.0025
G1 X103.3 Y104.488 E.00355
G1 X103.251 Y104.391 E.00341
G1 X103.187 Y104.138 E.00818
G1 X103.131 Y103.513 E.01967
G1 X103.131 Y102.976 E.01684
G1 X103.191 Y102.332 E.02028
G1 X103.251 Y102.094 E.0077
G1 X103.308 Y101.981 E.00397
G1 X103.396 Y101.893 E.0039
G1 X103.507 Y101.906 E.0035
G1 X103.579 Y101.979 E.00321
G1 X103.632 Y102.088 E.0038
G1 X103.694 Y102.335 E.00798
G1 X103.738 Y102.72 E.01215
G1 X103.75 Y103.508 E.02471
G1 X103.684 Y104.168 E.0208
G1 X103.657 Y104.288 E.00386
G1 X103.582 Y104.494 E.00687
G1 X103.562 Y104.523 E.0011
G1 X103.562 Y104.523 F6000
G1 X103.737 Y104.891
;TYPE:External perimeter
G1 F1200
G1 X103.57 Y104.966 E.00574
G1 X103.45 Y104.98 E.00379
G1 X103.327 Y104.965 E.00389
G1 X103.152 Y104.88 E.0061
G1 X102.987 Y104.706 E.00752
G1 X102.896 Y104.522 E.00644
G1 X102.817 Y104.212 E.01003
G1 X102.789 Y104.017 E.00618
G1 X102.754 Y103.526 E.01543
G1 X102.754 Y102.959 E.01778
G1 X102.818 Y102.268 E.02176
G1 X102.896 Y101.963 E.00987
G1 X102.99 Y101.772 E.00667
G1 X103.097 Y101.646 E.00518
G1 X103.207 Y101.563 E.00432
G1 X103.311 Y101.52 E.00353
G1 X103.504 Y101.508 E.00606
G1 X103.684 Y101.567 E.00594
G1 X103.789 Y101.646 E.00412
G1 X103.896 Y101.769 E.00511
G1 X103.988 Y101.959 E.00662
G1 X104.065 Y102.268 E.00998
G1 X104.115 Y102.696 E.01351
G1 X104.128 Y103.524 E.02596
G1 X104.057 Y104.228 E.02219
G1 X104.02 Y104.395 E.00536
G1 X103.921 Y104.665 E.00902
G1 X103.823 Y104.813 E.00557
G1 X103.781 Y104.851 E.00178
G1 X103.452 Y104.288 F6000
;TYPE:Gap fill
;WIDTH:0.173813
G1 F1200
G1 X103.437 Y104.089 E.00217
;WIDTH:0.249898
G1 X103.445 Y102.56 E.02631
;WIDTH:0.175231
G1 X103.428 Y102.186 E.00412
G1 E-1.12 F2400
;WIPE_START
G1 F4800
G1 X103.445 Y102.56 E-.17783
G1 X103.442 Y103.196 E-.30217
;WIPE_END
G1 X95.379 Y101.906 F6000
G1 E1.6 F2400
;TYPE:Perimeter
;WIDTH:0.42
G1 F1200
G1 X95.451 Y101.979 E.00321
G1 X95.504 Y102.088 E.0038
G1 X95.566 Y102.335 E.00798
G1 X95.61 Y102.72 E.01215
G1 X95.622 Y103.508 E.02471
G1 X95.556 Y104.168 E.0208
G1 X95.529 Y104.288 E.00386
G1 X95.454 Y104.494 E.00687
G1 X95.399 Y104.572 E.00299
G1 X95.324 Y104.6 E.00251
G1 X95.25 Y104.57 E.0025
G1 X95.172 Y104.488 E.00355
G1 X95.123 Y104.391 E.00341
G1 X95.06 Y104.138 E.00817
G1 X95.003 Y103.513 E.01968
G1 X95.003 Y102.976 E.01684
G1 X95.063 Y102.332 E.02028
G1 X95.123 Y102.094 E.0077
G1 X95.18 Y101.981 E.00397
G1 X95.268 Y101.893 E.0039
G1 X95.319 Y101.899 E.00161
G1 X95.319 Y101.899 F6000
G1 X95.079 Y101.563
;TYPE:External perimeter
G1 F1200
G1 X95.183 Y101.52 E.00353
G1 X95.377 Y101.508 E.00609
G1 X95.556 Y101.567 E.00591
G1 X95.661 Y101.646 E.00412
G1 X95.768 Y101.769 E.00511
G1 X95.86 Y101.959 E.00662
G1 X95.937 Y102.268 E.00998
G1 X95.987 Y102.696 E.01351
G1 X96 Y103.524 E.02596
G1 X95.929 Y104.228 E.02219
G1 X95.892 Y104.395 E.00536
G1 X95.793 Y104.665 E.00902
G1 X95.695 Y104.813 E.00557
G1 X95.609 Y104.891 E.00364
G1 X95.442 Y104.966 E.00574
G1 X95.322 Y104.98 E.00379
G1 X95.199 Y104.965 E.00389
G1 X95.024 Y104.88 E.0061
G1 X94.859 Y104.706 E.00752
G1 X94.768 Y104.522 E.00644
G1 X94.689 Y104.212 E.01003
G1 X94.661 Y104.017 E.00618
G1 X94.626 Y103.526 E.01543
G1 X94.626 Y102.959 E.01778
G1 X94.691 Y102.268 E.02176
G1 X94.768 Y101.963 E.00986
G1 X94.862 Y101.772 E.00667
G1 X94.969 Y101.646 E.00518
G1 X95.031 Y101.599 E.00244
G1 X95.3 Y102.186 F6000
;TYPE:Gap fill
;WIDTH:0.175231
G1 F1200
G1 X95.317 Y102.56 E.00412
;WIDTH:0.249897
G1 X95.309 Y104.089 E.02631
;WIDTH:0.173811
G1 X95.324 Y104.288 E.00217
G1 E-1.12 F2400
;WIPE_START
G1 F4800
G1 X95.309 Y104.089 E-.09479
G1 X95.313 Y103.278 E-.38521
;WIPE_END
G1 X113.954 Y104.354 F6000
G1 E1.6 F2400
;TYPE:Perimeter
;WIDTH:0.42
G1 F1200
G1 X113.911 Y104.49 E.00447
G1 X113.871 Y104.55 E.00226
G1 X113.786 Y104.601 E.00311
G1 X113.677 Y104.601 E.00342
G1 X113.609 Y104.56 E.00249
G1 X113.615 Y104.455 E.0033
G1 X113.674 Y104.419 E.00217
G1 X113.865 Y104.361 E.00626
G1 X113.895 Y104.359 E.00094
G1 E-1.12 F2400
;WIPE_START
G1 F4800
G1 X113.954 Y104.354 E-.02813
G1 X113.911 Y104.49 E-.06775
G1 X113.871 Y104.55 E-.03425
G1 X113.786 Y104.601 E-.04708
G1 X113.677 Y104.601 E-.05177
G1 X113.609 Y104.56 E-.03772
G1 X113.615 Y104.455 E-.04996
G1 X113.674 Y104.419 E-.03283
G1 X113.865 Y104.361 E-.09482
G1 X113.895 Y104.359 E-.01428
;WIPE_END
G1 E-.02141 F2400
G1 X114.025 Y102.325 F6000
G1 E1.6 F2400
G1 F1200
G1 X114.059 Y102.449 E.00403
G1 X113.774 Y102.51 E.00914
G1 X113.626 Y102.516 E.00464
G1 X113.534 Y102.495 E.00296
G1 X113.421 Y102.403 E.00457
G1 X113.387 Y102.328 E.00258
G1 X113.378 Y102.204 E.0039
G1 X113.405 Y102.088 E.00373
G1 X113.461 Y101.995 E.0034
G1 X113.544 Y101.924 E.00342
G1 X113.655 Y101.885 E.00369
G1 X113.778 Y101.884 E.00386
G1 X113.874 Y101.928 E.00331
