; generated by PrusaSlicer 2.7.3+win64 on 2024-04-03 at 20:23:29 UTC


;
;

;
;
; 

; external perimeters extrusion width = 0.42mm
; perimeters extrusion width = 0.44mm
; infill extrusion width = 0.44mm
; solid infill extrusion width = 0.44mm
; top infill extrusion width = 0.40mm
; first layer extrusion width = 0.42mm


; printing object Shape-Box id:0 copy 0
; stop printing object Shape-Box id:0 copy 0

;TYPE:Custom
; Ender 3 Custom Start G-code
G92 E0 ; Reset Extruder

M140 S55 ; set bed temp
M104 S160 ; set extruder temp
M109 S160 ; wait for extruder temp
M190 S55 ; wait for bed temp

G28 ; Home all axes
M104 S210 ; set extruder temp 
BED_MESH_CALIBRATE AREA_START=94.9512,77.3994 AREA_END=132.591,137.394

G1 Z2.0 F3000 ; Move Z Axis up little to prevent scratching of Heat Bed
M109 S210 ; wait for extruder temp
G1 X0.1 Y20 Z0.3 F5000.0 ; Move to start position

G1 X0.1 Y200.0 Z0.3 F1500.0 E15 ; Draw the first line
G1 X0.4 Y200.0 Z0.3 F5000.0 ; Move to side a little
G1 X0.4 Y20 Z0.3 F1500.0 E30 ; Draw the second line
G92 E0 ; Reset Extruder
G1 Z2.0 F3000 ; Move Z Axis up little to prevent scratching of Heat Bed
G1 X5 Y20 Z0.3 F5000.0 ; Move over to prevent blob squish
G21 ; set units to millimeters
G90 ; use absolute coordinates
M83 ; use relative distances for extrusion
; Filament gcode
M107
;LAYER_CHANGE
;Z:0.2
;HEIGHT:0.2
G1 E-1.6 F2400
G1 Z.2 F6000
G1 X98.082 Y81.482
G1 Z.2
G1 E1.6 F2400
M204 S500
;TYPE:Skirt/Brim
;WIDTH:0.42
G1 F1200
G1 X99.198 Y80.391 E.046
G1 X99.982 Y79.775 E.02939
G1 X101.394 Y78.906 E.04887
G1 X102.569 Y78.377 E.03798
G1 X103.864 Y77.955 E.04014
G1 X104.834 Y77.753 E.0292
G1 X106.465 Y77.593 E.0483
G1 X120.636 Y77.589 E.41766
G1 X122.61 Y77.738 E.05835
G1 X124.386 Y78.167 E.05385
G1 X126.304 Y78.99 E.06151
G1 X127.878 Y80.015 E.05536
G1 X129.457 Y81.488 E.06364
G1 X130.617 Y83.027 E.0568
G1 X131.587 Y84.935 E.06308
G1 X132.132 Y86.73 E.05529
G1 X132.349 Y88.122 E.04152
G1 X132.402 Y89.123 E.02954
G1 X132.402 Y125.323 E1.06692
G1 X132.259 Y127.24 E.05666
G1 X131.909 Y128.77 E.04626
G1 X131.319 Y130.322 E.04894
G1 X130.782 Y131.349 E.03416
G1 X129.92 Y132.599 E.04475
G1 X129.077 Y133.563 E.03774
G1 X127.955 Y134.567 E.04438
G1 X126.639 Y135.466 E.04697
G1 X125.564 Y136.02 E.03564
G1 X123.822 Y136.647 E.05457
G1 X122.535 Y136.918 E.03876
G1 X120.908 Y137.053 E.04812
G1 X106.816 Y137.206 E.41536
G1 X105.47 Y137.131 E.03973
G1 X104.27 Y136.927 E.03588
G1 X103.172 Y136.632 E.03351
G1 X101.835 Y136.105 E.04236
G1 X100.425 Y135.321 E.04755
G1 X98.999 Y134.225 E.05301
G1 X98.094 Y133.319 E.03774
G1 X96.937 Y131.783 E.05668
G1 X96.266 Y130.57 E.04086
G1 X95.637 Y128.936 E.0516
G1 X95.243 Y127.126 E.0546
G1 X95.14 Y125.279 E.05452
G1 X95.141 Y88.931 E1.07129
G1 X95.233 Y87.747 E.035
G1 X95.615 Y85.926 E.05484
G1 X96.005 Y84.816 E.03468
G1 X96.652 Y83.485 E.04362
G1 X97.323 Y82.431 E.03683
G1 X98.045 Y81.529 E.03405
G1 X98.045 Y81.529 F6000
G1 X98.356 Y81.801
G1 F1200
G1 X98.896 Y81.182 E.02421
G1 X99.614 Y80.533 E.02853
G1 X100.925 Y79.602 E.04739
G1 X102.368 Y78.861 E.04781
G1 X103.78 Y78.372 E.04404
G1 X105.069 Y78.095 E.03886
G1 X106.562 Y77.967 E.04416
G1 X120.636 Y77.966 E.4148
G1 X122.552 Y78.111 E.05663
G1 X124.278 Y78.528 E.05233
G1 X126.153 Y79.336 E.06017
G1 X127.654 Y80.318 E.05287
G1 X129.176 Y81.74 E.06139
G1 X130.305 Y83.239 E.05531
G1 X131.234 Y85.068 E.06046
G1 X131.761 Y86.801 E.05339
G1 X131.974 Y88.166 E.04072
G1 X132.025 Y89.123 E.02825
G1 X132.025 Y125.323 E1.06692
G1 X131.885 Y127.192 E.05524
G1 X131.545 Y128.669 E.04467
G1 X130.973 Y130.172 E.0474
G1 X130.457 Y131.157 E.03277
G1 X129.618 Y132.373 E.04354
G1 X128.806 Y133.302 E.03637
G1 X127.591 Y134.374 E.04776
G1 X126.356 Y135.196 E.04372
G1 X125.42 Y135.671 E.03094
G1 X123.717 Y136.285 E.05336
G1 X122.471 Y136.547 E.03753
G1 X120.893 Y136.677 E.04667
G1 X106.812 Y136.829 E.41503
G1 X105.453 Y136.747 E.04013
G1 X104.153 Y136.518 E.0389
G1 X103.274 Y136.269 E.02693
G1 X101.833 Y135.686 E.04581
G1 X100.624 Y135 E.04097
G1 X99.249 Y133.942 E.05113
G1 X98.384 Y133.078 E.03603
G1 X97.261 Y131.59 E.05494
G1 X96.612 Y130.419 E.03946
G1 X96.001 Y128.837 E.04998
G1 X95.615 Y127.063 E.05351
G1 X95.517 Y125.279 E.05266
G1 X95.518 Y88.931 E1.07129
G1 X95.721 Y87.08 E.05488
G1 X96.008 Y85.92 E.03522
G1 X96.575 Y84.456 E.04627
G1 X97.052 Y83.541 E.03041
G1 X97.721 Y82.529 E.03575
G1 X98.317 Y81.846 E.02672
G1 X98.317 Y81.846 F6000
G1 X98.601 Y82.094
G1 F1200
G1 X99.167 Y81.444 E.0254
G1 X99.856 Y80.822 E.02736
G1 X101.11 Y79.931 E.04534
G1 X102.528 Y79.203 E.04698
G1 X103.899 Y78.73 E.04274
G1 X105.125 Y78.468 E.03695
G1 X106.575 Y78.343 E.04289
G1 X120.636 Y78.343 E.41442
G1 X122.494 Y78.483 E.05492
G1 X124.171 Y78.89 E.05086
G1 X125.98 Y79.671 E.05807
G1 X127.415 Y80.61 E.05054
G1 X128.896 Y81.992 E.0597
G1 X129.993 Y83.451 E.0538
G1 X130.881 Y85.201 E.05784
G1 X131.384 Y86.839 E.0505
G1 X131.6 Y88.21 E.04091
G1 X131.648 Y89.123 E.02695
G1 X131.648 Y125.323 E1.06692
G1 X131.511 Y127.143 E.05379
G1 X131.173 Y128.598 E.04403
G1 X130.626 Y130.025 E.04504
G1 X130.132 Y130.966 E.03132
G1 X129.316 Y132.147 E.04231
G1 X128.546 Y133.029 E.03451
G1 X127.367 Y134.07 E.04636
G1 X126.17 Y134.868 E.0424
G1 X125.277 Y135.322 E.02953
G1 X123.612 Y135.923 E.05217
G1 X122.427 Y136.173 E.03569
G1 X120.878 Y136.3 E.04581
G1 X106.808 Y136.452 E.41471
G1 X105.517 Y136.375 E.03812
G1 X104.241 Y136.152 E.03818
G1 X103.378 Y135.907 E.02644
G1 X101.494 Y135.087 E.06056
G1 X100.284 Y134.306 E.04245
G1 X99.391 Y133.56 E.03429
G1 X98.159 Y132.218 E.05369
G1 X97.469 Y131.209 E.03603
G1 X96.668 Y129.605 E.05284
G1 X96.169 Y128.014 E.04914
G1 X95.97 Y126.881 E.0339
G1 X95.894 Y125.279 E.04727
G1 X95.895 Y88.931 E1.07129
G1 X96.093 Y87.139 E.05314
G1 X96.37 Y86.026 E.0338
G1 X96.92 Y84.608 E.04483
G1 X97.378 Y83.731 E.02916
G1 X98.016 Y82.764 E.03414
G1 X98.561 Y82.139 E.02444
G1 E-1.12 F2400
;WIPE_START
G1 F4800
G1 X98.601 Y82.094 E-.0286
G1 X99.167 Y81.444 E-.4094
G1 X99.233 Y81.385 E-.042
;WIPE_END
; printing object Shape-Box id:0 copy 0
G1 X109.076 Y117.318 F6000
G1 E1.6 F2400
;TYPE:Perimeter
G1 F1200
G1 X109.114 Y117.371 E.00192
G1 X109.151 Y117.494 E.00379
G1 X109.126 Y117.72 E.0067
G1 X109.039 Y117.844 E.00446
G1 X108.974 Y117.895 E.00244
G1 X108.799 Y117.958 E.00548
G1 X108.508 Y117.957 E.00858
G1 X108.281 Y117.879 E.00707
G1 X108.125 Y117.739 E.00618
G1 X108.084 Y117.673 E.00229
G1 X108.055 Y117.538 E.00407
G1 X108.08 Y117.418 E.00361
G1 X108.169 Y117.302 E.00431
G1 X108.231 Y117.257 E.00226
G1 X108.403 Y117.189 E.00545
G1 X108.696 Y117.17 E.00865
G1 X108.847 Y117.191 E.00449
G1 X108.947 Y117.225 E.00311
G1 X109.027 Y117.283 E.00291
G1 X109.027 Y117.283 F6000
G1 X109.359 Y117.066
;TYPE:External perimeter
G1 F1200
G1 X109.445 Y117.185 E.00433
G1 X109.501 Y117.319 E.00428
G1 X109.529 Y117.467 E.00444
G1 X109.518 Y117.724 E.00758
G1 X109.476 Y117.865 E.00434
G1 X109.404 Y117.997 E.00443
G1 X109.302 Y118.118 E.00466
G1 X109.174 Y118.217 E.00477
G1 X109.029 Y118.288 E.00476
G1 X108.861 Y118.332 E.00512
G1 X108.668 Y118.347 E.00571
G1 X108.448 Y118.33 E.0065
G1 X108.255 Y118.283 E.00585
G1 X108.088 Y118.205 E.00543
G1 X107.941 Y118.096 E.00539
G1 X107.822 Y117.968 E.00515
G1 X107.74 Y117.833 E.00466
G1 X107.693 Y117.692 E.00438
G1 X107.676 Y117.539 E.00454
G1 X107.691 Y117.392 E.00436
G1 X107.735 Y117.26 E.0041
G1 X107.809 Y117.136 E.00426
G1 X107.917 Y117.02 E.00467
G1 X108.048 Y116.924 E.00479
G1 X108.305 Y116.823 E.00814
G1 X108.504 Y116.793 E.00593
G1 X108.723 Y116.793 E.00645
G1 X108.934 Y116.823 E.00628
G1 X109.103 Y116.879 E.00525
G1 X109.244 Y116.961 E.00481
G1 X109.315 Y117.026 E.00284
G1 X109.315 Y117.026 F6000
G1 X108.638 Y117.837
;TYPE:Solid infill
;WIDTH:0.426687
G1 F1200
G1 X108.227 Y117.425 E.01746
G1 E-1.12 F2400
;WIPE_START
G1 F4800
G1 X108.638 Y117.837 E-.27643
;WIPE_END
G1 E-.20357 F2400
G1 X110.014 Y112.205 F6000
G1 E1.6 F2400
;TYPE:External perimeter
;WIDTH:0.42
G1 F1200
G1 X108.635 Y111.248 E.04947
G1 X110.014 Y111.248 E.04064
G1 X110.014 Y112.145 E.02644
G1 E-1.12 F2400
;WIPE_START
G1 F4800
G1 X110.014 Y112.205 E-.0285
G1 X109.233 Y111.663 E-.4515
;WIPE_END
G1 X116.52 Y117.375 F6000
G1 E1.6 F2400
;TYPE:Perimeter
G1 F1200
G1 X116.571 Y117.309 E.00246
G1 X116.632 Y117.264 E.00223
G1 X116.804 Y117.196 E.00545
G1 X117.098 Y117.177 E.00868
G1 X117.248 Y117.198 E.00446
G1 X117.349 Y117.231 E.00313
G1 X117.477 Y117.325 E.00468
G1 X117.515 Y117.378 E.00192
G1 X117.552 Y117.501 E.00379
G1 X117.527 Y117.726 E.00667
G1 X117.44 Y117.851 E.00449
G1 X117.375 Y117.902 E.00244
G1 X117.2 Y117.965 E.00548
G1 X116.909 Y117.964 E.00858
G1 X116.683 Y117.886 E.00705
G1 X116.526 Y117.746 E.0062
G1 X116.486 Y117.68 E.00227
G1 X116.457 Y117.545 E.00407
G1 X116.481 Y117.425 E.00361
G1 X116.483 Y117.422 E.00011
G1 X116.483 Y117.422 F6000
G1 X116.211 Y117.143
;TYPE:External perimeter
G1 F1200
G1 X116.318 Y117.026 E.00467
G1 X116.449 Y116.93 E.00479
G1 X116.706 Y116.829 E.00814
G1 X116.905 Y116.8 E.00593
G1 X117.124 Y116.799 E.00645
G1 X117.335 Y116.83 E.00629
G1 X117.504 Y116.886 E.00525
G1 X117.645 Y116.968 E.00481
G1 X117.761 Y117.073 E.00461
G1 X117.846 Y117.192 E.00431
G1 X117.903 Y117.326 E.00429
G1 X117.931 Y117.474 E.00444
G1 X117.919 Y117.731 E.00758
G1 X117.877 Y117.872 E.00434
G1 X117.805 Y118.004 E.00443
G1 X117.703 Y118.125 E.00466
G1 X117.576 Y118.224 E.00475
G1 X117.43 Y118.295 E.00478
G1 X117.263 Y118.339 E.00509
G1 X117.069 Y118.354 E.00573
G1 X116.849 Y118.337 E.0065
G1 X116.656 Y118.289 E.00586
G1 X116.489 Y118.212 E.00542
G1 X116.342 Y118.103 E.00539
G1 X116.224 Y117.974 E.00515
G1 X116.142 Y117.84 E.00463
G1 X116.094 Y117.699 E.00439
G1 X116.078 Y117.545 E.00456
G1 X116.093 Y117.399 E.00433
G1 X116.136 Y117.266 E.00412
G1 X116.18 Y117.194 E.00249
G1 X116.18 Y117.194 F6000
G1 X117.04 Y117.844
;TYPE:Solid infill
;WIDTH:0.426689
G1 F1200
G1 X116.628 Y117.432 E.01748
G1 E-1.12 F2400
;WIPE_START
G1 F4800
G1 X117.04 Y117.844 E-.27676
;WIPE_END
G1 E-.20324 F2400
G1 X117.036 Y111.255 F6000
G1 E1.6 F2400
;TYPE:External perimeter
;WIDTH:0.42
G1 F1200
G1 X118.415 Y111.255 E.04064
G1 X118.415 Y112.212 E.02821
G1 X117.086 Y111.289 E.04769
G1 E-1.12 F2400
;WIPE_START
G1 F4800
G1 X117.036 Y111.255 E-.02872
G1 X117.986 Y111.255 E-.45128
;WIPE_END
G1 X118.415 Y104.084 F6000
G1 E1.6 F2400
G1 F1200
G1 X117.036 Y103.127 E.04947
G1 X118.415 Y103.127 E.04064
G1 X118.415 Y104.024 E.02644
G1 E-1.12 F2400
;WIPE_START
G1 F4800
G1 X118.415 Y104.084 E-.0285
G1 X117.634 Y103.542 E-.4515
;WIPE_END
G1 X110.014 Y103.12 F6000
G1 E1.6 F2400
G1 F1200
G1 X110.014 Y104.077 E.02821
G1 X108.635 Y103.12 E.04947
G1 X109.954 Y103.12 E.03887
G1 E-1.12 F2400
;WIPE_START
G1 F4800
G1 X110.014 Y103.12 E-.0285
G1 X110.014 Y104.071 E-.4515
;WIPE_END
G1 X108.332 Y97.269 F6000
G1 E1.6 F2400
;TYPE:Perimeter
G1 F1200
G1 X108.292 Y97.284 E.00126
G1 X108.192 Y97.286 E.00295
G1 X108.112 Y97.237 E.00276
G1 X108.068 Y97.171 E.00234
G1 X108.056 Y97.002 E.00499
G1 X108.084 Y96.931 E.00225
G1 X108.15 Y96.864 E.00277
G1 X108.211 Y96.839 E.00194
G1 X108.299 Y96.838 E.00259
G1 X108.36 Y96.861 E.00192
G1 X108.428 Y96.944 E.00316
G1 X108.439 Y97.129 E.00546
G1 X108.411 Y97.208 E.00247
G1 X108.381 Y97.238 E.00125
G1 X108.381 Y97.238 F6000
G1 X108.468 Y97.614
;TYPE:External perimeter
G1 F1200
G1 X108.36 Y97.657 E.00343
G1 X108.117 Y97.657 E.00716
G1 X107.927 Y97.575 E.0061
G1 X107.766 Y97.408 E.00684
G1 X107.684 Y97.194 E.00675
G1 X107.684 Y96.933 E.00769
G1 X107.768 Y96.721 E.00672
G1 X107.935 Y96.552 E.007
G1 X108.139 Y96.467 E.00651
G1 X108.369 Y96.466 E.00678
G1 X108.574 Y96.548 E.00651
G1 X108.732 Y96.709 E.00665
G1 X108.812 Y96.922 E.00671
G1 X108.812 Y97.193 E.00799
G1 X108.73 Y97.413 E.00692
G1 X108.571 Y97.574 E.00667
G1 X108.524 Y97.592 E.00148
G1 E-1.12 F2400
;WIPE_START
G1 F4800
G1 X108.468 Y97.614 E-.02858
G1 X108.36 Y97.657 E-.05522
G1 X108.117 Y97.657 E-.11542
G1 X107.927 Y97.575 E-.0983
G1 X107.766 Y97.408 E-.11019
G1 X107.711 Y97.266 E-.07229
;WIPE_END
G1 X110.662 Y97.471 F6000
G1 E1.6 F2400
;TYPE:Perimeter
G1 F1200
G1 X110.532 Y97.487 E.00386
G1 X110.364 Y97.457 E.00503
G1 X110.24 Y97.375 E.00438
G1 X110.156 Y97.251 E.00441
G1 X110.126 Y97.072 E.00535
G1 X110.158 Y96.882 E.00568
G1 X110.247 Y96.748 E.00474
G1 X110.43 Y96.642 E.00623
G1 X110.611 Y96.628 E.00535
G1 X110.708 Y96.645 E.0029
G1 X110.834 Y96.711 E.00419
G1 X110.89 Y96.768 E.00236
G1 X110.959 Y96.902 E.00444
G1 X110.972 Y97.133 E.00682
G1 X110.909 Y97.312 E.00559
G1 X110.805 Y97.416 E.00433
G1 X110.718 Y97.45 E.00275
G1 X110.718 Y97.45 F6000
G1 X111.037 Y97.716
;TYPE:External perimeter
G1 F1200
G1 X110.959 Y97.764 E.0027
G1 X110.751 Y97.841 E.00654
G1 X110.538 Y97.866 E.00632
G1 X110.373 Y97.852 E.00488
G1 X110.224 Y97.81 E.00456
G1 X110.092 Y97.741 E.00439
G1 X109.973 Y97.644 E.00452
G1 X109.874 Y97.524 E.00459
G1 X109.804 Y97.391 E.00443
G1 X109.762 Y97.242 E.00456
G1 X109.747 Y97.072 E.00503
G1 X109.762 Y96.897 E.00518
G1 X109.806 Y96.743 E.00472
G1 X109.876 Y96.606 E.00453
G1 X109.977 Y96.482 E.00471
G1 X110.096 Y96.382 E.00458
G1 X110.315 Y96.28 E.00712
G1 X110.473 Y96.251 E.00473
G1 X110.644 Y96.251 E.00504
G1 X110.811 Y96.28 E.005
G1 X110.95 Y96.336 E.00442
G1 X111.075 Y96.419 E.00442
G1 X111.185 Y96.53 E.00461
G1 X111.268 Y96.657 E.00447
G1 X111.324 Y96.799 E.0045
G1 X111.352 Y96.961 E.00485
G1 X111.331 Y97.268 E.00907
G1 X111.246 Y97.485 E.00687
G1 X111.195 Y97.563 E.00275
G1 X111.08 Y97.674 E.00471
G1 X111.08 Y97.674 F6000
G1 X110.83 Y97.172
;TYPE:Solid infill
;WIDTH:0.495415
G1 F1200
G1 X110.437 Y96.778 E.01968
G1 E-1.12 F2400
;WIPE_START
G1 F4800
G1 X110.83 Y97.172 E-.26433
;WIPE_END
G1 E-.21567 F2400
G1 X116.549 Y97.266 F6000
G1 E1.6 F2400
;TYPE:Perimeter
;WIDTH:0.42
G1 F1200
G1 X116.513 Y97.244 E.00124
G1 X116.47 Y97.178 E.00232
G1 X116.458 Y97.009 E.00499
G1 X116.485 Y96.938 E.00224
G1 X116.551 Y96.871 E.00277
G1 X116.612 Y96.846 E.00194
G1 X116.701 Y96.845 E.00262
G1 X116.761 Y96.868 E.00189
G1 X116.829 Y96.951 E.00316
G1 X116.841 Y97.135 E.00543
G1 X116.812 Y97.215 E.00251
G1 X116.762 Y97.265 E.00208
G1 X116.694 Y97.291 E.00215
G1 X116.601 Y97.292 E.00274
G1 X116.601 Y97.292 F6000
G1 X116.424 Y97.623
;TYPE:External perimeter
G1 F1200
G1 X116.328 Y97.582 E.00308
G1 X116.168 Y97.415 E.00682
G1 X116.085 Y97.2 E.00679
G1 X116.085 Y96.94 E.00766
G1 X116.17 Y96.728 E.00673
G1 X116.337 Y96.558 E.00702
G1 X116.54 Y96.474 E.00648
G1 X116.77 Y96.473 E.00678
G1 X116.975 Y96.555 E.00651
G1 X117.133 Y96.716 E.00665
G1 X117.214 Y96.929 E.00672
G1 X117.214 Y97.2 E.00799
G1 X117.131 Y97.419 E.0069
G1 X116.972 Y97.581 E.00669
G1 X116.761 Y97.664 E.00668
G1 X116.519 Y97.664 E.00713
G1 X116.479 Y97.647 E.00128
G1 E-1.12 F2400
;WIPE_START
G1 F4800
G1 X116.424 Y97.623 E-.0285
G1 X116.328 Y97.582 E-.04958
G1 X116.168 Y97.415 E-.10986
G1 X116.085 Y97.2 E-.10947
G1 X116.085 Y96.94 E-.1235
G1 X116.131 Y96.825 E-.05909
;WIPE_END
G1 X118.765 Y97.464 F6000
G1 E1.6 F2400
;TYPE:Perimeter
G1 F1200
G1 X118.641 Y97.382 E.00438
G1 X118.558 Y97.257 E.00442
G1 X118.527 Y97.079 E.00533
G1 X118.56 Y96.889 E.00568
G1 X118.649 Y96.754 E.00477
G1 X118.832 Y96.649 E.00622
G1 X119.013 Y96.635 E.00535
G1 X119.109 Y96.652 E.00287
G1 X119.235 Y96.718 E.00419
G1 X119.292 Y96.775 E.00238
G1 X119.36 Y96.908 E.0044
G1 X119.374 Y97.139 E.00682
G1 X119.318 Y97.298 E.00497
G1 X119.226 Y97.411 E.00429
G1 X119.064 Y97.478 E.00517
G1 X118.933 Y97.494 E.00389
G1 X118.825 Y97.475 E.00323
G1 X118.825 Y97.475 F6000
G1 X118.626 Y97.817
;TYPE:External perimeter
G1 F1200
G1 X118.493 Y97.748 E.00442
G1 X118.374 Y97.651 E.00452
G1 X118.275 Y97.531 E.00459
G1 X118.206 Y97.398 E.00442
G1 X118.163 Y97.249 E.00457
G1 X118.149 Y97.079 E.00503
G1 X118.164 Y96.904 E.00518
G1 X118.207 Y96.75 E.00471
G1 X118.278 Y96.613 E.00455
G1 X118.379 Y96.489 E.00471
G1 X118.497 Y96.389 E.00456
G1 X118.716 Y96.287 E.00712
G1 X118.874 Y96.258 E.00473
G1 X119.045 Y96.258 E.00504
G1 X119.212 Y96.287 E.005
G1 X119.352 Y96.342 E.00443
G1 X119.477 Y96.426 E.00444
G1 X119.587 Y96.537 E.00461
G1 X119.67 Y96.664 E.00447
G1 X119.725 Y96.806 E.00449
G1 X119.753 Y96.967 E.00482
