; generated by PrusaSlicer 2.7.2+win64 on 2024-03-27 at 11:40:13 UTC

; 

; external perimeters extrusion width = 0.42mm
; perimeters extrusion width = 0.44mm
; infill extrusion width = 0.44mm
; solid infill extrusion width = 0.44mm
; top infill extrusion width = 0.40mm
; first layer extrusion width = 0.42mm


; printing object Shape-Box id:0 copy 0
; stop printing object Shape-Box id:0 copy 0

;TYPE:Custom
; Ender 3 Custom Start G-code
G92 E0 ; Reset Extruder

M140 S55 ; set bed temp
M104 S200 ; set extruder temp
M109 S200 ; wait for extruder temp
M190 S55 ; wait for bed temp

G28 ; Home all axes
M104 S215 ; set extruder temp 
BED_MESH_CALIBRATE AREA_START=83.7684,88.5669 AREA_END=143.763,126.207

G1 Z2.0 F3000 ; Move Z Axis up little to prevent scratching of Heat Bed
M109 S215 ; wait for extruder temp
G1 X0.1 Y20 Z0.3 F5000.0 ; Move to start position

G1 X0.1 Y200.0 Z0.3 F1500.0 E15 ; Draw the first line
G1 X0.4 Y200.0 Z0.3 F5000.0 ; Move to side a little
G1 X0.4 Y20 Z0.3 F1500.0 E30 ; Draw the second line
G92 E0 ; Reset Extruder
G1 Z2.0 F3000 ; Move Z Axis up little to prevent scratching of Heat Bed
G1 X5 Y20 Z0.3 F5000.0 ; Move over to prevent blob squish
G21 ; set units to millimeters
G90 ; use absolute coordinates
M83 ; use relative distances for extrusion
; Filament gcode
M107
;LAYER_CHANGE
;Z:0.2
;HEIGHT:0.2
G1 E-1.6 F2400
G1 Z.2 F6000
G1 X87.857 Y91.701
G1 Z.2
G1 E1.6 F2400
M204 S500
;TYPE:Skirt/Brim
;WIDTH:0.42
G1 F1200
G1 X88.725 Y90.996 E.03436
G1 X89.656 Y90.382 E.03427
G1 X91.322 Y89.564 E.05703
G1 X93.099 Y89.026 E.05705
G1 X94.721 Y88.79 E.05036
G1 X132.884 Y88.805 E1.17264
G1 X133.843 Y88.938 E.02975
G1 X135.87 Y89.494 E.06458
G1 X137.7 Y90.365 E.06228
G1 X139.14 Y91.376 E.05406
G1 X140.583 Y92.775 E.06176
G1 X141.374 Y93.79 E.03954
G1 X141.835 Y94.519 E.0265
G1 X142.681 Y96.304 E.0607
G1 X143.24 Y98.341 E.06491
G1 X143.425 Y100.341 E.06172
G1 X143.575 Y114.341 E.43021
G1 X143.503 Y115.668 E.04083
G1 X143.296 Y116.888 E.03802
G1 X142.676 Y118.864 E.06364
G1 X141.69 Y120.733 E.06493
G1 X140.467 Y122.296 E.06098
G1 X139.688 Y123.064 E.03361
G1 X138.815 Y123.771 E.03452
G1 X137.173 Y124.778 E.05919
G1 X136.08 Y125.257 E.03667
G1 X134.281 Y125.783 E.05759
G1 X132.523 Y126.003 E.05444
G1 X95.078 Y126.009 E1.15058
G1 X93.39 Y125.81 E.05223
G1 X92.295 Y125.542 E.03464
G1 X91.185 Y125.153 E.03614
G1 X89.854 Y124.506 E.04547
G1 X88.8 Y123.835 E.03839
G1 X87.851 Y123.075 E.03736
G1 X86.76 Y121.96 E.04793
G1 X86.154 Y121.19 E.03011
G1 X85.328 Y119.862 E.04806
G1 X84.772 Y118.665 E.04055
G1 X84.319 Y117.276 E.04489
G1 X84.013 Y115.506 E.05519
G1 X83.957 Y114.505 E.03081
G1 X83.987 Y99.578 E.45867
G1 X84.339 Y97.433 E.06679
G1 X84.956 Y95.673 E.05731
G1 X85.359 Y94.854 E.02805
G1 X86.242 Y93.468 E.0505
G1 X86.875 Y92.684 E.03096
G1 X87.814 Y91.744 E.04083
G1 X87.814 Y91.744 F6000
G1 X88.08 Y92.01
G1 F1200
G1 X88.109 Y91.982 E.00124
G1 X88.937 Y91.308 E.03281
G1 X89.836 Y90.714 E.03311
G1 X91.455 Y89.917 E.05545
G1 X92.992 Y89.437 E.04948
G1 X94.74 Y89.166 E.05435
G1 X131.692 Y89.133 E1.13543
G1 X133.767 Y89.308 E.06399
G1 X135.748 Y89.851 E.06312
G1 X137.509 Y90.69 E.05994
G1 X138.893 Y91.661 E.05195
G1 X140.304 Y93.029 E.06039
G1 X141.07 Y94.013 E.03832
G1 X141.565 Y94.802 E.02862
G1 X142.414 Y96.673 E.06313
G1 X142.882 Y98.473 E.05715
G1 X143.048 Y100.345 E.05775
G1 X143.198 Y114.345 E.43021
G1 X143.13 Y115.614 E.03905
G1 X142.924 Y116.824 E.03771
G1 X142.331 Y118.712 E.06081
G1 X141.369 Y120.534 E.06331
G1 X140.198 Y122.031 E.0584
G1 X139.594 Y122.642 E.0264
G1 X138.603 Y123.459 E.03946
G1 X136.981 Y124.453 E.05845
G1 X135.395 Y125.098 E.05261
G1 X134.218 Y125.411 E.03742
G1 X132.355 Y125.634 E.05765
G1 X95.105 Y125.633 E1.14459
G1 X93.449 Y125.437 E.05124
G1 X92.304 Y125.154 E.03624
G1 X91.337 Y124.807 E.03157
G1 X90.03 Y124.173 E.04464
G1 X89.019 Y123.528 E.03685
G1 X88.102 Y122.794 E.03609
G1 X87.039 Y121.706 E.04674
G1 X86.452 Y120.958 E.02922
G1 X85.657 Y119.676 E.04635
G1 X85.128 Y118.539 E.03853
G1 X84.684 Y117.182 E.04387
G1 X84.387 Y115.46 E.05369
G1 X84.334 Y114.505 E.02939
G1 X84.363 Y99.603 E.4579
G1 X84.7 Y97.541 E.0642
G1 X85.307 Y95.811 E.05634
G1 X85.705 Y95.004 E.02765
G1 X86.553 Y93.681 E.04829
G1 X87.156 Y92.934 E.0295
G1 X88.038 Y92.052 E.03833
G1 X88.038 Y92.052 F6000
G1 X88.304 Y92.318
G1 F1200
G1 X88.361 Y92.262 E.00246
G1 X89.149 Y91.62 E.03123
G1 X90.029 Y91.037 E.03244
G1 X91.588 Y90.27 E.05339
G1 X93.208 Y89.774 E.05206
G1 X94.758 Y89.543 E.04815
G1 X131.692 Y89.51 E1.13488
G1 X133.69 Y89.677 E.06161
G1 X135.628 Y90.208 E.06174
G1 X137.318 Y91.015 E.05755
G1 X138.647 Y91.947 E.04988
G1 X140.013 Y93.269 E.05841
G1 X140.766 Y94.236 E.03766
G1 X141.237 Y94.988 E.02727
G1 X142.054 Y96.785 E.06066
G1 X142.512 Y98.545 E.05588
G1 X142.671 Y100.349 E.05565
G1 X142.821 Y114.349 E.43021
G1 X142.744 Y115.641 E.03977
G1 X142.521 Y116.917 E.0398
G1 X142.276 Y117.78 E.02757
G1 X141.409 Y119.75 E.06614
G1 X140.675 Y120.874 E.04125
G1 X140.018 Y121.672 E.03176
G1 X139.333 Y122.37 E.03005
G1 X138.39 Y123.147 E.03754
G1 X136.804 Y124.12 E.05717
G1 X135.27 Y124.742 E.05086
G1 X134.141 Y125.042 E.03589
G1 X132.345 Y125.257 E.05558
G1 X95.131 Y125.257 E1.14348
G1 X93.508 Y125.065 E.05022
G1 X92.409 Y124.792 E.0348
G1 X91.488 Y124.462 E.03006
G1 X90.206 Y123.839 E.0438
G1 X89.238 Y123.221 E.03529
G1 X88.306 Y122.47 E.03678
G1 X87.318 Y121.453 E.04357
G1 X86.76 Y120.741 E.0278
G1 X85.985 Y119.491 E.04519
G1 X85.483 Y118.413 E.03654
G1 X85.05 Y117.087 E.04286
G1 X84.761 Y115.415 E.05214
G1 X84.739 Y99.629 E.48506
G1 X85.061 Y97.651 E.06158
G1 X85.658 Y95.948 E.05545
G1 X86.04 Y95.178 E.02641
G1 X86.862 Y93.897 E.04677
G1 X87.438 Y93.185 E.02814
G1 X88.262 Y92.361 E.03581
; printing object Shape-Box id:0 copy 0
G1 E-1.12 F2400
;WIPE_START
G1 F4800
G1 X88.304 Y92.318 E-.02855
G1 X88.361 Y92.262 E-.03796
G1 X89.036 Y91.712 E-.41349
;WIPE_END
G1 X114.069 Y110.848 F6000
G1 E1.6 F2400
;TYPE:Perimeter
G1 F1200
G1 X113.771 Y110.911 E.00936
G1 X113.622 Y110.917 E.00458
G1 X113.53 Y110.896 E.0029
G1 X113.469 Y110.86 E.00218
G1 X113.389 Y110.742 E.00438
G1 X113.376 Y110.638 E.00322
G1 X113.392 Y110.518 E.00372
G1 X113.431 Y110.435 E.00282
G1 X113.503 Y110.355 E.00331
G1 X113.58 Y110.308 E.00277
G1 X113.678 Y110.285 E.00309
G1 X113.788 Y110.289 E.00338
G1 X113.871 Y110.329 E.00283
G1 X113.936 Y110.427 E.00361
G1 X114.051 Y110.791 E.01173
G1 X114.051 Y110.791 F6000
G1 X113.951 Y112.756
G1 F1200
G1 X113.908 Y112.891 E.00435
G1 X113.867 Y112.951 E.00223
G1 X113.783 Y113.002 E.00302
G1 X113.673 Y113.002 E.00338
G1 X113.606 Y112.962 E.0024
G1 X113.612 Y112.857 E.00323
G1 X113.671 Y112.821 E.00212
G1 X113.861 Y112.762 E.00611
G1 X113.891 Y112.76 E.00092
G1 E-1.12 F2400
;WIPE_START
G1 F4800
G1 X113.951 Y112.756 E-.02856
G1 X113.908 Y112.891 E-.0673
G1 X113.867 Y112.951 E-.03452
G1 X113.783 Y113.002 E-.04668
G1 X113.673 Y113.002 E-.05225
G1 X113.606 Y112.962 E-.03707
G1 X113.612 Y112.857 E-.04996
G1 X113.671 Y112.821 E-.03283
G1 X113.861 Y112.762 E-.0945
G1 X113.891 Y112.76 E-.01428
;WIPE_END
G1 E-.02205 F2400
G1 X113.958 Y104.354 F6000
G1 E1.6 F2400
G1 F1200
G1 X113.915 Y104.49 E.00438
G1 X113.874 Y104.55 E.00223
G1 X113.79 Y104.601 E.00302
G1 X113.68 Y104.601 E.00338
G1 X113.613 Y104.56 E.00241
G1 X113.619 Y104.455 E.00323
G1 X113.678 Y104.419 E.00212
G1 X113.868 Y104.361 E.0061
G1 X113.898 Y104.359 E.00092
G1 E-1.12 F2400
;WIPE_START
G1 F4800
G1 X113.958 Y104.354 E-.0286
G1 X113.915 Y104.49 E-.06775
G1 X113.874 Y104.55 E-.03452
G1 X113.79 Y104.601 E-.04668
G1 X113.68 Y104.601 E-.05225
G1 X113.613 Y104.56 E-.03731
G1 X113.619 Y104.455 E-.04996
G1 X113.678 Y104.419 E-.03283
G1 X113.868 Y104.361 E-.09436
G1 X113.898 Y104.359 E-.01428
;WIPE_END
G1 E-.02146 F2400
G1 X114.041 Y102.338 F6000
G1 E1.6 F2400
G1 F1200
G1 X114.076 Y102.447 E.00352
G1 X113.778 Y102.51 E.00936
G1 X113.629 Y102.516 E.00458
G1 X113.537 Y102.495 E.0029
G1 X113.476 Y102.459 E.00218
G1 X113.396 Y102.341 E.00438
G1 X113.383 Y102.237 E.00322
G1 X113.399 Y102.117 E.00372
G1 X113.437 Y102.034 E.0028
G1 X113.51 Y101.954 E.00333
G1 X113.587 Y101.907 E.00277
G1 X113.684 Y101.884 E.00306
G1 X113.795 Y101.887 E.00341
G1 X113.878 Y101.928 E.00284
G1 X113.943 Y102.026 E.00361
G1 X114.023 Y102.281 E.00821
G1 E-1.12 F2400
;WIPE_START
G1 F4800
G1 X114.041 Y102.338 E-.02839
G1 X114.076 Y102.447 E-.05438
G1 X113.778 Y102.51 E-.14468
G1 X113.629 Y102.516 E-.07083
G1 X113.537 Y102.495 E-.04482
G1 X113.476 Y102.459 E-.03364
G1 X113.396 Y102.341 E-.06772
G1 X113.386 Y102.267 E-.03554
;WIPE_END
G1 X99.736 Y110.76 F6000
G1 E1.6 F2400
G1 F1200
G1 X99.762 Y110.848 E.00282
G1 X99.463 Y110.911 E.00939
G1 X99.315 Y110.917 E.00455
G1 X99.223 Y110.896 E.0029
G1 X99.11 Y110.804 E.00448
G1 X99.076 Y110.729 E.00253
G1 X99.067 Y110.605 E.00382
G1 X99.094 Y110.489 E.00366
G1 X99.15 Y110.396 E.00334
G1 X99.233 Y110.325 E.00336
G1 X99.344 Y110.286 E.00362
G1 X99.467 Y110.285 E.00378
G1 X99.563 Y110.329 E.00324
G1 X99.653 Y110.485 E.00553
G1 X99.718 Y110.703 E.00699
G1 E-1.12 F2400
;WIPE_START
G1 F4800
G1 X99.736 Y110.76 E-.02839
G1 X99.762 Y110.848 E-.04359
G1 X99.463 Y110.911 E-.14514
G1 X99.315 Y110.917 E-.07036
G1 X99.223 Y110.896 E-.04482
G1 X99.11 Y110.804 E-.06921
G1 X99.076 Y110.729 E-.03911
G1 X99.07 Y110.647 E-.03938
;WIPE_END
G1 X101.614 Y111.934 F6000
G1 E1.6 F2400
G1 F1200
G1 X101.419 Y112.294 E.01258
G1 X100.733 Y112.171 E.02142
G1 X100.388 Y112.136 E.01066
G1 X100.435 Y111.923 E.0067
G1 X100.515 Y111.233 E.02134
G1 X100.859 Y111.17 E.01075
G1 X101.189 Y111.051 E.01078
G1 X101.2 Y111.21 E.0049
G1 X101.471 Y111.755 E.0187
G1 X101.577 Y111.887 E.0052
G1 E-1.12 F2400
;WIPE_START
G1 F4800
G1 X101.614 Y111.934 E-.02841
G1 X101.419 Y112.294 E-.19447
G1 X100.886 Y112.198 E-.25712
;WIPE_END
G1 X99.643 Y112.756 F6000
G1 E1.6 F2400
G1 F1200
G1 X99.6 Y112.891 E.00435
G1 X99.56 Y112.951 E.00222
G1 X99.475 Y113.002 E.00305
G1 X99.366 Y113.002 E.00335
G1 X99.298 Y112.962 E.00242
G1 X99.304 Y112.857 E.00323
G1 X99.363 Y112.821 E.00212
G1 X99.554 Y112.762 E.00614
G1 X99.584 Y112.76 E.00092
G1 E-1.12 F2400
;WIPE_START
G1 F4800
G1 X99.643 Y112.756 E-.02809
G1 X99.6 Y112.891 E-.0673
G1 X99.56 Y112.951 E-.03425
G1 X99.475 Y113.002 E-.04708
G1 X99.366 Y113.002 E-.05178
G1 X99.298 Y112.962 E-.03747
G1 X99.304 Y112.857 E-.04996
G1 X99.363 Y112.821 E-.03283
G1 X99.554 Y112.762 E-.09495
G1 X99.584 Y112.76 E-.01428
;WIPE_END
G1 E-.02201 F2400
G1 X131.714 Y110.801 F6000
G1 E1.6 F2400
G1 F1200
G1 X131.719 Y110.662 E.00427
G1 X131.767 Y110.501 E.00516
G1 X131.839 Y110.392 E.00401
G1 X131.923 Y110.323 E.00334
G1 X132.019 Y110.287 E.00315
G1 X132.137 Y110.285 E.00363
G1 X132.226 Y110.322 E.00296
G1 X132.313 Y110.44 E.0045
G1 X132.508 Y111.025 E.01895
G1 X132.353 Y111.174 E.00661
G1 X132.173 Y111.254 E.00605
G1 X132.04 Y111.257 E.00409
G1 X131.858 Y111.205 E.00582
G1 X131.75 Y111.071 E.00529
G1 X131.711 Y110.9 E.00539
G1 X131.712 Y110.861 E.0012
G1 E-1.12 F2400
;WIPE_START
G1 F4800
G1 X131.714 Y110.801 E-.02852
G1 X131.719 Y110.662 E-.06607
G1 X131.767 Y110.501 E-.0798
G1 X131.839 Y110.392 E-.06205
G1 X131.923 Y110.323 E-.05164
G1 X132.019 Y110.287 E-.0487
G1 X132.137 Y110.285 E-.05606
G1 X132.226 Y110.322 E-.04578
G1 X132.278 Y110.392 E-.04138
;WIPE_END
G1 X131.865 Y102.803 F6000
G1 E1.6 F2400
G1 F1200
G1 X131.757 Y102.669 E.00529
G1 X131.717 Y102.499 E.00537
G1 X131.726 Y102.26 E.00735
G1 X131.774 Y102.099 E.00516
G1 X131.846 Y101.991 E.00399
G1 X131.93 Y101.922 E.00334
G1 X132.026 Y101.885 E.00316
G1 X132.144 Y101.884 E.00363
G1 X132.233 Y101.921 E.00296
G1 X132.32 Y102.038 E.00448
G1 X132.514 Y102.623 E.01894
G1 X132.359 Y102.772 E.00661
G1 X132.18 Y102.853 E.00604
G1 X132.047 Y102.856 E.00409
G1 X131.922 Y102.82 E.004
G1 E-1.12 F2400
;WIPE_START
G1 F4800
G1 X131.865 Y102.803 E-.02825
G1 X131.757 Y102.669 E-.08175
G1 X131.717 Y102.499 E-.08296
G1 X131.726 Y102.26 E-.11361
G1 X131.774 Y102.099 E-.0798
G1 X131.846 Y101.991 E-.06165
G1 X131.898 Y101.948 E-.03198
;WIPE_END
G1 X115.459 Y111.068 F6000
G1 E1.6 F2400
G1 F1200
G1 X115.165 Y111.173 E.00959
G1 X114.822 Y111.234 E.0107
G1 X114.743 Y111.923 E.02131
G1 X114.696 Y112.136 E.0067
G1 X115.041 Y112.171 E.01066
G1 X116.063 Y112.354 E.0319
G1 X115.882 Y113.231 E.02752
G1 X115.758 Y113.601 E.01199
G1 X115.573 Y113.947 E.01206
G1 X115.328 Y114.252 E.01202
G1 X115.031 Y114.505 E.01199
G1 X114.695 Y114.697 E.01189
G1 X114.327 Y114.823 E.01195
G1 X113.937 Y114.884 E.01213
G1 X113.475 Y114.877 E.0142
G1 X113.191 Y114.827 E.00886
G1 X112.926 Y114.748 E.0085
G1 X112.674 Y114.637 E.00846
G1 X112.437 Y114.498 E.00844
G1 X112.22 Y114.327 E.00849
G1 X112.029 Y114.126 E.00852
G1 X111.862 Y113.887 E.00896
G1 X111.664 Y113.438 E.01508
G1 X111.603 Y113.138 E.00941
G1 X111.607 Y112.635 E.01546
G1 X111.699 Y112.343 E.00941
G1 X111.892 Y111.969 E.01293
G1 X111.741 Y111.774 E.00758
G1 X111.707 Y111.694 E.00267
G1 X111.163 Y112.537 E.03083
G1 X109.523 Y114.868 E.08758
G1 X107.977 Y114.868 E.0475
G1 X107.977 Y111.621 E.09977
G1 X107.3 Y111.621 E.0208
G1 X107.3 Y109.683 E.05955
G1 X107.977 Y109.683 E.0208
G1 X107.977 Y108.484 E.03684
G1 X109.966 Y108.484 E.06112
G1 X109.966 Y109.686 E.03693
G1 X110.603 Y109.689 E.01957
G1 X111.082 Y109.719 E.01475
G1 X111.596 Y109.798 E.01598
G1 X111.612 Y109.708 E.00281
G1 X111.741 Y109.434 E.00931
G1 X112.011 Y109.077 E.01375
G1 X112.212 Y108.89 E.00844
G1 X112.593 Y108.643 E.01395
G1 X113.027 Y108.479 E.01426
G1 X113.5 Y108.401 E.01473
G1 X113.935 Y108.401 E.01337
G1 X114.355 Y108.469 E.01307
G1 X114.752 Y108.612 E.01297
G1 X115.116 Y108.83 E.01304
G1 X115.423 Y109.112 E.01281
G1 X115.577 Y109.31 E.00771
G1 X115.775 Y109.682 E.01295
G1 X115.81 Y109.819 E.00434
G1 X116.109 Y109.766 E.00933
G1 X116.101 Y108.484 E.03939
G1 X118.094 Y108.484 E.06124
G1 X118.094 Y109.683 E.03684
G1 X120.268 Y109.683 E.0668
G1 X120.268 Y111.152 E.04514
G1 X117.651 Y114.868 E.13966
G1 X116.104 Y114.868 E.04753
G1 X116.108 Y111.579 E.10106
G1 X115.399 Y111.537 E.02182
G1 X115.451 Y111.128 E.01267
G1 X115.451 Y111.128 F6000
G1 X115.535 Y110.641
;TYPE:External perimeter
G1 F1200
G1 X115.067 Y110.807 E.01526
G1 X114.478 Y110.913 E.01839
G1 X114.343 Y110.43 E.01541
G1 X114.276 Y110.261 E.00559
G1 X114.128 Y110.051 E.00789
G1 X113.946 Y109.94 E.00655
G1 X113.844 Y109.913 E.00324
G1 X113.64 Y109.906 E.00627
G1 X113.435 Y109.955 E.00648
G1 X113.26 Y110.062 E.0063
G1 X113.113 Y110.224 E.00672
G1 X113.026 Y110.411 E.00634
G1 X112.995 Y110.637 E.00701
G1 X113.023 Y110.848 E.00654
G1 X113.1 Y111.015 E.00565
G1 X113.229 Y111.157 E.00589
G1 X113.39 Y111.251 E.00573
G1 X113.588 Y111.296 E.00624
G1 X113.818 Y111.286 E.00707
G1 X114.452 Y111.152 E.01991
G1 X114.371 Y111.86 E.0219
G1 X114.261 Y112.354 E.01555
G1 X113.791 Y112.39 E.01448
G1 X113.514 Y112.474 E.00889
G1 X113.356 Y112.571 E.0057
G1 X113.269 Y112.683 E.00436
G1 X113.225 Y112.844 E.00513
G1 X113.231 Y113.023 E.0055
G1 X113.255 Y113.104 E.0026
G1 X113.355 Y113.25 E.00544
G1 X113.51 Y113.349 E.00565
G1 X113.609 Y113.375 E.00315
G1 X113.848 Y113.375 E.00734
G1 X114.031 Y113.307 E.006
G1 X114.151 Y113.205 E.00484
G1 X114.251 Y113.057 E.00549
G1 X114.431 Y112.489 E.01831
G1 X114.989 Y112.544 E.01723
G1 X115.615 Y112.657 E.01955
G1 X115.517 Y113.133 E.01493
G1 X115.41 Y113.451 E.01031
G1 X115.257 Y113.738 E.00999
G1 X115.056 Y113.988 E.00986
G1 X114.813 Y114.195 E.00981
G1 X114.538 Y114.352 E.00973
G1 X114.236 Y114.456 E.00981
G1 X113.911 Y114.507 E.01011
G1 X113.511 Y114.5 E.01229
G1 X113.278 Y114.46 E.00726
G1 X113.057 Y114.393 E.0071
G1 X112.846 Y114.301 E.00707
G1 X112.65 Y114.186 E.00698
G1 X112.474 Y114.047 E.00689
G1 X112.321 Y113.886 E.00682
G1 X112.192 Y113.701 E.00693
G1 X112.025 Y113.323 E.0127
G1 X111.98 Y113.102 E.00693
G1 X111.984 Y112.695 E.01251
G1 X112.049 Y112.487 E.0067
G1 X112.237 Y112.122 E.01262
G1 X112.518 Y111.935 E.01037
G1 X112.301 Y111.785 E.00811
G1 X112.179 Y111.725 E.00418
G1 X112.069 Y111.583 E.00552
G1 X111.889 Y111.155 E.01427
G1 X111.824 Y110.786 E.01151
G1 X111.828 Y110.473 E.00962
G1 X111.855 Y110.289 E.00571
G1 X111.945 Y109.995 E.00945
G1 X111.975 Y109.822 E.0054
