; generated by PrusaSlicer 2.7.3+win64 on 2024-04-03 at 19:11:47 UTC

; 

; external perimeters extrusion width = 0.42mm
; perimeters extrusion width = 0.44mm
; infill extrusion width = 0.44mm
; solid infill extrusion width = 0.44mm
; top infill extrusion width = 0.40mm
; first layer extrusion width = 0.42mm

; external perimeters extrusion width = 0.42mm
; perimeters extrusion width = 0.44mm
; infill extrusion width = 0.44mm
; solid infill extrusion width = 0.44mm
; top infill extrusion width = 0.40mm
; first layer extrusion width = 0.42mm

; external perimeters extrusion width = 0.42mm
; perimeters extrusion width = 0.44mm
; infill extrusion width = 0.44mm
; solid infill extrusion width = 0.44mm
; top infill extrusion width = 0.40mm
; first layer extrusion width = 0.42mm


; printing object tick_twister_v2.stl id:3 copy 0
; stop printing object tick_twister_v2.stl id:3 copy 0
; printing object tick_twister_v2.stl id:1 copy 0
; stop printing object tick_twister_v2.stl id:1 copy 0
; printing object tick_twister_v2.stl id:2 copy 0
; stop printing object tick_twister_v2.stl id:2 copy 0

;TYPE:Custom
; Ender 3 Custom Start G-code
G92 E0 ; Reset Extruder

M140 S55 ; set bed temp
M104 S200 ; set extruder temp
M109 S200 ; wait for extruder temp
M190 S55 ; wait for bed temp

G28 ; Home all axes
M104 S215 ; set extruder temp 
BED_MESH_CALIBRATE AREA_START=96.8585,103.124 AREA_END=133.712,127.689

G1 Z2.0 F3000 ; Move Z Axis up little to prevent scratching of Heat Bed
M109 S215 ; wait for extruder temp
G1 X0.1 Y20 Z0.3 F5000.0 ; Move to start position

G1 X0.1 Y200.0 Z0.3 F1500.0 E15 ; Draw the first line
G1 X0.4 Y200.0 Z0.3 F5000.0 ; Move to side a little
G1 X0.4 Y20 Z0.3 F1500.0 E30 ; Draw the second line
G92 E0 ; Reset Extruder
G1 Z2.0 F3000 ; Move Z Axis up little to prevent scratching of Heat Bed
G1 X5 Y20 Z0.3 F5000.0 ; Move over to prevent blob squish
G21 ; set units to millimeters
G90 ; use absolute coordinates
M83 ; use relative distances for extrusion
; Filament gcode
M107
;LAYER_CHANGE
;Z:0.12
;HEIGHT:0.12
G1 E-1.6 F2400
G1 Z.12 F6000
G1 X99.273 Y105.526
G1 Z.12
G1 E1.6 F2400
M204 S500
;TYPE:Skirt/Brim
;WIDTH:0.42
G1 F1200
G1 X99.987 Y104.86 E.01882
G1 X100.802 Y104.372 E.01831
G1 X101.352 Y104.138 E.01152
G1 X102.283 Y103.922 E.01842
G1 X111.539 Y103.329 E.17878
G1 X112.727 Y103.476 E.02307
G1 X129.632 Y107.557 E.33522
G1 X130.794 Y108.021 E.02412
G1 X131.657 Y108.597 E.02
G1 X132.135 Y109.044 E.01261
G1 X132.768 Y109.867 E.02001
G1 X133.077 Y110.445 E.01263
G1 X133.411 Y111.427 E.01999
G1 X133.518 Y112.074 E.01264
G1 X133.518 Y113.112 E.02001
G1 X133.411 Y113.759 E.01264
G1 X133.077 Y114.741 E.01999
G1 X132.768 Y115.319 E.01263
G1 X132.135 Y116.142 E.02001
G1 X131.237 Y116.921 E.02291
G1 X116.786 Y126.464 E.33381
G1 X115.432 Y127.12 E.029
G1 X114.431 Y127.387 E.01997
G1 X112.917 Y127.492 E.02925
G1 X101.717 Y126.744 E.21637
G1 X100.327 Y126.465 E.02733
G1 X99.722 Y126.208 E.01267
G1 X98.791 Y125.658 E.02084
G1 X97.968 Y124.883 E.02179
G1 X97.174 Y123.514 E.03051
G1 X97.056 Y122.652 E.01677
G1 X97.074 Y119.53 E.06018
G1 X98.395 Y107.396 E.23527
G1 X99.248 Y105.58 E.03867
G1 X99.248 Y105.58 F6000
G1 X99.556 Y105.8
G1 F1200
G1 X100.22 Y105.178 E.01754
G1 X100.985 Y104.722 E.01717
G1 X101.478 Y104.512 E.01033
G1 X102.344 Y104.311 E.01714
G1 X111.501 Y103.721 E.17687
G1 X112.634 Y103.859 E.022
G1 X129.54 Y107.94 E.33524
G1 X130.632 Y108.38 E.02269
G1 X131.388 Y108.885 E.01752
G1 X131.866 Y109.332 E.01261
G1 X132.42 Y110.053 E.01753
G1 X132.729 Y110.631 E.01263
G1 X133.022 Y111.492 E.01753
G1 X133.129 Y112.138 E.01262
G1 X133.129 Y113.048 E.01754
G1 X133.022 Y113.694 E.01262
G1 X132.729 Y114.555 E.01753
G1 X132.42 Y115.133 E.01263
G1 X131.866 Y115.854 E.01753
G1 X131.02 Y116.592 E.02164
G1 X116.568 Y126.135 E.33383
G1 X115.27 Y126.761 E.02778
G1 X114.392 Y126.995 E.01751
G1 X112.943 Y127.099 E.028
G1 X101.743 Y126.35 E.21637
G1 X100.731 Y126.165 E.01983
G1 X99.912 Y125.862 E.01683
G1 X99.023 Y125.34 E.01987
G1 X98.25 Y124.607 E.02053
G1 X97.45 Y122.652 E.04072
G1 X97.466 Y119.572 E.05937
G1 X98.787 Y107.438 E.23527
G1 X99.531 Y105.854 E.03373
G1 X99.531 Y105.854 F6000
G1 X99.84 Y106.074
G1 F1200
G1 X100.454 Y105.495 E.01627
G1 X101.167 Y105.071 E.01599
G1 X101.603 Y104.886 E.00913
G1 X102.405 Y104.701 E.01587
G1 X111.463 Y104.113 E.17497
G1 X112.542 Y104.242 E.02095
G1 X129.447 Y108.324 E.33522
G1 X130.469 Y108.739 E.02126
G1 X131.119 Y109.173 E.01507
G1 X131.597 Y109.62 E.01261
G1 X132.072 Y110.239 E.01504
G1 X132.382 Y110.817 E.01264
G1 X132.633 Y111.556 E.01504
G1 X132.74 Y112.203 E.01264
G1 X132.74 Y112.984 E.01505
G1 X132.633 Y113.63 E.01262
G1 X132.382 Y114.369 E.01504
G1 X132.072 Y114.947 E.01264
G1 X131.597 Y115.566 E.01504
G1 X130.803 Y116.263 E.02037
G1 X116.351 Y125.806 E.33383
G1 X115.108 Y126.402 E.02657
G1 X114.354 Y126.603 E.01504
G1 X112.97 Y126.705 E.02675
G1 X101.77 Y125.957 E.21637
G1 X100.812 Y125.779 E.01878
G1 X100.103 Y125.517 E.01457
G1 X99.255 Y125.021 E.01894
G1 X98.531 Y124.331 E.01928
G1 X97.844 Y122.652 E.03497
G1 X97.858 Y119.615 E.05854
G1 X99.179 Y107.481 E.23527
G1 X99.814 Y106.129 E.02879
G1 E-1.12 F2400
;WIPE_START
G1 F4800
G1 X99.84 Y106.074 E-.0289
G1 X100.454 Y105.495 E-.40087
G1 X100.545 Y105.441 E-.05023
;WIPE_END
; printing object tick_twister_v2.stl id:3 copy 0
G1 X127.716 Y113.367 F6000
G1 E1.6 F2400
;TYPE:Perimeter
G1 F1200
G1 X127.731 Y113.367 E.00029
G1 X127.805 Y111.821 E.02983
G1 X123.542 Y111.679 E.08222
G1 X123.128 Y111.634 E.00803
G1 X128.223 Y111.294 E.09843
G1 X128.426 Y111.314 E.00393
G1 X128.701 Y111.341 E.00533
G1 X129.087 Y111.515 E.00816
G1 X129.395 Y111.803 E.00813
G1 X129.595 Y112.176 E.00816
G1 X129.664 Y112.593 E.00815
G1 X129.595 Y113.01 E.00815
G1 X129.395 Y113.383 E.00816
G1 X129.087 Y113.671 E.00813
G1 X128.701 Y113.845 E.00816
G1 X128.223 Y113.892 E.00926
G1 X123.11 Y113.553 E.09877
G1 X123.477 Y113.513 E.00712
G1 X127.656 Y113.369 E.0806
G1 X127.656 Y113.369 F6000
G1 X127.355 Y112.985
;TYPE:External perimeter
G1 F1200
G1 X127.392 Y112.202 E.01511
G1 X123.515 Y112.073 E.07477
G1 X121.803 Y111.887 E.03319
G1 X121.295 Y111.794 E.00995
G1 X120.827 Y111.75 E.00906
G1 X120.429 Y111.629 E.00802
G1 X120.323 Y111.579 E.00226
G1 X120.609 Y111.362 E.00692
G1 X120.915 Y111.322 E.00595
G1 X121.447 Y111.332 E.01026
G1 X122.428 Y111.286 E.01893
G1 X128.229 Y110.898 E.11207
G1 X128.465 Y110.921 E.00457
G1 X128.805 Y110.955 E.00659
G1 X129.309 Y111.182 E.01065
G1 X129.712 Y111.56 E.01065
G1 X129.973 Y112.048 E.01067
G1 X130.063 Y112.593 E.01065
G1 X129.973 Y113.138 E.01065
G1 X129.712 Y113.626 E.01067
G1 X129.309 Y114.004 E.01065
G1 X128.804 Y114.231 E.01067
G1 X128.229 Y114.288 E.01114
G1 X121.939 Y113.87 E.12151
G1 X120.967 Y113.86 E.01874
G1 X120.602 Y113.82 E.00708
G1 X120.322 Y113.602 E.00684
G1 X120.826 Y113.435 E.01023
G1 X121.294 Y113.391 E.00906
G1 X121.803 Y113.299 E.00997
G1 X123.449 Y113.119 E.03192
G1 X127.295 Y112.987 E.07418
G1 X127.295 Y112.987 F6000
G1 X127.234 Y113.605
;TYPE:Gap fill
;WIDTH:0.13675
G1 F1200
G1 X127.917 Y113.616 E.00371
G1 E-1.12 F2400
;WIPE_START
G1 F4800
G1 X127.234 Y113.605 E-.32447
;WIPE_END
G1 E-.15553 F2400
G1 X128.014 Y111.568 F6000
G1 E1.6 F2400
;WIDTH:0.145156
G1 F1200
G1 X127.239 Y111.581 E.00453
G1 X127.239 Y111.581 F6000
G1 X128.577 Y111.455
;TYPE:Solid infill
;WIDTH:0.477144
G1 F1200
G1 X129.196 Y112.075 E.01934
G1 X129.303 Y112.275 E.00501
G1 X129.356 Y112.593 E.00711
G1 X129.316 Y112.833 E.00537
G1 X128.322 Y111.839 E.03102
G1 X128.324 Y111.939 E.00221
G1 X128.103 Y111.943 E.00488
G1 X128.089 Y112.244 E.00665
G1 X129.094 Y113.249 E.03137
G1 X128.916 Y113.415 E.00537
G1 X128.713 Y113.507 E.00492
G1 X127.89 Y112.684 E.02569
G1 E-1.12 F2400
;WIPE_START
G1 F4800
G1 X128.605 Y113.398 E-.48
;WIPE_END
G1 X122.913 Y113.557 F6000
G1 E1.6 F2400
;TYPE:Gap fill
;WIDTH:0.356667
G1 F1200
G1 X122.273 Y113.571 E.01036
;WIDTH:0.264129
G1 X121.845 Y113.583 E.00499
;WIDTH:0.204822
G1 X121.328 Y113.627 E.00454
;WIDTH:0.106255
G1 X121.013 Y113.64 E.00124
G1 E-1.12 F2400
;WIPE_START
G1 F4800
G1 X121.328 Y113.627 E-.14975
G1 X121.845 Y113.583 E-.24646
G1 X122.021 Y113.578 E-.08379
;WIPE_END
G1 X121.014 Y111.545 F6000
G1 E1.6 F2400
;WIDTH:0.1182
G1 F1200
G1 X121.452 Y111.576 E.00198
;WIDTH:0.207663
G1 X121.845 Y111.602 E.0035
;WIDTH:0.301375
G1 X122.449 Y111.62 E.00814
;WIDTH:0.356745
G1 X122.931 Y111.63 E.0078
G1 E-1.12 F2400
;WIPE_START
G1 F4800
G1 X122.449 Y111.62 E-.229
G1 X121.92 Y111.604 E-.251
;WIPE_END
; stop printing object tick_twister_v2.stl id:3 copy 0
; printing object tick_twister_v2.stl id:2 copy 0
G1 X110.523 Y109.579 F6000
G1 E1.6 F2400
;TYPE:Perimeter
;WIDTH:0.42
G1 F1200
G1 X110.538 Y109.578 E.00029
G1 X110.61 Y108.026 E.02995
G1 X105.81 Y107.866 E.09257
G1 X104.106 Y107.678 E.03305
G1 X111.22 Y107.203 E.13743
G1 X111.472 Y107.228 E.00488
G1 X111.796 Y107.259 E.00627
G1 X112.271 Y107.474 E.01005
G1 X112.65 Y107.829 E.01001
G1 X112.896 Y108.288 E.01004
G1 X112.981 Y108.801 E.01002
G1 X112.896 Y109.315 E.01004
G1 X112.65 Y109.774 E.01004
G1 X112.271 Y110.129 E.01001
G1 X111.796 Y110.343 E.01004
G1 X111.22 Y110.4 E.01116
G1 X104.104 Y109.924 E.13747
G1 X105.745 Y109.743 E.03182
G1 X110.463 Y109.581 E.091
G1 X110.463 Y109.581 F6000
G1 X110.161 Y109.197
;TYPE:External perimeter
G1 F1200
G1 X110.198 Y108.407 E.01524
G1 X105.782 Y108.259 E.08517
G1 X103.805 Y108.042 E.03834
G1 X103.066 Y107.884 E.01457
G1 X102.351 Y107.775 E.01394
G1 X102.024 Y107.665 E.00665
G1 X102.413 Y107.363 E.00949
G1 X103.837 Y107.301 E.02747
G1 X111.226 Y106.807 E.14275
G1 X111.51 Y106.835 E.0055
G1 X111.899 Y106.873 E.00753
G1 X112.492 Y107.141 E.01254
G1 X112.967 Y107.585 E.01253
G1 X113.274 Y108.159 E.01255
G1 X113.38 Y108.801 E.01254
G1 X113.274 Y109.443 E.01254
G1 X112.967 Y110.017 E.01255
G1 X112.492 Y110.461 E.01253
G1 X111.899 Y110.73 E.01255
G1 X111.226 Y110.795 E.01303
G1 X103.837 Y110.302 E.14274
G1 X102.415 Y110.24 E.02744
G1 X102.025 Y109.932 E.00958
G1 X102.306 Y109.842 E.00569
G1 X103.066 Y109.718 E.01484
G1 X103.805 Y109.561 E.01456
G1 X105.716 Y109.349 E.03706
G1 X110.101 Y109.199 E.08457
G1 X110.101 Y109.199 F6000
G1 X110.478 Y109.965
;TYPE:Gap fill
;WIDTH:0.38214
G1 F1200
G1 X109.554 Y109.95 E.0161
;WIDTH:0.294715
G1 X108.629 Y109.935 E.01217
;WIDTH:0.20729
G1 X107.704 Y109.92 E.00821
;WIDTH:0.119864
G1 X107.242 Y109.912 E.00213
G1 E-1.12 F2400
;WIPE_START
G1 F4800
G1 X107.704 Y109.92 E-.21948
G1 X108.252 Y109.929 E-.26052
;WIPE_END
G1 X107.218 Y107.692 F6000
G1 E1.6 F2400
;WIDTH:0.11991
G1 F1200
G1 X107.685 Y107.684 E.00215
;WIDTH:0.207425
G1 X108.618 Y107.668 E.00829
;WIDTH:0.294939
G1 X109.551 Y107.653 E.01228
;WIDTH:0.382454
G1 X110.484 Y107.637 E.01627
G1 X110.484 Y107.637 F6000
G1 X111.741 Y107.38
;TYPE:Solid infill
;WIDTH:0.464176
G1 F1200
G1 X112.44 Y108.08 E.02121
G1 X112.605 Y108.387 E.00747
G1 X112.673 Y108.801 E.00899
G1 X112.654 Y108.914 E.00246
G1 X111.251 Y107.511 E.04253
G1 X110.786 Y107.536 E.00998
G1 X110.789 Y107.668 E.00283
G1 X112.511 Y109.391 E.05222
G1 X112.406 Y109.587 E.00477
G1 X112.241 Y109.741 E.00484
G1 X110.897 Y108.397 E.04074
G1 X110.869 Y108.989 E.0127
G1 X111.861 Y109.981 E.03007
G1 X111.716 Y110.046 E.00341
G1 X111.343 Y110.083 E.00803
G1 X110.672 Y109.412 E.02034
G1 E-1.12 F2400
;WIPE_START
G1 F4800
G1 X111.343 Y110.083 E-.45075
G1 X111.404 Y110.077 E-.02925
;WIPE_END
G1 X102.545 Y110.026 F6000
G1 E1.6 F2400
;TYPE:Gap fill
;WIDTH:0.113549
G1 F1200
G1 X102.735 Y110.014 E.00082
;WIDTH:0.189225
G1 X103.12 Y109.992 E.00308
;WIDTH:0.268406
G1 X103.513 Y109.959 E.00468
;WIDTH:0.347586
G1 X103.907 Y109.926 E.00622
G1 E-1.12 F2400
;WIPE_START
G1 F4800
G1 X103.513 Y109.959 E-.18781
G1 X103.12 Y109.992 E-.18733
G1 X102.9 Y110.005 E-.10486
;WIPE_END
G1 X103.908 Y107.677 F6000
G1 E1.6 F2400
;WIDTH:0.347694
G1 F1200
G1 X103.513 Y107.644 E.00624
;WIDTH:0.267742
G1 X103.118 Y107.611 E.00469
;WIDTH:0.187789
G1 X102.72 Y107.589 E.00316
;WIDTH:0.113011
G1 X102.523 Y107.578 E.00084
G1 E-1.12 F2400
;WIPE_START
G1 F4800
G1 X102.72 Y107.589 E-.09372
G1 X103.118 Y107.611 E-.18934
G1 X103.513 Y107.644 E-.18828
G1 X103.531 Y107.645 E-.00866
;WIPE_END
; stop printing object tick_twister_v2.stl id:2 copy 0
; printing object tick_twister_v2.stl id:1 copy 0
G1 X112.029 Y120.479 F6000
G1 E1.6 F2400
;TYPE:Perimeter
;WIDTH:0.42
G1 F1200
G1 X105.884 Y120.274 E.11852
G1 X103.27 Y119.985 E.05069
G1 X101.911 Y119.682 E.02684
G1 X102.024 Y119.658 E.00223
G1 X113.118 Y118.917 E.21432
G1 X113.492 Y118.953 E.00724
G1 X113.938 Y118.996 E.00864
G1 X114.636 Y119.312 E.01477
G1 X115.193 Y119.834 E.01471
G1 X115.555 Y120.509 E.01476
G1 X115.679 Y121.263 E.01473
G1 X115.555 Y122.018 E.01475
G1 X115.193 Y122.693 E.01476
G1 X114.636 Y123.215 E.01471
G1 X113.938 Y123.53 E.01476
G1 X113.118 Y123.61 E.01588
G1 X102.028 Y122.869 E.21424
G1 X101.918 Y122.845 E.00217
G1 X103.27 Y122.541 E.02671
G1 X105.819 Y122.258 E.04944
G1 X111.959 Y122.049 E.11842
G1 X112.026 Y120.539 E.02913
G1 X112.026 Y120.539 F6000
G1 X111.617 Y120.86
;TYPE:External perimeter
G1 F1200
G1 X105.855 Y120.668 E.11113
G1 X103.205 Y120.375 E.05139
G1 X100.836 Y119.845 E.04679
G1 X100.739 Y119.799 E.00207
G1 X100.878 Y119.669 E.00367
G1 X101.404 Y119.386 E.01151
G1 X101.969 Y119.266 E.01113
G1 X113.124 Y118.521 E.2155
G1 X113.531 Y118.561 E.00788
G1 X114.041 Y118.61 E.00988
G1 X114.857 Y118.979 E.01726
G1 X115.51 Y119.59 E.01724
G1 X115.933 Y120.38 E.01727
G1 X116.079 Y121.263 E.01725
G1 X115.933 Y122.146 E.01725
G1 X115.51 Y122.936 E.01727
G1 X114.857 Y123.547 E.01724
G1 X114.041 Y123.916 E.01726
G1 X113.124 Y124.005 E.01776
G1 X101.973 Y123.26 E.21542
G1 X101.375 Y123.131 E.01179
G1 X100.853 Y122.84 E.01152
G1 X100.734 Y122.725 E.00319
G1 X100.803 Y122.692 E.00147
G1 X103.205 Y122.152 E.04746
G1 X105.79 Y121.865 E.05013
G1 X111.581 Y121.668 E.11169
G1 X111.615 Y120.92 E.01443
G1 E-1.12 F2400
;WIPE_START
G1 F4800
G1 X111.617 Y120.86 E-.02852
G1 X110.667 Y120.828 E-.45148
;WIPE_END
G1 X113.445 Y119.075 F6000
G1 E1.6 F2400
;TYPE:Solid infill
;WIDTH:0.421222
G1 F1200
G1 X115.32 Y120.95 E.05127
G1 X115.372 Y121.263 E.00613
G1 X115.329 Y121.519 E.00502
G1 X113.037 Y119.226 E.06269
G1 X112.512 Y119.261 E.01017
G1 X115.231 Y121.98 E.07435
G1 X115.036 Y122.344 E.00798
G1 X111.988 Y119.296 E.08335
G1 X111.464 Y119.331 E.01015
G1 X114.788 Y122.656 E.09091
G1 X114.499 Y122.926 E.00765
G1 X112.321 Y120.748 E.05956
G1 X112.297 Y121.283 E.01035
G1 X114.126 Y123.112 E.05001
G1 X113.858 Y123.233 E.00569
G1 X113.703 Y123.248 E.00301
G1 X112.273 Y121.819 E.03909
G1 X112.239 Y122.343 E.01015
G1 X113.193 Y123.298 E.0261
G1 X112.608 Y123.272 E.01132
G1 X111.698 Y122.362 E.02488
G1 X111.157 Y122.38 E.01047
G1 X112.008 Y123.232 E.02328
G1 X111.409 Y123.191 E.01161
G1 X110.616 Y122.399 E.02167
G1 X110.075 Y122.417 E.01047
G1 X110.81 Y123.151 E.02008
G1 X110.21 Y123.111 E.01163
G1 X109.534 Y122.435 E.01848
G1 X108.993 Y122.454 E.01047
G1 X109.611 Y123.071 E.01689
G1 X109.012 Y123.031 E.01161
G1 X108.453 Y122.472 E.01529
G1 X107.912 Y122.491 E.01047
G1 X108.412 Y122.991 E.01367
G1 X107.813 Y122.951 E.01161
G1 X107.371 Y122.509 E.01209
G1 X106.83 Y122.527 E.01047
G1 X107.214 Y122.911 E.0105
G1 X106.614 Y122.871 E.01163
G1 X106.289 Y122.546 E.00889
G1 X105.755 Y122.571 E.01034
G1 X106.206 Y123.022 E.01233
G1 E-1.12 F2400
;WIPE_START
G1 F4800
G1 X105.755 Y122.571 E-.30296
G1 X106.127 Y122.553 E-.17704
;WIPE_END
G1 X110.773 Y119.2 F6000
G1 E1.6 F2400
G1 F1200
G1 X111.739 Y120.166 E.02641
G1 X111.16 Y120.147 E.0112
G1 X110.415 Y119.401 E.02039
G1 X109.891 Y119.436 E.01015
G1 X110.582 Y120.127 E.0189
G1 X110.003 Y120.108 E.0112
G1 X109.367 Y119.472 E.01739
G1 X108.843 Y119.507 E.01015
G1 X109.425 Y120.089 E.01591
G1 X108.846 Y120.069 E.0112
G1 X108.318 Y119.542 E.01442
G1 X107.794 Y119.577 E.01015
G1 X108.268 Y120.05 E.01295
G1 X107.689 Y120.031 E.0112
G1 X107.27 Y119.612 E.01146
G1 X106.745 Y119.647 E.01017
G1 X107.11 Y120.012 E.00998
G1 X106.532 Y119.992 E.01118
G1 X106.221 Y119.682 E.00849
G1 X105.697 Y119.717 E.01015
G1 X106.137 Y120.157 E.01203
G1 X106.137 Y120.157 F6000
