; generated by PrusaSlicer 2.6.1+win64 on 2023-09-11 at 14:58:08 UTC

; 

; external perimeters extrusion width = 0.42mm
; perimeters extrusion width = 0.44mm
; infill extrusion width = 0.44mm
; solid infill extrusion width = 0.44mm
; top infill extrusion width = 0.40mm
; first layer extrusion width = 0.42mm

;TYPE:Custom
; Ender 3 Custom Start G-code
G92 E0 ; Reset Extruder

M140 S55 ; set bed temp
M104 S160 ; set extruder temp
M109 S160 ; wait for extruder temp
M190 S55 ; wait for bed temp

G28 ; Home all axes
M104 S210 ; set extruder temp 
BED_MESH_CALIBRATE AREA_START=79.6647,81.8869 AREA_END=146.798,129.847

G1 Z2.0 F3000 ; Move Z Axis up little to prevent scratching of Heat Bed
M109 S210 ; wait for extruder temp
G1 X0.1 Y20 Z0.3 F5000.0 ; Move to start position

G1 X0.1 Y200.0 Z0.3 F1500.0 E15 ; Draw the first line
G1 X0.4 Y200.0 Z0.3 F5000.0 ; Move to side a little
G1 X0.4 Y20 Z0.3 F1500.0 E30 ; Draw the second line
G92 E0 ; Reset Extruder
G1 Z2.0 F3000 ; Move Z Axis up little to prevent scratching of Heat Bed
G1 X5 Y20 Z0.3 F5000.0 ; Move over to prevent blob squish
G21 ; set units to millimeters
G90 ; use absolute coordinates
M83 ; use relative distances for extrusion
; Filament gcode
M107
;LAYER_CHANGE
;Z:0.2
;HEIGHT:0.2
;BEFORE_LAYER_CHANGE
G92 E0
;0.2


G1 E-1.6 F2400
G1 Z.2 F6000
;AFTER_LAYER_CHANGE
;0.2
G1 X83.562 Y94.203
G1 E1.6 F2400
M204 S500
;TYPE:Skirt/Brim
;WIDTH:0.42
G1 F1200
G1 X84.6 Y93.41 E.0385
G1 X85.574 Y92.831 E.0334
G1 X86.568 Y92.373 E.03226
G1 X98.544 Y87.664 E.37927
G1 X99.619 Y87.302 E.03343
G1 X118.038 Y82.49 E.56108
G1 X120.004 Y82.16 E.05875
G1 X121.91 Y82.077 E.05623
G1 X124.169 Y82.273 E.06683
G1 X126.54 Y82.841 E.07186
G1 X128.602 Y83.667 E.06547
G1 X130.537 Y84.774 E.0657
G1 X132.288 Y86.137 E.0654
G1 X143.627 Y96.354 E.44985
G1 X144.494 Y97.378 E.03955
G1 X145.33 Y98.691 E.04588
G1 X145.95 Y100.068 E.04451
G1 X146.346 Y101.401 E.04098
G1 X146.565 Y102.788 E.04139
G1 X146.602 Y104.199 E.0416
G1 X146.44 Y105.666 E.0435
G1 X146.046 Y107.194 E.04651
G1 X145.377 Y108.751 E.04995
G1 X144.487 Y110.163 E.04919
G1 X143.382 Y111.424 E.04942
G1 X142.177 Y112.437 E.0464
G1 X130.582 Y120.079 E.40929
G1 X117.092 Y128.049 E.4618
G1 X115.799 Y128.656 E.0421
G1 X114.47 Y129.119 E.04148
G1 X113.082 Y129.445 E.04202
G1 X111.826 Y129.61 E.03734
G1 X110.418 Y129.657 E.04152
G1 X109.016 Y129.556 E.04143
G1 X107.683 Y129.323 E.03988
G1 X106.329 Y128.941 E.04146
G1 X104.714 Y128.274 E.0515
G1 X103.106 Y127.347 E.0547
G1 X91.721 Y119.731 E.40371
G1 X90.536 Y118.803 E.04436
G1 X89.476 Y117.727 E.04452
G1 X82.219 Y109.015 E.33418
G1 X81.539 Y108.069 E.03434
G1 X80.917 Y106.955 E.0376
G1 X80.491 Y105.943 E.03236
G1 X80.179 Y104.926 E.03135
G1 X79.963 Y103.844 E.03252
G1 X79.869 Y102.895 E.02811
G1 X79.86 Y101.875 E.03006
G1 X79.962 Y100.766 E.03282
G1 X80.423 Y98.855 E.05794
G1 X80.796 Y97.908 E.03
G1 X81.378 Y96.799 E.03691
G1 X82.036 Y95.824 E.03467
G1 X82.759 Y94.97 E.03298
G1 X83.518 Y94.244 E.03096
G1 X83.778 Y94.517 F6000
G1 F1200
G1 X84.807 Y93.725 E.03827
G1 X85.746 Y93.167 E.03219
G1 X86.706 Y92.724 E.03116
G1 X98.681 Y88.015 E.37925
G1 X99.727 Y87.663 E.03253
G1 X118.126 Y82.857 E.56047
G1 X120.041 Y82.535 E.05723
G1 X121.907 Y82.455 E.05505
G1 X124.107 Y82.645 E.06508
G1 X126.428 Y83.201 E.07034
G1 X128.442 Y84.008 E.06395
G1 X130.33 Y85.089 E.06412
G1 X132.039 Y86.42 E.06384
G1 X143.353 Y96.614 E.44885
G1 X144.188 Y97.599 E.03806
G1 X145.001 Y98.875 E.04459
G1 X145.598 Y100.202 E.04289
G1 X145.977 Y101.48 E.03929
G1 X146.19 Y102.826 E.04016
G1 X146.225 Y104.178 E.03986
G1 X146.069 Y105.595 E.04202
G1 X145.687 Y107.078 E.04514
G1 X145.042 Y108.579 E.04815
G1 X144.182 Y109.941 E.04747
G1 X143.115 Y111.158 E.0477
G1 X141.958 Y112.13 E.04454
G1 X130.384 Y119.758 E.40854
G1 X116.911 Y127.719 E.46123
G1 X115.654 Y128.308 E.04091
G1 X114.361 Y128.758 E.04035
G1 X113.011 Y129.074 E.04086
G1 X111.798 Y129.234 E.03606
G1 X110.429 Y129.28 E.04037
G1 X109.063 Y129.182 E.04036
G1 X107.763 Y128.954 E.0389
G1 X106.444 Y128.582 E.04039
G1 X104.883 Y127.937 E.04978
G1 X103.315 Y127.033 E.05334
G1 X91.94 Y119.424 E.40335
G1 X90.783 Y118.518 E.04331
G1 X89.762 Y117.481 E.04289
G1 X82.514 Y108.78 E.33376
G1 X81.9 Y107.935 E.03079
G1 X81.287 Y106.853 E.03665
G1 X80.584 Y104.981 E.05894
G1 X80.254 Y103.004 E.05907
G1 X80.236 Y101.895 E.03269
G1 X80.321 Y100.925 E.0287
G1 X80.781 Y98.974 E.05908
G1 X81.138 Y98.067 E.02873
G1 X81.701 Y96.993 E.03574
G1 X82.333 Y96.056 E.03331
G1 X83.031 Y95.231 E.03185
G1 X83.735 Y94.558 E.0287
G1 X83.995 Y94.83 F6000
G1 F1200
G1 X85.014 Y94.041 E.03798
G1 X85.917 Y93.503 E.03098
G1 X86.844 Y93.075 E.03009
G1 X99.835 Y88.024 E.41081
G1 X118.215 Y83.224 E.55988
G1 X120.079 Y82.91 E.05571
G1 X121.904 Y82.832 E.05384
G1 X124.266 Y83.053 E.06992
G1 X126.316 Y83.561 E.06225
G1 X128.281 Y84.349 E.0624
G1 X130.124 Y85.405 E.0626
G1 X131.79 Y86.703 E.06225
G1 X143.08 Y96.874 E.44787
G1 X143.883 Y97.82 E.03657
G1 X144.671 Y99.058 E.04325
G1 X145.245 Y100.335 E.04126
G1 X145.608 Y101.56 E.03766
G1 X145.815 Y102.864 E.03891
G1 X145.849 Y104.158 E.03815
G1 X145.699 Y105.525 E.04053
G1 X145.329 Y106.962 E.04373
G1 X144.707 Y108.406 E.04634
G1 X143.877 Y109.718 E.04576
G1 X142.848 Y110.891 E.04599
G1 X141.739 Y111.823 E.0427
G1 X130.186 Y119.437 E.4078
G1 X116.729 Y127.389 E.46069
G1 X115.508 Y127.96 E.03973
G1 X114.252 Y128.397 E.03919
G1 X112.941 Y128.704 E.03968
G1 X111.771 Y128.858 E.03478
G1 X110.439 Y128.903 E.03928
G1 X109.111 Y128.808 E.03924
G1 X107.842 Y128.585 E.03797
G1 X106.559 Y128.223 E.03929
G1 X105.051 Y127.599 E.0481
G1 X103.525 Y126.72 E.0519
G1 X92.158 Y119.116 E.40307
G1 X91.03 Y118.234 E.0422
G1 X90.067 Y117.258 E.04041
G1 X82.81 Y108.546 E.33418
G1 X82.216 Y107.728 E.02979
G1 X81.624 Y106.685 E.03535
G1 X80.948 Y104.883 E.05672
G1 X80.63 Y102.98 E.05686
G1 X80.613 Y101.915 E.03139
G1 X80.695 Y100.969 E.02799
G1 X81.139 Y99.092 E.05685
G1 X81.48 Y98.226 E.02743
G1 X82.025 Y97.186 E.03461
G1 X82.63 Y96.288 E.03191
G1 X83.302 Y95.493 E.03068
G1 X83.952 Y94.871 E.02652
; printing object Scalono id:0 copy 0
G1 E-1.12 F2400
;WIPE_START
G1 F4800
G1 X84.748 Y94.249 E-.48
;WIPE_END
G1 X115.711 Y106.436 F6000
G1 E1.6 F2400
;TYPE:Perimeter
G1 F1200
G1 X115.6 Y106.433 E.00327
G1 X115.568 Y106.259 E.00521
G1 X115.605 Y106.254 E.0011
G1 X115.677 Y106.386 E.00443
G1 E-1.12 F2400
;WIPE_START
G1 F4800
G1 X115.6 Y106.433 E-.04285
G1 X115.568 Y106.259 E-.08404
G1 X115.605 Y106.254 E-.01773
G1 X115.677 Y106.386 E-.07142
;WIPE_END
G1 E-.26396 F2400
G1 X111.148 Y99.59 F6000
G1 E1.6 F2400
G1 F1200
G1 X111.037 Y99.588 E.00327
G1 X111.005 Y99.414 E.00521
G1 X111.042 Y99.409 E.0011
G1 X111.114 Y99.54 E.00441
G1 E-1.12 F2400
;WIPE_START
G1 F4800
G1 X111.037 Y99.588 E-.0431
G1 X111.005 Y99.414 E-.08404
G1 X111.042 Y99.409 E-.01773
G1 X111.114 Y99.54 E-.071
;WIPE_END
G1 E-.26413 F2400
G1 X97.964 Y104.216 F6000
G1 E1.6 F2400
G1 F1200
G1 X97.931 Y104.453 E.00705
G1 X97.894 Y104.254 E.00597
G1 X96.804 Y104.589 E.03361
G1 X96.583 Y104.691 E.00717
G1 X96.524 Y104.34 E.01049
G1 X96.377 Y103.897 E.01376
G1 X96.753 Y103.825 E.01128
G1 X97.466 Y103.636 E.02174
G1 X97.563 Y103.793 E.00544
G1 X97.757 Y104.03 E.00903
G1 X97.92 Y104.176 E.00645
G1 E-1.12 F2400
;WIPE_START
G1 F4800
G1 X97.931 Y104.453 E-.13168
G1 X97.894 Y104.254 E-.09614
G1 X97.387 Y104.41 E-.25218
;WIPE_END
G1 X95.329 Y103.53 F6000
G1 E1.6 F2400
G1 F1200
G1 X95.21 Y103.527 E.00351
G1 X95.179 Y103.36 E.00501
G1 X95.219 Y103.35 E.00122
G1 X95.298 Y103.479 E.00446
G1 E-1.12 F2400
;WIPE_START
G1 F4800
G1 X95.21 Y103.527 E-.04761
G1 X95.179 Y103.36 E-.08068
G1 X95.219 Y103.35 E-.01958
G1 X95.298 Y103.479 E-.07185
;WIPE_END
G1 E-.26028 F2400
G1 X93.523 Y105.275 F6000
G1 E1.6 F2400
G1 F1200
G1 X93.512 Y105.318 E.00131
G1 X93.506 Y105.291 E.00082
G1 E-1.12 F2400
;WIPE_START
G1 F4800
G1 X93.512 Y105.318 E-.01314
G1 X93.506 Y105.291 E-.01314
;WIPE_END
G1 E-.45372 F2400
G1 X117.504 Y103.578 F6000
G1 E1.6 F2400
G1 F1200
G1 X119.922 Y102.976 E.07344
G1 X120.196 Y104.073 E.03333
G1 X122.148 Y103.587 E.05929
G1 X122.588 Y105.355 E.0537
G1 X121.342 Y109.479 E.12697
G1 X119.114 Y110.033 E.06767
G1 X118.322 Y106.833 E.09716
G1 X117.737 Y106.948 E.01757
G1 X117.666 Y106.535 E.01235
G1 X117.169 Y106.709 E.01552
G1 X116.765 Y106.8 E.01221
G1 X116.914 Y107.245 E.01383
G1 X116.973 Y107.597 E.01052
G1 X117.193 Y107.495 E.00715
G1 X118.283 Y107.16 E.03361
G1 X118.511 Y108.384 E.0367
G1 X118.497 Y108.87 E.01433
G1 X118.388 Y109.328 E.01388
G1 X118.189 Y109.75 E.01375
G1 X117.907 Y110.12 E.01371
G1 X117.553 Y110.426 E.01379
G1 X117.139 Y110.661 E.01403
G1 X116.68 Y110.818 E.0143
G1 X116.247 Y110.889 E.01293
G1 X116.002 Y110.899 E.00723
G1 X115.58 Y110.86 E.01249
G1 X115.178 Y110.748 E.0123
G1 X114.953 Y110.649 E.00724
G1 X114.612 Y110.431 E.01193
G1 X114.424 Y110.264 E.00741
G1 X114.152 Y109.93 E.0127
G1 X113.956 Y109.536 E.01297
G1 X113.883 Y109.297 E.00737
G1 X113.832 Y109.027 E.0081
G1 X113.824 Y108.517 E.01503
G1 X113.916 Y108.166 E.01069
G1 X113.67 Y107.962 E.00942
G1 X113.524 Y108.585 E.01886
G1 X112.6 Y111.655 E.09449
G1 X110.373 Y112.209 E.06764
G1 X109.585 Y109.045 E.0961
G1 X109.018 Y109.187 E.01723
G1 X108.471 Y106.992 E.06667
G1 X109.039 Y106.85 E.01726
G1 X108.766 Y105.753 E.03332
G1 X111.18 Y105.152 E.07332
G1 X111.454 Y106.251 E.03338
G1 X112.401 Y106.04 E.0286
G1 X113.111 Y105.946 E.02111
G1 X113.145 Y105.737 E.00624
G1 X113.302 Y105.285 E.0141
G1 X113.574 Y104.873 E.01455
G1 X113.923 Y104.535 E.01432
G1 X114.333 Y104.27 E.01439
G1 X114.792 Y104.076 E.01469
G1 X115.289 Y103.952 E.0151
G1 X115.749 Y103.914 E.0136
G1 X116.037 Y103.929 E.0085
G1 X116.496 Y104.028 E.01384
G1 X116.933 Y104.231 E.0142
G1 X117.312 Y104.535 E.01432
G1 X117.532 Y104.823 E.01068
G1 X117.8 Y104.732 E.00834
G1 X117.519 Y103.636 E.03335
G1 E-1.12 F2400
;WIPE_START
G1 F4800
G1 X118.493 Y103.368 E-.48
;WIPE_END
G1 X117.633 Y106.148 F6000
G1 E1.6 F2400
;TYPE:External perimeter
G1 F1200
G1 X117.065 Y106.346 E.01773
G1 X116.691 Y106.43 E.0113
G1 X116.193 Y106.477 E.01474
G1 X115.97 Y106.145 E.01179
G1 X115.91 Y106.012 E.0043
G1 X115.863 Y105.961 E.00204
G1 X115.736 Y105.883 E.00439
G1 X115.634 Y105.869 E.00303
G1 X115.458 Y105.894 E.00524
G1 X115.295 Y105.981 E.00545
G1 X115.204 Y106.13 E.00515
G1 X115.189 Y106.215 E.00254
G1 X115.197 Y106.397 E.00537
G1 X115.258 Y106.61 E.00653
G1 X115.329 Y106.723 E.00393
G1 X115.412 Y106.779 E.00295
G1 X115.648 Y106.815 E.00704
G1 X116.363 Y106.788 E.02109
G1 X116.547 Y107.337 E.01707
G1 X116.647 Y107.935 E.01787
G1 X116.18 Y108.074 E.01436
G1 X115.915 Y108.281 E.00991
G1 X115.849 Y108.373 E.00334
G1 X115.83 Y108.513 E.00416
G1 X115.891 Y108.745 E.00707
G1 X115.993 Y108.918 E.00592
G1 X116.073 Y108.964 E.00272
G1 X116.151 Y108.97 E.00231
G1 X116.327 Y108.929 E.00533
G1 X116.398 Y108.88 E.00254
G1 X116.489 Y108.764 E.00435
G1 X116.563 Y108.494 E.00825
G1 X116.511 Y108.119 E.01116
G1 X117.012 Y107.994 E.01522
G1 X117.328 Y107.848 E.01026
G1 X117.99 Y107.644 E.02042
G1 X118.133 Y108.413 E.02305
G1 X118.121 Y108.82 E.012
G1 X118.03 Y109.203 E.0116
G1 X117.865 Y109.553 E.0114
G1 X117.631 Y109.86 E.01138
G1 X117.334 Y110.117 E.01158
G1 X116.984 Y110.315 E.01185
G1 X116.588 Y110.451 E.01234
G1 X116.21 Y110.514 E.01129
G1 X116.012 Y110.521 E.00584
G1 X115.649 Y110.488 E.01074
G1 X115.305 Y110.392 E.01053
G1 X115.132 Y110.315 E.00558
G1 X114.84 Y110.129 E.0102
G1 X114.697 Y110.002 E.00564
G1 X114.471 Y109.725 E.01054
G1 X114.308 Y109.396 E.01082
G1 X114.25 Y109.206 E.00585
G1 X114.208 Y108.989 E.00651
G1 X114.202 Y108.563 E.01256
G1 X114.311 Y108.146 E.0127
G1 X114.376 Y108.028 E.00397
G1 X114.283 Y108.018 E.00276
G1 X114.173 Y107.885 E.00509
G1 X113.919 Y107.679 E.00964
G1 X113.785 Y107.444 E.00797
G1 X113.656 Y107.102 E.01077
G1 X113.542 Y106.656 E.01357
G1 X113.479 Y106.261 E.01179
G1 X113.477 Y106.044 E.0064
G1 X113.512 Y105.831 E.00636
G1 X113.643 Y105.453 E.01179
G1 X113.866 Y105.115 E.01193
G1 X114.159 Y104.832 E.01201
G1 X114.51 Y104.605 E.01232
G1 X114.911 Y104.435 E.01284
G1 X115.35 Y104.326 E.01333
G1 X115.755 Y104.292 E.01198
G1 X115.988 Y104.304 E.00688
G1 X116.376 Y104.387 E.01169
G1 X116.732 Y104.554 E.01159
G1 X117.04 Y104.8 E.01162
G1 X117.283 Y105.117 E.01177
G1 X117.378 Y105.314 E.00645
G1 X117.615 Y106.09 E.02391
G1 X117.764 Y106.526 F6000
G1 X118.043 Y106.503
G1 F1200
G1 X117.922 Y105.8 E.02102
G1 X117.739 Y105.151 E.01987
G1 X118.251 Y104.977 E.01594
G1 X117.964 Y103.852 E.03422
G1 X119.648 Y103.433 E.05115
G1 X119.921 Y104.53 E.03332
G1 X121.874 Y104.044 E.05932
G1 X122.197 Y105.345 E.03951
G1 X121.043 Y109.165 E.11761
G1 X119.39 Y109.576 E.0502
G1 X118.602 Y106.393 E.09664
G1 X118.102 Y106.492 E.01502
G1 X117.658 Y106.396 F6000
G1 E-1.12 F2400
;WIPE_START
G1 F4800
G1 X117.922 Y105.8 E-.33964
G1 X117.842 Y105.516 E-.14036
;WIPE_END
G1 X113.09 Y106.329 F6000
G1 E1.6 F2400
G1 F1200
G1 X113.235 Y106.999 E.0202
G1 X113.39 Y107.507 E.01565
G1 X113.16 Y108.488 E.0297
G1 X112.301 Y111.341 E.08782
G1 X110.648 Y111.752 E.0502
G1 X109.86 Y108.588 E.0961
G1 X109.293 Y108.73 E.01723
G1 X108.928 Y107.267 E.04444
G1 X109.496 Y107.125 E.01726
G1 X109.223 Y106.028 E.03332
G1 X110.905 Y105.609 E.05109
G1 X111.179 Y106.707 E.03335
G1 X112.056 Y106.492 E.02661
G1 X112.463 Y106.412 E.01223
G1 X113.03 Y106.337 E.01686
G1 X113.482 Y106.252 F6000
G1 E-1.12 F2400
;WIPE_START
G1 F4800
G1 X113.235 Y106.999 E-.32918
G1 X113.328 Y107.303 E-.15082
;WIPE_END
G1 X114.552 Y103.188 F6000
G1 E1.6 F2400
;TYPE:Perimeter
G1 F1200
G1 X113.76 Y99.987 E.09719
G1 X113.175 Y100.102 E.01757
G1 X113.104 Y99.69 E.01232
G1 X112.606 Y99.863 E.01554
G1 X112.202 Y99.954 E.01221
G1 X112.351 Y100.4 E.01386
G1 X112.41 Y100.751 E.01049
G1 X112.63 Y100.649 E.00715
G1 X113.72 Y100.314 E.03361
G1 X113.948 Y101.538 E.0367
G1 X113.934 Y102.024 E.01433
G1 X113.825 Y102.483 E.0139
G1 X113.626 Y102.904 E.01372
G1 X113.344 Y103.274 E.01371
G1 X112.99 Y103.581 E.01381
G1 X112.577 Y103.815 E.01399
G1 X112.117 Y103.973 E.01434
G1 X111.685 Y104.044 E.0129
G1 X111.439 Y104.053 E.00726
G1 X111.017 Y104.015 E.01249
G1 X110.615 Y103.902 E.01231
G1 X110.391 Y103.803 E.00722
G1 X110.049 Y103.586 E.01194
G1 X109.861 Y103.419 E.00741
G1 X109.589 Y103.085 E.0127
G1 X109.393 Y102.69 E.013
G1 X109.32 Y102.451 E.00737
G1 X109.269 Y102.182 E.00807
G1 X109.262 Y101.671 E.01506
G1 X109.353 Y101.32 E.01069
G1 X109.107 Y101.117 E.0094
G1 X108.961 Y101.74 E.01886
G1 X108.037 Y104.809 E.09446
G1 X105.81 Y105.364 E.06764
G1 X105.023 Y102.2 E.09609
G1 X104.455 Y102.341 E.01725
G1 X103.909 Y100.146 E.06666
G1 X104.476 Y100.005 E.01722
G1 X104.203 Y98.907 E.03335
G1 X106.617 Y98.306 E.07332
G1 X106.891 Y99.406 E.03341
G1 X107.839 Y99.194 E.02863
G1 X108.548 Y99.1 E.02108
G1 X108.583 Y98.892 E.00622
G1 X108.739 Y98.439 E.01412
G1 X109.012 Y98.028 E.01454
G1 X109.36 Y97.69 E.0143
G1 X109.77 Y97.425 E.01439
G1 X110.229 Y97.23 E.0147
G1 X110.726 Y97.107 E.01509
G1 X111.184 Y97.069 E.01355
G1 X111.474 Y97.083 E.00856
G1 X111.934 Y97.182 E.01387
G1 X112.37 Y97.386 E.01419
G1 X112.749 Y97.689 E.0143
G1 X112.97 Y97.977 E.0107
G1 X113.237 Y97.886 E.00831
G1 X112.942 Y96.732 E.03511
G1 X115.36 Y96.13 E.07344
G1 X115.633 Y97.228 E.03335
G1 X117.586 Y96.741 E.05932
G1 X118.026 Y98.509 E.0537
G1 X116.779 Y102.633 E.12698
G1 X114.61 Y103.173 E.06588
G1 E-1.12 F2400
;WIPE_START
G1 F4800
G1 X114.35 Y102.197 E-.48
;WIPE_END
G1 X113.427 Y100.799 F6000
G1 E1.6 F2400
;TYPE:External perimeter
G1 F1200
G1 X113.57 Y101.568 E.02305
G1 X113.558 Y101.975 E.012
G1 X113.468 Y102.357 E.01157
G1 X113.302 Y102.707 E.01142
G1 X113.068 Y103.015 E.0114
G1 X112.771 Y103.271 E.01156
G1 X112.421 Y103.47 E.01187
G1 X112.025 Y103.606 E.01234
G1 X111.647 Y103.668 E.01129
G1 X111.449 Y103.676 E.00584
G1 X111.086 Y103.642 E.01075
G1 X110.743 Y103.546 E.0105
G1 X110.569 Y103.47 E.0056
G1 X110.277 Y103.283 E.01022
G1 X110.134 Y103.157 E.00562
G1 X109.908 Y102.88 E.01054
G1 X109.745 Y102.551 E.01082
G1 X109.646 Y102.143 E.01237
G1 X109.639 Y101.717 E.01256
G1 X109.748 Y101.301 E.01267
G1 X109.814 Y101.182 E.00401
G1 X109.72 Y101.173 E.00278
