; generated by PrusaSlicer 2.6.0-rc2+MacOS-x64 on 2023-06-14 at 23:26:23 UTC

; 

; external perimeters extrusion width = 0.42mm
; perimeters extrusion width = 0.44mm
; infill extrusion width = 0.44mm
; solid infill extrusion width = 0.44mm
; top infill extrusion width = 0.40mm
; first layer extrusion width = 0.42mm

M201 X500 Y500 Z100 E5000 ; sets maximum accelerations, mm/sec^2
M203 X500 Y500 Z10 E60 ; sets maximum feedrates, mm / sec
M204 S500 T1000 ; sets acceleration (S) and retract acceleration (R), mm/sec^2
M205 X8.00 Y8.00 Z0.40 E5.00 ; sets the jerk limits, mm/sec
M205 S0 T0 ; sets the minimum extruding and travel feed rate, mm/sec
;TYPE:Custom
; Ender 3 Custom Start G-code
G92 E0 ; Reset Extruder

M140 S50 ; set bed temp
M190 S50 ; wait for bed temp

G28 ; Home all axes
M104 S205 ; set extruder temp 
BED_MESH_CALIBRATE AREA_START=86.1957,95.5757 AREA_END=147.434,134.461

G1 Z2.0 F3000 ; Move Z Axis up little to prevent scratching of Heat Bed
M109 S205 ; wait for extruder temp
G1 X0.1 Y20 Z0.3 F5000.0 ; Move to start position

G1 X0.1 Y200.0 Z0.3 F1500.0 E15 ; Draw the first line
G1 X0.4 Y200.0 Z0.3 F5000.0 ; Move to side a little
G1 X0.4 Y20 Z0.3 F1500.0 E30 ; Draw the second line
G92 E0 ; Reset Extruder
G1 Z2.0 F3000 ; Move Z Axis up little to prevent scratching of Heat Bed
G1 X5 Y20 Z0.3 F5000.0 ; Move over to prevent blob squish
G21 ; set units to millimeters
G90 ; use absolute coordinates
M83 ; use relative distances for extrusion
; Filament gcode
M107
;LAYER_CHANGE
;Z:0.2
;HEIGHT:0.2
;BEFORE_LAYER_CHANGE
G92 E0
;0.2


G1 E-1.6 F2400
G1 Z.2 F6000
;AFTER_LAYER_CHANGE
;0.2
G1 X90.49 Y98.867
G1 E1.6 F2400
M204 S500
;TYPE:Skirt/Brim
;WIDTH:0.42
G1 F1200
G1 X91.419 Y98.119 E.03328
G1 X93.049 Y97.116 E.05341
G1 X94.202 Y96.597 E.03528
G1 X95.971 Y96.06 E.05159
G1 X97.748 Y95.799 E.05012
G1 X134.813 Y95.766 E1.03431
G1 X135.986 Y95.818 E.03277
G1 X137.018 Y95.961 E.02907
G1 X139.14 Y96.544 E.06141
G1 X140.987 Y97.416 E.057
G1 X142.57 Y98.511 E.05371
G1 X144.119 Y100.016 E.06027
G1 X144.972 Y101.124 E.03902
G1 X145.48 Y101.939 E.0268
G1 X146.389 Y103.916 E.06072
G1 X146.905 Y105.866 E.05629
G1 X147.095 Y107.924 E.05767
G1 X147.245 Y121.924 E.3907
G1 X147.177 Y123.306 E.03861
G1 X147.042 Y124.237 E.02625
G1 X146.796 Y125.304 E.03056
G1 X146.382 Y126.534 E.03622
G1 X145.975 Y127.45 E.02797
G1 X145.273 Y128.686 E.03967
G1 X143.946 Y130.383 E.06011
G1 X143.266 Y131.062 E.02682
G1 X142.202 Y131.927 E.03827
G1 X140.479 Y132.98 E.05635
G1 X138.771 Y133.676 E.05147
G1 X137.401 Y134.035 E.03952
G1 X135.511 Y134.264 E.05313
G1 X98.086 Y134.263 E1.04436
G1 X96.352 Y134.059 E.04872
G1 X95.139 Y133.765 E.03483
G1 X93.985 Y133.356 E.03417
G1 X92.633 Y132.701 E.04192
G1 X91.542 Y132.013 E.03599
G1 X90.485 Y131.171 E.03771
G1 X89.707 Y130.407 E.03043
G1 X88.719 Y129.214 E.04323
G1 X87.791 Y127.721 E.04905
G1 X87.235 Y126.504 E.03734
G1 X86.721 Y124.863 E.04799
G1 X86.433 Y123.098 E.0499
G1 X86.417 Y107.111 E.44612
G1 X86.533 Y106.111 E.02809
G1 X86.796 Y104.875 E.03526
G1 X87.248 Y103.506 E.04023
G1 X87.882 Y102.152 E.04172
G1 X88.401 Y101.288 E.02813
G1 X89.391 Y99.98 E.04578
G1 X90.448 Y98.91 E.04197
G1 X90.716 Y99.174 F6000
G1 F1200
G1 X91.633 Y98.43 E.03295
G1 X92.62 Y97.781 E.03296
G1 X94.331 Y96.951 E.05307
G1 X96.048 Y96.429 E.05008
G1 X97.768 Y96.176 E.04851
G1 X134.791 Y96.142 E1.03314
G1 X135.94 Y96.192 E.03209
G1 X136.942 Y96.33 E.02823
G1 X139.015 Y96.9 E.05999
G1 X140.873 Y97.786 E.05744
G1 X142.326 Y98.799 E.04943
G1 X143.828 Y100.256 E.05839
G1 X144.662 Y101.339 E.03814
G1 X145.154 Y102.129 E.02597
G1 X146.032 Y104.038 E.05864
G1 X146.535 Y105.94 E.0549
G1 X146.718 Y107.928 E.05571
G1 X146.868 Y121.928 E.3907
G1 X146.801 Y123.273 E.03758
G1 X146.67 Y124.179 E.02555
G1 X146.434 Y125.197 E.02916
G1 X146.029 Y126.403 E.0355
G1 X145.641 Y127.275 E.02663
G1 X144.956 Y128.482 E.03873
G1 X143.679 Y130.117 E.05789
G1 X143.009 Y130.786 E.02642
G1 X141.99 Y131.616 E.03667
G1 X140.306 Y132.644 E.05506
G1 X138.646 Y133.321 E.05003
G1 X137.338 Y133.663 E.03773
G1 X135.498 Y133.887 E.05172
G1 X98.135 Y133.888 E1.04263
G1 X96.41 Y133.687 E.04846
G1 X95.24 Y133.401 E.03361
G1 X94.136 Y133.01 E.03268
G1 X92.809 Y132.368 E.04114
G1 X91.756 Y131.703 E.03475
G1 X90.736 Y130.889 E.03642
G1 X89.987 Y130.155 E.02926
G1 X89.023 Y128.992 E.04215
G1 X88.124 Y127.543 E.04758
G1 X87.59 Y126.378 E.03576
G1 X87.085 Y124.767 E.04711
G1 X86.808 Y123.064 E.04815
G1 X86.793 Y107.138 E.44442
G1 X86.939 Y105.981 E.03254
G1 X87.345 Y104.347 E.04698
G1 X87.675 Y103.455 E.02654
G1 X88.217 Y102.326 E.03495
G1 X89.075 Y100.979 E.04457
G1 X89.677 Y100.226 E.0269
G1 X90.674 Y99.217 E.03958
; printing object Shape-Box id:0 copy 0
G1 E-1.12 F2400
;WIPE_START
G1 F4800
G1 X91.455 Y98.576 E-.48
;WIPE_END
G1 X102.141 Y120.474 F6000
G1 E1.6 F2400
;TYPE:Perimeter
;WIDTH:0.419999
G1 F1200
G1 X101.888 Y120.538 E.00728
G1 X101.708 Y120.903 E.01136
G1 X101.48 Y121.118 E.00875
G1 X101.17 Y121.252 E.00942
G1 X100.562 Y121.276 E.01698
G1 X100.097 Y121.236 E.01302
G1 X99.765 Y121.056 E.01054
G1 X99.568 Y120.827 E.00843
G1 X99.514 Y120.691 E.00408
G1 X99.147 Y120.978 E.013
G1 X98.68 Y121.194 E.01436
G1 X98.163 Y121.292 E.01468
G1 X97.62 Y121.294 E.01515
G1 X97.109 Y121.204 E.01448
G1 X96.639 Y121.006 E.01423
G1 X96.232 Y120.694 E.01431
G1 X95.895 Y120.226 E.01609
G1 X95.745 Y119.959 E.00855
G1 X95.605 Y119.402 E.01603
G1 X95.587 Y119.057 E.00964
G1 X95.669 Y118.491 E.01596
G1 X95.775 Y118.231 E.00784
G1 X96.006 Y117.814 E.0133
G1 X95.698 Y117.459 E.01312
G1 X95.607 Y117.157 E.0088
G1 X95.597 Y116.355 E.02238
G1 X95.673 Y115.982 E.01062
G1 X95.789 Y115.782 E.00645
G1 X96.192 Y115.476 E.01412
G1 X96.54 Y115.409 E.00989
G1 X99.373 Y115.409 E.07906
G1 X99.697 Y115.466 E.00918
G1 X99.872 Y115.56 E.00554
G1 X100.203 Y115.424 E.00999
G1 X101.117 Y115.409 E.02551
G1 X101.602 Y115.543 E.01404
G1 X101.847 Y115.756 E.00906
G1 X101.995 Y116.009 E.00818
G1 X102.03 Y116.196 E.00531
G1 X102.258 Y115.904 E.01034
G1 X102.682 Y115.593 E.01467
G1 X103.212 Y115.388 E.01586
G1 X103.772 Y115.314 E.01576
G1 X104.325 Y115.333 E.01544
G1 X104.859 Y115.47 E.01538
G1 X105.348 Y115.744 E.01564
G1 X105.659 Y115.979 E.01088
G1 X105.962 Y116.363 E.01365
G1 X106.16 Y116.798 E.01334
G1 X106.226 Y117.058 E.00749
G1 X106.421 Y116.531 E.01568
G1 X106.769 Y116.021 E.01723
G1 X107.16 Y115.673 E.01461
G1 X107.636 Y115.44 E.01479
G1 X107.919 Y115.362 E.00819
G1 X108.43 Y115.308 E.01434
G1 X109.02 Y115.386 E.01661
G1 X109.528 Y115.6 E.01538
G1 X109.908 Y115.91 E.01368
G1 X110.197 Y115.65 E.01085
G1 X110.673 Y115.421 E.01474
G1 X111.324 Y115.314 E.01841
G1 X111.879 Y115.36 E.01554
G1 X112.41 Y115.548 E.01572
G1 X112.829 Y115.841 E.01427
G1 X112.894 Y115.91 E.00265
G1 X113.183 Y115.65 E.01085
G1 X113.653 Y115.424 E.01455
G1 X114.31 Y115.314 E.01859
G1 X114.854 Y115.357 E.01523
G1 X115.388 Y115.539 E.01574
G1 X115.812 Y115.815 E.01412
G1 X116.157 Y116.192 E.01426
G1 X116.426 Y116.657 E.01499
G1 X116.557 Y117.073 E.01217
G1 X116.693 Y116.636 E.01277
G1 X116.851 Y116.345 E.00924
G1 X117.223 Y115.894 E.01631
G1 X117.729 Y115.563 E.01687
G1 X118.033 Y115.444 E.00911
G1 X118.59 Y115.33 E.01587
G1 X119.186 Y115.322 E.01663
G1 X119.671 Y115.414 E.01378
G1 X120.141 Y115.626 E.01439
G1 X120.387 Y115.81 E.00857
G1 X120.748 Y115.561 E.01224
G1 X121.359 Y115.356 E.01798
G1 X122.107 Y115.319 E.0209
G1 X122.635 Y115.398 E.0149
G1 X123.083 Y115.571 E.0134
G1 X123.573 Y115.926 E.01688
G1 X123.935 Y116.431 E.01734
G1 X124.133 Y115.858 E.01692
G1 X124.281 Y115.675 E.00657
G1 X124.554 Y115.49 E.0092
G1 X124.936 Y115.409 E.0109
G1 X125.705 Y115.409 E.02146
G1 X126.028 Y115.467 E.00916
G1 X126.267 Y115.597 E.00759
G1 X126.486 Y115.828 E.00888
;WIDTH:0.423163
G1 X126.643 Y116.273 E.01328
;WIDTH:0.453361
G1 X126.647 Y116.421 E.0045
;WIDTH:0.483559
G1 X126.652 Y116.569 E.00483
G1 X126.519 Y117.149 E.0194
;WIDTH:0.476245
G1 X126.374 Y117.577 E.01449
;WIDTH:0.448122
G1 X126.23 Y118.005 E.01354
;WIDTH:0.419999
G1 X125.956 Y118.629 E.01902
G1 X126.466 Y118.663 E.01426
G1 X126.792 Y118.83 E.01022
G1 X127.032 Y119.119 E.01048
;WIDTH:0.413589
G1 X127.073 Y119.287 E.00474
;WIDTH:0.388382
G1 X127.114 Y119.455 E.00442
;WIDTH:0.391587
G1 X127.112 Y119.176 E.0072
;WIDTH:0.419999
G1 X127.109 Y118.897 E.00779
G1 X127.227 Y118.582 E.00939
G1 X127.028 Y118.097 E.01463
G1 X126.959 Y117.712 E.01091
;WIDTH:0.448122
G1 X126.953 Y117.459 E.00759
;WIDTH:0.476245
G1 X126.946 Y117.206 E.00812
;WIDTH:0.483559
G1 X127.076 Y116.685 E.01751
G1 X127.304 Y116.357 E.01303
;WIDTH:0.451779
G1 X127.532 Y116.029 E.01209
;WIDTH:0.419999
G1 X127.834 Y115.75 E.01147
G1 X128.179 Y115.54 E.01127
G1 X128.633 Y115.382 E.01341
G1 X129.186 Y115.31 E.01556
G1 X129.714 Y115.337 E.01475
G1 X130.272 Y115.489 E.01614
G1 X130.691 Y115.755 E.01385
G1 X130.927 Y115.526 E.00918
G1 X131.291 Y115.417 E.0106
G1 X131.956 Y115.41 E.01856
G1 X132.509 Y115.51 E.01568
G1 X132.748 Y115.681 E.0082
G1 X132.972 Y116.03 E.01157
G1 X133.031 Y116.352 E.00914
G1 X133.741 Y116.436 E.01995
G1 X133.988 Y116.531 E.00738
G1 X133.994 Y116.238 E.00818
G1 X134.043 Y116.03 E.00596
G1 X134.267 Y115.681 E.01157
G1 X134.494 Y115.516 E.00783
G1 X134.692 Y115.439 E.00593
G1 X135.621 Y115.409 E.02594
G1 X135.974 Y115.478 E.01004
G1 X136.214 Y115.619 E.00777
G1 X136.368 Y115.777 E.00616
G1 X136.535 Y116.123 E.01072
G1 X136.564 Y116.557 E.01214
G1 X136.997 Y116.587 E.01211
G1 X137.369 Y116.777 E.01166
G1 X137.575 Y117.02 E.00889
G1 X137.696 Y117.358 E.01002
G1 X137.707 Y118.184 E.02305
G1 X137.627 Y118.564 E.01084
G1 X137.435 Y118.846 E.00952
G1 X137.193 Y119.023 E.00837
G1 X136.764 Y119.126 E.01231
G1 X136.564 Y119.126 E.00558
G1 X136.514 Y119.635 E.01427
G1 X136.331 Y119.955 E.01029
G1 X136.032 Y120.183 E.01049
G1 X135.694 Y120.275 E.00978
G1 X135.16 Y120.277 E.0149
G1 X134.663 Y120.239 E.01391
G1 X134.37 Y120.094 E.00912
G1 X134.034 Y119.628 E.01603
G1 X133.987 Y119.063 E.01582
G1 X133.66 Y119.588 E.01726
G1 X132.72 Y120.908 E.04522
G1 X132.462 Y121.154 E.00995
G1 X132.135 Y121.285 E.00983
G1 X131.557 Y121.303 E.01614
G1 X131.12 Y121.268 E.01223
G1 X130.816 Y121.122 E.00941
G1 X130.614 Y120.918 E.00801
G1 X130.369 Y121.069 E.00803
G1 X129.887 Y121.232 E.0142
G1 X129.337 Y121.297 E.01545
G1 X129.052 Y121.287 E.00796
G1 X128.543 Y121.191 E.01445
G1 X128.246 Y121.082 E.00883
G1 X127.832 Y120.831 E.01351
G1 X127.405 Y120.355 E.01784
G1 X127.234 Y120.05 E.00976
G1 X127.134 Y119.754 E.00872
G1 X127.139 Y120.429 E.01884
G1 X127.025 Y120.756 E.00966
G1 X126.815 Y121.008 E.00915
G1 X126.569 Y121.157 E.00803
G1 X126.205 Y121.229 E.01035
G1 X124.342 Y121.224 E.05199
G1 X123.35 Y121.121 E.02783
G1 X123.032 Y121.027 E.00925
G1 X122.951 Y121.026 E.00226
G1 X122.561 Y121.187 E.01177
G1 X122.019 Y121.289 E.01539
G1 X121.455 Y121.261 E.01576
G1 X120.879 Y121.113 E.0166
G1 X120.478 Y120.88 E.01294
G1 X120.356 Y120.775 E.00449
G1 X119.969 Y121.054 E.01331
G1 X119.579 Y121.205 E.01167
G1 X119.032 Y121.294 E.01546
G1 X118.471 Y121.263 E.01568
G1 X117.97 Y121.143 E.01438
G1 X117.522 Y120.909 E.0141
G1 X117.214 Y120.685 E.01063
G1 X116.902 Y120.251 E.01492
G1 X116.767 Y120.001 E.00793
;WIDTH:0.426168
G1 X116.667 Y119.494 E.01466
;WIDTH:0.434089
G1 X116.635 Y119.282 E.00621
G1 X116.466 Y119.779 E.0152
;WIDTH:0.419999
G1 X116.261 Y120.228 E.01377
G1 X115.901 Y120.696 E.01648
G1 X115.477 Y121.006 E.01466
G1 X115.183 Y121.145 E.00907
G1 X114.547 Y121.284 E.01817
G1 X113.951 Y121.248 E.01666
G1 X113.442 Y121.094 E.01484
G1 X113.155 Y120.952 E.00894
G1 X112.876 Y120.69 E.01068
G1 X112.603 Y120.935 E.01024
G1 X112.205 Y121.137 E.01245
G1 X111.724 Y121.27 E.01393
G1 X110.965 Y121.248 E.02119
G1 X110.456 Y121.094 E.01484
G1 X110.168 Y120.952 E.00896
G1 X109.889 Y120.69 E.01068
G1 X109.616 Y120.935 E.01024
G1 X109.218 Y121.137 E.01245
G1 X108.737 Y121.27 E.01393
G1 X107.981 Y121.25 E.0211
G1 X107.375 Y121.062 E.01771
G1 X107.007 Y120.84 E.01199
G1 X106.535 Y120.329 E.01941
G1 X106.316 Y119.911 E.01317
G1 X106.145 Y119.357 E.01618
;WIDTH:0.410423
G1 X106.112 Y119.197 E.00444
;WIDTH:0.417342
G1 X106.106 Y119.528 E.00917
;WIDTH:0.419999
G1 X106.011 Y119.906 E.01088
G1 X105.688 Y120.507 E.01904
G1 X105.248 Y120.906 E.01657
G1 X104.92 Y121.098 E.01061
G1 X104.505 Y121.232 E.01217
G1 X103.955 Y121.296 E.01545
G1 X103.669 Y121.286 E.00799
G1 X103.276 Y121.212 E.01116
G1 X102.944 Y121.121 E.00961
G1 X102.437 Y120.816 E.01651
G1 X102.181 Y120.519 E.01094
G1 X102.275 Y118.57 F6000
;WIDTH:0.441466
G1 F1200
G1 X102.079 Y118.221 E.01181
G1 X102.03 Y117.973 E.00746
;WIDTH:0.404736
G1 X101.98 Y117.724 E.0068
;WIDTH:0.393052
G1 X102.01 Y117.079 E.01673
;WIDTH:0.419999
G1 X102.162 Y116.659 E.01246
G1 X102.456 Y116.249 E.01408
G1 X102.791 Y115.969 E.01218
G1 X103.276 Y115.76 E.01474
G1 X103.82 Y115.688 E.01531
G1 X104.389 Y115.726 E.01591
G1 X104.784 Y115.852 E.01157
G1 X105.239 Y116.117 E.01469
G1 X105.581 Y116.462 E.01356
G1 X105.795 Y116.89 E.01335
;WIDTH:0.456596
G1 X105.843 Y117.101 E.00662
;WIDTH:0.493193
G1 X105.892 Y117.311 E.00719
;WIDTH:0.52979
G1 X105.941 Y117.522 E.0078
;WIDTH:0.537012
G1 X105.881 Y118.039 E.01903
G1 X105.772 Y118.196 E.00699
;WIDTH:0.498008
G1 X105.663 Y118.354 E.00646
;WIDTH:0.459004
G1 X105.554 Y118.511 E.00589
;WIDTH:0.419999
G1 X105.746 Y119.027 E.01536
G1 X105.73 Y119.513 E.01357
G1 X105.67 Y119.745 E.00669
G1 X105.404 Y120.259 E.01615
G1 X104.998 Y120.624 E.01523
G1 X104.585 Y120.828 E.01285
G1 X103.911 Y120.922 E.01899
G1 X103.346 Y120.841 E.01593
G1 X103.05 Y120.752 E.00863
G1 X102.676 Y120.525 E.01221
G1 X102.316 Y120.085 E.01586
G1 X102.275 Y119.995 E.00276
G1 X102.084 Y120.1 E.00608
G1 X101.606 Y120.22 E.01375
G1 X101.408 Y120.675 E.01385
G1 X101.185 Y120.851 E.00793
G1 X100.957 Y120.899 E.0065
G1 X100.371 Y120.899 E.01635
G1 X100.112 Y120.837 E.00743
G1 X99.889 Y120.63 E.00849
G1 X99.805 Y120.334 E.00859
G1 X99.805 Y119.811 E.01459
;WIDTH:0.437573
G1 X99.785 Y119.45 E.01056
G1 X99.677 Y119.78 E.01014
;WIDTH:0.419999
G1 X99.371 Y120.305 E.01696
G1 X98.984 Y120.638 E.01425
G1 X98.519 Y120.849 E.01425
G1 X98.022 Y120.927 E.01404
G1 X97.533 Y120.906 E.01366
G1 X97.129 Y120.813 E.01157
G1 X96.759 Y120.635 E.01146
G1 X96.44 Y120.355 E.01184
G1 X96.129 Y119.896 E.01547
G1 X95.971 Y119.314 E.01683
G1 X95.961 Y119.107 E.00578
G1 X96.035 Y118.579 E.01488
G1 X96.334 Y118.028 E.01749
G1 X96.707 Y117.663 E.01456
G1 X96.81 Y117.598 E.0034
G1 X96.363 Y117.575 E.01249
G1 X96.22 Y117.504 E.00446
G1 X96.017 Y117.248 E.00912
G1 X95.976 Y117.041 E.00589
G1 X95.974 Y116.348 E.01934
G1 X96.02 Y116.13 E.00622
G1 X96.089 Y116.01 E.00386
G1 X96.331 Y115.826 E.00848
G1 X96.54 Y115.786 E.00594
G1 X99.373 Y115.786 E.07906
G1 X99.567 Y115.82 E.0055
G1 X99.707 Y115.895 E.00443
G1 X99.872 Y116.22 E.01017
G1 X100.037 Y115.895 E.01017
G1 X100.27 Y115.795 E.00708
G1 X101.117 Y115.786 E.02364
G1 X101.408 Y115.866 E.00842
G1 X101.6 Y116.057 E.00756
G1 X101.683 Y116.352 E.00855
G1 X101.669 Y117.024 E.01876
;WIDTH:0.393052
G1 X101.655 Y117.719 E.01801
;WIDTH:0.404736
G1 X101.674 Y118.004 E.00765
;WIDTH:0.441466
G1 X101.691 Y118.476 E.01393
G1 X102.147 Y118.529 E.01354
G1 X102.218 Y118.552 E.0022
G1 X102.512 Y119.445 F6000
;TYPE:External perimeter
;WIDTH:0.421876
G1 F1200
G1 X102.521 Y119.053 E.011
G1 X102.727 Y118.518 E.01608
;WIDTH:0.419999
G1 X102.444 Y118.092 E.01427
G1 X102.331 Y117.735 E.01045
G1 X102.355 Y117.192 E.01517
G1 X102.468 Y116.879 E.00929
G1 X102.762 Y116.469 E.01408
G1 X103.12 Y116.222 E.01214
G1 X103.348 Y116.13 E.00686
G1 X103.902 Y116.058 E.01559
G1 X104.332 Y116.101 E.01206
G1 X104.595 Y116.178 E.00765
G1 X105.049 Y116.443 E.01467
G1 X105.293 Y116.711 E.01011
G1 X105.429 Y116.983 E.00849
G1 X105.504 Y117.356 E.01062
G1 X105.509 Y117.654 E.00832
G1 X105.441 Y117.968 E.00897
G1 X105.188 Y118.388 E.01368
G1 X105.073 Y118.489 E.00427
G1 X105.176 Y118.588 E.00399
G1 X105.37 Y119.055 E.01411
G1 X105.336 Y119.57 E.0144
G1 X105.103 Y120.028 E.01434
G1 X104.717 Y120.364 E.01428
G1 X104.417 Y120.483 E.00901
G1 X103.867 Y120.548 E.01545
G1 X103.416 Y120.471 E.01277
G1 X103.241 Y120.426 E.00504
G1 X102.886 Y120.203 E.0117
