;FLAVOR:Marlin
;TIME:2029
;Filament used: 1.44696m
;Layer height: 0.2
;MINX:95.7
;MINY:95.7
;MINZ:0.2
;MAXX:139.3
;MAXY:139.3
;MAXZ:20
;POSTPROCESSED
;Generated with Cura_SteamEngine 5.3.0
M82 ;absolute extrusion mode
; Ender 3 Custom Start G-code
G92 E0 ; Reset Extruder

M140 S50 ; set bed temp
M190 S50 ; wait for bed temp

G28 ; Home all axes
M104 S205 ; set extruder temp 
BED_MESH_CALIBRATE  AREA_START=95.7,95.7 AREA_END=139.3,139.3

G1 Z2.0 F3000 ; Move Z Axis up little to prevent scratching of Heat Bed
M109 S205 ; wait for extruder temp
G1 X0.1 Y20 Z0.3 F5000.0 ; Move to start position

G1 X0.1 Y200.0 Z0.3 F1500.0 E15 ; Draw the first line
G1 X0.4 Y200.0 Z0.3 F5000.0 ; Move to side a little
G1 X0.4 Y20 Z0.3 F1500.0 E30 ; Draw the second line
G92 E0 ; Reset Extruder
G1 Z2.0 F3000 ; Move Z Axis up little to prevent scratching of Heat Bed
G1 X5 Y20 Z0.3 F5000.0 ; Move over to prevent blob squish
G92 E0
G92 E0
G1 F2700 E-5
;LAYER_COUNT:100
;LAYER:0
M107
G0 F6000 X97.985 Y100.278 Z0.2
;TYPE:SKIRT
G1 F2700 E0
G1 F1200 X100.384 Y98.03 E0.10935
G1 X103.206 Y96.353 E0.21853
G1 X106.468 Y95.7 E0.32918
G1 X128.815 Y95.7 E1.07244
G1 X131.686 Y96.404 E1.17076
G1 X134.722 Y97.985 E1.28461
G1 X136.97 Y100.384 E1.39396
G1 X138.647 Y103.206 E1.50314
G1 X139.3 Y106.468 E1.61379
G1 X139.3 Y128.815 E2.35705
G1 X138.596 Y131.686 E2.45537
G1 X137.015 Y134.722 E2.56922
G1 X134.616 Y136.97 E2.67857
G1 X131.794 Y138.647 E2.78775
G1 X128.532 Y139.3 E2.8984
G1 X106.185 Y139.3 E3.64166
G1 X103.314 Y138.596 E3.73998
G1 X100.278 Y137.015 E3.85383
G1 X98.03 Y134.616 E3.96318
G1 X96.353 Y131.794 E4.07236
G1 X95.7 Y128.532 E4.18301
G1 X95.7 Y106.185 E4.92627
G1 X96.404 Y103.314 E5.02459
G1 X97.985 Y100.278 E5.13844
G0 F6000 X98.309 Y100.522
G1 F1200 X100.625 Y98.352 E5.244
G1 X103.352 Y96.731 E5.34951
G1 X106.506 Y96.1 E5.45649
G1 X128.769 Y96.1 E6.19696
G1 X131.541 Y96.78 E6.2919
G1 X134.478 Y98.309 E6.40203
G1 X136.648 Y100.625 E6.50758
G1 X138.269 Y103.352 E6.6131
G1 X138.9 Y106.506 E6.72008
G1 X138.9 Y128.769 E7.46055
G1 X138.22 Y131.541 E7.55548
G1 X136.691 Y134.478 E7.66561
G1 X134.375 Y136.648 E7.77117
G1 X131.648 Y138.269 E7.87669
G1 X128.494 Y138.9 E7.98367
G1 X106.231 Y138.9 E8.72414
G1 X103.459 Y138.22 E8.81907
G1 X100.522 Y136.691 E8.9292
G1 X98.352 Y134.375 E9.03476
G1 X96.731 Y131.648 E9.14027
G1 X96.1 Y128.494 E9.24725
G1 X96.1 Y106.231 E9.98772
G1 X96.78 Y103.459 E10.08265
G1 X98.309 Y100.522 E10.19278
G0 F6000 X98.633 Y100.766
G1 F1200 X100.866 Y98.674 E10.29456
G1 X103.498 Y97.11 E10.39639
G1 X106.545 Y96.5 E10.49974
G1 X128.723 Y96.5 E11.23738
G1 X131.396 Y97.156 E11.32893
G1 X134.234 Y98.633 E11.43534
G1 X136.326 Y100.866 E11.53711
G1 X137.89 Y103.498 E11.63894
G1 X138.5 Y106.545 E11.74229
G1 X138.5 Y128.723 E12.47994
G1 X137.844 Y131.396 E12.57148
G1 X136.367 Y134.234 E12.67789
G1 X134.134 Y136.326 E12.77966
G1 X131.502 Y137.89 E12.88149
G1 X128.455 Y138.5 E12.98484
G1 X106.277 Y138.5 E13.72249
G1 X103.604 Y137.844 E13.81403
G1 X100.766 Y136.367 E13.92044
G1 X98.674 Y134.134 E14.02221
G1 X97.11 Y131.502 E14.12404
G1 X96.5 Y128.455 E14.2274
G1 X96.5 Y106.277 E14.96504
G1 X97.156 Y103.604 E15.05658
G1 X98.633 Y100.766 E15.16299
G0 F6000 X98.957 Y101.01
G1 F1200 X101.107 Y98.996 E15.26098
G1 X103.644 Y97.488 E15.35914
G1 X106.583 Y96.9 E15.45883
G1 X128.677 Y96.9 E16.19368
G1 X131.251 Y97.532 E16.28183
G1 X133.99 Y98.957 E16.38452
G1 X136.004 Y101.107 E16.48251
G1 X137.512 Y103.644 E16.58067
G1 X138.1 Y106.583 E16.68036
G1 X138.1 Y128.677 E17.41521
G1 X137.468 Y131.251 E17.50336
G1 X136.043 Y133.99 E17.60605
G1 X133.893 Y136.004 E17.70403
G1 X131.356 Y137.512 E17.8022
G1 X128.417 Y138.1 E17.90188
G1 X106.323 Y138.1 E18.63673
G1 X103.749 Y137.468 E18.72489
G1 X101.01 Y136.043 E18.82758
G1 X98.996 Y133.893 E18.92556
G1 X97.488 Y131.356 E19.02373
G1 X96.9 Y128.417 E19.12341
G1 X96.9 Y106.323 E19.85826
G1 X97.532 Y103.749 E19.94642
G1 X98.957 Y101.01 E20.04911
G0 F6000 X99.281 Y101.254
G1 F1200 X101.348 Y99.318 E20.1433
G1 X103.79 Y97.867 E20.23778
G1 X106.622 Y97.3 E20.33384
G1 X128.631 Y97.3 E21.06587
G1 X131.106 Y97.908 E21.15063
G1 X133.746 Y99.281 E21.2496
G1 X135.682 Y101.348 E21.3438
G1 X137.133 Y103.79 E21.43828
G1 X137.7 Y106.622 E21.53434
G1 X137.7 Y128.631 E22.26636
G1 X137.092 Y131.106 E22.35113
G1 X135.719 Y133.746 E22.4501
G1 X133.652 Y135.682 E22.54429
G1 X131.21 Y137.133 E22.63877
G1 X128.378 Y137.7 E22.73483
G1 X106.369 Y137.7 E23.46685
G1 X103.894 Y137.092 E23.55162
G1 X101.254 Y135.719 E23.65059
G1 X99.318 Y133.652 E23.74479
G1 X97.867 Y131.21 E23.83926
G1 X97.3 Y128.378 E23.93533
G1 X97.3 Y106.369 E24.66735
G1 X97.908 Y103.894 E24.75212
G1 X99.281 Y101.254 E24.85109
G0 F6000 X99.604 Y101.499
G1 F1200 X101.589 Y99.64 E24.94154
G1 X103.936 Y98.245 E25.03235
G1 X106.66 Y97.7 E25.12475
G1 X128.584 Y97.7 E25.85394
G1 X130.963 Y98.285 E25.93542
G1 X133.501 Y99.604 E26.03056
G1 X135.36 Y101.589 E26.12101
G1 X136.755 Y103.936 E26.21182
G1 X137.3 Y106.66 E26.30422
G1 X137.3 Y128.584 E27.03341
G1 X136.715 Y130.963 E27.1149
G1 X135.396 Y133.501 E27.21003
G1 X133.411 Y135.36 E27.30048
G1 X131.064 Y136.755 E27.39129
G1 X128.34 Y137.3 E27.48369
G1 X106.416 Y137.3 E28.21288
G1 X104.037 Y136.715 E28.29437
G1 X101.499 Y135.396 E28.3895
G1 X99.64 Y133.411 E28.47995
G1 X98.245 Y131.064 E28.57076
G1 X97.7 Y128.34 E28.66316
G1 X97.7 Y106.416 E29.39235
G1 X98.285 Y104.037 E29.47384
G1 X99.604 Y101.499 E29.56897
G0 F6000 X99.927 Y101.744
G1 F1200 X101.83 Y99.962 E29.65568
G1 X104.082 Y98.624 E29.74281
G1 X106.699 Y98.1 E29.83158
G1 X128.538 Y98.1 E30.55794
G1 X130.82 Y98.661 E30.6361
G1 X133.256 Y99.927 E30.72741
G1 X135.038 Y101.83 E30.81413
G1 X136.376 Y104.082 E30.90125
G1 X136.9 Y106.699 E30.99002
G1 X136.9 Y128.538 E31.71639
G1 X136.339 Y130.82 E31.79455
G1 X135.073 Y133.256 E31.88586
G1 X133.17 Y135.038 E31.97257
G1 X130.918 Y136.376 E32.0597
G1 X128.301 Y136.9 E32.14847
G1 X106.462 Y136.9 E32.87483
G1 X104.18 Y136.339 E32.95299
G1 X101.744 Y135.073 E33.0443
G1 X99.962 Y133.17 E33.13102
G1 X98.624 Y130.918 E33.21814
G1 X98.1 Y128.301 E33.30691
G1 X98.1 Y106.462 E34.03328
G1 X98.661 Y104.18 E34.11144
G1 X99.927 Y101.744 E34.20275
G0 F6000 X100.25 Y101.989
G1 F1200 X102.071 Y100.284 E34.28572
G1 X104.228 Y99.002 E34.36917
G1 X106.737 Y98.5 E34.45428
G1 X128.492 Y98.5 E35.17785
G1 X130.677 Y99.037 E35.25269
G1 X133.011 Y100.25 E35.34018
G1 X134.716 Y102.071 E35.42315
G1 X135.998 Y104.228 E35.5066
G1 X136.5 Y106.737 E35.59171
G1 X136.5 Y128.492 E36.31528
G1 X135.963 Y130.677 E36.39012
G1 X134.75 Y133.011 E36.4776
G1 X132.929 Y134.716 E36.56058
G1 X130.772 Y135.998 E36.64403
G1 X128.263 Y136.5 E36.72914
G1 X106.508 Y136.5 E37.45271
G1 X104.323 Y135.963 E37.52755
G1 X101.989 Y134.75 E37.61503
G1 X100.284 Y132.929 E37.698
G1 X99.002 Y130.772 E37.78146
G1 X98.5 Y128.263 E37.86656
G1 X98.5 Y106.508 E38.59014
G1 X99.037 Y104.323 E38.66497
G1 X100.25 Y101.989 E38.75246
G0 F6000 X100.573 Y102.234
G1 F1200 X102.312 Y100.606 E38.83169
G1 X104.374 Y99.381 E38.91146
G1 X106.776 Y98.9 E38.99294
G1 X128.446 Y98.9 E39.71369
G1 X130.534 Y99.413 E39.7852
G1 X132.766 Y100.573 E39.86886
G1 X134.394 Y102.312 E39.94809
G1 X135.619 Y104.374 E40.02787
G1 X136.1 Y106.776 E40.10934
G1 X136.1 Y128.446 E40.83009
G1 X135.587 Y130.534 E40.9016
G1 X134.427 Y132.766 E40.98527
G1 X132.688 Y134.394 E41.0645
G1 X130.626 Y135.619 E41.14427
G1 X128.224 Y136.1 E41.22574
G1 X106.554 Y136.1 E41.94649
G1 X104.466 Y135.587 E42.018
G1 X102.234 Y134.427 E42.10167
G1 X100.606 Y132.688 E42.1809
G1 X99.381 Y130.626 E42.26067
G1 X98.9 Y128.224 E42.34215
G1 X98.9 Y106.554 E43.06289
G1 X99.413 Y104.466 E43.13441
G1 X100.573 Y102.234 E43.21807
G0 F6000 X100.896 Y102.479
G1 F1200 X102.553 Y100.928 E43.29356
G1 X104.52 Y99.759 E43.36966
G1 X106.814 Y99.3 E43.44747
G1 X128.399 Y99.3 E44.16539
G1 X130.392 Y99.79 E44.23366
G1 X132.521 Y100.896 E44.31345
G1 X134.072 Y102.553 E44.38894
G1 X135.241 Y104.52 E44.46504
G1 X135.7 Y106.814 E44.54286
G1 X135.7 Y128.399 E45.26078
G1 X135.21 Y130.392 E45.32904
G1 X134.104 Y132.521 E45.40883
G1 X132.447 Y134.072 E45.48432
G1 X130.48 Y135.241 E45.56043
G1 X128.186 Y135.7 E45.63824
G1 X106.601 Y135.7 E46.35616
G1 X104.608 Y135.21 E46.42442
G1 X102.479 Y134.104 E46.50421
G1 X100.928 Y132.447 E46.5797
G1 X99.759 Y130.48 E46.65581
G1 X99.3 Y128.186 E46.73362
G1 X99.3 Y106.601 E47.45154
G1 X99.79 Y104.608 E47.5198
G1 X100.896 Y102.479 E47.59959
G0 F6000 X101.219 Y102.724
G1 F1200 X102.794 Y101.25 E47.67134
G1 X104.666 Y100.138 E47.74376
G1 X106.853 Y99.7 E47.81795
G1 X128.353 Y99.7 E48.53304
G1 X130.249 Y100.166 E48.59798
G1 X132.276 Y101.219 E48.67395
G1 X133.75 Y102.794 E48.7457
G1 X134.862 Y104.666 E48.81812
G1 X135.3 Y106.853 E48.8923
G1 X135.3 Y128.353 E49.60739
G1 X134.834 Y130.249 E49.67233
G1 X133.781 Y132.276 E49.7483
G1 X132.206 Y133.75 E49.82005
G1 X130.334 Y134.862 E49.89247
G1 X128.147 Y135.3 E49.96665
G1 X106.647 Y135.3 E50.68175
G1 X104.751 Y134.834 E50.74669
G1 X102.724 Y133.781 E50.82266
G1 X101.25 Y132.206 E50.89441
G1 X100.138 Y130.334 E50.96682
G1 X99.7 Y128.147 E51.04101
G1 X99.7 Y106.647 E51.7561
G1 X100.166 Y104.751 E51.82104
G1 X101.219 Y102.724 E51.89701
G0 F6000 X101.542 Y102.969
G1 F1200 X103.035 Y101.572 E51.96502
G1 X104.812 Y100.516 E52.03377
G1 X106.891 Y100.1 E52.10429
G1 X128.307 Y100.1 E52.81659
G1 X130.106 Y100.542 E52.8782
G1 X132.031 Y101.542 E52.95035
G1 X133.428 Y103.035 E53.01836
G1 X134.484 Y104.812 E53.08711
G1 X134.9 Y106.891 E53.15763
G1 X134.9 Y128.307 E53.86993
G1 X134.458 Y130.106 E53.93154
G1 X133.458 Y132.031 E54.00369
G1 X131.965 Y133.428 E54.0717
G1 X130.188 Y134.484 E54.14045
G1 X128.109 Y134.9 E54.21097
G1 X106.693 Y134.9 E54.92327
G1 X104.894 Y134.458 E54.98488
G1 X102.969 Y133.458 E55.05703
G1 X101.572 Y131.965 E55.12504
G1 X100.516 Y130.188 E55.19379
G1 X100.1 Y128.109 E55.26431
G1 X100.1 Y106.693 E55.9766
G1 X100.542 Y104.894 E56.03822
G1 X101.542 Y102.969 E56.11037
G0 F6000 X101.865 Y103.214
G1 F1200 X103.276 Y101.894 E56.17463
G1 X104.958 Y100.895 E56.2397
G1 X106.93 Y100.5 E56.30659
G1 X128.26 Y100.5 E57.01603
G1 X129.964 Y100.919 E57.07439
G1 X131.786 Y101.865 E57.14268
G1 X133.106 Y103.276 E57.20694
G1 X134.105 Y104.958 E57.27201
G1 X134.5 Y106.93 E57.3389
G1 X134.5 Y128.26 E58.04834
G1 X134.081 Y129.964 E58.1067
G1 X133.135 Y131.786 E58.17498
G1 X131.724 Y133.106 E58.23925
G1 X130.042 Y134.105 E58.30431
G1 X128.07 Y134.5 E58.37121
G1 X106.74 Y134.5 E59.08064
G1 X105.036 Y134.081 E59.13901
G1 X103.214 Y133.135 E59.20729
G1 X101.894 Y131.724 E59.27155
G1 X100.895 Y130.042 E59.33662
G1 X100.5 Y128.07 E59.40351
G1 X100.5 Y106.74 E60.11295
G1 X100.919 Y105.036 E60.17131
G1 X101.865 Y103.214 E60.2396
G0 F6000 X102.188 Y103.459
G1 F1200 X103.517 Y102.216 E60.30012
G1 X105.104 Y101.273 E60.36152
G1 X106.968 Y100.9 E60.42474
G1 X128.214 Y100.9 E61.13139
G1 X129.821 Y101.295 E61.18643
G1 X131.541 Y102.188 E61.25089
G1 X132.784 Y103.517 E61.31141
G1 X133.727 Y105.104 E61.37281
G1 X134.1 Y106.968 E61.43604
G1 X134.1 Y128.214 E62.14268
G1 X133.705 Y129.821 E62.19772
G1 X132.812 Y131.541 E62.26218
G1 X131.483 Y132.784 E62.3227
G1 X129.896 Y133.727 E62.3841
G1 X128.032 Y134.1 E62.44733
G1 X106.786 Y134.1 E63.15397
G1 X105.179 Y133.705 E63.20901
G1 X103.459 Y132.812 E63.27347
G1 X102.216 Y131.483 E63.33399
G1 X101.273 Y129.896 E63.39539
G1 X100.9 Y128.032 E63.45862
G1 X100.9 Y106.786 E64.16526
G1 X101.295 Y105.179 E64.2203
G1 X102.188 Y103.459 E64.28476
G0 F6000 X102.511 Y103.704
G1 F1200 X103.758 Y102.538 E64.34154
G1 X105.25 Y101.651 E64.39928
G1 X107.006 Y101.3 E64.45884
G1 X128.168 Y101.3 E65.16269
G1 X129.678 Y101.671 E65.2144
G1 X131.296 Y102.511 E65.27504
G1 X132.462 Y103.758 E65.33182
G1 X133.349 Y105.25 E65.38955
G1 X133.7 Y107.006 E65.44911
G1 X133.7 Y128.168 E66.15296
G1 X133.329 Y129.678 E66.20468
G1 X132.489 Y131.296 E66.26531
G1 X131.242 Y132.462 E66.3221
G1 X129.75 Y133.349 E66.37983
G1 X127.994 Y133.7 E66.43939
G1 X106.832 Y133.7 E67.14324
G1 X105.322 Y133.329 E67.19495
G1 X103.704 Y132.489 E67.25559
G1 X102.538 Y131.242 E67.31237
G1 X101.651 Y129.75 E67.3701
G1 X101.3 Y127.994 E67.42966
G1 X101.3 Y106.832 E68.13351
G1 X101.671 Y105.322 E68.18523
G1 X102.511 Y103.704 E68.24587
G0 F6000 X102.834 Y103.949
G1 F1200 X103.999 Y102.86 E68.29891
G1 X105.396 Y102.029 E68.35297
G1 X107.044 Y101.7 E68.40886
G1 X128.121 Y101.7 E69.10989
G1 X129.536 Y102.048 E69.15835
G1 X131.051 Y102.834 E69.21512
G1 X132.14 Y103.999 E69.26816
G1 X132.971 Y105.396 E69.32222
G1 X133.3 Y107.044 E69.37812
G1 X133.3 Y128.121 E70.07914
G1 X132.952 Y129.536 E70.12761
G1 X132.166 Y131.051 E70.18438
G1 X131.001 Y132.14 E70.23742
G1 X129.604 Y132.971 E70.29148
G1 X127.956 Y133.3 E70.34737
G1 X106.879 Y133.3 E71.0484
G1 X105.464 Y132.952 E71.09686
G1 X103.949 Y132.166 E71.15363
G1 X102.86 Y131.001 E71.20667
G1 X102.029 Y129.604 E71.26073
G1 X101.7 Y127.956 E71.31663
G1 X101.7 Y106.879 E72.01765
G1 X102.048 Y105.464 E72.06612
G1 X102.834 Y103.949 E72.12289
G0 F6000 X103.157 Y104.194
G1 F1200 X104.238 Y103.184 E72.17209
G1 X105.544 Y102.407 E72.22263
G1 X107.082 Y102.1 E72.2748
G1 X128.075 Y102.1 E72.97303
G1 X129.393 Y102.424 E73.01817
G1 X130.806 Y103.157 E73.07111
G1 X131.816 Y104.238 E73.12032
G1 X132.593 Y105.544 E73.17086
G1 X132.9 Y107.082 E73.22303
G1 X132.9 Y128.075 E73.92126
G1 X132.576 Y129.393 E73.9664
G1 X131.843 Y130.806 E74.01934
G1 X130.762 Y131.816 E74.06855
G1 X129.456 Y132.593 E74.11909
G1 X127.918 Y132.9 E74.17126
G1 X106.925 Y132.9 E74.86949
G1 X105.607 Y132.576 E74.91463
G1 X104.194 Y131.843 E74.96757
G1 X103.184 Y130.762 E75.01678
G1 X102.407 Y129.456 E75.06732
G1 X102.1 Y127.918 E75.11948
G1 X102.1 Y106.925 E75.81771
G1 X102.424 Y105.607 E75.86286
G1 X103.157 Y104.194 E75.9158
G0 F6000 X103.48 Y104.439
G1 F1200 X104.477 Y103.508 E75.96117
G1 X105.692 Y102.785 E76.00819
G1 X107.12 Y102.5 E76.05663
G1 X128.029 Y102.5 E76.75206
G1 X129.25 Y102.8 E76.79388
G1 X130.561 Y103.48 E76.843
G1 X131.492 Y104.477 E76.88837
G1 X132.215 Y105.692 E76.9354
G1 X132.5 Y107.12 E76.98383
G1 X132.5 Y128.029 E77.67926
G1 X132.2 Y129.25 E77.72108
G1 X131.52 Y130.561 E77.7702
G1 X130.523 Y131.492 E77.81557
G1 X129.308 Y132.215 E77.8626
G1 X127.88 Y132.5 E77.91103
G1 X106.971 Y132.5 E78.60647
G1 X105.75 Y132.2 E78.64829
G1 X104.439 Y131.52 E78.69741
G1 X103.508 Y130.523 E78.74278
G1 X102.785 Y129.308 E78.7898
G1 X102.5 Y127.88 E78.83823
G1 X102.5 Y106.971 E79.53367
G1 X102.8 Y105.75 E79.57549
G1 X103.48 Y104.439 E79.62461
G0 F6000 X103.803 Y104.684
G1 F1200 X104.716 Y103.832 E79.66614
G1 X105.84 Y103.163 E79.70965
G1 X107.158 Y102.9 E79.75435
G1 X127.983 Y102.9 E80.44699
G1 X129.107 Y103.176 E80.48549
G1 X130.316 Y103.803 E80.53078
G1 X131.168 Y104.716 E80.57232
G1 X131.837 Y105.84 E80.61582
G1 X132.1 Y107.158 E80.66053
G1 X132.1 Y127.983 E81.35317
G1 X131.824 Y129.107 E81.39166
G1 X131.197 Y130.316 E81.43696
G1 X130.284 Y131.168 E81.4785
G1 X129.16 Y131.837 E81.522
G1 X127.842 Y132.1 E81.5667
G1 X107.017 Y132.1 E82.25934
G1 X105.893 Y131.824 E82.29784
G1 X104.684 Y131.197 E82.34314
G1 X103.832 Y130.284 E82.38467
G1 X103.163 Y129.16 E82.42818
G1 X102.9 Y127.842 E82.47288
G1 X102.9 Y107.017 E83.16552
G1 X103.176 Y105.893 E83.20401
G1 X103.803 Y104.684 E83.24931
G0 F6000 X104.125 Y104.931
G1 F1200 X104.958 Y104.154 E83.2872
G1 X105.988 Y103.541 E83.32707
G1 X107.196 Y103.3 E83.36804
G1 X127.936 Y103.3 E84.05785
G1 X128.965 Y103.553 E84.09309
G1 X130.069 Y104.125 E84.13445
G1 X130.846 Y104.958 E84.17234
G1 X131.459 Y105.988 E84.2122
G1 X131.7 Y107.196 E84.25317
G1 X131.7 Y127.936 E84.94299
G1 X131.447 Y128.965 E84.97823
G1 X130.875 Y130.069 E85.01959
G1 X130.042 Y130.846 E85.05748
G1 X129.012 Y131.459 E85.09734
G1 X127.804 Y131.7 E85.13831
G1 X107.064 Y131.7 E85.82813
G1 X106.035 Y131.447 E85.86337
G1 X104.931 Y130.875 E85.90473
G1 X104.154 Y130.042 E85.94261
G1 X103.541 Y129.012 E85.98248
G1 X103.3 Y127.804 E86.02345
G1 X103.3 Y107.064 E86.71326
G1 X103.553 Y106.035 E86.74851
G1 X104.125 Y104.931 E86.78986
G0 F6000 X104.447 Y105.178
G1 F1200 X105.2 Y104.476 E86.8241
G1 X106.136 Y103.919 E86.86033
