;FLAVOR:Marlin
;TIME:1986
;Filament used: 1.7951m
;Layer height: 0.15
;MINX:85.003
;MINY:97.518
;MINZ:0.3
;MAXX:149.997
;MAXY:137.488
;MAXZ:4.05
;POSTPROCESSED
;Generated with Cura_SteamEngine 5.3.1
M82 ;absolute extrusion mode
; Ender 3 Custom Start G-code
G92 E0 ; Reset Extruder

M140 S50 ; set bed temp
M190 S50 ; wait for bed temp

G28 ; Home all axes
BED_MESH_CALIBRATE  AREA_START=85.003,97.518 AREA_END=149.997,137.488
M104 S210 ; set extruder temp 

G1 Z2.0 F3000 ; Move Z Axis up little to prevent scratching of Heat Bed
M109 S210 ; wait for extruder temp
G1 X0.1 Y20 Z0.3 F5000.0 ; Move to start position

G1 X0.1 Y200.0 Z0.3 F1500.0 E15 ; Draw the first line
G1 X0.4 Y200.0 Z0.3 F5000.0 ; Move to side a little
G1 X0.4 Y20 Z0.3 F1500.0 E30 ; Draw the second line
G92 E0 ; Reset Extruder
G1 Z2.0 F3000 ; Move Z Axis up little to prevent scratching of Heat Bed
G1 X5 Y20 Z0.3 F5000.0 ; Move over to prevent blob squish
G92 E0
G92 E0
G1 F1500 E-1
;LAYER_COUNT:26
;LAYER:0
M107
M204 S1000
G0 F3600 X89.885 Y101.226 Z0.3
;TYPE:SKIRT
G1 F1500 E0
G1 F2100 X90.303 Y100.894 E0.02663
G1 X90.994 Y100.381 E0.06957
G1 X92.157 Y99.696 E0.13691
G1 X93.288 Y99.182 E0.19889
G1 X94.449 Y98.786 E0.26009
G1 X95.69 Y98.5 E0.32362
G1 X96.88 Y98.346 E0.38349
G1 X97.791 Y98.318 E0.42896
G1 X98.705 Y98.343 E0.47457
G1 X99.399 Y98.391 E0.50928
G1 X101.709 Y98.776 E0.62612
G1 X104.424 Y99.187 E0.76311
G1 X107.118 Y99.516 E0.89851
G1 X109.866 Y99.773 E1.03621
G1 X112.575 Y99.95 E1.17165
G1 X115.327 Y100.051 E1.30904
G1 X118.082 Y100.075 E1.4465
G1 X120.795 Y100.022 E1.58187
G1 X123.513 Y99.891 E1.71763
G1 X126.259 Y99.681 E1.85503
G1 X128.997 Y99.394 E1.99238
G1 X131.708 Y99.031 E2.12884
G1 X135.124 Y98.468 E2.30156
G1 X136.018 Y98.347 E2.34657
G1 X136.979 Y98.318 E2.39454
G1 X137.893 Y98.343 E2.44015
G1 X138.583 Y98.391 E2.47466
G1 X139.746 Y98.584 E2.53348
G1 X141.024 Y98.932 E2.59956
G1 X142.153 Y99.37 E2.65997
G1 X143.264 Y99.926 E2.72196
G1 X144.041 Y100.416 E2.76778
G1 X144.557 Y100.786 E2.79946
G1 X145.319 Y101.395 E2.84813
G1 X146.2 Y102.269 E2.91004
G1 X146.741 Y102.918 E2.95219
G1 X147.164 Y103.496 E2.98793
G1 X147.455 Y103.932 E3.01408
G1 X147.783 Y104.493 E3.0465
G1 X148.059 Y105.02 E3.07618
G1 X148.324 Y105.615 E3.10868
G1 X148.593 Y106.3 E3.14539
G1 X148.891 Y107.365 E3.20057
G1 X149.024 Y108.037 E3.23474
G1 X149.103 Y108.553 E3.26079
G1 X149.161 Y109.201 E3.29324
G1 X149.193 Y109.967 E3.33149
G1 X149.002 Y113.446 E3.50532
G1 X148.926 Y116.204 E3.64297
G1 X148.928 Y118.923 E3.77862
G1 X149.008 Y121.673 E3.91588
G1 X149.168 Y124.484 E4.05635
G1 X149.197 Y125.234 E4.09379
G1 X149.115 Y126.453 E4.15475
G1 X148.944 Y127.397 E4.20261
G1 X148.803 Y127.978 E4.23244
G1 X148.588 Y128.707 E4.27036
G1 X148.235 Y129.612 E4.31882
G1 X147.893 Y130.3 E4.35715
G1 X147.535 Y130.947 E4.39404
G1 X147.24 Y131.395 E4.4208
G1 X146.912 Y131.859 E4.44915
G1 X146.526 Y132.343 E4.48004
G1 X145.856 Y133.096 E4.53032
G1 X145.08 Y133.8 E4.5826
G1 X144.685 Y134.116 E4.60783
G1 X144.191 Y134.481 E4.63848
G1 X143.714 Y134.795 E4.66697
G1 X142.95 Y135.248 E4.71128
G1 X142.066 Y135.663 E4.76
G1 X141.491 Y135.895 E4.79094
G1 X140.891 Y136.104 E4.82263
G1 X140.287 Y136.277 E4.85398
G1 X139.664 Y136.418 E4.88585
G1 X138.789 Y136.568 E4.93014
G1 X138.119 Y136.654 E4.96384
G1 X137.209 Y136.682 E5.00926
G1 X136.295 Y136.657 E5.05488
G1 X135.597 Y136.613 E5.08977
G1 X133.413 Y136.443 E5.19906
G1 X130.665 Y136.308 E5.33632
G1 X127.946 Y136.25 E5.472
G1 X125.193 Y136.271 E5.60936
G1 X122.466 Y136.367 E5.74549
G1 X119.173 Y136.586 E5.91014
G1 X118.303 Y136.659 E5.9537
G1 X117.608 Y136.688 E5.9884
G1 X117.044 Y136.678 E6.01655
G1 X116.129 Y136.618 E6.06229
G1 X114.103 Y136.457 E6.16369
G1 X111.355 Y136.317 E6.30097
G1 X108.635 Y136.254 E6.4367
G1 X105.883 Y136.269 E6.574
G1 X103.174 Y136.36 E6.70923
G1 X100.204 Y136.547 E6.8577
G1 X98.767 Y136.659 E6.92961
G1 X98.123 Y136.685 E6.96176
G1 X97.107 Y136.657 E7.01247
G1 X96.395 Y136.607 E7.04808
G1 X95.513 Y136.453 E7.09275
G1 X94.415 Y136.199 E7.14898
G1 X93.756 Y135.984 E7.18356
G1 X92.813 Y135.618 E7.23402
G1 X91.699 Y135.054 E7.29632
G1 X90.679 Y134.398 E7.35682
G1 X89.963 Y133.835 E7.40227
G1 X89.542 Y133.465 E7.43023
G1 X88.891 Y132.832 E7.47553
G1 X88.178 Y131.985 E7.53076
G1 X87.794 Y131.443 E7.5639
G1 X87.339 Y130.741 E7.60564
G1 X86.816 Y129.741 E7.66194
G1 X86.422 Y128.739 E7.71566
G1 X86.237 Y128.117 E7.74803
G1 X86.108 Y127.631 E7.77312
G1 X85.99 Y127.05 E7.8027
G1 X85.874 Y126.302 E7.84046
G1 X85.811 Y125.4 E7.88557
G1 X85.813 Y124.814 E7.91481
G1 X85.998 Y121.544 E8.07821
G1 X86.074 Y118.796 E8.21536
G1 X86.072 Y116.077 E8.35101
G1 X85.992 Y113.325 E8.48837
G1 X85.835 Y110.574 E8.62584
G1 X85.803 Y109.773 E8.66583
G1 X85.885 Y108.561 E8.72644
G1 X86.079 Y107.475 E8.78148
G1 X86.246 Y106.849 E8.8138
G1 X86.462 Y106.163 E8.84968
G1 X86.649 Y105.683 E8.87538
G1 X86.941 Y105.021 E8.91148
G1 X87.304 Y104.327 E8.95055
G1 X87.611 Y103.828 E8.97978
G1 X88.092 Y103.135 E9.02187
G1 X88.548 Y102.571 E9.05805
G1 X89.127 Y101.924 E9.10137
G1 X89.885 Y101.226 E9.15278
G0 F3600 X89.636 Y100.913
G1 F2100 X90.065 Y100.573 E9.18009
G1 X90.791 Y100.036 E9.22514
G1 X91.954 Y99.351 E9.29248
G1 X93.159 Y98.803 E9.35852
G1 X94.32 Y98.407 E9.41972
G1 X95.639 Y98.103 E9.48725
G1 X96.868 Y97.946 E9.54906
G1 X97.802 Y97.918 E9.59568
G1 X98.733 Y97.944 E9.64215
G1 X99.465 Y97.996 E9.67876
G1 X101.775 Y98.382 E9.7956
G1 X104.472 Y98.79 E9.93169
G1 X107.167 Y99.119 E10.06714
G1 X109.892 Y99.374 E10.20368
G1 X112.59 Y99.55 E10.33857
G1 X115.342 Y99.651 E10.47596
G1 X118.077 Y99.675 E10.61242
G1 X120.776 Y99.622 E10.7471
G1 X123.494 Y99.491 E10.88286
G1 X126.223 Y99.282 E11.01941
G1 X128.955 Y98.997 E11.15645
G1 X131.643 Y98.636 E11.29176
G1 X135.07 Y98.072 E11.46503
G1 X136.006 Y97.947 E11.51214
G1 X136.99 Y97.918 E11.56125
G1 X137.921 Y97.944 E11.60772
G1 X138.648 Y97.996 E11.64408
G1 X139.811 Y98.189 E11.7029
G1 X141.169 Y98.559 E11.77312
G1 X142.332 Y99.012 E11.83539
G1 X143.443 Y99.568 E11.89737
G1 X144.274 Y100.091 E11.94636
G1 X144.807 Y100.474 E11.9791
G1 X145.601 Y101.111 E12.02989
G1 X146.482 Y101.985 E12.0918
G1 X147.064 Y102.682 E12.1371
G1 X147.497 Y103.274 E12.17369
G1 X147.788 Y103.71 E12.19985
G1 X148.137 Y104.307 E12.23435
G1 X148.424 Y104.857 E12.2653
G1 X148.696 Y105.469 E12.29871
G1 X148.978 Y106.192 E12.33743
G1 X149.276 Y107.257 E12.3926
G1 X149.419 Y107.976 E12.42917
G1 X149.501 Y108.517 E12.45647
G1 X149.561 Y109.184 E12.48988
G1 X149.593 Y109.95 E12.52813
G1 X149.402 Y113.457 E12.70336
G1 X149.326 Y116.215 E12.84101
G1 X149.328 Y118.923 E12.97611
G1 X149.408 Y121.661 E13.11277
G1 X149.568 Y124.469 E13.25309
G1 X149.597 Y125.219 E13.29053
G1 X149.509 Y126.524 E13.35579
G1 X149.333 Y127.491 E13.40482
G1 X149.187 Y128.091 E13.43563
G1 X148.972 Y128.82 E13.47355
G1 X148.608 Y129.757 E13.5237
G1 X148.243 Y130.494 E13.56473
G1 X147.885 Y131.141 E13.60162
G1 X147.567 Y131.626 E13.63056
G1 X147.239 Y132.09 E13.6589
G1 X146.825 Y132.609 E13.69203
G1 X146.155 Y133.362 E13.74231
G1 X145.33 Y134.112 E13.79794
G1 X144.923 Y134.438 E13.82395
G1 X144.429 Y134.803 E13.8546
G1 X143.918 Y135.139 E13.88511
G1 X143.12 Y135.61 E13.93134
G1 X142.216 Y136.034 E13.98115
G1 X141.623 Y136.273 E14.01305
G1 X141.001 Y136.489 E14.0459
G1 X140.397 Y136.662 E14.07725
G1 X139.732 Y136.812 E14.11126
G1 X138.84 Y136.965 E14.15641
G1 X138.131 Y137.054 E14.19206
G1 X137.198 Y137.082 E14.23863
G1 X136.27 Y137.056 E14.28494
G1 X135.566 Y137.012 E14.32013
G1 X133.393 Y136.843 E14.42887
G1 X130.645 Y136.708 E14.56614
G1 X127.94 Y136.65 E14.70112
G1 X125.207 Y136.671 E14.83747
G1 X122.48 Y136.767 E14.97361
G1 X119.206 Y136.985 E15.13731
G1 X118.32 Y137.059 E15.18167
G1 X117.601 Y137.088 E15.21757
G1 X117.018 Y137.077 E15.24666
G1 X116.097 Y137.017 E15.29271
G1 X114.071 Y136.855 E15.39411
G1 X111.346 Y136.717 E15.53023
G1 X108.628 Y136.654 E15.66587
G1 X105.896 Y136.669 E15.80217
G1 X103.187 Y136.76 E15.9374
G1 X100.235 Y136.946 E16.08497
G1 X98.783 Y137.059 E16.15763
G1 X98.139 Y137.085 E16.18978
G1 X97.079 Y137.056 E16.24269
G1 X96.326 Y137.001 E16.28035
G1 X95.423 Y136.843 E16.32609
G1 X94.325 Y136.589 E16.38231
G1 X93.611 Y136.357 E16.41977
G1 X92.632 Y135.975 E16.4722
G1 X91.518 Y135.411 E16.53449
G1 X90.432 Y134.712 E16.59893
G1 X89.699 Y134.135 E16.64547
G1 X89.263 Y133.752 E16.67442
G1 X88.585 Y133.09 E16.7217
G1 X87.872 Y132.243 E16.77693
G1 X87.458 Y131.661 E16.81256
G1 X87.003 Y130.959 E16.8543
G1 X86.444 Y129.887 E16.91462
G1 X86.05 Y128.885 E16.96833
G1 X85.85 Y128.22 E17.00298
G1 X85.721 Y127.734 E17.02806
G1 X85.595 Y127.111 E17.05978
G1 X85.475 Y126.33 E17.0992
G1 X85.411 Y125.399 E17.14575
G1 X85.414 Y124.791 E17.17609
G1 X85.598 Y121.533 E17.33889
G1 X85.674 Y118.785 E17.47604
G1 X85.672 Y116.077 E17.61114
G1 X85.592 Y113.337 E17.7479
G1 X85.435 Y110.59 E17.88517
G1 X85.403 Y109.789 E17.92517
G1 X85.491 Y108.491 E17.99007
G1 X85.685 Y107.405 E18.04511
G1 X85.864 Y106.729 E18.08
G1 X86.08 Y106.043 E18.11588
G1 X86.283 Y105.522 E18.14378
G1 X86.575 Y104.86 E18.17987
G1 X86.963 Y104.117 E18.22169
G1 X87.282 Y103.6 E18.252
G1 X87.763 Y102.907 E18.29409
G1 X88.25 Y102.304 E18.33276
G1 X88.829 Y101.657 E18.37607
G1 X89.636 Y100.913 E18.43083
G0 F3600 X89.365 Y100.619
G1 F2100 X89.827 Y100.251 E18.4603
G1 X90.553 Y99.714 E18.50535
G1 X91.751 Y99.006 E18.57478
G1 X93.03 Y98.424 E18.64488
G1 X94.191 Y98.028 E18.70608
G1 X95.588 Y97.706 E18.77761
G1 X96.856 Y97.546 E18.84137
G1 X97.813 Y97.518 E18.88913
G1 X98.761 Y97.545 E18.93645
G1 X99.531 Y97.601 E18.97497
G1 X101.835 Y97.986 E19.09151
G1 X104.532 Y98.394 E19.22759
G1 X107.216 Y98.722 E19.36249
G1 X109.918 Y98.975 E19.49789
G1 X112.605 Y99.15 E19.63223
G1 X115.357 Y99.251 E19.76962
G1 X118.073 Y99.275 E19.90512
G1 X120.757 Y99.222 E20.03905
G1 X123.475 Y99.091 E20.17481
G1 X126.187 Y98.883 E20.31051
G1 X128.913 Y98.6 E20.44724
G1 X131.578 Y98.241 E20.5814
G1 X135.017 Y97.676 E20.75528
G1 X135.994 Y97.547 E20.80444
G1 X137.001 Y97.518 E20.8547
G1 X137.95 Y97.545 E20.90207
G1 X138.713 Y97.601 E20.94024
G1 X139.876 Y97.794 E20.99905
G1 X141.314 Y98.186 E21.07341
G1 X142.511 Y98.654 E21.13753
G1 X143.656 Y99.229 E21.20145
G1 X144.487 Y99.752 E21.25044
G1 X145.057 Y100.162 E21.28547
G1 X145.883 Y100.827 E21.33838
G1 X146.764 Y101.701 E21.40029
G1 X147.387 Y102.446 E21.44874
G1 X147.83 Y103.052 E21.48619
G1 X148.121 Y103.488 E21.51234
G1 X148.492 Y104.122 E21.54899
G1 X148.79 Y104.695 E21.58121
G1 X149.069 Y105.324 E21.61554
G1 X149.351 Y106.047 E21.65426
G1 X149.661 Y107.149 E21.71137
G1 X149.814 Y107.916 E21.75039
G1 X149.899 Y108.481 E21.7789
G1 X149.961 Y109.167 E21.81326
G1 X149.993 Y109.933 E21.85151
G1 X149.802 Y113.468 E22.02813
G1 X149.726 Y116.226 E22.16578
G1 X149.728 Y118.923 E22.30033
G1 X149.808 Y121.649 E22.43639
G1 X149.968 Y124.454 E22.57656
G1 X149.997 Y125.204 E22.61401
G1 X149.903 Y126.596 E22.68361
G1 X149.722 Y127.586 E22.73382
G1 X149.571 Y128.204 E22.76556
G1 X149.356 Y128.933 E22.80348
G1 X148.981 Y129.902 E22.85532
G1 X148.593 Y130.688 E22.89905
G1 X148.22 Y131.36 E22.93739
G1 X147.894 Y131.857 E22.96705
G1 X147.566 Y132.321 E22.9954
G1 X147.124 Y132.875 E23.03075
G1 X146.454 Y133.628 E23.08104
G1 X145.58 Y134.424 E23.14002
G1 X145.161 Y134.76 E23.16681
G1 X144.667 Y135.125 E23.19746
G1 X144.121 Y135.483 E23.23003
G1 X143.29 Y135.972 E23.27813
G1 X142.366 Y136.405 E23.32904
G1 X141.754 Y136.651 E23.36195
G1 X141.111 Y136.874 E23.3959
G1 X140.507 Y137.047 E23.42725
G1 X139.8 Y137.206 E23.4634
G1 X138.89 Y137.362 E23.50946
G1 X138.143 Y137.454 E23.54701
G1 X137.187 Y137.482 E23.59473
G1 X136.245 Y137.455 E23.64175
G1 X135.535 Y137.411 E23.67724
G1 X133.373 Y137.243 E23.78542
G1 X130.625 Y137.108 E23.92269
G1 X127.934 Y137.05 E24.05697
G1 X125.221 Y137.071 E24.19233
G1 X122.494 Y137.167 E24.32846
G1 X119.239 Y137.384 E24.49122
G1 X118.336 Y137.459 E24.53642
G1 X117.617 Y137.488 E24.57232
G1 X116.992 Y137.476 E24.60351
G1 X116.065 Y137.416 E24.64985
G1 X114.039 Y137.253 E24.75126
G1 X111.337 Y137.117 E24.88623
G1 X108.621 Y137.054 E25.02177
G1 X105.909 Y137.069 E25.15708
G1 X103.2 Y137.16 E25.2923
G1 X100.266 Y137.345 E25.43897
G1 X98.799 Y137.459 E25.51238
G1 X98.155 Y137.485 E25.54454
G1 X97.05 Y137.455 E25.59969
G1 X96.257 Y137.395 E25.63936
G1 X95.333 Y137.233 E25.68616
G1 X94.235 Y136.979 E25.74239
G1 X93.466 Y136.73 E25.78272
G1 X92.451 Y136.332 E25.83711
G1 X91.337 Y135.768 E25.8994
G1 X90.185 Y135.026 E25.96777
G1 X89.435 Y134.436 E26.01538
G1 X88.999 Y134.053 E26.04433
G1 X88.279 Y133.348 E26.0946
G1 X87.546 Y132.475 E26.15147
G1 X87.122 Y131.879 E26.18796
G1 X86.667 Y131.177 E26.2297
G1 X86.089 Y130.072 E26.29192
G1 X85.667 Y129 E26.34939
G1 X85.463 Y128.323 E26.38467
G1 X85.334 Y127.837 E26.40975
G1 X85.2 Y127.172 E26.4436
G1 X85.076 Y126.357 E26.48473
G1 X85.011 Y125.397 E26.53273
G1 X85.015 Y124.768 E26.56411
G1 X85.198 Y121.522 E26.72631
G1 X85.274 Y118.774 E26.86346
G1 X85.272 Y116.077 E26.99802
G1 X85.192 Y113.349 E27.13418
G1 X85.035 Y110.606 E27.27125
G1 X85.003 Y109.805 E27.31124
G1 X85.097 Y108.421 E27.38045
G1 X85.298 Y107.303 E27.43712
G1 X85.482 Y106.609 E27.47294
G1 X85.698 Y105.923 E27.50882
G1 X85.917 Y105.361 E27.53892
G1 X86.22 Y104.675 E27.57633
G1 X86.608 Y103.932 E27.61815
G1 X86.953 Y103.372 E27.65096
G1 X87.434 Y102.679 E27.69305
G1 X87.952 Y102.037 E27.7342
G1 X88.531 Y101.39 E27.77752
G1 X89.365 Y100.619 E27.83419
G1 F1500 E26.83419
;MESH:NO_TXT_Kostka (6).stl
G0 F3600 X88.388 Y108.968
G0 X88.334 Y109.921
G0 X88.388 Y110.874
G0 X88.545 Y111.817
G0 X88.806 Y112.739
G0 X89.167 Y113.631
G0 X89.626 Y114.478
G0 X90.174 Y115.276
G0 X90.807 Y116.015
G0 X91.516 Y116.685
G0 X92.684 Y117.5
G0 X96.292 Y113.098
;TYPE:WALL-OUTER
G1 F1500 E27.83419
G1 F507.4 X96.204 Y113.057 E27.83991
G1 X96.128 Y112.846 E27.85314
G1 X96.129 Y111.685 E27.92164
G1 F506.3 X96.199 Y111.49 E27.93389
G1 X96.268 Y111.448 E27.93866
G1 X96.436 Y111.437 E27.94862
G1 X96.527 Y111.479 E27.95454
G1 X96.603 Y111.685 E27.96752
G1 F507.4 X96.603 Y112.846 E28.03601
G1 X96.525 Y113.06 E28.04945
G1 X96.292 Y113.098 E28.06338
G0 F3600 X96.489 Y113.066
G1 F1500 E27.06338
G0 F3600 X96.34 Y112.842
G0 X103.186 Y112.478
G0 X103.419 Y112.758
G1 F1500 E28.06338
G1 F462.4 X103.141 Y112.758 E28.08138
G1 F463.3 X103.026 Y112.599 E28.09405
G1 F465.1 X103.025 Y111.748 E28.14882
G1 X103.076 Y111.557 E28.16155
G1 X103.155 Y111.477 E28.16878
G1 X103.343 Y111.455 E28.18096
G1 X103.466 Y111.517 E28.18983
G1 X103.539 Y111.745 E28.20524
G1 F464.2 X103.545 Y112.467 E28.25179
G1 F462.4 X103.508 Y112.639 E28.26318
G1 X103.419 Y112.758 E28.2728
G0 F3600 X103.508 Y112.639
G0 X103.518 Y112.588
G1 F1500 E27.2728
G0 F3600 X103.285 Y112.54
G0 X103.268 Y114.299
G0 X103.448 Y114.169
G1 F1500 E28.2728
G1 F496.9 X103.523 Y114.374 E28.28595
G1 X103.527 Y115.017 E28.32469
G1 X103.425 Y115.208 E28.33773
G1 X103.282 Y115.237 E28.34652
G1 X103.139 Y115.208 E28.35531
G1 X103.042 Y115.081 E28.36494
G1 X103.041 Y114.375 E28.40747
G1 X103.116 Y114.169 E28.42068
G1 X103.235 Y114.121 E28.42841
G1 X103.448 Y114.169 E28.44156
G0 F3600 X103.253 Y114.125
G1 F1500 E27.44156
G0 F3600 X103.283 Y114.378
G0 X108.134 Y113.632
G1 F1500 E28.44156
G1 F650.4 X108.133 Y112.507 E28.49334
G1 X108.595 Y112.507 E28.5146
G1 X108.134 Y113.632 E28.57056
G0 F3600 X108.209 Y113.447
G1 F1500 E27.57056
G0 F3600 X115.025 Y113.655
G1 F1500 E28.57056
G1 F646.9 X115.025 Y112.508 E28.62363
G1 X115.487 Y112.508 E28.64501
G1 X115.025 Y113.655 E28.70223
G0 F3600 X115.099 Y113.47
G1 F1500 E27.70223
G0 F3600 X119.896 Y113.863
G0 X119.861 Y115.231
G1 F1500 E28.70223
G1 F504.2 X119.787 Y115.185 E28.7074
G1 X119.716 Y114.99 E28.71972
G1 F506.3 X119.713 Y113.83 E28.7883
G1 F507.4 X119.791 Y113.614 E28.80185
G1 X120.082 Y113.594 E28.81906
G1 X120.159 Y113.688 E28.82623
G1 F506.3 X120.192 Y113.91 E28.8395
G1 F504.2 X120.192 Y114.911 E28.89892
G1 X120.156 Y115.129 E28.91204
G1 X120.092 Y115.212 E28.91826
G1 X119.861 Y115.231 E28.93203
G0 F3600 X120.061 Y115.215
G1 F1500 E27.93203
G0 F3600 X119.932 Y114.997
G0 X119.956 Y122.082
G0 X119.876 Y123.559
