; generated by PrusaSlicer 2.6.0-rc2+win64 on 2023-06-17 at 15:28:14 UTC

; 

; external perimeters extrusion width = 0.42mm
; perimeters extrusion width = 0.44mm
; infill extrusion width = 0.44mm
; solid infill extrusion width = 0.44mm
; top infill extrusion width = 0.40mm
; first layer extrusion width = 0.42mm

;TYPE:Custom
; Ender 3 Custom Start G-code
G92 E0 ; Reset Extruder

M140 S50 ; set bed temp
M190 S50 ; wait for bed temp

G28 ; Home all axes
M104 S205 ; set extruder temp 
BED_MESH_CALIBRATE AREA_START=83.7684,88.5669 AREA_END=143.763,126.207

G1 Z2.0 F3000 ; Move Z Axis up little to prevent scratching of Heat Bed
M109 S205 ; wait for extruder temp
G1 X0.1 Y20 Z0.3 F5000.0 ; Move to start position

G1 X0.1 Y200.0 Z0.3 F1500.0 E15 ; Draw the first line
G1 X0.4 Y200.0 Z0.3 F5000.0 ; Move to side a little
G1 X0.4 Y20 Z0.3 F1500.0 E30 ; Draw the second line
G92 E0 ; Reset Extruder
G1 Z2.0 F3000 ; Move Z Axis up little to prevent scratching of Heat Bed
G1 X5 Y20 Z0.3 F5000.0 ; Move over to prevent blob squish
G21 ; set units to millimeters
G90 ; use absolute coordinates
M83 ; use relative distances for extrusion
; Filament gcode
M107
;LAYER_CHANGE
;Z:0.2
;HEIGHT:0.2
;BEFORE_LAYER_CHANGE
G92 E0
;0.2


G1 E-1.6 F2400
G1 Z.2 F6000
;AFTER_LAYER_CHANGE
;0.2
G1 X87.835 Y91.72
G1 E1.6 F2400
M204 S500
;TYPE:Skirt/Brim
;WIDTH:0.42
G1 F1200
G1 X88.741 Y90.984 E.03257
G1 X89.691 Y90.363 E.03167
G1 X91.364 Y89.549 E.05192
G1 X93.035 Y89.039 E.04875
G1 X94.748 Y88.788 E.04831
G1 X131.685 Y88.755 E1.03074
G1 X132.884 Y88.805 E.03349
G1 X133.84 Y88.938 E.02693
G1 X135.871 Y89.494 E.05876
G1 X137.699 Y90.365 E.05651
G1 X139.104 Y91.346 E.04782
G1 X140.524 Y92.706 E.05487
G1 X141.376 Y93.792 E.03852
G1 X141.851 Y94.545 E.02484
G1 X142.684 Y96.31 E.05446
G1 X143.244 Y98.361 E.05933
G1 X143.425 Y100.338 E.0554
G1 X143.575 Y114.341 E.39078
G1 X143.507 Y115.643 E.03638
G1 X143.3 Y116.869 E.0347
G1 X142.676 Y118.864 E.05833
G1 X142.11 Y120.04 E.03642
G1 X141.629 Y120.827 E.02574
G1 X140.468 Y122.295 E.05223
G1 X139.689 Y123.063 E.03053
G1 X138.815 Y123.771 E.03139
G1 X137.158 Y124.786 E.05422
G1 X135.524 Y125.453 E.04925
G1 X134.297 Y125.78 E.03543
G1 X132.408 Y126.009 E.0531
G1 X95.105 Y126.011 E1.04095
G1 X93.403 Y125.812 E.04782
G1 X92.2 Y125.516 E.03457
G1 X91.187 Y125.153 E.03003
G1 X89.868 Y124.514 E.0409
G1 X88.799 Y123.834 E.03535
G1 X87.85 Y123.075 E.03391
G1 X86.766 Y121.967 E.04326
G1 X86.162 Y121.201 E.02722
G1 X85.33 Y119.864 E.04394
G1 X84.773 Y118.666 E.03687
G1 X84.299 Y117.194 E.04315
G1 X84.013 Y115.508 E.04772
G1 X83.957 Y114.504 E.02806
G1 X83.992 Y99.513 E.41833
G1 X84.267 Y97.721 E.05059
G1 X84.535 Y96.773 E.02749
G1 X84.983 Y95.607 E.03486
G1 X85.464 Y94.662 E.02959
G1 X86.261 Y93.442 E.04067
G1 X86.889 Y92.667 E.02784
G1 X87.793 Y91.763 E.03568
G1 X88.06 Y92.029 F6000
G1 F1200
G1 X88.953 Y91.296 E.03224
G1 X89.871 Y90.694 E.03063
G1 X91.493 Y89.903 E.05036
G1 X93.113 Y89.408 E.04727
G1 X94.767 Y89.165 E.04665
G1 X131.685 Y89.133 E1.03021
G1 X133.763 Y89.307 E.05819
G1 X135.725 Y89.843 E.05676
G1 X137.508 Y90.69 E.05508
G1 X138.862 Y91.634 E.04606
G1 X140.242 Y92.956 E.05333
G1 X141.072 Y94.016 E.03757
G1 X141.528 Y94.739 E.02385
G1 X142.335 Y96.453 E.05287
G1 X142.874 Y98.434 E.05729
G1 X143.048 Y100.342 E.05346
G1 X143.198 Y114.345 E.39078
G1 X143.11 Y115.748 E.03923
G1 X142.902 Y116.941 E.03379
G1 X142.63 Y117.912 E.02814
G1 X141.737 Y119.935 E.06171
G1 X140.982 Y121.092 E.03855
G1 X140.3 Y121.922 E.02998
G1 X139.594 Y122.643 E.02816
G1 X138.603 Y123.459 E.03582
G1 X137.046 Y124.418 E.05103
G1 X135.938 Y124.908 E.03381
G1 X134.335 Y125.388 E.04669
G1 X132.43 Y125.631 E.05359
G1 X95.129 Y125.635 E1.0409
G1 X93.462 Y125.44 E.04684
G1 X92.305 Y125.154 E.03326
G1 X91.338 Y124.808 E.02866
G1 X90.044 Y124.18 E.04014
G1 X89.033 Y123.538 E.03342
G1 X88.169 Y122.853 E.03077
G1 X87.411 Y122.116 E.0295
G1 X86.468 Y120.981 E.04118
G1 X85.658 Y119.679 E.04279
G1 X85.128 Y118.54 E.03506
G1 X84.667 Y117.109 E.04195
G1 X84.387 Y115.462 E.04662
G1 X84.334 Y114.504 E.02677
G1 X84.367 Y99.547 E.41738
G1 X84.697 Y97.549 E.05651
G1 X85.299 Y95.829 E.05085
G1 X85.705 Y95.004 E.02566
G1 X86.539 Y93.701 E.04317
G1 X87.156 Y92.935 E.02745
G1 X88.017 Y92.071 E.03404
G1 X88.284 Y92.338 F6000
G1 F1200
G1 X89.16 Y91.612 E.03175
G1 X90.709 Y90.668 E.05062
G1 X92.33 Y90.01 E.04882
G1 X93.912 Y89.639 E.04534
G1 X95.367 Y89.513 E.04075
G1 X131.685 Y89.51 E1.01347
G1 X133.687 Y89.676 E.05606
G1 X135.603 Y90.199 E.05542
G1 X137.316 Y91.015 E.05295
G1 X138.619 Y91.923 E.04432
G1 X139.989 Y93.24 E.05303
G1 X140.767 Y94.238 E.03531
G1 X141.205 Y94.934 E.02295
G1 X141.986 Y96.596 E.05124
G1 X142.505 Y98.507 E.05526
G1 X142.671 Y100.346 E.05153
G1 X142.821 Y114.349 E.39078
G1 X142.738 Y115.684 E.03733
G1 X142.534 Y116.859 E.03328
G1 X142.264 Y117.82 E.02786
G1 X141.409 Y119.751 E.05893
G1 X140.674 Y120.874 E.03745
G1 X140.017 Y121.673 E.02887
G1 X139.333 Y122.371 E.02727
G1 X138.391 Y123.147 E.03406
G1 X136.867 Y124.086 E.04995
G1 X135.814 Y124.552 E.03213
G1 X134.254 Y125.02 E.04545
G1 X132.412 Y125.254 E.05181
G1 X95.153 Y125.258 E1.03972
G1 X93.479 Y125.06 E.04704
G1 X92.411 Y124.792 E.03073
G1 X91.476 Y124.457 E.02772
G1 X90.219 Y123.847 E.03899
G1 X89.237 Y123.22 E.03251
G1 X88.306 Y122.47 E.03336
G1 X87.325 Y121.46 E.03929
G1 X86.743 Y120.716 E.02636
G1 X85.986 Y119.493 E.04014
G1 X85.483 Y118.414 E.03322
G1 X85.034 Y117.025 E.04074
G1 X84.761 Y115.417 E.04551
G1 X84.743 Y99.58 E.44194
G1 X85.059 Y97.656 E.05441
G1 X85.65 Y95.967 E.04993
G1 X86.04 Y95.177 E.02459
G1 X86.848 Y93.917 E.04177
G1 X87.437 Y93.186 E.0262
G1 X88.242 Y92.38 E.03179
; printing object Shape-Box id:0 copy 0
G1 E-1.12 F2400
;WIPE_START
G1 F4800
G1 X89.017 Y91.732 E-.48
;WIPE_END
G1 X96.784 Y103.082 F6000
G1 E1.6 F2400
;TYPE:External perimeter
;WIDTH:0.941386
G1 F1200
G1 X96.902 Y103.084 E.00785
;WIDTH:0.892578
G1 X97.021 Y103.086 E.00748
;WIDTH:0.843769
G1 X97.14 Y103.088 E.00705
;WIDTH:0.794961
G1 X97.258 Y103.09 E.00657
;WIDTH:0.746152
G1 X97.377 Y103.092 E.00619
;WIDTH:0.697343
G1 X97.495 Y103.094 E.00572
;WIDTH:0.648535
G1 X97.614 Y103.097 E.00534
;WIDTH:0.599726
G1 X97.732 Y103.099 E.00486
;WIDTH:0.550918
G1 X97.851 Y103.101 E.00447
;WIDTH:0.502109
G1 X97.97 Y103.103 E.00404
;WIDTH:0.4551
G1 X97.994 Y103.103 E.00073
G1 X98.354 Y102.002 F6000
;TYPE:Perimeter
;WIDTH:0.419999
G1 F1200
G1 X98.651 Y101.598 E.01399
G1 X98.958 Y101.358 E.01087
G1 X99.385 Y101.177 E.01294
G1 X99.893 Y101.09 E.01438
G1 X100.445 Y101.15 E.01549
G1 X100.868 Y101.312 E.01264
G1 X101.229 Y101.573 E.01243
G1 X101.507 Y101.908 E.01215
G1 X101.702 Y102.289 E.01194
G1 X101.832 Y102.738 E.01304
G1 X101.914 Y103.56 E.02305
G1 X101.895 Y104.159 E.01672
G1 X101.824 Y104.664 E.01423
G1 X101.654 Y105.221 E.01625
G1 X101.415 Y105.644 E.01356
G1 X101.083 Y105.988 E.01334
G1 X100.669 Y106.228 E.01335
G1 X100.218 Y106.349 E.01303
G1 X99.643 Y106.364 E.01605
G1 X99.162 Y106.239 E.01387
G1 X98.844 Y106.084 E.00987
G1 X98.536 Y105.812 E.01147
G1 X98.374 Y106.093 E.00905
G1 X98.173 Y106.218 E.00661
G1 X97.629 Y106.253 E.01521
G1 X96.508 Y106.26 E.03128
G1 X95.373 Y106.212 E.0317
G1 X95.152 Y106.105 E.00685
G1 X94.95 Y105.783 E.01061
G1 X94.952 Y105.526 E.00717
G1 X94.669 Y105.606 E.00821
G1 X94.637 Y105.791 E.00524
G1 X94.45 Y106.121 E.01058
G1 X94.324 Y106.204 E.00421
G1 X94.063 Y106.26 E.00745
G1 X93.235 Y106.26 E.02311
G1 X93.038 Y106.224 E.00559
G1 X92.817 Y106.073 E.00747
G1 X92.696 Y105.862 E.00679
G1 X92.671 Y105.193 E.01868
G1 X92.671 Y101.78 E.09524
G1 X92.722 Y101.547 E.00666
G1 X92.898 Y101.327 E.00786
G1 X93.128 Y101.225 E.00702
G1 X93.952 Y101.215 E.023
G1 X94.414 Y101.246 E.01292
G1 X94.642 Y101.393 E.00757
G1 X94.773 Y101.624 E.00741
;WIDTH:0.420187
G1 X94.795 Y102.25 E.01749
;WIDTH:0.441666
G1 X94.805 Y102.642 E.01157
G1 X94.978 Y102.155 E.01525
;WIDTH:0.419999
G1 X95.243 Y101.748 E.01355
G1 X95.582 Y101.439 E.0128
G1 X95.926 Y101.248 E.01098
G1 X96.372 Y101.125 E.01291
G1 X96.792 Y101.093 E.01175
G1 X97.305 Y101.169 E.01447
G1 X97.775 Y101.374 E.01431
G1 X98.184 Y101.726 E.01506
G1 X98.322 Y101.951 E.00737
G1 E-1.12 F2400
;WIPE_START
G1 F4800
G1 X98.651 Y101.598 E-.22921
G1 X98.958 Y101.358 E-.1851
G1 X99.085 Y101.304 E-.06569
;WIPE_END
G1 X98.645 Y104.489 F6000
G1 E1.6 F2400
;TYPE:External perimeter
;WIDTH:0.569851
G1 F1200
G1 X99.159 Y104.463 E.02007
;WIDTH:0.565961
G1 X99.199 Y104.463 E.00155
;WIDTH:0.569851
G1 X99.076 Y104.399 E.00541
G1 X98.705 Y104.059 E.01962
G1 X98.653 Y103.893 E.00678
;WIDTH:0.52321
G1 X98.602 Y103.727 E.00617
;WIDTH:0.476569
G1 X98.55 Y103.561 E.00558
;WIDTH:0.429928
G1 X98.517 Y103.199 E.01041
;WIDTH:0.45849
G1 X98.495 Y103.168 E.00117
;WIDTH:0.49597
G1 X98.474 Y103.137 E.00126
;WIDTH:0.53345
G1 X98.452 Y103.106 E.00138
G1 X98.475 Y103.077 E.00134
;WIDTH:0.492589
G1 X98.497 Y103.048 E.00121
;WIDTH:0.451728
G1 X98.52 Y103.019 E.00112
;WIDTH:0.419999
G1 X98.575 Y102.466 E.01551
G1 X98.676 Y102.193 E.00812
G1 X98.894 Y101.886 E.01051
G1 X99.13 Y101.693 E.00851
G1 X99.452 Y101.548 E.00985
G1 X99.946 Y101.467 E.01397
G1 X100.325 Y101.508 E.01064
G1 X100.72 Y101.666 E.01187
G1 X100.948 Y101.824 E.00774
G1 X101.175 Y102.087 E.00969
G1 X101.342 Y102.403 E.00997
G1 X101.456 Y102.776 E.01088
G1 X101.539 Y103.598 E.02305
G1 X101.518 Y104.144 E.01525
G1 X101.445 Y104.636 E.01388
G1 X101.269 Y105.144 E.015
G1 X101.132 Y105.395 E.00798
G1 X100.879 Y105.672 E.01047
G1 X100.554 Y105.869 E.01061
G1 X100.209 Y105.972 E.01005
G1 X99.633 Y105.987 E.01608
G1 X99.152 Y105.838 E.01405
G1 X98.76 Y105.495 E.01454
;WIDTH:0.420791
G1 X98.635 Y105.252 E.00764
;WIDTH:0.428537
G1 X98.543 Y104.852 E.01171
;WIDTH:0.475642
G1 X98.577 Y104.731 E.00402
;WIDTH:0.522747
G1 X98.611 Y104.61 E.00446
;WIDTH:0.569851
G1 X98.629 Y104.547 E.00255
G1 X98.165 Y105.728 F6000
;WIDTH:0.419999
G1 F1200
G1 X98.045 Y105.863 E.00504
G1 X96.506 Y105.883 E.04295
G1 X95.429 Y105.835 E.03008
G1 X95.318 Y105.702 E.00483
G1 X95.396 Y105.027 E.01896
;WIDTH:0.395519
G1 X95.401 Y104.896 E.00342
;WIDTH:0.429251
G1 X95.426 Y104.839 E.00178
;WIDTH:0.468641
G1 X95.45 Y104.783 E.00192
;WIDTH:0.508031
G1 X95.475 Y104.726 E.00214
;WIDTH:0.547421
G1 X95.5 Y104.67 E.00229
G1 X95.685 Y104.691 E.00695
;WIDTH:0.497582
G1 X95.871 Y104.712 E.0063
;WIDTH:0.447743
G1 X96.057 Y104.733 E.00561
;WIDTH:0.397904
G1 X96.713 Y104.749 E.01724
;WIDTH:0.37225
G1 X97 Y104.728 E.00701
G1 X97.024 Y104.36 E.00899
G1 X96.723 Y104.426 E.00751
;WIDTH:0.38276
G1 X96.191 Y104.401 E.01339
;WIDTH:0.422123
G1 X96.017 Y104.349 E.0051
;WIDTH:0.461486
G1 X95.842 Y104.296 E.00566
;WIDTH:0.500848
G1 X95.668 Y104.244 E.00615
;WIDTH:0.523667
G1 X95.557 Y104.198 E.00427
G1 X95.416 Y103.968 E.0096
;WIDTH:0.476783
G1 X95.276 Y103.737 E.00867
;WIDTH:0.429899
G1 X95.174 Y103.385 E.0105
;WIDTH:0.419999
G1 X95.152 Y102.99 E.01104
G1 X95.198 Y102.657 E.00938
G1 X95.302 Y102.348 E.0091
G1 X95.506 Y102.018 E.01083
G1 X95.774 Y101.763 E.01032
G1 X96.048 Y101.605 E.00883
G1 X96.415 Y101.5 E.01065
G1 X96.746 Y101.467 E.00928
G1 X97.194 Y101.53 E.01262
G1 X97.604 Y101.717 E.01258
G1 X97.906 Y101.985 E.01127
G1 X98.11 Y102.364 E.01201
G1 X98.167 Y102.876 E.01438
;WIDTH:0.45297
G1 X98.174 Y102.929 E.00162
;WIDTH:0.49321
G1 X98.181 Y102.981 E.00175
;WIDTH:0.53345
G1 X98.187 Y103.034 E.00194
G1 X98.091 Y103.069 E.00371
;WIDTH:0.494275
G1 X97.994 Y103.103 E.00343
;WIDTH:0.487088
G1 X98.087 Y103.15 E.00343
;WIDTH:0.519076
G1 X98.179 Y103.196 E.00362
G1 X98.171 Y103.231 E.00127
;WIDTH:0.484362
G1 X98.163 Y103.266 E.00117
;WIDTH:0.449648
G1 X98.156 Y103.302 E.0011
;WIDTH:0.450736
G1 X98.185 Y103.648 E.01048
;WIDTH:0.486538
G1 X98.215 Y103.995 E.01143
;WIDTH:0.523374
G1 X98.237 Y104.122 E.00458
;WIDTH:0.56021
G1 X98.259 Y104.25 E.00497
G1 X98.226 Y104.44 E.00738
;WIDTH:0.516319
G1 X98.193 Y104.63 E.00676
;WIDTH:0.472428
G1 X98.161 Y104.819 E.00609
;WIDTH:0.428537
G1 X98.165 Y105.416 E.01704
;WIDTH:0.419999
G1 X98.165 Y105.668 E.00703
G1 E-1.12 F2400
;WIPE_START
G1 F4800
G1 X98.045 Y105.863 E-.10876
G1 X97.264 Y105.873 E-.37124
;WIPE_END
G1 X99.94 Y104.683 F6000
G1 E1.6 F2400
;WIDTH:0.753044
G1 F1200
G1 X99.883 Y104.659 E.00325
;WIDTH:0.710163
G1 X99.826 Y104.636 E.00304
;WIDTH:0.667283
G1 X99.769 Y104.613 E.00284
;WIDTH:0.624402
G1 X99.712 Y104.59 E.00264
;WIDTH:0.581521
G1 X99.655 Y104.566 E.00247
;WIDTH:0.53864
G1 X99.598 Y104.543 E.00225
;WIDTH:0.495759
G1 X99.541 Y104.52 E.00206
G1 E-1.12 F2400
;WIPE_START
G1 F4800
G1 X99.598 Y104.543 E-.0292
G1 X99.655 Y104.566 E-.0292
G1 X99.712 Y104.59 E-.02938
G1 X99.769 Y104.613 E-.0292
G1 X99.826 Y104.636 E-.0292
G1 X99.883 Y104.659 E-.0292
G1 X99.94 Y104.683 E-.02938
;WIPE_END
G1 E-.27524 F2400
G1 X102.875 Y108.674 F6000
G1 E1.6 F2400
;TYPE:Perimeter
;WIDTH:0.419999
G1 F1200
G1 X102.924 Y108.62 E.00203
G1 X103.301 Y108.382 E.01244
G1 X103.713 Y108.252 E.01206
G1 X104.129 Y108.219 E.01165
G1 X104.577 Y108.279 E.01261
G1 X105.005 Y108.455 E.01291
G1 X105.353 Y108.727 E.01233
G1 X105.626 Y109.094 E.01276
G1 X105.693 Y109.245 E.00461
G1 X105.849 Y108.957 E.00914
G1 X106.165 Y108.613 E.01303
G1 X106.528 Y108.383 E.01199
G1 X106.94 Y108.252 E.01206
G1 X107.356 Y108.219 E.01165
G1 X107.804 Y108.279 E.01261
G1 X108.232 Y108.455 E.01291
G1 X108.581 Y108.727 E.01235
G1 X108.853 Y109.094 E.01275
G1 X108.92 Y109.245 E.00461
G1 X109.076 Y108.957 E.00914
G1 X109.392 Y108.613 E.01303
G1 X109.755 Y108.383 E.01199
G1 X110.167 Y108.252 E.01206
G1 X110.583 Y108.219 E.01165
G1 X111.031 Y108.279 E.01261
G1 X111.444 Y108.444 E.01241
G1 X111.816 Y108.732 E.01313
G1 X112.069 Y109.052 E.01138
G1 X112.261 Y109.445 E.01221
G1 X112.391 Y109.914 E.01358
G1 X112.477 Y110.828 E.02562
G1 X112.368 Y111.953 E.03154
G1 X112.219 Y112.405 E.01328
G1 X111.99 Y112.805 E.01286
G1 X111.677 Y113.131 E.01261
G1 X111.295 Y113.358 E.0124
G1 X110.898 Y113.476 E.01156
G1 X110.483 Y113.505 E.01161
G1 X110.052 Y113.45 E.01212
G1 X109.623 Y113.282 E.01286
G1 X109.266 Y113.016 E.01242
G1 X108.989 Y112.659 E.01261
G1 X108.916 Y112.505 E.00476
G1 X108.753 Y112.802 E.00945
G1 X108.438 Y113.135 E.01279
G1 X108.074 Y113.356 E.01188
G1 X107.67 Y113.476 E.01176
G1 X107.256 Y113.505 E.01158
G1 X106.825 Y113.45 E.01212
G1 X106.396 Y113.282 E.01286
G1 X106.039 Y113.016 E.01242
G1 X105.761 Y112.659 E.01263
G1 X105.689 Y112.505 E.00474
G1 X105.526 Y112.802 E.00945
G1 X105.211 Y113.135 E.01279
G1 X104.847 Y113.356 E.01188
G1 X104.443 Y113.476 E.01176
G1 X104.028 Y113.505 E.01161
G1 X103.598 Y113.45 E.0121
G1 X103.188 Y113.295 E.01223
G1 X102.829 Y113.04 E.01229
G1 X102.512 Y112.64 E.01424
G1 X102.347 Y112.317 E.01012
G1 X102.205 Y111.822 E.01437
G1 X102.14 Y111.376 E.01258
G1 X102.14 Y110.406 E.02707
G1 X102.215 Y109.894 E.01444
G1 X102.345 Y109.454 E.0128
G1 X102.581 Y108.996 E.01438
G1 X102.834 Y108.718 E.01049
G1 X103.141 Y108.928 F6000
;TYPE:External perimeter
G1 F1200
G1 X103.428 Y108.737 E.00962
G1 X103.853 Y108.616 E.01233
G1 X104.092 Y108.594 E.0067
G1 X104.452 Y108.635 E.01011
G1 X104.789 Y108.765 E.01008
G1 X105.062 Y108.966 E.00946
G1 X105.281 Y109.247 E.00994
;WIDTH:0.422658
G1 X105.429 Y109.592 E.01055
;WIDTH:0.433771
G1 X105.494 Y109.889 E.00879
G1 X105.508 Y110.38 E.01421
;WIDTH:0.401587
G1 X105.523 Y110.871 E.01304
;WIDTH:0.40186
G1 X105.507 Y111.374 E.01337
;WIDTH:0.434316
G1 X105.491 Y111.877 E.01458
G1 X105.406 Y112.217 E.01015
;WIDTH:0.419999
G1 X105.238 Y112.559 E.01063
G1 X105.001 Y112.822 E.00988
G1 X104.727 Y112.998 E.00909
G1 X104.407 Y113.1 E.00937
G1 X104.064 Y113.13 E.00961
G1 X103.716 Y113.092 E.00977
G1 X103.393 Y112.979 E.00955
G1 X103.109 Y112.787 E.00957
G1 X102.843 Y112.459 E.01178
G1 X102.707 Y112.202 E.00811
G1 X102.565 Y111.685 E.01496
G1 X102.517 Y111.164 E.0146
G1 X102.517 Y110.406 E.02115
G1 X102.593 Y109.927 E.01353
G1 X102.705 Y109.566 E.01055
G1 X102.954 Y109.136 E.01387
G1 X103.101 Y108.973 E.00613
G1 X103.076 Y108.59 F6000
G1 E-1.12 F2400
;WIPE_START
G1 F4800
G1 X103.428 Y108.737 E-.19155
G1 X103.853 Y108.616 E-.2099
G1 X104.018 Y108.601 E-.07855
;WIPE_END
G1 X103.475 Y106.204 F6000
G1 E1.6 F2400
;TYPE:Perimeter
G1 F1200
