; generated by PrusaSlicer 2.6.0-rc2+MacOS-x64 on 2023-06-14 at 23:40:35 UTC

; 

; external perimeters extrusion width = 0.42mm
; perimeters extrusion width = 0.44mm
; infill extrusion width = 0.44mm
; solid infill extrusion width = 0.44mm
; top infill extrusion width = 0.40mm
; first layer extrusion width = 0.42mm

M201 X500 Y500 Z100 E5000 ; sets maximum accelerations, mm/sec^2
M203 X500 Y500 Z10 E60 ; sets maximum feedrates, mm / sec
M204 S500 T1000 ; sets acceleration (S) and retract acceleration (R), mm/sec^2
M205 X8.00 Y8.00 Z0.40 E5.00 ; sets the jerk limits, mm/sec
M205 S0 T0 ; sets the minimum extruding and travel feed rate, mm/sec
;TYPE:Custom
; Ender 3 Custom Start G-code
G92 E0 ; Reset Extruder

M140 S50 ; set bed temp
M190 S50 ; wait for bed temp

G28 ; Home all axes
M104 S205 ; set extruder temp 
BED_MESH_CALIBRATE AREA_START=86.1957,95.5757 AREA_END=147.434,134.461

G1 Z2.0 F3000 ; Move Z Axis up little to prevent scratching of Heat Bed
M109 S205 ; wait for extruder temp
G1 X0.1 Y20 Z0.3 F5000.0 ; Move to start position

G1 X0.1 Y200.0 Z0.3 F1500.0 E15 ; Draw the first line
G1 X0.4 Y200.0 Z0.3 F5000.0 ; Move to side a little
G1 X0.4 Y20 Z0.3 F1500.0 E30 ; Draw the second line
G92 E0 ; Reset Extruder
G1 Z2.0 F3000 ; Move Z Axis up little to prevent scratching of Heat Bed
G1 X5 Y20 Z0.3 F5000.0 ; Move over to prevent blob squish
G21 ; set units to millimeters
G90 ; use absolute coordinates
M83 ; use relative distances for extrusion
; Filament gcode
M107
;LAYER_CHANGE
;Z:0.2
;HEIGHT:0.2
;BEFORE_LAYER_CHANGE
G92 E0
;0.2


G1 E-1.6 F2400
G1 Z.2 F6000
;AFTER_LAYER_CHANGE
;0.2
G1 X90.49 Y98.867
G1 E1.6 F2400
M204 S500
;TYPE:Skirt/Brim
;WIDTH:0.42
G1 F1200
G1 X91.419 Y98.119 E.03328
G1 X93.049 Y97.116 E.05341
G1 X94.202 Y96.597 E.03528
G1 X95.971 Y96.06 E.05159
G1 X97.748 Y95.799 E.05012
G1 X134.813 Y95.766 E1.03431
G1 X135.986 Y95.818 E.03277
G1 X137.018 Y95.961 E.02907
G1 X139.14 Y96.544 E.06141
G1 X140.987 Y97.416 E.057
G1 X142.57 Y98.511 E.05371
G1 X144.119 Y100.016 E.06027
G1 X144.972 Y101.124 E.03902
G1 X145.48 Y101.939 E.0268
G1 X146.389 Y103.916 E.06072
G1 X146.905 Y105.866 E.05629
G1 X147.095 Y107.924 E.05767
G1 X147.245 Y121.924 E.3907
G1 X147.177 Y123.306 E.03861
G1 X147.042 Y124.237 E.02625
G1 X146.796 Y125.304 E.03056
G1 X146.382 Y126.534 E.03622
G1 X145.975 Y127.45 E.02797
G1 X145.273 Y128.686 E.03967
G1 X143.946 Y130.383 E.06011
G1 X143.266 Y131.062 E.02682
G1 X142.202 Y131.927 E.03827
G1 X140.479 Y132.98 E.05635
G1 X138.771 Y133.676 E.05147
G1 X137.401 Y134.035 E.03952
G1 X135.511 Y134.264 E.05313
G1 X98.086 Y134.263 E1.04436
G1 X96.352 Y134.059 E.04872
G1 X95.139 Y133.765 E.03483
G1 X93.985 Y133.356 E.03417
G1 X92.633 Y132.701 E.04192
G1 X91.542 Y132.013 E.03599
G1 X90.485 Y131.171 E.03771
G1 X89.707 Y130.407 E.03043
G1 X88.719 Y129.214 E.04323
G1 X87.791 Y127.721 E.04905
G1 X87.235 Y126.504 E.03734
G1 X86.721 Y124.863 E.04799
G1 X86.433 Y123.098 E.0499
G1 X86.417 Y107.111 E.44612
G1 X86.533 Y106.111 E.02809
G1 X86.796 Y104.875 E.03526
G1 X87.248 Y103.506 E.04023
G1 X87.882 Y102.152 E.04172
G1 X88.401 Y101.288 E.02813
G1 X89.391 Y99.98 E.04578
G1 X90.448 Y98.91 E.04197
G1 X90.716 Y99.174 F6000
G1 F1200
G1 X91.633 Y98.43 E.03295
G1 X92.62 Y97.781 E.03296
G1 X94.331 Y96.951 E.05307
G1 X96.048 Y96.429 E.05008
G1 X97.768 Y96.176 E.04851
G1 X134.791 Y96.142 E1.03314
G1 X135.94 Y96.192 E.03209
G1 X136.942 Y96.33 E.02823
G1 X139.015 Y96.9 E.05999
G1 X140.873 Y97.786 E.05744
G1 X142.326 Y98.799 E.04943
G1 X143.828 Y100.256 E.05839
G1 X144.662 Y101.339 E.03814
G1 X145.154 Y102.129 E.02597
G1 X146.032 Y104.038 E.05864
G1 X146.535 Y105.94 E.0549
G1 X146.718 Y107.928 E.05571
G1 X146.868 Y121.928 E.3907
G1 X146.801 Y123.273 E.03758
G1 X146.67 Y124.179 E.02555
G1 X146.434 Y125.197 E.02916
G1 X146.029 Y126.403 E.0355
G1 X145.641 Y127.275 E.02663
G1 X144.956 Y128.482 E.03873
G1 X143.679 Y130.117 E.05789
G1 X143.009 Y130.786 E.02642
G1 X141.99 Y131.616 E.03667
G1 X140.306 Y132.644 E.05506
G1 X138.646 Y133.321 E.05003
G1 X137.338 Y133.663 E.03773
G1 X135.498 Y133.887 E.05172
G1 X98.135 Y133.888 E1.04263
G1 X96.41 Y133.687 E.04846
G1 X95.24 Y133.401 E.03361
G1 X94.136 Y133.01 E.03268
G1 X92.809 Y132.368 E.04114
G1 X91.756 Y131.703 E.03475
G1 X90.736 Y130.889 E.03642
G1 X89.987 Y130.155 E.02926
G1 X89.023 Y128.992 E.04215
G1 X88.124 Y127.543 E.04758
G1 X87.59 Y126.378 E.03576
G1 X87.085 Y124.767 E.04711
G1 X86.808 Y123.064 E.04815
G1 X86.793 Y107.138 E.44442
G1 X86.939 Y105.981 E.03254
G1 X87.345 Y104.347 E.04698
G1 X87.675 Y103.455 E.02654
G1 X88.217 Y102.326 E.03495
G1 X89.075 Y100.979 E.04457
G1 X89.677 Y100.226 E.0269
G1 X90.674 Y99.217 E.03958
; printing object Shape-Box id:0 copy 0
G1 E-1.12 F2400
;WIPE_START
G1 F4800
G1 X91.455 Y98.576 E-.48
;WIPE_END
G1 X131.311 Y115.862 F6000
G1 E1.6 F2400
;TYPE:Perimeter
;WIDTH:0.419999
G1 F1200
G1 X131.458 Y115.713 E.00584
G1 X131.758 Y115.626 E.00872
G1 X132.733 Y115.619 E.02721
G1 X133.022 Y115.697 E.00835
G1 X133.188 Y115.844 E.00619
G1 X133.275 Y116.011 E.00525
G1 X133.303 Y116.424 E.01155
G1 X133.843 Y116.427 E.01507
G1 X134.501 Y116.48 E.01842
;WIDTH:0.434923
G1 X134.859 Y116.78 E.01355
;WIDTH:0.461474
G1 X134.926 Y117.017 E.00763
G1 X134.937 Y116.763 E.00787
;WIDTH:0.434923
G1 X135.132 Y116.338 E.01356
;WIDTH:0.419999
G1 X135.357 Y116.214 E.00717
G1 X136.45 Y116.193 E.03051
G1 X136.718 Y116.261 E.00772
G1 X136.864 Y116.374 E.00515
G1 X137 Y116.627 E.00802
G1 X137.015 Y117.229 E.0168
G1 X137.622 Y117.244 E.01694
G1 X137.824 Y117.336 E.00619
G1 X137.99 Y117.523 E.00698
G1 X138.06 Y117.795 E.00784
G1 X138.06 Y118.753 E.02673
G1 X137.99 Y119.026 E.00786
G1 X137.784 Y119.239 E.00827
G1 X137.486 Y119.319 E.00861
G1 X137.015 Y119.319 E.01314
G1 X136.985 Y119.972 E.01824
G1 X136.826 Y120.211 E.00801
G1 X136.593 Y120.337 E.00739
G1 X135.439 Y120.35 E.0322
G1 X135.218 Y120.273 E.00653
G1 X135.061 Y120.133 E.00587
G1 X134.945 Y119.789 E.01013
G1 X134.945 Y119.286 E.01404
G1 X134.458 Y119.205 E.01378
G1 X134.195 Y118.95 E.01022
G1 X133.85 Y119.566 E.0197
G1 X133.05 Y120.749 E.03985
G1 X132.83 Y120.939 E.00811
G1 X132.581 Y120.997 E.00713
G1 X131.754 Y120.996 E.02308
G1 X131.524 Y120.946 E.00657
G1 X131.357 Y120.831 E.00566
G1 X131.286 Y120.746 E.00309
G1 X131.187 Y120.419 E.00953
G1 X130.774 Y120.748 E.01473
G1 X130.292 Y120.935 E.01443
G1 X129.789 Y120.994 E.01413
G1 X129.253 Y120.95 E.01501
G1 X128.757 Y120.779 E.01464
G1 X128.325 Y120.461 E.01497
G1 X128.024 Y120.041 E.01442
G1 X127.877 Y119.619 E.01247
G1 X127.883 Y118.99 E.01755
G1 X127.953 Y118.732 E.00746
G1 X128.083 Y118.496 E.00752
G1 X127.812 Y118.04 E.0148
G1 X127.72 Y117.466 E.01622
G1 X127.778 Y116.989 E.01341
G1 X127.913 Y116.608 E.01128
G1 X128.069 Y116.337 E.00873
G1 X128.359 Y116.022 E.01195
G1 X128.634 Y115.82 E.00952
G1 X129.032 Y115.65 E.01208
G1 X129.582 Y115.557 E.01557
G1 X130.18 Y115.618 E.01677
G1 X130.523 Y115.714 E.00994
G1 X130.95 Y115.974 E.01395
G1 X131.195 Y116.226 E.00981
G1 X131.275 Y115.908 E.00915
G1 X131.599 Y116.093 F6000
;TYPE:External perimeter
G1 F1200
G1 X131.743 Y116.004 E.00472
G1 X132.588 Y115.997 E.02358
G1 X132.832 Y116.022 E.00684
G1 X132.916 Y116.127 E.00375
G1 X132.926 Y116.8 E.01878
G1 X133.841 Y116.804 E.02553
G1 X134.35 Y116.834 E.01423
G1 X134.51 Y116.942 E.00539
G1 X134.458 Y117.754 E.02271
G1 X134.563 Y117.706 E.00322
G1 X134.967 Y117.699 E.01128
G1 X135.328 Y117.649 E.01017
G1 X135.322 Y116.76 E.02481
G1 X135.418 Y116.594 E.00535
G1 X136.45 Y116.57 E.02881
G1 X136.588 Y116.63 E.0042
G1 X136.638 Y116.759 E.00386
G1 X136.638 Y117.606 E.02364
G1 X137.494 Y117.606 E.02389
G1 X137.628 Y117.662 E.00405
G1 X137.683 Y117.795 E.00402
G1 X137.683 Y118.753 E.02673
G1 X137.625 Y118.889 E.00413
G1 X137.486 Y118.942 E.00415
G1 X136.638 Y118.942 E.02366
G1 X136.638 Y119.791 E.02369
G1 X136.565 Y119.939 E.00461
G1 X136.42 Y119.978 E.00419
G1 X135.509 Y119.978 E.02542
G1 X135.361 Y119.904 E.00462
G1 X135.322 Y119.764 E.00406
G1 X135.323 Y118.927 E.02336
G1 X134.896 Y118.904 E.01193
G1 X134.528 Y118.835 E.01045
G1 X134.375 Y118.649 E.00672
G1 X134.375 Y117.967 E.01903
G1 X133.947 Y118.619 E.02176
G1 X133.521 Y119.382 E.02439
G1 X132.738 Y120.537 E.03894
G1 X132.606 Y120.618 E.00432
G1 X131.678 Y120.602 E.0259
G1 X131.599 Y120.535 E.00289
G1 X131.57 Y120.274 E.00733
;WIDTH:0.435198
G1 X131.583 Y119.16 E.03234
;WIDTH:0.45774
G1 X131.56 Y118.893 E.00823
;WIDTH:0.496609
G1 X131.538 Y118.626 E.00899
;WIDTH:0.528163
G1 X131.538 Y118.35 E.00991
;WIDTH:0.559717
G1 X131.538 Y118.074 E.01056
G1 X131.323 Y118.056 E.00825
G1 X131.274 Y117.987 E.00324
;WIDTH:0.513139
G1 X131.225 Y117.918 E.00294
;WIDTH:0.46656
G1 X131.176 Y117.849 E.00265
G1 X131.124 Y118 E.00501
;WIDTH:0.513139
G1 X131.072 Y118.151 E.00556
;WIDTH:0.559717
G1 X131.019 Y118.302 E.00612
G1 X130.925 Y118.408 E.00542
G1 X131.032 Y118.522 E.00598
G1 X131.084 Y118.671 E.00604
;WIDTH:0.517033
G1 X131.136 Y118.82 E.00554
;WIDTH:0.474349
G1 X131.188 Y118.969 E.00504
;WIDTH:0.432374
G1 X131.187 Y119.637 E.01925
G1 X130.947 Y120.111 E.01531
;WIDTH:0.419999
G1 X130.573 Y120.427 E.01366
G1 X130.143 Y120.578 E.01272
G1 X129.71 Y120.619 E.01214
G1 X129.244 Y120.563 E.0131
G1 X128.842 Y120.398 E.01213
G1 X128.525 Y120.125 E.01167
G1 X128.321 Y119.792 E.0109
G1 X128.245 Y119.513 E.00807
G1 X128.26 Y119 E.01432
G1 X128.551 Y118.443 E.01754
G1 X128.443 Y118.361 E.00378
G1 X128.161 Y117.898 E.01513
G1 X128.098 Y117.466 E.01218
G1 X128.141 Y117.09 E.01056
G1 X128.247 Y116.783 E.00906
G1 X128.358 Y116.578 E.00651
G1 X128.593 Y116.317 E.0098
G1 X128.801 Y116.158 E.00731
G1 X129.095 Y116.022 E.00904
G1 X129.645 Y115.929 E.01557
G1 X130.257 Y116.011 E.01723
G1 X130.753 Y116.296 E.01596
G1 X131.074 Y116.77 E.01597
G1 X131.183 Y117.089 E.00941
G1 X131.32 Y116.904 E.00642
G1 X131.612 Y116.88 E.00818
G1 X131.572 Y116.203 E.01892
G1 X131.585 Y116.151 E.0015
G1 X131.537 Y115.936 F6000
G1 X131.183 Y117.792
;WIDTH:0.396896
G1 F1200
G1 X131.19 Y117.147 E.0169
G1 E-1.12 F2400
;WIPE_START
G1 F4800
G1 X131.183 Y117.792 E-.30639
;WIPE_END
G1 E-.17361 F2400
G1 X134.909 Y117.287 F6000
G1 E1.6 F2400
;TYPE:Perimeter
;WIDTH:0.499224
G1 F1200
G1 X134.926 Y117.017 E.00914
G1 E-1.12 F2400
;WIPE_START
G1 F4800
G1 X134.909 Y117.287 E-.1285
;WIPE_END
G1 E-.3515 F2400
G1 X131.183 Y111.107 F6000
G1 E1.6 F2400
;TYPE:External perimeter
;WIDTH:0.396894
G1 F1200
G1 X131.19 Y110.462 E.0169
G1 X131.322 Y109.173 F6000
;TYPE:Perimeter
;WIDTH:0.419999
G1 F1200
G1 X131.545 Y108.983 E.00818
G1 X131.756 Y108.941 E.006
G1 X132.733 Y108.934 E.02726
G1 X132.998 Y108.998 E.00761
G1 X133.182 Y109.151 E.00668
G1 X133.275 Y109.326 E.00553
G1 X133.303 Y109.739 E.01155
G1 X133.843 Y109.742 E.01507
G1 X134.493 Y109.792 E.01819
;WIDTH:0.434923
G1 X134.859 Y110.095 E.01378
;WIDTH:0.461474
G1 X134.926 Y110.332 E.00763
G1 X134.937 Y110.078 E.00787
;WIDTH:0.434923
G1 X135.139 Y109.647 E.01381
;WIDTH:0.419999
G1 X135.4 Y109.519 E.00811
G1 X136.517 Y109.512 E.03117
G1 X136.765 Y109.604 E.00738
G1 X136.955 Y109.82 E.00803
G1 X137.015 Y110.074 E.00728
G1 X137.015 Y110.544 E.01312
G1 X137.669 Y110.572 E.01827
G1 X137.873 Y110.69 E.00658
G1 X138.023 Y110.91 E.00743
G1 X138.06 Y111.3 E.01093
G1 X138.06 Y112.068 E.02143
G1 X138.012 Y112.295 E.00647
G1 X137.82 Y112.53 E.00847
G1 X137.624 Y112.618 E.006
G1 X137.015 Y112.634 E.017
G1 X136.999 Y113.239 E.01689
G1 X136.864 Y113.489 E.00793
G1 X136.597 Y113.65 E.0087
G1 X135.51 Y113.67 E.03034
G1 X135.218 Y113.589 E.00846
G1 X135.052 Y113.436 E.0063
G1 X134.945 Y113.103 E.00976
G1 X134.945 Y112.601 E.01401
G1 X134.458 Y112.52 E.01378
G1 X134.195 Y112.265 E.01022
G1 X133.85 Y112.881 E.0197
G1 X133.05 Y114.064 E.03985
G1 X132.927 Y114.194 E.00499
G1 X132.581 Y114.312 E.0102
G1 X131.753 Y114.311 E.02311
G1 X131.455 Y114.225 E.00866
G1 X131.286 Y114.061 E.00657
G1 X131.187 Y113.734 E.00953
G1 X130.774 Y114.063 E.01473
G1 X130.269 Y114.255 E.01508
G1 X129.766 Y114.311 E.01412
G1 X129.253 Y114.265 E.01437
G1 X128.757 Y114.094 E.01464
G1 X128.325 Y113.776 E.01497
G1 X128.024 Y113.356 E.01442
G1 X127.877 Y112.934 E.01247
G1 X127.883 Y112.305 E.01755
G1 X127.953 Y112.047 E.00746
G1 X128.083 Y111.811 E.00752
G1 X127.812 Y111.355 E.0148
G1 X127.786 Y111.275 E.00235
G1 X127.722 Y110.751 E.01473
G1 X127.778 Y110.304 E.01257
G1 X127.913 Y109.923 E.01128
G1 X128.069 Y109.652 E.00873
G1 X128.322 Y109.366 E.01066
G1 X128.634 Y109.134 E.01085
G1 X129.032 Y108.965 E.01207
G1 X129.582 Y108.872 E.01557
G1 X130.103 Y108.922 E.01461
G1 X130.44 Y108.988 E.00958
G1 X130.95 Y109.289 E.01653
G1 X131.195 Y109.541 E.00981
G1 X131.278 Y109.213 E.00944
G1 X131.599 Y109.408 F6000
;TYPE:External perimeter
G1 F1200
G1 X131.745 Y109.319 E.00477
G1 X132.767 Y109.314 E.02852
G1 X132.885 Y109.384 E.00383
G1 X132.926 Y109.5 E.00343
G1 X132.926 Y110.114 E.01713
G1 X133.841 Y110.119 E.02553
G1 X134.346 Y110.148 E.01412
G1 X134.51 Y110.257 E.0055
G1 X134.458 Y111.069 E.02271
G1 X134.563 Y111.021 E.00322
G1 X134.967 Y111.014 E.01128
G1 X135.328 Y110.964 E.01017
G1 X135.322 Y110.075 E.02481
G1 X135.42 Y109.908 E.0054
G1 X136.014 Y109.885 E.01659
G1 X136.516 Y109.897 E.01401
G1 X136.628 Y110.014 E.00452
G1 X136.638 Y110.921 E.02531
G1 X137.494 Y110.921 E.02389
G1 X137.637 Y110.987 E.00439
G1 X137.683 Y111.11 E.00366
G1 X137.683 Y112.068 E.02673
G1 X137.631 Y112.198 E.00391
G1 X137.486 Y112.257 E.00437
G1 X136.638 Y112.257 E.02366
G1 X136.638 Y113.106 E.02369
G1 X136.588 Y113.233 E.00381
G1 X136.45 Y113.293 E.0042
G1 X135.51 Y113.293 E.02623
G1 X135.358 Y113.215 E.00477
G1 X135.322 Y113.079 E.00393
G1 X135.323 Y112.242 E.02336
G1 X134.896 Y112.219 E.01193
G1 X134.528 Y112.15 E.01045
G1 X134.375 Y111.964 E.00672
G1 X134.375 Y111.282 E.01903
G1 X133.947 Y111.934 E.02176
G1 X133.521 Y112.697 E.02439
G1 X132.738 Y113.852 E.03894
G1 X132.582 Y113.935 E.00493
G1 X131.755 Y113.933 E.02308
G1 X131.622 Y113.879 E.00401
G1 X131.567 Y113.741 E.00415
;WIDTH:0.430604
G1 X131.583 Y112.475 E.03632
;WIDTH:0.457739
G1 X131.56 Y112.208 E.00823
;WIDTH:0.496608
G1 X131.538 Y111.941 E.00899
;WIDTH:0.528163
G1 X131.538 Y111.665 E.00991
;WIDTH:0.559717
G1 X131.538 Y111.389 E.01056
G1 X131.323 Y111.371 E.00825
G1 X131.274 Y111.302 E.00324
;WIDTH:0.513138
G1 X131.225 Y111.233 E.00294
;WIDTH:0.466559
G1 X131.176 Y111.163 E.00268
G1 X131.124 Y111.315 E.00504
;WIDTH:0.513138
G1 X131.072 Y111.466 E.00556
;WIDTH:0.559717
G1 X131.019 Y111.617 E.00612
G1 X130.925 Y111.723 E.00542
G1 X131.032 Y111.837 E.00598
G1 X131.084 Y111.986 E.00604
;WIDTH:0.517033
G1 X131.136 Y112.135 E.00554
;WIDTH:0.474349
G1 X131.188 Y112.284 E.00504
;WIDTH:0.432373
G1 X131.187 Y112.952 E.01925
G1 X130.947 Y113.426 E.01531
;WIDTH:0.419999
G1 X130.573 Y113.742 E.01366
G1 X130.17 Y113.89 E.01198
G1 X129.582 Y113.92 E.01643
G1 X129.244 Y113.878 E.0095
G1 X128.799 Y113.678 E.01361
G1 X128.525 Y113.44 E.01013
G1 X128.321 Y113.107 E.0109
G1 X128.245 Y112.828 E.00807
G1 X128.26 Y112.315 E.01432
G1 X128.551 Y111.758 E.01754
G1 X128.443 Y111.676 E.00378
G1 X128.153 Y111.186 E.01589
G1 X128.098 Y110.781 E.01141
G1 X128.141 Y110.405 E.01056
G1 X128.247 Y110.098 E.00906
G1 X128.358 Y109.893 E.00651
G1 X128.557 Y109.661 E.00853
G1 X128.801 Y109.473 E.0086
G1 X129.095 Y109.337 E.00904
G1 X129.645 Y109.244 E.01557
G1 X130.257 Y109.326 E.01723
G1 X130.753 Y109.611 E.01596
G1 X131.074 Y110.085 E.01597
G1 X131.183 Y110.404 E.00941
G1 X131.32 Y110.219 E.00642
G1 X131.612 Y110.195 E.00818
G1 X131.572 Y109.518 E.01892
G1 X131.585 Y109.466 E.0015
G1 X131.537 Y109.249 F6000
G1 E-1.12 F2400
;WIPE_START
G1 F4800
G1 X131.745 Y109.319 E-.10321
G1 X132.538 Y109.315 E-.37679
;WIPE_END
G1 X122.42 Y110.798 F6000
G1 E1.6 F2400
;WIDTH:0.408315
G1 F1200
G1 X122.116 Y110.77 E.00826
;WIDTH:0.411204
G1 X121.729 Y110.853 E.01079
G1 X121.83 Y110.565 E.00832
G1 X121.92 Y110.452 E.00394
G1 X122.074 Y110.393 E.00449
G1 X122.237 Y110.47 E.00491
;WIDTH:0.41039
G1 X122.329 Y110.691 E.00651
;WIDTH:0.396741
G1 X122.381 Y110.753 E.00212
G1 E-1.12 F2400
;WIPE_START
G1 F4800
G1 X122.116 Y110.77 E-.12613
G1 X121.729 Y110.853 E-.18801
G1 X121.83 Y110.565 E-.14497
G1 X121.857 Y110.531 E-.02089
