; generated by PrusaSlicer 2.6.0-alpha4+MacOS-x64 on 2023-03-17 at 22:03:58 UTC

; 

; external perimeters extrusion width = 0.40mm
; perimeters extrusion width = 0.40mm
; infill extrusion width = 0.40mm
; solid infill extrusion width = 0.40mm
; top infill extrusion width = 0.40mm
; support material extrusion width = 0.36mm
; first layer extrusion width = 0.40mm

M107
;TYPE:Custom
; Ender 3 Custom Start G-code
G92 E0 ; Reset Extruder

M140 S80 ; set bed temp
M190 S80 ; wait for bed temp

G28 ; Home all axes
M104 S240 ; set extruder temp 
BED_MESH_CALIBRATE AREA_START=81.5149,91.577 AREA_END=139.135,128.175

G1 Z2.0 F3000 ; Move Z Axis up little to prevent scratching of Heat Bed
M109 S240 ; wait for extruder temp
G1 X0.1 Y20 Z0.3 F5000.0 ; Move to start position

G1 X0.1 Y200.0 Z0.3 F1500.0 E15 ; Draw the first line
G1 X0.4 Y200.0 Z0.3 F5000.0 ; Move to side a little
G1 X0.4 Y20 Z0.3 F1500.0 E30 ; Draw the second line
G92 E0 ; Reset Extruder
G1 Z2.0 F3000 ; Move Z Axis up little to prevent scratching of Heat Bed
G1 X5 Y20 Z0.3 F5000.0 ; Move over to prevent blob squish
G21 ; set units to millimeters
G90 ; use absolute coordinates
M83 ; use relative distances for extrusion
; Filament gcode
M107
;LAYER_CHANGE
;Z:0.12
;HEIGHT:0.12
;BEFORE_LAYER_CHANGE
G92 E0
;0.12


G1 E-5 F3600
G1 Z.12 F6000
;AFTER_LAYER_CHANGE
;0.12
G1 X85.502 Y94.805
G1 E5 F2400
M204 S500
;TYPE:Skirt/Brim
;WIDTH:0.4
G1 F1200
G1 X86.448 Y94.04 E.02272
G1 X87.468 Y93.377 E.02271
G1 X88.938 Y92.657 E.03056
G1 X90.859 Y92.056 E.03758
G1 X92.472 Y91.81 E.03047
G1 X127.378 Y91.769 E.65174
G1 X129.38 Y91.972 E.03757
G1 X130.551 Y92.252 E.02248
G1 X131.693 Y92.65 E.02258
G1 X133.181 Y93.377 E.03092
G1 X134.824 Y94.525 E.03742
G1 X135.714 Y95.349 E.02265
G1 X136.517 Y96.268 E.02279
G1 X137.443 Y97.64 E.03091
G1 X138.278 Y99.444 E.03712
G1 X138.725 Y101.049 E.03111
G1 X138.899 Y102.255 E.02275
G1 X138.947 Y103.249 E.01858
G1 X138.947 Y116.503 E.24747
G1 X138.899 Y117.497 E.01858
G1 X138.725 Y118.703 E.02275
G1 X138.278 Y120.308 E.03111
G1 X137.807 Y121.425 E.02263
G1 X137.215 Y122.493 E.0228
G1 X136.013 Y124.083 E.03722
G1 X135.156 Y124.938 E.0226
G1 X134.217 Y125.7 E.02258
G1 X132.828 Y126.571 E.03061
G1 X131.708 Y127.097 E.0231
G1 X129.79 Y127.696 E.03752
G1 X128.178 Y127.942 E.03045
G1 X93.272 Y127.983 E.65174
G1 X92.061 Y127.9 E.02266
G1 X90.859 Y127.696 E.02276
G1 X88.941 Y127.097 E.03752
G1 X87.85 Y126.586 E.02249
G1 X86.796 Y125.955 E.02294
G1 X85.825 Y125.227 E.02266
G1 X84.935 Y124.402 E.02266
G1 X83.883 Y123.154 E.03048
G1 X83.216 Y122.128 E.02285
G1 X82.378 Y120.326 E.03711
G1 X82.026 Y119.158 E.02278
G1 X81.753 Y117.516 E.03108
G1 X81.749 Y102.268 E.2847
G1 X81.921 Y101.068 E.02263
G1 X82.225 Y99.876 E.02297
G1 X82.654 Y98.736 E.02274
G1 X83.197 Y97.657 E.02255
G1 X83.861 Y96.629 E.02285
G1 X84.774 Y95.514 E.02691
G1 X85.459 Y94.847 E.01785
G1 X85.72 Y95.115 F6000
G1 F1200
G1 X86.678 Y94.335 E.02307
G1 X87.666 Y93.694 E.02199
G1 X89.068 Y93.008 E.02914
G1 X90.953 Y92.418 E.03688
G1 X92.491 Y92.184 E.02905
G1 X127.359 Y92.143 E.65103
G1 X129.324 Y92.342 E.03688
G1 X130.458 Y92.614 E.02177
G1 X131.564 Y93.001 E.02188
G1 X132.983 Y93.694 E.02949
G1 X134.594 Y94.821 E.03671
G1 X135.455 Y95.619 E.02192
G1 X136.231 Y96.509 E.02205
G1 X137.113 Y97.815 E.02942
G1 X137.931 Y99.583 E.03637
G1 X138.356 Y101.11 E.02959
G1 X138.526 Y102.276 E.022
G1 X138.573 Y103.249 E.01819
G1 X138.573 Y116.503 E.24747
G1 X138.526 Y117.476 E.01819
G1 X138.356 Y118.642 E.022
G1 X137.931 Y120.169 E.02959
G1 X137.476 Y121.25 E.0219
G1 X136.905 Y122.283 E.02204
G1 X135.727 Y123.842 E.03648
G1 X134.897 Y124.669 E.02188
G1 X133.986 Y125.405 E.02187
G1 X132.662 Y126.235 E.02918
G1 X131.579 Y126.746 E.02236
G1 X129.697 Y127.334 E.03681
G1 X128.159 Y127.568 E.02905
G1 X93.291 Y127.609 E.65103
G1 X92.117 Y127.53 E.02197
G1 X90.953 Y127.334 E.02204
G1 X89.071 Y126.746 E.03681
G1 X88.014 Y126.25 E.0218
G1 X86.994 Y125.638 E.02221
G1 X86.055 Y124.931 E.02195
G1 X85.194 Y124.133 E.02192
G1 X84.193 Y122.944 E.02902
G1 X83.547 Y121.953 E.02209
G1 X82.726 Y120.186 E.03638
G1 X82.386 Y119.057 E.02202
G1 X82.126 Y117.495 E.02957
G1 X82.123 Y102.288 E.28393
G1 X82.29 Y101.129 E.02186
G1 X82.586 Y99.976 E.02223
G1 X83.002 Y98.875 E.02198
G1 X83.528 Y97.832 E.02181
G1 X84.171 Y96.838 E.0221
G1 X85.047 Y95.77 E.02579
G1 X85.677 Y95.157 E.01641
G1 X85.953 Y95.47 F6000
G1 F1200
G1 X86.908 Y94.631 E.02373
G1 X87.865 Y94.012 E.02128
G1 X89.198 Y93.359 E.02771
G1 X91.046 Y92.781 E.03615
G1 X92.51 Y92.558 E.02765
G1 X127.34 Y92.517 E.65032
G1 X129.268 Y92.712 E.03618
G1 X130.365 Y92.977 E.02107
G1 X131.435 Y93.352 E.02117
G1 X132.785 Y94.012 E.02806
G1 X134.364 Y95.116 E.03597
G1 X135.196 Y95.889 E.0212
G1 X135.945 Y96.75 E.02131
G1 X136.782 Y97.99 E.02793
G1 X137.583 Y99.722 E.03563
G1 X137.987 Y101.171 E.02809
G1 X138.152 Y102.296 E.02123
G1 X138.199 Y103.249 E.01782
G1 X138.199 Y116.503 E.24747
G1 X137.987 Y118.581 E.039
G1 X137.583 Y120.03 E.02809
G1 X137.145 Y121.075 E.02116
G1 X136.595 Y122.074 E.02129
G1 X135.441 Y123.601 E.03574
G1 X134.638 Y124.399 E.02114
G1 X133.756 Y125.11 E.02115
G1 X132.497 Y125.9 E.02775
G1 X131.449 Y126.395 E.02164
G1 X129.603 Y126.971 E.03611
G1 X128.14 Y127.194 E.02763
G1 X93.31 Y127.235 E.65032
G1 X92.173 Y127.16 E.02128
G1 X91.046 Y126.971 E.02134
G1 X89.2 Y126.395 E.03611
G1 X88.179 Y125.914 E.02107
G1 X87.193 Y125.32 E.02149
G1 X86.285 Y124.636 E.02123
G1 X85.454 Y123.863 E.02119
G1 X84.503 Y122.734 E.02756
G1 X83.877 Y121.777 E.02135
G1 X83.073 Y120.047 E.03562
G1 X82.746 Y118.956 E.02127
G1 X82.5 Y117.474 E.02805
G1 X82.497 Y102.308 E.28317
G1 X82.66 Y101.189 E.02111
G1 X82.947 Y100.076 E.02146
G1 X83.349 Y99.014 E.0212
G1 X83.859 Y98.006 E.02109
G1 X84.482 Y97.047 E.02135
G1 X85.32 Y96.026 E.02466
G1 X85.907 Y95.51 E.01459
; printing object NO_TXT_Kostka.stl id:0 copy 0
G1 E-3.5 F3600
;WIPE_START
G1 F4800
G1 X86.908 Y94.631 E-.94916
G1 X87.557 Y94.211 E-.55084
;WIPE_END
G1 X111.918 Y113.336 F6000
G1 E5 F2400
;TYPE:Perimeter
;WIDTH:0.400197
G1 F1200
G1 X111.898 Y113.301 E.00075
;WIDTH:0.382165
G1 X111.627 Y113.175 E.00531
G1 X111.493 Y113.181 E.00239
;WIDTH:0.376528
G1 X110.944 Y113.24 E.00966
G1 X110.969 Y112.873 E.00644
G1 X111.137 Y112.866 E.00294
;WIDTH:0.382165
G1 X111.669 Y112.815 E.0095
G1 X111.963 Y112.991 E.00609
G1 X112.174 Y113.026 E.0038
;WIDTH:0.363783
G1 X112.173 Y113.171 E.00245
;WIDTH:0.400197
G1 X112.154 Y113.448 E.00519
;WIDTH:0.43661
G1 X112.135 Y113.725 E.00569
G1 X112.016 Y113.513 E.00498
;WIDTH:0.400197
G1 X111.947 Y113.389 E.00265
G1 X111.86 Y111.91 F6000
;TYPE:External perimeter
;WIDTH:0.626216
G1 F1200
G1 X111.87 Y112.319 E.01226
G1 E-3.5 F3600
;WIPE_START
G1 F4800
G1 X111.86 Y111.91 E-.2915
;WIPE_END
G1 E-1.2085 F3600
G1 X111.848 Y110.252 F6000
G1 E5 F2400
;TYPE:Perimeter
;WIDTH:0.511324
G1 F1200
G1 X111.679 Y110.129 E.00506
G1 X111.225 Y109.858 E.01281
G1 X111.448 Y109.743 E.00608
G1 X111.792 Y109.466 E.0107
G1 X111.909 Y109.721 E.0068
G1 X112.148 Y109.939 E.00784
G1 X111.965 Y110.087 E.0057
G1 X111.883 Y110.203 E.00344
G1 E-3.5 F3600
;WIPE_START
G1 F4800
G1 X111.679 Y110.129 E-.15462
G1 X111.225 Y109.858 E-.37672
G1 X111.448 Y109.743 E-.17877
G1 X111.792 Y109.466 E-.31468
G1 X111.909 Y109.721 E-.1999
G1 X112.148 Y109.939 E-.23049
G1 X112.099 Y109.979 E-.04482
;WIPE_END
G1 X112.135 Y107.425 F6000
G1 E5 F2400
;WIDTH:0.43661
G1 F1200
G1 X112.016 Y107.213 E.00498
;WIDTH:0.400197
G1 X111.898 Y107.001 E.00453
;WIDTH:0.382165
G1 X111.627 Y106.875 E.00531
G1 X111.493 Y106.881 E.00239
;WIDTH:0.376527
G1 X110.944 Y106.94 E.00966
G1 X110.969 Y106.573 E.00644
G1 X111.137 Y106.566 E.00294
;WIDTH:0.382165
G1 X111.669 Y106.515 E.0095
G1 X111.963 Y106.691 E.00609
G1 X112.174 Y106.726 E.0038
;WIDTH:0.363784
G1 X112.173 Y106.871 E.00245
;WIDTH:0.400197
G1 X112.154 Y107.148 E.00519
;WIDTH:0.43661
G1 X112.139 Y107.365 E.00446
G1 X111.86 Y105.61 F6000
;TYPE:External perimeter
;WIDTH:0.626216
G1 F1200
G1 X111.87 Y106.019 E.01226
G1 E-3.5 F3600
;WIPE_START
G1 F4800
G1 X111.86 Y105.61 E-.2915
;WIPE_END
G1 E-1.2085 F3600
G1 X114.593 Y109.058 F6000
G1 E5 F2400
;TYPE:Perimeter
;WIDTH:0.399999
G1 F1200
G1 X114.143 Y109.682 E.01436
G1 X113.952 Y109.904 E.00547
G1 X114.179 Y110.062 E.00516
G1 X114.372 Y110.319 E.006
G1 X114.473 Y110.884 E.01072
G1 X115.469 Y110.884 E.0186
G1 X115.871 Y110.974 E.00769
G1 X116.091 Y111.12 E.00493
G1 X116.276 Y111.345 E.00544
G1 X116.358 Y111.527 E.00373
;WIDTH:0.435748
G1 X116.392 Y111.718 E.00397
;WIDTH:0.471497
G1 X116.425 Y111.908 E.00429
;WIDTH:0.507246
G1 X116.459 Y112.099 E.00466
;WIDTH:0.535231
G1 X116.473 Y112.321 E.00565
;WIDTH:0.563215
G1 X116.487 Y112.542 E.00594
;WIDTH:0.570908
G1 X116.458 Y112.798 E.00701
G1 X116.304 Y113.005 E.00702
;WIDTH:0.528181
G1 X116.15 Y113.212 E.00647
;WIDTH:0.485454
G1 X115.995 Y113.419 E.00593
;WIDTH:0.442726
G1 X115.841 Y113.626 E.00537
;WIDTH:0.399999
G1 X114.143 Y115.982 E.05422
G1 X113.947 Y116.182 E.00523
G1 X113.596 Y116.346 E.00723
G1 X113.072 Y116.37 E.00979
G1 X112.498 Y116.346 E.01073
G1 X112.25 Y116.251 E.00496
G1 X112.016 Y116.064 E.00559
G1 X111.877 Y115.864 E.00455
G1 X111.818 Y115.662 E.00393
G1 X111.456 Y115.975 E.00894
;WIDTH:0.426475
G1 X111.131 Y116.13 E.0072
;WIDTH:0.452951
G1 X110.806 Y116.286 E.00768
;WIDTH:0.494919
G1 X110.735 Y116.318 E.00182
;WIDTH:0.536888
G1 X110.663 Y116.35 E.00201
;WIDTH:0.578856
G1 X110.592 Y116.382 E.00215
;WIDTH:0.620824
G1 X110.521 Y116.414 E.00231
G1 X110.636 Y116.457 E.00365
;WIDTH:0.576659
G1 X110.751 Y116.499 E.00336
;WIDTH:0.532494
G1 X110.866 Y116.542 E.0031
;WIDTH:0.488329
G1 X110.981 Y116.584 E.00283
;WIDTH:0.444164
G1 X111.096 Y116.627 E.00256
;WIDTH:0.399999
G1 X111.638 Y116.846 E.01091
G1 X112.122 Y117.172 E.0109
G1 X112.528 Y117.592 E.01091
G1 X112.839 Y118.089 E.01095
G1 X113.083 Y118.877 E.0154
G1 X113.111 Y119.217 E.00637
G1 X113.083 Y119.752 E.01
G1 X112.929 Y120.328 E.01113
G1 X112.644 Y120.878 E.01157
G1 X112.292 Y121.3 E.01026
G1 X111.806 Y121.687 E.0116
G1 X111.282 Y121.943 E.01089
G1 X110.76 Y122.075 E.01005
G1 X110.343 Y122.097 E.0078
G1 X109.79 Y122.063 E.01034
G1 X109.277 Y121.908 E.01001
G1 X108.761 Y121.635 E.0109
G1 X108.318 Y121.262 E.01081
G1 X107.953 Y120.797 E.01104
G1 X107.697 Y120.272 E.01091
G1 X107.555 Y119.705 E.01091
G1 X107.534 Y119.12 E.01093
G1 X107.636 Y118.544 E.01092
G1 X107.855 Y118.002 E.01091
G1 X108.138 Y117.578 E.00952
G1 X108.602 Y117.111 E.01229
G1 X109.099 Y116.801 E.01094
;WIDTH:0.437933
G1 X109.361 Y116.701 E.00577
;WIDTH:0.475867
G1 X109.623 Y116.601 E.0063
;WIDTH:0.5138
G1 X109.884 Y116.501 E.00681
;WIDTH:0.541697
G1 X109.944 Y116.474 E.00169
;WIDTH:0.569594
G1 X110.004 Y116.448 E.00177
G1 X109.827 Y116.406 E.00494
;WIDTH:0.527196
G1 X109.651 Y116.363 E.00453
;WIDTH:0.484797
G1 X109.474 Y116.32 E.00417
;WIDTH:0.442398
G1 X109.298 Y116.277 E.00377
;WIDTH:0.399999
G1 X108.805 Y116.116 E.00968
G1 X108.267 Y115.763 E.01201
G1 X108.039 Y115.524 E.00617
G1 X107.821 Y115.195 E.00737
G1 X107.69 Y114.89 E.0062
G1 X107.603 Y114.517 E.00715
G1 X106.552 Y115.98 E.03363
G1 X106.334 Y116.198 E.00576
G1 X106.042 Y116.337 E.00604
G1 X105.792 Y116.37 E.00471
G1 X105.117 Y116.37 E.0126
G1 X104.787 Y116.311 E.00626
G1 X104.632 Y116.235 E.00322
G1 X104.279 Y115.851 E.00974
G1 X104.194 Y115.587 E.00518
G1 X104.181 Y113.416 E.04054
G1 X103.893 Y113.316 E.00569
G1 X103.669 Y113.064 E.0063
;WIDTH:0.439385
G1 X103.603 Y112.902 E.00361
;WIDTH:0.478771
G1 X103.538 Y112.739 E.00397
;WIDTH:0.518156
G1 X103.473 Y112.577 E.00429
;WIDTH:0.527488
G1 X103.468 Y111.819 E.01897
G1 X103.504 Y111.718 E.00268
;WIDTH:0.490533
G1 X103.539 Y111.617 E.00248
;WIDTH:0.453578
G1 X103.574 Y111.515 E.0023
;WIDTH:0.416622
G1 X103.814 Y111.15 E.00852
;WIDTH:0.399999
G1 X104.031 Y110.992 E.00501
G1 X104.181 Y110.955 E.00288
G1 X104.212 Y110.503 E.00846
G1 X104.412 Y110.127 E.00795
G1 X104.783 Y109.939 E.00777
G1 X104.412 Y109.75 E.00777
G1 X104.235 Y109.448 E.00654
G1 X104.181 Y109.135 E.00593
G1 X104.181 Y107.116 E.0377
G1 X103.893 Y107.016 E.00569
G1 X103.669 Y106.764 E.0063
;WIDTH:0.439385
G1 X103.603 Y106.602 E.00361
;WIDTH:0.478771
G1 X103.538 Y106.439 E.00397
;WIDTH:0.518157
G1 X103.473 Y106.277 E.00429
;WIDTH:0.527488
G1 X103.468 Y105.519 E.01897
G1 X103.504 Y105.418 E.00268
;WIDTH:0.490534
G1 X103.539 Y105.317 E.00248
;WIDTH:0.45358
G1 X103.574 Y105.215 E.0023
;WIDTH:0.416625
G1 X103.814 Y104.85 E.00852
;WIDTH:0.399999
G1 X104.031 Y104.692 E.00501
G1 X104.181 Y104.655 E.00288
G1 X104.212 Y104.203 E.00846
G1 X104.31 Y103.969 E.00474
G1 X104.621 Y103.649 E.00833
G1 X104.955 Y103.521 E.00668
G1 X105.945 Y103.507 E.01849
G1 X106.374 Y103.611 E.00824
G1 X106.68 Y103.863 E.0074
G1 X106.851 Y104.206 E.00716
G1 X106.891 Y104.593 E.00726
G1 X107.728 Y104.676 E.0157
G1 X107.986 Y104.271 E.00897
G1 X108.412 Y103.874 E.01087
G1 X108.946 Y103.58 E.01138
G1 X109.464 Y103.438 E.01003
G1 X109.98 Y103.39 E.00968
G1 X110.51 Y103.418 E.00991
G1 X111.017 Y103.533 E.00971
G1 X111.301 Y103.659 E.0058
G1 X111.816 Y103.997 E.0115
G1 X111.865 Y104.054 E.0014
G1 X111.988 Y103.846 E.00451
G1 X112.205 Y103.654 E.00541
G1 X112.547 Y103.521 E.00685
G1 X113.537 Y103.507 E.01849
G1 X114.032 Y103.648 E.00961
G1 X114.344 Y103.968 E.00834
G1 X114.473 Y104.443 E.00919
G1 X114.473 Y104.584 E.00263
G1 X115.469 Y104.584 E.0186
G1 X116.014 Y104.758 E.01068
G1 X116.276 Y105.045 E.00726
G1 X116.358 Y105.227 E.00373
G1 X116.405 Y105.578 E.00661
;WIDTH:0.442805
G1 X116.426 Y105.694 E.00245
;WIDTH:0.485611
G1 X116.448 Y105.81 E.00271
;WIDTH:0.528417
G1 X116.469 Y105.925 E.00293
;WIDTH:0.571222
G1 X116.491 Y106.041 E.00321
G1 X116.458 Y106.498 E.01247
;WIDTH:0.570908
G1 X116.304 Y106.705 E.00702
;WIDTH:0.528181
G1 X116.15 Y106.912 E.00647
;WIDTH:0.485454
G1 X115.995 Y107.119 E.00593
;WIDTH:0.442726
G1 X115.841 Y107.326 E.00537
;WIDTH:0.399999
G1 X114.628 Y109.009 E.03873
G1 E-3.5 F3600
;WIPE_START
G1 F4800
G1 X114.143 Y109.682 E-.59105
G1 X113.952 Y109.904 E-.20866
G1 X114.179 Y110.062 E-.19706
G1 X114.372 Y110.319 E-.229
G1 X114.44 Y110.698 E-.27423
;WIPE_END
G1 X121.823 Y104.443 F6000
G1 E5 F2400
G1 F1200
G1 X121.901 Y104.07 E.00712
G1 X122.115 Y103.763 E.00699
G1 X122.421 Y103.57 E.00675
G1 X122.759 Y103.507 E.00642
G1 X123.624 Y103.507 E.01615
G1 X123.965 Y103.571 E.00648
G1 X124.29 Y103.785 E.00727
G1 X124.48 Y104.065 E.00632
G1 X124.56 Y104.443 E.00721
G1 X124.56 Y104.974 E.00991
;WIDTH:0.436551
G1 X124.578 Y105.141 E.00344
;WIDTH:0.473103
G1 X124.596 Y105.309 E.00377
;WIDTH:0.509654
G1 X124.615 Y105.477 E.00408
G1 X124.721 Y105.23 E.00649
;WIDTH:0.473103
G1 X124.827 Y104.984 E.00598
;WIDTH:0.436551
G1 X124.933 Y104.738 E.00549
;WIDTH:0.399999
G1 X125.338 Y104.167 E.01307
G1 X125.589 Y103.939 E.00633
G1 X126.03 Y103.665 E.00969
G1 X126.283 Y103.556 E.00514
G1 X126.785 Y103.433 E.00965
G1 X127.571 Y103.416 E.01468
G1 X127.868 Y103.46 E.00561
G1 X128.387 Y103.624 E.01016
G1 X128.634 Y103.744 E.00513
G1 X129.097 Y104.077 E.01065
G1 X129.457 Y104.55 E.0111
G1 X129.607 Y104.874 E.00667
G1 X129.726 Y105.364 E.00941
G1 X129.717 Y105.78 E.00777
G1 X129.621 Y106.157 E.00726
G1 X129.52 Y106.312 E.00345
G1 X129.543 Y106.559 E.00463
G1 X129.492 Y107.547 E.01847
G1 X129.259 Y109.175 E.03071
;WIDTH:0.405324
G1 X129.161 Y109.424 E.00507
;WIDTH:0.433142
G1 X129.063 Y109.672 E.00542
;WIDTH:0.477069
G1 X129.019 Y109.746 E.00194
;WIDTH:0.520995
G1 X128.974 Y109.82 E.00214
G1 X128.67 Y109.992 E.00863
G1 X129.009 Y110.236 E.01032
;WIDTH:0.508111
G1 X129.117 Y110.389 E.00451
;WIDTH:0.465662
G1 X129.226 Y110.542 E.00412
;WIDTH:0.423212
G1 X129.334 Y110.696 E.00373
;WIDTH:0.399343
G1 X129.588 Y111.109 E.00904
;WIDTH:0.399999
G1 X129.715 Y111.612 E.00969
G1 X129.729 Y111.991 E.00708
G1 X129.621 Y112.458 E.00895
G1 X129.52 Y112.612 E.00344
G1 X129.543 Y112.845 E.00437
G1 X129.492 Y113.847 E.01873
G1 X129.27 Y115.477 E.03072
G1 X129.174 Y115.779 E.00592
G1 X128.988 Y116.027 E.00579
G1 X128.67 Y116.226 E.007
G1 X128.344 Y116.284 E.00618
G1 X125.798 Y116.284 E.04754
G1 X125.461 Y116.221 E.0064
G1 X125.172 Y116.044 E.00633
G1 X124.932 Y115.703 E.00779
