;FLAVOR:Marlin
;TIME:1865
;Filament used: 1.71513m
;Layer height: 0.15
;MINX:89.201
;MINY:101.701
;MINZ:0.3
;MAXX:145.799
;MAXY:133.299
;MAXZ:4.05
;POSTPROCESSED
;Generated with Cura_SteamEngine 5.3.1
M82 ;absolute extrusion mode
; Ender 3 Custom Start G-code
G92 E0 ; Reset Extruder

M140 S70 ; set bed temp
M190 S70 ; wait for bed temp

G28 ; Home all axes
BED_MESH_CALIBRATE  AREA_START=89.201,101.701 AREA_END=145.799,133.299
M104 S200 ; set extruder temp 

G1 Z2.0 F3000 ; Move Z Axis up little to prevent scratching of Heat Bed
M109 S200 ; wait for extruder temp
G1 X0.1 Y20 Z0.3 F5000.0 ; Move to start position

G1 X0.1 Y200.0 Z0.3 F1500.0 E15 ; Draw the first line
G1 X0.4 Y200.0 Z0.3 F5000.0 ; Move to side a little
G1 X0.4 Y20 Z0.3 F1500.0 E30 ; Draw the second line
G92 E0 ; Reset Extruder
G1 Z2.0 F3000 ; Move Z Axis up little to prevent scratching of Heat Bed
G1 X5 Y20 Z0.3 F5000.0 ; Move over to prevent blob squish
G92 E0
G92 E0
G1 F1500 E-1
;LAYER_COUNT:26
;LAYER:0
M107
M204 S1000
;MESH:NO_TXT_Kostka (6).stl
G0 F3600 X96.292 Y113.098 Z0.3
;TYPE:WALL-OUTER
G1 F1500 E0
G1 F1775.9 X96.204 Y113.057 E0.00573
G1 X96.128 Y112.846 E0.01896
G1 X96.129 Y111.685 E0.08745
G1 F1772.2 X96.199 Y111.49 E0.0997
G1 X96.268 Y111.448 E0.10448
G1 X96.436 Y111.437 E0.11443
G1 X96.527 Y111.479 E0.12035
G1 X96.603 Y111.685 E0.13334
G1 F1775.9 X96.603 Y112.846 E0.20183
G1 X96.525 Y113.06 E0.21527
G1 X96.292 Y113.098 E0.22919
G0 F3600 X96.489 Y113.066
G1 F1500 E-0.77081
G0 F3600 X96.34 Y112.842
G0 X103.186 Y112.478
G0 X103.419 Y112.758
G1 F1500 E0.22919
G1 F1618.5 X103.141 Y112.758 E0.24719
G1 F1621.6 X103.026 Y112.599 E0.25987
G1 F1627.9 X103.025 Y111.748 E0.31464
G1 X103.076 Y111.557 E0.32736
G1 X103.155 Y111.477 E0.3346
G1 X103.343 Y111.455 E0.34678
G1 X103.466 Y111.517 E0.35564
G1 X103.539 Y111.745 E0.37105
G1 F1624.8 X103.545 Y112.467 E0.41761
G1 F1618.5 X103.508 Y112.639 E0.429
G1 X103.419 Y112.758 E0.43862
G0 F3600 X103.508 Y112.639
G0 X103.518 Y112.588
G1 F1500 E-0.56138
G0 F3600 X103.285 Y112.54
G0 X103.268 Y114.299
G0 X103.448 Y114.169
G1 F1500 E0.43862
G1 F1739.1 X103.523 Y114.374 E0.45177
G1 X103.527 Y115.017 E0.4905
G1 X103.425 Y115.208 E0.50355
G1 X103.282 Y115.237 E0.51234
G1 X103.139 Y115.208 E0.52113
G1 X103.042 Y115.081 E0.53075
G1 X103.041 Y114.375 E0.57329
G1 X103.116 Y114.169 E0.58649
G1 X103.235 Y114.121 E0.59422
G1 X103.448 Y114.169 E0.60738
G0 F3600 X103.253 Y114.125
G1 F1500 E-0.39262
G0 F3600 X103.283 Y114.378
G0 X108.134 Y113.632
G1 F1500 E0.60738
G1 F2276.4 X108.133 Y112.507 E0.65915
G1 X108.595 Y112.507 E0.68042
G1 X108.134 Y113.632 E0.73637
G0 F3600 X108.209 Y113.447
G1 F1500 E-0.26363
G0 F3600 X115.025 Y113.655
G1 F1500 E0.73637
G1 F2264.2 X115.025 Y112.508 E0.78945
G1 X115.487 Y112.508 E0.81082
G1 X115.025 Y113.655 E0.86804
G0 F3600 X115.099 Y113.47
G1 F1500 E-0.13196
G0 F3600 X119.896 Y113.863
G0 X119.861 Y115.231
G1 F1500 E0.86804
G1 F1764.7 X119.787 Y115.185 E0.87322
G1 X119.716 Y114.99 E0.88554
G1 F1772.2 X119.713 Y113.83 E0.95412
G1 F1775.9 X119.791 Y113.614 E0.96766
G1 X120.082 Y113.594 E0.98487
G1 X120.159 Y113.688 E0.99204
G1 F1772.2 X120.192 Y113.91 E1.00531
G1 F1764.7 X120.192 Y114.911 E1.06474
G1 X120.156 Y115.129 E1.07786
G1 X120.092 Y115.212 E1.08408
G1 X119.861 Y115.231 E1.09784
G0 F3600 X120.061 Y115.215
G1 F1500 E0.09784
G0 F3600 X119.932 Y114.997
G0 X119.956 Y122.082
G0 X119.876 Y123.559
G1 F1500 E1.09784
G1 F1764.7 X119.791 Y123.518 E1.10344
G1 X119.716 Y123.313 E1.1164
G1 F1772.2 X119.713 Y122.155 E1.18486
G1 F1779.7 X119.792 Y121.939 E1.1984
G1 X119.957 Y121.895 E1.20846
G1 X120.091 Y121.924 E1.21653
G1 X120.159 Y122.01 E1.22298
G1 F1772.2 X120.192 Y122.235 E1.23643
G1 F1764.7 X120.192 Y123.234 E1.29574
G1 X120.157 Y123.452 E1.30884
G1 X120.098 Y123.528 E1.31456
G1 X119.876 Y123.559 E1.32786
G0 F3600 X120.074 Y123.532
G1 F1500 E0.32786
G0 F3600 X119.935 Y123.308
G0 X119.896 Y122.157
G0 X115.025 Y121.979
G1 F1500 E1.32786
G1 F2264.2 X115.025 Y120.832 E1.38094
G1 X115.487 Y120.832 E1.40232
G1 X115.025 Y121.979 E1.45954
G0 F3600 X115.099 Y121.794
G1 F1500 E0.45954
G0 F3600 X108.143 Y121.958
G1 F1500 E1.45954
G1 F2264.2 X108.134 Y120.831 E1.51169
G1 X108.596 Y120.831 E1.53307
G1 X108.143 Y121.958 E1.58927
G0 F3600 X108.217 Y121.773
G1 F1500 E0.58927
G0 F3600 X103.384 Y120.821
G0 X103.097 Y119.843
G1 F1500 E1.58927
G1 F1627.9 X103.226 Y119.778 E1.59857
G1 X103.338 Y119.778 E1.60578
G1 X103.468 Y119.845 E1.61519
G1 X103.539 Y120.069 E1.63031
G1 F1624.8 X103.545 Y120.841 E1.68009
G1 F1618.5 X103.486 Y121.013 E1.69186
G1 X103.402 Y121.087 E1.69911
G1 X103.167 Y121.09 E1.71432
G1 X103.081 Y121.017 E1.72163
G1 X103.026 Y120.812 E1.73537
G1 F1624.8 X103.025 Y120.069 E1.78328
G1 F1627.9 X103.097 Y119.843 E1.79854
G0 F3600 X103.037 Y120.033
G1 F1500 E0.79854
G0 F3600 X103.269 Y120.078
G0 X103.265 Y120.947
G0 X103.265 Y122.641
G0 X103.4 Y122.463
G1 F1500 E1.79854
G1 F1742.7 X103.473 Y122.522 E1.80419
G1 X103.523 Y122.698 E1.81518
G1 X103.523 Y123.308 E1.85186
G1 X103.473 Y123.484 E1.86286
G1 X103.392 Y123.547 E1.86903
G1 X103.229 Y123.557 E1.87884
G1 X103.116 Y123.512 E1.88615
G1 X103.041 Y123.308 E1.89922
G1 X103.041 Y122.698 E1.93589
G1 X103.09 Y122.522 E1.94688
G1 X103.164 Y122.462 E1.9526
G1 X103.4 Y122.463 E1.96679
G0 F3600 X103.2 Y122.463
G1 F1500 E0.96679
G0 F3600 X103.288 Y122.7
G0 X96.405 Y121.24
G0 X96.439 Y121.421
G1 F1500 E1.96679
G1 F1772.2 X96.207 Y121.383 E1.98069
G1 X96.128 Y121.167 E1.99429
G1 X96.129 Y119.914 E2.06836
G1 X96.249 Y119.773 E2.07931
G1 X96.482 Y119.774 E2.09309
G1 X96.603 Y119.915 E2.10407
G1 X96.602 Y121.167 E2.17809
G1 X96.524 Y121.383 E2.19167
G1 X96.439 Y121.421 E2.19717
G0 F3600 X96.524 Y121.383
G0 X96.56 Y121.283
G1 F1500 E1.19717
G0 F3600 X96.33 Y121.212
G0 X96.42 Y120.013
G0 X131.59 Y120.069
G0 X131.832 Y119.806
G1 F1500 E2.19717
G1 F1624.8 X131.949 Y119.964 E2.20985
G1 F1631.1 X131.951 Y120.813 E2.26438
G1 X131.894 Y121.018 E2.27805
G1 X131.813 Y121.089 E2.28497
G1 X131.577 Y121.092 E2.30013
G1 X131.493 Y121.023 E2.30711
G1 X131.435 Y120.805 E2.3216
G1 F1627.9 X131.43 Y120.035 E2.37116
G1 F1621.6 X131.515 Y119.837 E2.38508
G1 X131.634 Y119.779 E2.39363
G1 X131.832 Y119.806 E2.40654
G0 F3600 X131.634 Y119.779
G1 F1500 E1.40654
G0 F3600 X131.67 Y120.018
G0 X131.671 Y120.947
G0 X131.671 Y122.641
G0 X131.811 Y123.544
G1 F1500 E2.40654
G1 F1742.7 X131.574 Y123.544 E2.42079
G1 X131.453 Y123.402 E2.43201
G1 F1735.5 X131.447 Y122.715 E2.47348
G1 F1732 X131.477 Y122.578 E2.48196
G1 X131.574 Y122.463 E2.49107
G1 X131.81 Y122.463 E2.50534
G1 X131.883 Y122.522 E2.51102
G1 X131.933 Y122.698 E2.52209
G1 F1739.1 X131.934 Y123.308 E2.55883
G1 F1742.7 X131.884 Y123.484 E2.56983
G1 X131.811 Y123.544 E2.57551
G0 F3600 X131.884 Y123.484
G0 X131.913 Y123.382
G1 F1500 E1.57551
G0 F3600 X131.663 Y123.312
G0 X135.114 Y121.979
G1 F1500 E2.57551
G1 F2264.2 X135.114 Y120.832 E2.62859
G1 X135.576 Y120.832 E2.64997
G1 X135.114 Y121.979 E2.70719
G0 F3600 X135.188 Y121.794
G1 F1500 E1.70719
G0 F3600 X131.74 Y115.051
G0 X131.86 Y114.169
G1 F1500 E2.70719
G1 F1742.7 X131.934 Y114.374 E2.72029
G1 X131.934 Y115.078 E2.76261
G1 X131.835 Y115.208 E2.77244
G1 X131.693 Y115.238 E2.78116
G1 X131.551 Y115.208 E2.78989
G1 X131.452 Y115.08 E2.79961
G1 X131.452 Y114.288 E2.84723
G1 X131.545 Y114.153 E2.85708
G1 X131.746 Y114.125 E2.86928
G1 X131.86 Y114.169 E2.87663
G0 F3600 X131.746 Y114.125
G0 X131.669 Y114.135
G1 F1500 E1.87663
G0 F3600 X131.684 Y114.388
G0 X131.687 Y112.619
G0 X131.841 Y112.75
G1 F1500 E2.87663
G1 F1618.5 X131.688 Y112.782 E2.88675
G1 X131.547 Y112.751 E2.89609
G1 X131.439 Y112.6 E2.90811
G1 X131.431 Y111.718 E2.96521
G1 X131.519 Y111.511 E2.97977
G1 X131.649 Y111.456 E2.9889
G1 X131.82 Y111.478 E3.00007
G1 X131.896 Y111.556 E3.00712
G1 X131.949 Y111.755 E3.02045
G1 X131.955 Y112.461 E3.06615
G1 X131.918 Y112.645 E3.0783
G1 X131.841 Y112.75 E3.08673
G0 F3600 X131.918 Y112.645
G0 X131.931 Y112.577
G1 F1500 E2.08673
G0 F3600 X131.696 Y112.53
G0 X135.114 Y113.655
G1 F1500 E3.08673
G1 F2264.2 X135.114 Y112.508 E3.1398
G1 X135.576 Y112.508 E3.16118
G1 X135.114 Y113.655 E3.2184
G0 F3600 X135.188 Y113.47
G1 F1500 E2.2184
G0 F3600 X133.605 Y113.47
G0 X133.522 Y114.275
G0 X133.432 Y115.641
G0 X132.841 Y116.431
G0 X131.381 Y116.736
G0 X130.548 Y116.43
G0 X129.235 Y114.021
;TYPE:WALL-INNER
G1 F1500 E3.2184
G1 F1673.3 X129.543 Y113.505 E3.25602
G1 F1794.9 X129.253 Y113.005 E3.28976
G1 X129.14 Y113.527 E3.32094
G1 F1673.3 X129.235 Y114.021 E3.35244
G0 F3600 X129.526 Y115.604
G0 X129.952 Y116.425
G0 X130.671 Y116.96
G0 X132.194 Y117.116
G0 X133.165 Y116.679
G0 X133.405 Y116.028
G1 F2100 X133.31 Y116.198 E3.36215
G1 X132.875 Y116.6 E3.3917
G1 X132.562 Y116.758 E3.4092
G1 X132.105 Y116.88 E3.43279
G1 X131.348 Y116.896 E3.47057
G1 X130.741 Y116.723 E3.50206
G1 X130.485 Y116.582 E3.51664
G1 X130.137 Y116.268 E3.54002
G1 X129.969 Y116.032 E3.55448
G1 X129.783 Y115.608 E3.57758
G1 X129.691 Y115.103 E3.60319
G1 X129.689 Y114.451 E3.63571
G1 X129.741 Y114.099 E3.65347
G1 X129.868 Y113.721 E3.67336
G1 X129.994 Y113.51 E3.68562
G1 X129.731 Y112.959 E3.71608
G1 X129.65 Y112.412 E3.74367
G1 X129.65 Y111.554 E3.78648
G1 X129.719 Y111.177 E3.8056
G1 X129.977 Y110.56 E3.83896
G1 X130.326 Y110.191 E3.8643
G1 X130.601 Y110.011 E3.8807
G1 X131.049 Y109.838 E3.90466
G1 X131.524 Y109.769 E3.9286
G1 X132.337 Y109.832 E3.96929
G1 X132.898 Y110.073 E3.99975
G1 X133.142 Y110.258 E4.01502
G1 X133.405 Y110.577 E4.03565
G1 X133.415 Y110.334 E4.04778
G1 X133.465 Y110.184 E4.05567
G1 X133.658 Y109.957 E4.07054
G1 X133.949 Y109.85 E4.08601
G1 X134.998 Y109.848 E4.13834
G1 X135.148 Y109.889 E4.1461
G1 X135.334 Y110.005 E4.15704
G1 X135.455 Y110.16 E4.16685
G1 X135.528 Y110.448 E4.18167
G1 X135.528 Y110.896 E4.20402
G1 X136.759 Y110.896 E4.26543
G1 X137.07 Y111.029 E4.28231
G1 X137.178 Y111.141 E4.29007
G1 F2105.3 X137.291 Y111.496 E4.30861
G1 F2132 X137.282 Y112.425 E4.35427
G1 F2176.2 X137.665 Y112.425 E4.37271
G1 F2199 X137.665 Y111.884 E4.39848
G1 F2153.8 X137.726 Y111.603 E4.41247
G1 F2105.3 X137.992 Y111.344 E4.43095
G1 F2100 X138.213 Y111.285 E4.44236
G1 X138.995 Y111.289 E4.48137
G1 X139.199 Y111.357 E4.4921
G1 X139.386 Y111.516 E4.50435
G1 X139.511 Y111.755 E4.5178
G1 X139.511 Y112.416 E4.55078
G1 X140.165 Y112.416 E4.58341
G1 X140.382 Y112.524 E4.5955
G1 X140.504 Y112.638 E4.60383
G1 X140.635 Y112.879 E4.61752
G1 X140.638 Y113.742 E4.66057
G1 X140.555 Y113.963 E4.67235
G1 X140.415 Y114.126 E4.68307
G1 X140.259 Y114.218 E4.6921
G1 X140.037 Y114.259 E4.70337
G1 X139.511 Y114.259 E4.72961
G1 X139.511 Y114.781 E4.75565
G1 X139.46 Y115.02 E4.76784
G1 X139.371 Y115.161 E4.77616
G1 X139.138 Y115.331 E4.79055
G1 X138.911 Y115.375 E4.80209
G1 X138.114 Y115.375 E4.84185
G1 X137.832 Y115.201 E4.85838
G1 X137.66 Y114.853 E4.87775
G1 X137.656 Y114.259 E4.90738
G1 X137.057 Y114.255 E4.93727
G1 X136.692 Y113.841 E4.96481
G1 X135.526 Y116.554 E5.11213
G1 X135.358 Y116.719 E5.12388
G1 X135.045 Y116.827 E5.1404
G1 X133.952 Y116.826 E5.19493
G1 X133.672 Y116.727 E5.20974
G1 X133.513 Y116.572 E5.22082
G1 X133.419 Y116.364 E5.23221
G1 X133.405 Y116.028 E5.24899
G0 F3600 X133.165 Y116.679
G0 X131.381 Y116.736
G0 X130.548 Y116.43
G0 X129.914 Y115.499
G0 X129.81 Y111.562
G0 X130.119 Y110.645
G0 X131.075 Y109.996
G0 X132.307 Y109.992
G0 X133.5 Y111.02
G0 X133.349 Y111.622
;TYPE:WALL-OUTER
G1 F1944.4 X133.355 Y111.496 E5.25578
G1 F2033.9 X133.509 Y111.304 E5.26846
G1 F2100 X133.805 Y111.296 E5.28323
G1 X133.808 Y110.41 E5.32744
G1 X133.85 Y110.32 E5.33239
G1 X133.949 Y110.248 E5.3385
G1 X134.96 Y110.25 E5.38894
G1 X135.064 Y110.3 E5.3947
G1 X135.128 Y110.448 E5.40274
G1 X135.128 Y111.296 E5.44505
G1 X136.723 Y111.298 E5.52462
G1 X136.854 Y111.377 E5.53225
G1 X136.892 Y111.496 E5.53849
G1 X136.892 Y112.32 E5.5796
G1 F1555.6 X136.818 Y112.882 E5.61777
G1 X137.131 Y112.816 E5.63932
G1 F2100 X138.056 Y112.816 E5.68547
G1 X138.056 Y111.807 E5.73581
G1 X138.217 Y111.687 E5.74582
G1 X138.939 Y111.685 E5.78185
G1 X139.055 Y111.744 E5.78834
G1 X139.111 Y111.838 E5.7938
G1 X139.111 Y112.816 E5.84259
G1 X140.084 Y112.816 E5.89113
G1 X140.173 Y112.868 E5.89628
G1 X140.237 Y112.998 E5.9035
G1 X140.234 Y113.697 E5.93838
G1 X140.163 Y113.815 E5.94525
G1 X140.086 Y113.859 E5.94967
G1 X139.111 Y113.859 E5.99832
G1 X139.111 Y114.777 E6.04412
G1 X139.065 Y114.904 E6.05085
G1 X138.968 Y114.975 E6.05685
G1 X138.208 Y114.975 E6.09477
G1 X138.114 Y114.917 E6.10028
G1 X138.057 Y114.801 E6.10673
G1 X138.056 Y113.859 E6.15372
G1 X137.106 Y113.858 E6.20112
G1 X136.931 Y113.659 E6.21434
G1 F1931 X136.799 Y112.916 E6.25528
G1 X136.384 Y113.546 E6.29621
G1 F2100 X135.175 Y116.346 E6.44837
G1 X135.024 Y116.427 E6.45692
G1 X133.958 Y116.427 E6.5101
G1 X133.872 Y116.378 E6.51504
G1 X133.809 Y116.273 E6.52115
G1 X133.805 Y115.582 E6.55563
G1 F1962.6 X133.777 Y115.096 E6.58161
G1 F1822.1 X133.772 Y114.227 E6.63158
G1 F1940 X133.805 Y113.813 E6.65401
G1 F2100 X133.805 Y112.522 E6.71842
G1 F2053.8 X133.446 Y112.493 E6.73679
G1 F1962.6 X133.352 Y112.359 E6.74553
G1 F2004.8 X133.248 Y112.926 E6.77565
G1 F2100 X133.063 Y113.294 E6.7962
G1 X132.855 Y113.512 E6.81124
G1 X133.073 Y113.717 E6.82617
G1 F2053.8 X133.221 Y114.001 E6.8425
G1 F1900.5 X133.311 Y114.28 E6.85866
G1 F1822.1 X133.325 Y115.057 E6.90335
G1 F1962.6 X133.189 Y115.588 E6.93261
G1 F2100 X132.978 Y115.974 E6.95455
G1 X132.68 Y116.25 E6.97482
G1 X132.448 Y116.374 E6.98794
G1 X132.076 Y116.48 E7.00724
G1 X131.418 Y116.496 E7.04008
G1 X130.907 Y116.359 E7.06647
G1 X130.7 Y116.244 E7.07829
G1 X130.437 Y116.004 E7.09605
G1 X130.286 Y115.784 E7.10936
G1 X130.154 Y115.458 E7.12691
G1 X130.087 Y115.04 E7.14803
G1 X130.089 Y114.471 E7.17642
G1 X130.136 Y114.16 E7.19211
G1 X130.239 Y113.871 E7.20742
G1 X130.401 Y113.618 E7.2224
G1 X130.542 Y113.492 E7.23184
G1 X130.359 Y113.341 E7.24367
G1 X130.122 Y112.88 E7.26954
G1 X130.05 Y112.401 E7.2937
G1 X130.049 Y111.586 E7.33436
G1 X130.126 Y111.208 E7.35361
G1 X130.335 Y110.762 E7.37818
G1 X130.571 Y110.507 E7.39552
G1 X130.785 Y110.366 E7.4083
G1 X131.141 Y110.227 E7.42737
G1 X131.545 Y110.169 E7.44773
G1 X132.261 Y110.233 E7.48359
G1 X132.702 Y110.422 E7.50753
G1 X132.931 Y110.609 E7.52228
G1 X133.141 Y110.9 E7.54018
G1 X133.231 Y111.107 E7.55145
G1 F2004.8 X133.349 Y111.622 E7.57906
G0 F3600 X133.355 Y111.496
G0 X133.401 Y111.439
G1 F1500 E6.57906
G0 F3600 X133.5 Y111.02
G0 X132.831 Y110.217
G0 X131.543 Y109.926
G0 X130.674 Y110.151
G0 X129.887 Y111.156
G0 X129.811 Y112.202
G0 X128.578 Y112.599
G0 X126.911 Y112.686
G0 X127.099 Y112.818
G1 F1500 E7.57906
G1 F1850.2 X128.191 Y112.817 E7.64089
G1 F2199 X128.339 Y112.882 E7.64859
G1 F2100 X128.375 Y113.01 E7.65523
G1 X128.204 Y116.315 E7.82033
G1 X128.046 Y116.424 E7.82991
G1 X125.492 Y116.425 E7.95733
G1 X125.375 Y116.26 E7.96742
G1 X125.375 Y115.402 E8.01023
G1 X125.443 Y115.251 E8.01849
G1 X125.575 Y115.201 E8.02553
G1 F1904.8 X126.356 Y115.16 E8.06855
G1 F1717.8 X126.95 Y115.153 E8.10478
G1 F1690.1 X126.981 Y114.581 E8.14029
G1 F1717.8 X126.401 Y114.682 E8.1762
G1 F1904.8 X125.879 Y114.518 E8.20629
G1 F2100 X125.519 Y114.221 E8.22958
G1 X125.318 Y113.822 E8.25187
G1 X125.228 Y113.352 E8.27574
G1 X125.23 Y111.639 E8.3612
G1 X125.363 Y111.013 E8.39313
G1 X125.633 Y110.596 E8.41791
G1 X125.982 Y110.34 E8.43951
G1 X126.278 Y110.227 E8.45532
G1 X126.914 Y110.169 E8.48718
G1 X127.316 Y110.227 E8.50744
G1 X127.778 Y110.434 E8.5327
G1 X127.964 Y110.593 E8.54491
G1 X128.23 Y110.996 E8.569
G1 X128.372 Y111.523 E8.59623
G1 X128.375 Y112.302 E8.63509
G1 X128.339 Y112.39 E8.63983
G1 F2199 X128.191 Y112.455 E8.64754
G1 F1850.2 X127.099 Y112.455 E8.70937
G1 F1640.6 X127.065 Y112.314 E8.71863
G1 F1761 X127.061 Y111.626 E8.75957
G1 F1772.2 X126.959 Y111.463 E8.77093
G1 X126.829 Y111.434 E8.77881
G1 X126.664 Y111.48 E8.78894
G1 X126.588 Y111.685 E8.80186
G1 F1761 X126.59 Y112.355 E8.84172
G1 F1640.6 X126.624 Y112.637 E8.85986
G1 F1656.8 X126.587 Y113.127 E8.89093
G1 F1783.4 X126.635 Y113.301 E8.90154
G1 X126.708 Y113.36 E8.90705
G1 X126.942 Y113.359 E8.9208
G1 X127.021 Y113.293 E8.92685
G1 F1656.8 X127.099 Y112.818 E8.95729
