; generated by PrusaSlicer 2.6.0-alpha4+MacOS-x64 on 2023-03-19 at 15:11:32 UTC

; 

; external perimeters extrusion width = 0.40mm
; perimeters extrusion width = 0.40mm
; infill extrusion width = 0.40mm
; solid infill extrusion width = 0.40mm
; top infill extrusion width = 0.40mm
; support material extrusion width = 0.36mm
; first layer extrusion width = 0.40mm

M107
;TYPE:Custom
; Ender 3 Custom Start G-code
G92 E0 ; Reset Extruder

M140 S70 ; set bed temp
M190 S70 ; wait for bed temp

G28 ; Home all axes
M104 S245 ; set extruder temp 
BED_MESH_CALIBRATE AREA_START=86.7502,97.2611 AREA_END=144.25,133.739

G1 Z2.0 F3000 ; Move Z Axis up little to prevent scratching of Heat Bed
M109 S245 ; wait for extruder temp
G1 X0.1 Y20 Z0.3 F5000.0 ; Move to start position

G1 X0.1 Y200.0 Z0.3 F1500.0 E15 ; Draw the first line
G1 X0.4 Y200.0 Z0.3 F5000.0 ; Move to side a little
G1 X0.4 Y20 Z0.3 F1500.0 E30 ; Draw the second line
G92 E0 ; Reset Extruder
G1 Z2.0 F3000 ; Move Z Axis up little to prevent scratching of Heat Bed
G1 X5 Y20 Z0.3 F5000.0 ; Move over to prevent blob squish
G21 ; set units to millimeters
G90 ; use absolute coordinates
M83 ; use relative distances for extrusion
; Filament gcode
M107
;LAYER_CHANGE
;Z:0.2
;HEIGHT:0.2
;BEFORE_LAYER_CHANGE
G92 E0
;0.2


G1 E-5 F3600
G1 Z.2 F9000
;AFTER_LAYER_CHANGE
;0.2
G1 X90.713 Y100.466
G1 E5 F2400
M204 S500
;TYPE:Skirt/Brim
;WIDTH:0.4
G1 F1440
G1 X91.655 Y99.705 E.03596
G1 X92.671 Y99.045 E.03597
G1 X94.131 Y98.329 E.04828
G1 X96.047 Y97.73 E.0596
G1 X97.649 Y97.485 E.04812
G1 X132.55 Y97.445 E1.03626
G1 X133.756 Y97.526 E.03589
G1 X134.953 Y97.73 E.03605
G1 X136.869 Y98.329 E.0596
G1 X138.329 Y99.045 E.04828
G1 X139.968 Y100.19 E.05936
G1 X140.854 Y101.011 E.03586
G1 X141.653 Y101.925 E.03605
G1 X142.573 Y103.288 E.04883
G1 X143.406 Y105.087 E.05886
G1 X143.85 Y106.682 E.04916
G1 X144.023 Y107.882 E.036
G1 X144.071 Y108.873 E.02946
G1 X144.071 Y122.127 E.39353
G1 X144.023 Y123.118 E.02946
G1 X143.85 Y124.318 E.036
G1 X143.406 Y125.913 E.04916
G1 X142.936 Y127.025 E.03584
G1 X142.347 Y128.088 E.03608
G1 X141.653 Y129.075 E.03582
G1 X140.854 Y129.989 E.03605
G1 X139.345 Y131.295 E.05925
G1 X138.329 Y131.955 E.03597
G1 X136.866 Y132.673 E.04839
G1 X134.953 Y133.27 E.0595
G1 X133.351 Y133.515 E.04812
G1 X97.649 Y133.515 E1.06004
G1 X96.047 Y133.27 E.04812
G1 X94.883 Y132.949 E.03585
G1 X93.75 Y132.508 E.0361
G1 X92.671 Y131.955 E.036
G1 X91.655 Y131.295 E.03597
G1 X90.713 Y130.534 E.03596
G1 X89.851 Y129.674 E.03615
G1 X89.09 Y128.734 E.03591
G1 X88.427 Y127.712 E.03617
G1 X87.594 Y125.913 E.05886
G1 X87.245 Y124.75 E.03605
G1 X86.977 Y123.118 E.04911
G1 X86.977 Y107.882 E.45238
G1 X87.15 Y106.682 E.036
G1 X87.452 Y105.507 E.03602
G1 X87.882 Y104.367 E.03618
G1 X88.427 Y103.288 E.03589
G1 X89.09 Y102.266 E.03617
G1 X89.851 Y101.326 E.03591
G1 X90.671 Y100.508 E.03439
G1 X90.922 Y100.761 F9000
G1 F1440
G1 X91.874 Y99.987 E.03643
G1 X92.86 Y99.348 E.03489
G1 X94.255 Y98.664 E.04613
G1 X96.137 Y98.075 E.05855
G1 X97.668 Y97.842 E.04598
G1 X132.532 Y97.801 E1.03516
G1 X133.703 Y97.88 E.03485
G1 X134.863 Y98.075 E.03493
G1 X136.745 Y98.664 E.05855
G1 X138.14 Y99.348 E.04613
G1 X139.749 Y100.472 E.05828
G1 X140.607 Y101.268 E.03475
G1 X141.38 Y102.155 E.03493
G1 X142.258 Y103.455 E.04658
G1 X143.074 Y105.22 E.05773
G1 X143.498 Y106.74 E.04685
G1 X143.667 Y107.902 E.03486
G1 X143.714 Y108.873 E.02886
G1 X143.714 Y122.127 E.39353
G1 X143.667 Y123.098 E.02886
G1 X143.498 Y124.26 E.03486
G1 X143.074 Y125.78 E.04685
G1 X142.621 Y126.858 E.03472
G1 X142.051 Y127.888 E.03495
G1 X141.38 Y128.845 E.0347
G1 X140.607 Y129.732 E.03493
G1 X139.126 Y131.013 E.05814
G1 X138.14 Y131.652 E.03489
G1 X136.742 Y132.338 E.04624
G1 X134.863 Y132.925 E.05845
G1 X133.332 Y133.158 E.04598
G1 X98.468 Y133.199 E1.03516
G1 X96.506 Y133 E.05855
G1 X95.363 Y132.725 E.03491
G1 X94.258 Y132.338 E.03476
G1 X93.193 Y131.838 E.03493
G1 X91.874 Y131.013 E.04619
G1 X90.96 Y130.276 E.03486
G1 X90.124 Y129.444 E.03502
G1 X89.385 Y128.534 E.03481
G1 X88.742 Y127.545 E.03503
G1 X87.926 Y125.78 E.05773
G1 X87.589 Y124.654 E.0349
G1 X87.333 Y123.098 E.04682
G1 X87.333 Y107.902 E.45119
G1 X87.503 Y106.74 E.03487
G1 X87.796 Y105.603 E.03486
G1 X88.213 Y104.5 E.03501
G1 X88.743 Y103.455 E.03479
G1 X89.385 Y102.466 E.03501
G1 X90.124 Y101.556 E.03481
G1 X90.88 Y100.804 E.03166
G1 X91.131 Y101.057 F9000
G1 F1440
G1 X92.094 Y100.268 E.03696
G1 X93.049 Y99.65 E.03377
G1 X94.379 Y98.999 E.04397
G1 X96.226 Y98.421 E.05746
G1 X97.686 Y98.199 E.04385
G1 X132.514 Y98.158 E1.03409
G1 X133.649 Y98.233 E.03377
G1 X134.774 Y98.421 E.03387
G1 X136.621 Y98.999 E.05746
G1 X137.951 Y99.65 E.04397
G1 X139.529 Y100.753 E.05716
G1 X140.359 Y101.526 E.03368
G1 X141.107 Y102.385 E.03382
G1 X141.942 Y103.622 E.04431
G1 X142.743 Y105.352 E.0566
G1 X143.145 Y106.798 E.04456
G1 X143.357 Y108.873 E.06193
G1 X143.357 Y122.127 E.39353
G1 X143.145 Y124.202 E.06193
G1 X142.743 Y125.648 E.04456
G1 X142.305 Y126.691 E.03359
G1 X141.756 Y127.688 E.03379
G1 X141.107 Y128.615 E.0336
G1 X140.359 Y129.474 E.03382
G1 X138.906 Y130.732 E.05706
G1 X137.951 Y131.35 E.03377
G1 X136.619 Y132.003 E.04405
G1 X134.774 Y132.579 E.05739
G1 X133.314 Y132.801 E.04385
G1 X98.486 Y132.842 E1.03409
G1 X96.559 Y132.647 E.05751
G1 X95.452 Y132.379 E.03382
G1 X94.381 Y132.003 E.0337
G1 X93.351 Y131.517 E.03382
G1 X92.094 Y130.732 E.044
G1 X91.208 Y130.019 E.03377
G1 X90.397 Y129.214 E.03393
G1 X89.681 Y128.334 E.03368
G1 X89.058 Y127.378 E.03388
G1 X88.257 Y125.648 E.0566
G1 X87.933 Y124.558 E.03376
G1 X87.69 Y123.079 E.0445
G1 X87.69 Y107.921 E.45006
G1 X87.855 Y106.798 E.0337
G1 X88.14 Y105.698 E.03374
G1 X88.545 Y104.633 E.03383
G1 X89.058 Y103.622 E.03366
G1 X89.681 Y102.666 E.03388
G1 X90.397 Y101.786 E.03368
G1 X91.089 Y101.099 E.02895
; printing object NO_TXT_Kostka.stl id:0 copy 0
G1 E-3.5 F3600
;WIPE_START
G1 F7200
G1 X92.094 Y100.268 E-.61943
G1 X93.049 Y99.65 E-.54032
G1 X93.692 Y99.335 E-.34025
;WIPE_END
G1 X102.42 Y113.272 F9000
G1 E5 F2400
;TYPE:External perimeter
;WIDTH:0.540625
G1 F1440
G1 X102.183 Y113.279 E.00981
;WIDTH:0.540402
G1 X102.101 Y113.211 E.00441
G1 X102.079 Y113.054 E.00656
G1 X102.152 Y112.91 E.00668
;WIDTH:0.540625
G1 X102.345 Y112.806 E.00907
G1 X102.781 Y112.771 E.0181
G1 X102.747 Y113.062 E.01212
G1 X102.524 Y113.27 E.01262
G1 X102.479 Y113.271 E.00186
G1 X102.261 Y113.096 F9000
G1 E-3.5 F3600
;WIPE_START
G1 F7200
G1 X102.183 Y113.279 E-.14065
G1 X102.101 Y113.211 E-.0506
G1 X102.079 Y113.054 E-.0753
G1 X102.152 Y112.91 E-.07669
G1 X102.345 Y112.806 E-.10414
G1 X102.781 Y112.771 E-.20777
G1 X102.747 Y113.062 E-.13917
G1 X102.524 Y113.27 E-.14485
G1 X102.479 Y113.271 E-.02138
;WIPE_END
G1 E-.53945 F3600
G1 X104.148 Y110.912 F9000
G1 E5 F2400
;WIDTH:0.604504
G1 F1440
G1 X104.155 Y111.409 E.02321
G1 E-3.5 F3600
;WIPE_START
G1 F7200
G1 X104.148 Y110.912 E-.2361
;WIPE_END
G1 E-1.2639 F3600
G1 X107.595 Y114.303 F9000
G1 E5 F2400
;TYPE:Perimeter
;WIDTH:0.399999
G1 F1440
G1 X107.563 Y114.349 E.00166
G1 X107.18 Y114.667 E.01478
G1 X106.838 Y114.826 E.0112
G1 X106.307 Y114.979 E.01641
G1 X105.749 Y114.974 E.01657
G1 X105.301 Y114.902 E.01347
G1 X104.821 Y114.707 E.01538
G1 X104.421 Y114.384 E.01527
G1 X104.192 Y114.07 E.01154
G1 X104.145 Y113.967 E.00336
G1 X103.843 Y114.399 E.01565
G1 X103.526 Y114.666 E.01231
G1 X103.149 Y114.859 E.01258
G1 X102.694 Y114.971 E.01391
G1 X102.049 Y114.98 E.01915
G1 X101.347 Y114.797 E.02154
G1 X100.961 Y114.577 E.01319
G1 X100.607 Y114.204 E.01527
G1 X100.418 Y113.849 E.01194
G1 X100.251 Y114.178 E.01095
G1 X100.004 Y114.464 E.01122
G1 X99.713 Y114.691 E.01096
G1 X99.343 Y114.87 E.0122
G1 X98.936 Y114.972 E.01246
G1 X98.507 Y114.999 E.01276
G1 X98.052 Y114.953 E.01358
G1 X97.641 Y114.826 E.01277
G1 X97.288 Y114.631 E.01197
G1 X96.911 Y114.271 E.01548
G1 X96.643 Y113.838 E.01512
G1 X96.451 Y113.237 E.01873
G1 X96.367 Y112.617 E.01858
G1 X96.351 Y112.061 E.01652
G1 X96.363 Y111.53 E.01577
G1 X96.432 Y110.949 E.01737
G1 X96.576 Y110.446 E.01553
G1 X96.671 Y110.21 E.00755
G1 X96.965 Y109.766 E.01581
G1 X97.319 Y109.445 E.01419
G1 X97.745 Y109.233 E.01413
G1 X98.194 Y109.133 E.01366
G1 X98.892 Y109.133 E.02072
G1 X99.383 Y109.244 E.01495
G1 X99.809 Y109.477 E.01442
G1 X100.107 Y109.748 E.01196
G1 X100.381 Y110.186 E.01534
G1 X100.542 Y109.888 E.01006
G1 X100.908 Y109.537 E.01506
G1 X101.195 Y109.358 E.01004
G1 X101.618 Y109.201 E.0134
G1 X102.236 Y109.114 E.01853
G1 X102.768 Y109.14 E.01581
G1 X103.226 Y109.262 E.01407
G1 X103.624 Y109.467 E.01329
G1 X103.961 Y109.767 E.0134
G1 X104.143 Y110.017 E.00918
G1 X104.479 Y109.62 E.01544
G1 X104.825 Y109.374 E.01261
G1 X105.238 Y109.211 E.01318
G1 X105.824 Y109.117 E.01762
G1 X106.393 Y109.141 E.01691
G1 X106.793 Y109.234 E.01219
G1 X107.178 Y109.399 E.01244
G1 X107.53 Y109.647 E.01278
G1 X107.843 Y110.016 E.01437
G1 X108.022 Y110.342 E.01104
G1 X108.143 Y110.778 E.01343
G1 X108.171 Y111.249 E.01401
G1 X108.095 Y111.752 E.0151
G1 X107.809 Y112.317 E.0188
G1 X107.989 Y112.808 E.01553
G1 X107.994 Y113.46 E.01936
G1 X107.845 Y113.943 E.01501
G1 X107.629 Y114.254 E.01124
G1 X107.206 Y114.184 F9000
;TYPE:External perimeter
G1 F1440
G1 X106.985 Y114.368 E.00854
G1 X106.728 Y114.487 E.00841
G1 X106.277 Y114.623 E.01399
G1 X105.636 Y114.616 E.01903
G1 X105.238 Y114.512 E.01221
G1 X104.855 Y114.293 E.0131
G1 X104.539 Y113.958 E.01367
;WIDTH:0.407047
G1 X104.382 Y113.591 E.01209
;WIDTH:0.414414
G1 X104.338 Y113.367 E.00705
G1 X104.396 Y112.763 E.01874
;WIDTH:0.452776
G1 X104.407 Y112.669 E.00323
;WIDTH:0.49137
G1 X104.418 Y112.574 E.00357
;WIDTH:0.529964
G1 X104.429 Y112.48 E.00383
G1 X104.552 Y112.301 E.0088
G1 X104.385 Y112.114 E.01015
;WIDTH:0.517646
G1 X104.384 Y112.072 E.00166
;WIDTH:0.478431
G1 X104.384 Y112.03 E.00152
;WIDTH:0.439215
G1 X104.383 Y111.988 E.00138
;WIDTH:0.448284
G1 X104.312 Y111.807 E.00655
;WIDTH:0.496568
G1 X104.241 Y111.626 E.00733
;WIDTH:0.544852
G1 X104.169 Y111.445 E.00813
;WIDTH:0.560896
G1 X104.155 Y111.409 E.00166
G1 X104.094 Y111.449 E.00314
;WIDTH:0.520672
G1 X104.033 Y111.488 E.00288
;WIDTH:0.480448
G1 X103.972 Y111.528 E.00265
;WIDTH:0.440224
G1 X103.911 Y111.568 E.00241
;WIDTH:0.399999
G1 X103.433 Y111.594 E.01421
G1 X103.028 Y111.534 E.01216
G1 X102.811 Y111.026 E.0164
G1 X102.714 Y110.867 E.00553
G1 X102.559 Y110.771 E.00541
G1 X102.302 Y110.751 E.00765
G1 X102.096 Y110.765 E.00613
G1 X101.894 Y110.91 E.00738
G1 X101.806 Y111.153 E.00767
G1 X101.882 Y111.388 E.00733
G1 X102.043 Y111.505 E.00591
G1 X102.282 Y111.593 E.00756
G1 X102.789 Y111.652 E.01516
G1 X102.877 Y111.703 E.00302
G1 X102.926 Y111.826 E.00393
G1 X102.926 Y112.534 E.02102
G1 X102.895 Y112.623 E.0028
G1 X103.03 Y112.544 E.00464
G1 X103.837 Y112.512 E.02398
;WIDTH:0.44034
G1 X103.9 Y112.519 E.00209
;WIDTH:0.480681
G1 X103.962 Y112.526 E.00227
;WIDTH:0.521021
G1 X104.025 Y112.533 E.00252
G1 X104.006 Y112.802 E.01072
;WIDTH:0.485486
G1 X103.987 Y113.071 E.00992
;WIDTH:0.44995
G1 X103.968 Y113.341 E.00916
;WIDTH:0.414414
G1 X103.911 Y113.605 E.00834
;WIDTH:0.404312
G1 X103.713 Y113.985 E.01288
;WIDTH:0.399999
G1 X103.506 Y114.222 E.00934
G1 X103.353 Y114.353 E.00598
G1 X103.049 Y114.516 E.01024
G1 X102.689 Y114.614 E.01108
G1 X102.044 Y114.623 E.01915
G1 X101.449 Y114.455 E.01836
G1 X101.122 Y114.245 E.01154
G1 X100.904 Y114.005 E.00963
G1 X100.76 Y113.745 E.00882
;WIDTH:0.403359
G1 X100.661 Y113.378 E.01139
;WIDTH:0.409854
G1 X100.647 Y113.047 E.01011
;WIDTH:0.435129
G1 X100.742 Y112.543 E.01673
;WIDTH:0.461117
G1 X100.782 Y112.457 E.0033
;WIDTH:0.487105
G1 X100.869 Y112.289 E.00699
G1 X100.725 Y112.06 E.00999
;WIDTH:0.451613
G1 X100.65 Y111.742 E.0111
;WIDTH:0.414346
G1 X100.575 Y111.424 E.01009
;WIDTH:0.417582
G1 X100.561 Y110.74 E.02131
G1 X100.661 Y110.436 E.00997
;WIDTH:0.399999
G1 X100.806 Y110.129 E.01008
G1 X101.107 Y109.834 E.01251
G1 X101.332 Y109.688 E.00796
G1 X101.668 Y109.555 E.01073
G1 X102.286 Y109.467 E.01853
G1 X102.72 Y109.495 E.01291
G1 X103.074 Y109.586 E.01085
G1 X103.398 Y109.744 E.0107
G1 X103.67 Y109.974 E.01058
G1 X103.876 Y110.282 E.011
;WIDTH:0.441721
G1 X103.942 Y110.446 E.00586
;WIDTH:0.483443
G1 X104.009 Y110.611 E.00652
;WIDTH:0.525165
G1 X104.075 Y110.775 E.00709
;WIDTH:0.564835
G1 X104.112 Y110.844 E.0034
;WIDTH:0.604504
G1 X104.148 Y110.912 E.00359
G1 X104.203 Y110.789 E.00629
;WIDTH:0.563603
G1 X104.257 Y110.665 E.00586
;WIDTH:0.522702
G1 X104.312 Y110.541 E.00541
;WIDTH:0.481801
G1 X104.367 Y110.418 E.00492
;WIDTH:0.4409
G1 X104.422 Y110.294 E.00449
;WIDTH:0.399999
G1 X104.476 Y110.166 E.00412
G1 X104.697 Y109.904 E.01018
G1 X104.969 Y109.701 E.01008
G1 X105.294 Y109.564 E.01047
G1 X105.881 Y109.47 E.01765
G1 X106.319 Y109.49 E.01302
G1 X106.661 Y109.565 E.0104
G1 X106.982 Y109.698 E.01032
G1 X107.271 Y109.893 E.01035
G1 X107.538 Y110.201 E.0121
G1 X107.681 Y110.447 E.00845
G1 X107.787 Y110.809 E.0112
G1 X107.818 Y111.2 E.01165
G1 X107.744 Y111.672 E.01419
G1 X107.533 Y112.09 E.0139
G1 X107.34 Y112.285 E.00815
G1 X107.546 Y112.578 E.01063
G1 X107.655 Y112.97 E.01208
G1 X107.635 Y113.471 E.01489
G1 X107.514 Y113.803 E.01049
G1 X107.312 Y114.095 E.01054
G1 X107.252 Y114.145 E.00232
G1 X107.273 Y114.463 F9000
G1 E-3.5 F3600
;WIPE_START
G1 F7200
G1 X106.985 Y114.368 E-.16524
G1 X106.728 Y114.487 E-.13453
G1 X106.277 Y114.623 E-.22375
G1 X105.636 Y114.616 E-.30449
G1 X105.238 Y114.512 E-.1954
G1 X104.855 Y114.293 E-.20957
G1 X104.539 Y113.958 E-.21875
G1 X104.499 Y113.865 E-.04827
;WIPE_END
G1 X103.394 Y112.061 F9000
G1 E5 F2400
;TYPE:Perimeter
;WIDTH:0.63101
G1 F1440
G1 X103.909 Y112.042 E.0252
G1 X103.938 Y112.069 E.00194
;WIDTH:0.587843
G1 X103.967 Y112.095 E.00176
G1 X102.438 Y111.12 F9000
;WIDTH:0.545612
G1 F1440
G1 X102.376 Y111.12 E.00259
G1 X102.344 Y111.174 E.00262
G1 X102.376 Y111.229 E.00266
G1 X102.438 Y111.229 E.00259
G1 X102.47 Y111.174 E.00266
G1 E-3.5 F3600
;WIPE_START
G1 F7200
G1 X102.438 Y111.229 E-.03023
G1 X102.376 Y111.229 E-.02945
G1 X102.344 Y111.174 E-.03023
G1 X102.376 Y111.12 E-.02982
G1 X102.438 Y111.12 E-.02945
;WIPE_END
G1 E-1.35082 F3600
G1 X97.075 Y110.255 F9000
G1 E5 F2400
;TYPE:External perimeter
;WIDTH:0.399999
G1 F1440
G1 X97.263 Y109.963 E.01031
G1 X97.542 Y109.727 E.01085
G1 X97.836 Y109.578 E.00979
G1 X98.274 Y109.49 E.01326
G1 X98.892 Y109.49 E.01835
G1 X99.287 Y109.591 E.01211
G1 X99.637 Y109.799 E.01209
G1 X99.909 Y110.082 E.01165
;WIDTH:0.403901
G1 X100.122 Y110.481 E.01358
;WIDTH:0.417582
G1 X100.188 Y110.757 E.00884
G1 X100.237 Y111.391 E.01981
;WIDTH:0.421345
G1 X100.33 Y112.025 E.02016
;WIDTH:0.451534
G1 X100.351 Y112.172 E.00505
;WIDTH:0.481722
G1 X100.371 Y112.319 E.00541
G1 X100.329 Y112.652 E.01225
;WIDTH:0.445788
G1 X100.286 Y112.984 E.01121
;WIDTH:0.409854
G1 X100.206 Y113.434 E.01395
;WIDTH:0.399999
G1 X100.01 Y113.896 E.0149
G1 X99.775 Y114.19 E.01118
G1 X99.409 Y114.447 E.01328
G1 X98.918 Y114.615 E.01541
G1 X98.535 Y114.643 E.0114
G1 X98.007 Y114.569 E.01583
G1 X97.541 Y114.373 E.01501
G1 X97.191 Y114.049 E.01416
G1 X96.946 Y113.641 E.01413
G1 X96.793 Y113.134 E.01572
G1 X96.721 Y112.573 E.01679
G1 X96.708 Y112.052 E.01547
G1 X96.72 Y111.539 E.01524
G1 X96.786 Y110.992 E.01636
G1 X96.947 Y110.454 E.01667
G1 X97.042 Y110.305 E.00525
G1 X96.896 Y109.958 F9000
G1 E-3.5 F3600
;WIPE_START
G1 F7200
G1 X97.263 Y109.963 E-.19342
G1 X97.542 Y109.727 E-.17358
G1 X97.836 Y109.578 E-.15656
G1 X98.274 Y109.49 E-.21221
G1 X98.892 Y109.49 E-.29355
G1 X99.287 Y109.591 E-.19366
G1 X99.637 Y109.799 E-.19339
G1 X99.759 Y109.926 E-.08363
;WIPE_END
G1 X136.389 Y127.585 F9000
G1 E5 F2400
;TYPE:Perimeter
G1 F1440
G1 X135.7 Y128.002 E.02391
G1 X135.037 Y128.308 E.02168
G1 X134.3 Y128.556 E.02309
G1 X133.63 Y128.71 E.02041
G1 X132.903 Y128.803 E.02176
G1 X132.167 Y128.822 E.02186
G1 X131.436 Y128.768 E.02176
G1 X130.713 Y128.64 E.0218
G1 X130.013 Y128.441 E.02161
G1 X129.334 Y128.172 E.02168
G1 X128.693 Y127.839 E.02145
G1 X127.968 Y127.347 E.02601
G1 X127.538 Y126.991 E.01657
G1 X127.038 Y126.489 E.02104
G1 X126.561 Y125.889 E.02276
G1 X126.218 Y125.357 E.01879
G1 X125.906 Y124.742 E.02048
