; generated by PrusaSlicer 2.6.0-rc2+win64 on 2023-06-17 at 23:14:52 UTC

; 

; external perimeters extrusion width = 0.42mm
; perimeters extrusion width = 0.44mm
; infill extrusion width = 0.44mm
; solid infill extrusion width = 0.44mm
; top infill extrusion width = 0.40mm
; first layer extrusion width = 0.42mm

;TYPE:Custom
; Ender 3 Custom Start G-code
G92 E0 ; Reset Extruder

M140 S50 ; set bed temp
M190 S50 ; wait for bed temp

G28 ; Home all axes
M104 S205 ; set extruder temp 
BED_MESH_CALIBRATE AREA_START=83.7684,88.5669 AREA_END=143.763,126.207

G1 Z2.0 F3000 ; Move Z Axis up little to prevent scratching of Heat Bed
M109 S205 ; wait for extruder temp
G1 X0.1 Y20 Z0.3 F5000.0 ; Move to start position

G1 X0.1 Y200.0 Z0.3 F1500.0 E15 ; Draw the first line
G1 X0.4 Y200.0 Z0.3 F5000.0 ; Move to side a little
G1 X0.4 Y20 Z0.3 F1500.0 E30 ; Draw the second line
G92 E0 ; Reset Extruder
G1 Z2.0 F3000 ; Move Z Axis up little to prevent scratching of Heat Bed
G1 X5 Y20 Z0.3 F5000.0 ; Move over to prevent blob squish
G21 ; set units to millimeters
G90 ; use absolute coordinates
M83 ; use relative distances for extrusion
; Filament gcode
M107
;LAYER_CHANGE
;Z:0.2
;HEIGHT:0.2
;BEFORE_LAYER_CHANGE
G92 E0
;0.2


G1 E-1.6 F2400
G1 Z.2 F6000
;AFTER_LAYER_CHANGE
;0.2
G1 X87.857 Y91.701
G1 E1.6 F2400
M204 S500
;TYPE:Skirt/Brim
;WIDTH:0.42
G1 F1200
G1 X88.725 Y90.996 E.0312
G1 X89.656 Y90.382 E.03112
G1 X91.322 Y89.564 E.05179
G1 X93.099 Y89.026 E.05181
G1 X94.721 Y88.79 E.04574
G1 X131.692 Y88.755 E1.03169
G1 X132.884 Y88.805 E.03329
G1 X133.843 Y88.938 E.02702
G1 X135.87 Y89.494 E.05865
G1 X137.7 Y90.365 E.05656
G1 X139.14 Y91.376 E.0491
G1 X140.583 Y92.775 E.05609
G1 X141.374 Y93.79 E.03591
G1 X141.835 Y94.519 E.02407
G1 X142.681 Y96.304 E.05512
G1 X143.24 Y98.341 E.05894
G1 X143.425 Y100.341 E.05605
G1 X143.575 Y114.341 E.3907
G1 X143.503 Y115.668 E.03708
G1 X143.296 Y116.888 E.03453
G1 X142.676 Y118.864 E.05779
G1 X141.69 Y120.733 E.05897
G1 X140.467 Y122.296 E.05538
G1 X139.688 Y123.064 E.03053
G1 X138.815 Y123.771 E.03135
G1 X137.173 Y124.778 E.05375
G1 X136.08 Y125.257 E.0333
G1 X134.281 Y125.783 E.0523
G1 X132.523 Y126.003 E.04944
G1 X95.078 Y126.009 E1.04491
G1 X93.39 Y125.81 E.04743
G1 X92.295 Y125.542 E.03146
G1 X91.185 Y125.153 E.03282
G1 X89.854 Y124.506 E.0413
G1 X88.8 Y123.835 E.03487
G1 X87.852 Y123.076 E.03389
G1 X86.76 Y121.96 E.04357
G1 X86.154 Y121.19 E.02734
G1 X85.328 Y119.862 E.04364
G1 X84.772 Y118.665 E.03683
G1 X84.319 Y117.276 E.04077
G1 X84.013 Y115.506 E.05013
G1 X83.957 Y114.505 E.02798
G1 X83.987 Y99.578 E.41654
G1 X84.339 Y97.433 E.06066
G1 X84.956 Y95.673 E.05204
G1 X85.359 Y94.854 E.02547
G1 X86.242 Y93.468 E.04586
G1 X86.875 Y92.684 E.02812
G1 X87.814 Y91.744 E.03708
G1 X88.08 Y92.01 F6000
G1 F1200
G1 X88.937 Y91.308 E.03091
G1 X89.836 Y90.714 E.03007
G1 X91.455 Y89.917 E.05036
G1 X92.992 Y89.437 E.04493
G1 X94.74 Y89.166 E.04936
G1 X131.692 Y89.133 E1.03116
G1 X133.767 Y89.308 E.05811
G1 X135.748 Y89.851 E.05732
G1 X137.509 Y90.69 E.05443
G1 X138.893 Y91.661 E.04718
G1 X140.304 Y93.029 E.05484
G1 X141.07 Y94.013 E.0348
G1 X141.565 Y94.802 E.02599
G1 X142.414 Y96.673 E.05733
G1 X142.882 Y98.473 E.0519
G1 X143.048 Y100.345 E.05244
G1 X143.198 Y114.345 E.3907
G1 X143.13 Y115.614 E.03546
G1 X142.924 Y116.824 E.03425
G1 X142.331 Y118.712 E.05522
G1 X141.369 Y120.534 E.0575
G1 X140.198 Y122.031 E.05304
G1 X139.594 Y122.642 E.02397
G1 X138.603 Y123.459 E.03584
G1 X136.981 Y124.453 E.05309
G1 X135.395 Y125.098 E.04778
G1 X134.218 Y125.411 E.03399
G1 X132.355 Y125.634 E.05236
G1 X95.105 Y125.633 E1.03947
G1 X93.449 Y125.437 E.04653
G1 X92.304 Y125.154 E.03291
G1 X91.337 Y124.807 E.02867
G1 X90.03 Y124.173 E.04054
G1 X89.019 Y123.528 E.03346
G1 X88.102 Y122.794 E.03278
G1 X87.039 Y121.706 E.04245
G1 X86.452 Y120.958 E.02653
G1 X85.657 Y119.676 E.04209
G1 X85.128 Y118.539 E.03499
G1 X84.684 Y117.182 E.03984
G1 X84.387 Y115.46 E.04876
G1 X84.334 Y114.505 E.02669
G1 X84.363 Y99.603 E.41585
G1 X84.7 Y97.541 E.0583
G1 X85.307 Y95.811 E.05116
G1 X85.705 Y95.004 E.02511
G1 X86.553 Y93.681 E.04385
G1 X87.156 Y92.934 E.02679
G1 X88.038 Y92.052 E.03481
G1 X88.304 Y92.318 F6000
G1 F1200
G1 X89.149 Y91.62 E.03058
G1 X90.029 Y91.037 E.02946
G1 X91.588 Y90.27 E.04848
G1 X93.208 Y89.773 E.04729
G1 X94.758 Y89.543 E.04373
G1 X131.692 Y89.51 E1.03066
G1 X133.69 Y89.677 E.05595
G1 X135.628 Y90.208 E.05607
G1 X137.318 Y91.015 E.05226
G1 X138.647 Y91.947 E.0453
G1 X140.013 Y93.269 E.05305
G1 X140.766 Y94.236 E.0342
G1 X141.237 Y94.988 E.02476
G1 X142.054 Y96.785 E.05509
G1 X142.512 Y98.545 E.05075
G1 X142.671 Y100.349 E.05054
G1 X142.821 Y114.349 E.3907
G1 X142.744 Y115.641 E.03612
G1 X142.521 Y116.917 E.03615
G1 X142.276 Y117.78 E.02503
G1 X141.409 Y119.75 E.06006
G1 X140.675 Y120.874 E.03746
G1 X140.018 Y121.672 E.02884
G1 X139.333 Y122.37 E.02729
G1 X138.39 Y123.147 E.0341
G1 X136.804 Y124.12 E.05192
G1 X135.27 Y124.742 E.04619
G1 X134.141 Y125.042 E.0326
G1 X132.345 Y125.257 E.05048
G1 X95.131 Y125.257 E1.03847
G1 X93.508 Y125.065 E.04561
G1 X92.409 Y124.792 E.0316
G1 X91.488 Y124.462 E.0273
G1 X90.206 Y123.839 E.03978
G1 X89.238 Y123.221 E.03205
G1 X88.306 Y122.47 E.0334
G1 X87.318 Y121.453 E.03957
G1 X86.76 Y120.741 E.02524
G1 X85.985 Y119.491 E.04104
G1 X85.483 Y118.413 E.03318
G1 X85.05 Y117.087 E.03893
G1 X84.761 Y115.415 E.04735
G1 X84.739 Y99.629 E.44051
G1 X85.061 Y97.651 E.05592
G1 X85.658 Y95.949 E.05033
G1 X86.04 Y95.178 E.02401
G1 X86.862 Y93.897 E.04247
G1 X87.438 Y93.185 E.02556
G1 X88.262 Y92.361 E.03252
; printing object Shape-Box id:0 copy 0
G1 E-1.12 F2400
;WIPE_START
G1 F4800
G1 X89.038 Y91.713 E-.48
;WIPE_END
G1 X124.987 Y110.438 F6000
G1 E1.6 F2400
;TYPE:Perimeter
G1 F1200
G1 X125.02 Y110.558 E.00347
G1 X124.718 Y110.622 E.00861
G1 X124.566 Y110.629 E.00425
G1 X124.47 Y110.607 E.00275
G1 X124.351 Y110.51 E.00428
G1 X124.315 Y110.431 E.00242
G1 X124.306 Y110.302 E.00361
G1 X124.334 Y110.181 E.00347
G1 X124.438 Y110.038 E.00493
G1 X124.594 Y109.969 E.00476
G1 X124.724 Y109.968 E.00363
G1 X124.799 Y109.995 E.00222
G1 X124.842 Y110.034 E.00162
G1 X124.913 Y110.169 E.00426
G1 X124.971 Y110.38 E.00611
G1 X126.617 Y110.824 F6000
G1 F1200
G1 X126.723 Y111.195 E.01077
G1 X127.1 Y111.72 E.01804
G1 X126.929 Y112.05 E.01037
G1 X125.649 Y111.859 E.03611
G1 X125.695 Y111.632 E.00646
G1 X125.775 Y110.947 E.01925
G1 X126.557 Y110.832 E.02206
G1 E-1.12 F2400
;WIPE_START
G1 F4800
G1 X126.723 Y111.195 E-.1896
G1 X127.08 Y111.692 E-.2904
;WIPE_END
G1 X124.907 Y112.478 F6000
G1 E1.6 F2400
G1 F1200
G1 X124.861 Y112.63 E.00443
G1 X124.775 Y112.73 E.00368
G1 X124.617 Y112.744 E.00443
G1 X124.545 Y112.703 E.00231
G1 X124.549 Y112.58 E.00343
G1 X124.611 Y112.542 E.00203
G1 X124.847 Y112.481 E.0068
G1 E-1.12 F2400
;WIPE_START
G1 F4800
G1 X124.861 Y112.63 E-.07109
G1 X124.775 Y112.73 E-.06265
G1 X124.617 Y112.744 E-.07534
G1 X124.545 Y112.703 E-.03936
G1 X124.549 Y112.58 E-.05846
G1 X124.611 Y112.542 E-.03454
G1 X124.847 Y112.481 E-.11578
;WIPE_END
G1 E-.02278 F2400
G1 X129.202 Y112.478 F6000
G1 E1.6 F2400
G1 F1200
G1 X129.156 Y112.63 E.00443
G1 X129.07 Y112.73 E.00368
G1 X128.913 Y112.744 E.0044
G1 X128.84 Y112.703 E.00234
G1 X128.844 Y112.58 E.00343
G1 X128.906 Y112.542 E.00203
G1 X129.143 Y112.481 E.00683
G1 E-1.12 F2400
;WIPE_START
G1 F4800
G1 X129.156 Y112.63 E-.07104
G1 X129.07 Y112.73 E-.06265
G1 X128.913 Y112.744 E-.07487
G1 X128.84 Y112.703 E-.03977
G1 X128.844 Y112.58 E-.05846
G1 X128.906 Y112.542 E-.03454
G1 X129.143 Y112.481 E-.11624
;WIPE_END
G1 E-.02243 F2400
G1 X129.28 Y110.435 F6000
G1 E1.6 F2400
G1 F1200
G1 X129.314 Y110.558 E.00356
G1 X129.013 Y110.622 E.00859
G1 X128.861 Y110.629 E.00425
G1 X128.765 Y110.607 E.00275
G1 X128.647 Y110.51 E.00426
G1 X128.611 Y110.431 E.00242
G1 X128.602 Y110.302 E.00361
G1 X128.63 Y110.181 E.00347
G1 X128.734 Y110.038 E.00493
G1 X128.89 Y109.969 E.00476
G1 X129.019 Y109.968 E.0036
G1 X129.094 Y109.995 E.00222
G1 X129.137 Y110.034 E.00162
G1 X129.208 Y110.168 E.00423
G1 X129.264 Y110.377 E.00604
G1 E-1.12 F2400
;WIPE_START
G1 F4800
G1 X129.314 Y110.558 E-.0892
G1 X129.013 Y110.622 E-.14617
G1 X128.861 Y110.629 E-.07228
G1 X128.765 Y110.607 E-.04678
G1 X128.647 Y110.51 E-.07256
G1 X128.611 Y110.431 E-.04124
G1 X128.609 Y110.406 E-.01177
;WIPE_END
G1 X119.334 Y108.495 F6000
G1 E1.6 F2400
G1 F1200
G1 X119.699 Y108.849 E.01419
G1 X119.874 Y109.104 E.00863
G1 X120.013 Y109.37 E.00838
G1 X120.129 Y109.666 E.00887
G1 X120.277 Y110.276 E.01752
G1 X120.349 Y110.975 E.01961
G1 X120.345 Y111.821 E.02361
G1 X120.276 Y112.461 E.01796
G1 X120.139 Y113.023 E.01614
G1 X119.922 Y113.519 E.01511
G1 X119.621 Y113.948 E.01462
G1 X119.223 Y114.3 E.01483
G1 X118.736 Y114.534 E.01508
G1 X118.205 Y114.634 E.01508
G1 X117.731 Y114.626 E.01323
G1 X117.213 Y114.505 E.01484
G1 X116.745 Y114.257 E.01478
G1 X116.363 Y113.901 E.01457
G1 X116.08 Y113.469 E.01441
G1 X115.865 Y112.933 E.01612
G1 X115.844 Y113.023 E.00258
G1 X115.627 Y113.519 E.01511
G1 X115.326 Y113.948 E.01462
G1 X114.927 Y114.3 E.01485
G1 X114.44 Y114.534 E.01508
G1 X113.91 Y114.634 E.01505
G1 X113.436 Y114.626 E.01323
G1 X112.917 Y114.505 E.01487
G1 X112.45 Y114.257 E.01476
G1 X112.068 Y113.901 E.01457
G1 X111.785 Y113.469 E.01441
G1 X111.57 Y112.933 E.01612
G1 X111.548 Y113.023 E.00259
G1 X111.332 Y113.519 E.0151
G1 X111.03 Y113.948 E.01464
G1 X110.632 Y114.3 E.01483
G1 X110.145 Y114.534 E.01508
G1 X109.614 Y114.634 E.01508
G1 X109.14 Y114.626 E.01323
G1 X108.622 Y114.505 E.01484
G1 X108.155 Y114.257 E.01476
G1 X107.772 Y113.901 E.01459
G1 X107.49 Y113.469 E.0144
G1 X107.287 Y112.984 E.01467
G1 X107.15 Y112.427 E.01601
G1 X107.085 Y111.743 E.01917
G1 X107.089 Y110.889 E.02383
G1 X107.158 Y110.252 E.01788
G1 X107.295 Y109.689 E.01617
G1 X107.51 Y109.195 E.01503
G1 X107.811 Y108.765 E.01465
G1 X108.209 Y108.413 E.01483
G1 X108.698 Y108.177 E.01515
G1 X109.243 Y108.077 E.01546
G1 X109.657 Y108.083 E.01155
G1 X109.922 Y108.122 E.00747
G1 X110.366 Y108.264 E.01301
G1 X110.775 Y108.515 E.01339
G1 X111.108 Y108.849 E.01316
G1 X111.284 Y109.104 E.00865
G1 X111.422 Y109.37 E.00836
G1 X111.567 Y109.784 E.01224
G1 X111.59 Y109.689 E.00273
G1 X111.805 Y109.195 E.01503
G1 X112.107 Y108.765 E.01466
G1 X112.505 Y108.413 E.01483
G1 X112.993 Y108.177 E.01513
G1 X113.538 Y108.077 E.01546
G1 X113.952 Y108.083 E.01155
G1 X114.218 Y108.122 E.0075
G1 X114.661 Y108.264 E.01298
G1 X115.071 Y108.515 E.01341
G1 X115.404 Y108.849 E.01316
G1 X115.579 Y109.104 E.00863
G1 X115.718 Y109.37 E.00838
G1 X115.862 Y109.784 E.01223
G1 X115.885 Y109.689 E.00273
G1 X116.101 Y109.195 E.01505
G1 X116.402 Y108.765 E.01465
G1 X116.8 Y108.413 E.01483
G1 X117.288 Y108.177 E.01513
G1 X117.834 Y108.077 E.01549
G1 X118.247 Y108.083 E.01153
G1 X118.513 Y108.122 E.0075
G1 X118.957 Y108.264 E.01301
G1 X119.283 Y108.464 E.01067
G1 E-1.12 F2400
;WIPE_START
G1 F4800
G1 X119.699 Y108.849 E-.26924
G1 X119.874 Y109.104 E-.1469
G1 X119.936 Y109.223 E-.06386
;WIPE_END
G1 X114.835 Y108.813 F6000
G1 E1.6 F2400
;TYPE:External perimeter
G1 F1200
G1 X115.113 Y109.091 E.01097
G1 X115.255 Y109.299 E.00703
G1 X115.374 Y109.526 E.00715
G1 X115.473 Y109.78 E.00761
G1 X115.609 Y110.341 E.01611
G1 X115.674 Y110.994 E.01831
G1 X115.67 Y111.799 E.02246
G1 X115.608 Y112.395 E.01672
G1 X115.485 Y112.902 E.01456
G1 X115.297 Y113.333 E.01312
G1 X115.043 Y113.695 E.01234
G1 X114.717 Y113.982 E.01212
G1 X114.322 Y114.173 E.01224
G1 X113.878 Y114.256 E.0126
G1 X113.482 Y114.249 E.01105
G1 X113.051 Y114.149 E.01235
G1 X112.671 Y113.948 E.012
G1 X112.358 Y113.656 E.01195
G1 X112.12 Y113.292 E.01214
G1 X111.942 Y112.866 E.01288
G1 X111.818 Y112.363 E.01446
G1 X111.76 Y111.726 E.01785
G1 X111.764 Y110.911 E.02274
G1 X111.826 Y110.318 E.01664
G1 X111.949 Y109.81 E.01459
G1 X112.136 Y109.38 E.01308
G1 X112.39 Y109.018 E.01234
G1 X112.716 Y108.73 E.01214
G1 X113.111 Y108.539 E.01224
G1 X113.57 Y108.455 E.01302
G1 X113.922 Y108.46 E.00982
G1 X114.132 Y108.49 E.00592
G1 X114.503 Y108.609 E.01087
G1 X114.784 Y108.781 E.00919
G1 X115.2 Y108.667 F6000
G1 E-1.12 F2400
;WIPE_START
G1 F4800
G1 X115.113 Y109.091 E-.21472
G1 X115.255 Y109.299 E-.11963
G1 X115.374 Y109.526 E-.12174
G1 X115.392 Y109.573 E-.02391
;WIPE_END
G1 X118.798 Y108.609 F6000
G1 E1.6 F2400
G1 F1200
G1 X119.131 Y108.813 E.0109
G1 X119.408 Y109.091 E.01095
G1 X119.551 Y109.299 E.00704
G1 X119.669 Y109.526 E.00714
G1 X119.769 Y109.78 E.00762
G1 X119.905 Y110.34 E.01608
G1 X119.972 Y110.994 E.01835
G1 X119.968 Y111.8 E.02249
G1 X119.904 Y112.396 E.01673
G1 X119.78 Y112.902 E.01454
G1 X119.592 Y113.333 E.01312
G1 X119.338 Y113.695 E.01234
G1 X119.012 Y113.982 E.01212
G1 X118.617 Y114.173 E.01224
G1 X118.173 Y114.256 E.0126
G1 X117.777 Y114.249 E.01105
G1 X117.346 Y114.149 E.01235
G1 X116.966 Y113.948 E.012
G1 X116.654 Y113.656 E.01192
G1 X116.415 Y113.292 E.01215
G1 X116.237 Y112.866 E.01288
G1 X116.114 Y112.363 E.01445
G1 X116.055 Y111.726 E.01785
G1 X116.059 Y110.911 E.02274
G1 X116.121 Y110.318 E.01664
G1 X116.244 Y109.81 E.01459
G1 X116.431 Y109.38 E.01308
G1 X116.685 Y109.018 E.01234
G1 X117.011 Y108.73 E.01214
G1 X117.406 Y108.539 E.01224
G1 X117.865 Y108.455 E.01302
G1 X118.217 Y108.46 E.00982
G1 X118.428 Y108.49 E.00595
G1 X118.741 Y108.591 E.00918
G1 X119.121 Y108.39 F6000
G1 E-1.12 F2400
;WIPE_START
G1 F4800
G1 X119.131 Y108.813 E-.21316
G1 X119.408 Y109.091 E-.18641
G1 X119.504 Y109.231 E-.08043
;WIPE_END
G1 X110.54 Y108.813 F6000
G1 E1.6 F2400
G1 F1200
G1 X110.817 Y109.091 E.01095
G1 X110.96 Y109.299 E.00704
G1 X111.079 Y109.526 E.00715
G1 X111.178 Y109.78 E.00761
G1 X111.314 Y110.341 E.01611
G1 X111.378 Y110.994 E.01831
G1 X111.375 Y111.799 E.02246
G1 X111.313 Y112.395 E.01672
G1 X111.19 Y112.902 E.01456
G1 X111.001 Y113.333 E.01313
G1 X110.747 Y113.695 E.01234
G1 X110.422 Y113.982 E.0121
G1 X110.026 Y114.173 E.01227
G1 X109.582 Y114.256 E.0126
G1 X109.187 Y114.249 E.01102
G1 X108.755 Y114.149 E.01237
G1 X108.375 Y113.948 E.012
G1 X108.063 Y113.656 E.01192
G1 X107.824 Y113.292 E.01215
G1 X107.647 Y112.866 E.01287
G1 X107.523 Y112.364 E.01443
G1 X107.462 Y111.726 E.01788
G1 X107.466 Y110.911 E.02274
G1 X107.53 Y110.317 E.01667
G1 X107.654 Y109.81 E.01457
G1 X107.84 Y109.38 E.01307
G1 X108.095 Y109.018 E.01236
G1 X108.42 Y108.73 E.01212
G1 X108.816 Y108.539 E.01227
G1 X109.274 Y108.455 E.01299
G1 X109.627 Y108.46 E.00985
G1 X109.837 Y108.49 E.00592
G1 X110.208 Y108.609 E.01087
G1 X110.489 Y108.781 E.00919
G1 X110.905 Y108.667 F6000
G1 E-1.12 F2400
;WIPE_START
G1 F4800
G1 X110.817 Y109.091 E-.21437
G1 X110.96 Y109.299 E-.1199
G1 X111.079 Y109.526 E-.12174
G1 X111.097 Y109.573 E-.02399
;WIPE_END
G1 X117.698 Y106.097 F6000
G1 E1.6 F2400
;TYPE:Perimeter
G1 F1200
G1 X117.213 Y105.984 E.0139
G1 X116.745 Y105.736 E.01478
G1 X116.363 Y105.38 E.01457
G1 X116.08 Y104.948 E.01441
G1 X115.865 Y104.412 E.01612
G1 X115.844 Y104.502 E.00258
G1 X115.627 Y104.997 E.01508
G1 X115.326 Y105.427 E.01465
G1 X114.927 Y105.778 E.01483
G1 X114.44 Y106.013 E.01509
G1 X113.91 Y106.112 E.01505
G1 X113.436 Y106.104 E.01323
G1 X112.917 Y105.984 E.01486
G1 X112.45 Y105.736 E.01476
G1 X112.068 Y105.38 E.01457
G1 X111.785 Y104.948 E.01441
G1 X111.583 Y104.463 E.01466
G1 X111.445 Y103.906 E.01601
G1 X111.38 Y103.222 E.01917
G1 X111.385 Y102.368 E.02383
G1 X111.453 Y101.731 E.01788
G1 X111.59 Y101.168 E.01617
G1 X111.805 Y100.674 E.01503
G1 X112.107 Y100.244 E.01466
G1 X112.505 Y99.891 E.01485
G1 X112.993 Y99.655 E.01513
G1 X113.538 Y99.556 E.01546
G1 X113.952 Y99.562 E.01155
G1 X114.218 Y99.6 E.0075
G1 X114.661 Y99.743 E.01299
G1 X115.071 Y99.993 E.0134
G1 X115.404 Y100.328 E.01318
G1 X115.579 Y100.583 E.00863
G1 X115.718 Y100.849 E.00838
G1 X115.862 Y101.263 E.01223
G1 X115.885 Y101.168 E.00273
G1 X116.101 Y100.674 E.01505
G1 X116.402 Y100.244 E.01465
G1 X116.8 Y99.891 E.01485
G1 X117.288 Y99.655 E.01513
G1 X117.834 Y99.556 E.01548
G1 X118.247 Y99.562 E.01153
G1 X118.513 Y99.6 E.0075
G1 X118.957 Y99.743 E.01302
G1 X119.366 Y99.993 E.01338
G1 X119.699 Y100.328 E.01318
G1 X119.874 Y100.583 E.00863
G1 X120.013 Y100.849 E.00838
G1 X120.129 Y101.145 E.00887
