; generated by PrusaSlicer 2.6.0-alpha4+MacOS-x64 on 2023-03-19 at 09:28:38 UTC

; 

; external perimeters extrusion width = 0.40mm
; perimeters extrusion width = 0.40mm
; infill extrusion width = 0.40mm
; solid infill extrusion width = 0.40mm
; top infill extrusion width = 0.40mm
; support material extrusion width = 0.36mm
; first layer extrusion width = 0.40mm

M107
;TYPE:Custom
; Ender 3 Custom Start G-code
G92 E0 ; Reset Extruder

M140 S50 ; set bed temp
M190 S50 ; wait for bed temp

G28 ; Home all axes
M104 S205 ; set extruder temp 
BED_MESH_CALIBRATE AREA_START=91.9702,100.229 AREA_END=139.03,130.771

G1 Z2.0 F3000 ; Move Z Axis up little to prevent scratching of Heat Bed
M109 S205 ; wait for extruder temp
G1 X0.1 Y20 Z0.3 F5000.0 ; Move to start position

G1 X0.1 Y200.0 Z0.3 F1500.0 E15 ; Draw the first line
G1 X0.4 Y200.0 Z0.3 F5000.0 ; Move to side a little
G1 X0.4 Y20 Z0.3 F1500.0 E30 ; Draw the second line
G92 E0 ; Reset Extruder
G1 Z2.0 F3000 ; Move Z Axis up little to prevent scratching of Heat Bed
G1 X5 Y20 Z0.3 F5000.0 ; Move over to prevent blob squish
G21 ; set units to millimeters
G90 ; use absolute coordinates
M83 ; use relative distances for extrusion
; Filament gcode
M107
;LAYER_CHANGE
;Z:0.16
;HEIGHT:0.16
;BEFORE_LAYER_CHANGE
G92 E0
;0.16


G1 E-5 F3600
G1 Z.16 F9000
;AFTER_LAYER_CHANGE
;0.16
G1 X94.795 Y103.633
G1 E5 F2400
M204 S500
;TYPE:Skirt/Brim
;WIDTH:0.4
G1 F1440
G1 X96.213 Y102.381 E.04601
G1 X97.087 Y101.809 E.02541
G1 X98.399 Y101.166 E.03554
G1 X99.991 Y100.668 E.04057
G1 X101.429 Y100.449 E.03538
G1 X128.942 Y100.417 E.66923
G1 X130.601 Y100.585 E.04056
G1 X131.602 Y100.821 E.02502
G1 X132.578 Y101.157 E.02511
G1 X133.913 Y101.809 E.03614
G1 X135.277 Y102.762 E.04047
G1 X136.043 Y103.468 E.02534
G1 X136.736 Y104.256 E.02553
G1 X137.566 Y105.485 E.03607
G1 X138.26 Y106.985 E.0402
G1 X138.661 Y108.425 E.03636
G1 X138.847 Y110.293 E.04566
G1 X138.847 Y120.707 E.25331
G1 X138.661 Y122.575 E.04566
G1 X138.26 Y124.015 E.03636
G1 X137.851 Y124.975 E.02538
G1 X137.338 Y125.894 E.0256
G1 X136.34 Y127.215 E.04027
G1 X135.598 Y127.96 E.02558
G1 X134.787 Y128.619 E.02542
G1 X133.567 Y129.383 E.03501
G1 X132.584 Y129.841 E.02638
G1 X131.009 Y130.332 E.04013
G1 X129.571 Y130.551 E.03538
G1 X101.429 Y130.551 E.68453
G1 X100.399 Y130.415 E.02527
G1 X99.384 Y130.175 E.02537
G1 X98.416 Y129.841 E.02491
G1 X97.256 Y129.29 E.03124
G1 X96.213 Y128.619 E.03017
G1 X95.421 Y127.976 E.02481
G1 X94.66 Y127.215 E.02618
G1 X94.005 Y126.401 E.02541
G1 X93.434 Y125.515 E.02564
G1 X92.745 Y124.028 E.03986
G1 X92.437 Y123.018 E.02568
G1 X92.195 Y121.559 E.03597
G1 X92.191 Y109.48 E.29381
G1 X92.335 Y108.45 E.0253
G1 X92.591 Y107.432 E.02553
G1 X92.957 Y106.443 E.02565
G1 X93.423 Y105.507 E.02543
G1 X93.991 Y104.619 E.02564
G1 X94.757 Y103.68 E.02948
G1 X95.04 Y103.911 F9000
G1 F1440
G1 X96.438 Y102.669 E.04549
G1 X97.28 Y102.119 E.02446
G1 X98.526 Y101.509 E.03374
G1 X100.083 Y101.022 E.03968
G1 X101.448 Y100.814 E.03359
G1 X128.924 Y100.782 E.66833
G1 X130.546 Y100.946 E.03965
G1 X132.452 Y101.501 E.04829
G1 X133.72 Y102.119 E.03431
G1 X135.052 Y103.051 E.03954
G1 X135.79 Y103.731 E.02441
G1 X136.457 Y104.491 E.0246
G1 X137.242 Y105.656 E.03417
G1 X137.92 Y107.121 E.03927
G1 X138.3 Y108.485 E.03444
G1 X138.481 Y110.293 E.0442
G1 X138.481 Y120.707 E.25331
G1 X138.3 Y122.515 E.0442
G1 X137.92 Y123.879 E.03444
G1 X137.528 Y124.804 E.02444
G1 X137.035 Y125.689 E.02464
G1 X136.061 Y126.979 E.03932
G1 X135.344 Y127.696 E.02466
G1 X134.562 Y128.331 E.0245
G1 X133.405 Y129.055 E.0332
G1 X132.458 Y129.498 E.02543
G1 X130.917 Y129.978 E.03926
G1 X129.552 Y130.186 E.03359
G1 X101.448 Y130.186 E.6836
G1 X100.454 Y130.054 E.02439
G1 X99.475 Y129.821 E.02448
G1 X98.542 Y129.498 E.02402
G1 X97.433 Y128.971 E.02987
G1 X96.438 Y128.331 E.02878
G1 X95.674 Y127.712 E.02392
G1 X94.939 Y126.979 E.02525
G1 X94.308 Y126.196 E.02446
G1 X93.758 Y125.344 E.02467
G1 X93.085 Y123.893 E.03891
G1 X92.789 Y122.919 E.02476
G1 X92.56 Y121.538 E.03405
G1 X92.556 Y109.5 E.29281
G1 X92.696 Y108.508 E.02437
G1 X92.943 Y107.529 E.02456
G1 X93.297 Y106.578 E.02468
G1 X93.746 Y105.677 E.02449
G1 X94.294 Y104.823 E.02468
G1 X95.002 Y103.957 E.02721
G1 X95.284 Y104.188 F9000
G1 F1440
G1 X96.662 Y102.958 E.04493
G1 X97.474 Y102.429 E.02357
G1 X98.652 Y101.852 E.03191
G1 X100.174 Y101.376 E.03879
G1 X101.466 Y101.179 E.03179
G1 X128.905 Y101.147 E.66743
G1 X130.491 Y101.308 E.03878
G1 X132.326 Y101.844 E.0465
G1 X133.526 Y102.429 E.03247
G1 X134.827 Y103.339 E.03862
G1 X135.537 Y103.995 E.02351
G1 X136.177 Y104.727 E.02365
G1 X136.919 Y105.827 E.03227
G1 X137.581 Y107.256 E.03831
G1 X137.939 Y108.544 E.03252
G1 X138.116 Y110.293 E.04276
G1 X138.116 Y120.707 E.25331
G1 X137.94 Y122.456 E.04276
G1 X137.581 Y123.744 E.03252
G1 X137.205 Y124.633 E.02348
G1 X136.733 Y125.484 E.02367
G1 X135.781 Y126.744 E.03841
G1 X135.091 Y127.433 E.02372
G1 X134.338 Y128.042 E.02356
G1 X133.243 Y128.727 E.03142
G1 X132.331 Y129.155 E.0245
G1 X130.826 Y129.624 E.03834
G1 X129.534 Y129.821 E.03179
G1 X101.466 Y129.821 E.68273
G1 X99.566 Y129.467 E.04701
G1 X98.669 Y129.155 E.0231
G1 X97.611 Y128.651 E.02851
G1 X96.662 Y128.042 E.02743
G1 X95.926 Y127.447 E.02302
G1 X95.219 Y126.744 E.02425
G1 X94.611 Y125.992 E.02352
G1 X94.081 Y125.173 E.02373
G1 X93.424 Y123.757 E.03797
G1 X93.141 Y122.82 E.02381
G1 X92.925 Y121.517 E.03213
G1 X92.922 Y109.52 E.29182
G1 X93.057 Y108.567 E.02341
G1 X93.296 Y107.626 E.02362
G1 X93.637 Y106.712 E.02373
G1 X94.07 Y105.847 E.02353
G1 X94.598 Y105.027 E.02372
G1 X95.246 Y104.234 E.02491
; printing object NO_TXT_Kostka.stl id:0 copy 0
G1 E-3.5 F3600
;WIPE_START
G1 F7200
G1 X96.662 Y102.958 E-.9054
G1 X97.474 Y102.429 E-.46033
G1 X97.728 Y102.305 E-.13427
;WIPE_END
G1 X127.963 Y113.828 F9000
G1 E5 F2400
;TYPE:External perimeter
;WIDTH:0.399294
G1 F1440
G1 X127.698 Y113.807 E.00645
G1 E-3.5 F3600
;WIPE_START
G1 F7200
G1 X127.963 Y113.828 E-.12627
;WIPE_END
G1 E-1.37373 F3600
G1 X127.963 Y118.474 F9000
G1 E5 F2400
;WIDTH:0.399296
G1 F1440
G1 X127.698 Y118.453 E.00645
G1 E-3.5 F3600
;WIPE_START
G1 F7200
G1 X127.963 Y118.474 E-.12627
;WIPE_END
G1 E-1.37373 F3600
G1 X122.923 Y117.123 F9000
G1 E5 F2400
;WIDTH:0.395774
G1 F1440
G1 X123.282 Y117.154 E.00866
;WIDTH:0.420564
G1 X123.431 Y117.209 E.00408
G1 E-3.5 F3600
;WIPE_START
G1 F7200
G1 X123.282 Y117.154 E-.07544
G1 X122.923 Y117.123 E-.17116
;WIPE_END
G1 E-1.2534 F3600
G1 X121.715 Y115.559 F9000
G1 E5 F2400
;TYPE:Perimeter
;WIDTH:0.399999
G1 F1440
G1 X121.32 Y115.806 E.01133
G1 X121.118 Y115.994 E.00671
G1 X120.717 Y116.541 E.0165
G1 X120.638 Y116.377 E.00443
G1 X120.374 Y116.116 E.00903
G1 X120.18 Y116.021 E.00525
G1 X119.877 Y115.97 E.00747
G1 X119.331 Y115.97 E.01328
G1 X119.265 Y115.74 E.00582
G1 X119.005 Y115.484 E.00888
G1 X119.159 Y115.349 E.00498
G1 X120.417 Y113.796 E.04861
G1 X120.43 Y113.911 E.00282
G1 X120.592 Y114.455 E.01381
G1 X120.9 Y114.985 E.01491
G1 X121.294 Y115.343 E.01295
G1 X121.662 Y115.531 E.01005
G1 E-3.5 F3600
;WIPE_START
G1 F7200
G1 X121.32 Y115.806 E-.20845
G1 X121.118 Y115.994 E-.13108
G1 X120.717 Y116.541 E-.32216
G1 X120.638 Y116.377 E-.08647
G1 X120.374 Y116.116 E-.17634
G1 X120.18 Y116.021 E-.10261
G1 X119.877 Y115.97 E-.14595
G1 X119.331 Y115.97 E-.25935
G1 X119.292 Y115.833 E-.06759
;WIPE_END
G1 X122.923 Y112.477 F9000
G1 E5 F2400
;TYPE:External perimeter
;WIDTH:0.395776
G1 F1440
G1 X123.282 Y112.508 E.00866
;WIDTH:0.420566
G1 X123.431 Y112.563 E.00408
G1 E-3.5 F3600
;WIPE_START
G1 F7200
G1 X123.282 Y112.508 E-.07544
G1 X122.923 Y112.477 E-.17116
;WIPE_END
G1 E-1.2534 F3600
G1 X117.009 Y112.601 F9000
G1 E5 F2400
;WIDTH:0.374336
G1 F1440
G1 X117.018 Y112.33 E.00613
;WIDTH:0.421705
G1 X117.046 Y112.283 E.00141
;WIDTH:0.469073
G1 X117.074 Y112.237 E.00156
;WIDTH:0.516441
G1 X117.101 Y112.19 E.00174
;WIDTH:0.563809
G1 X117.129 Y112.143 E.00193
;WIDTH:0.611178
G1 X117.157 Y112.096 E.0021
;WIDTH:0.658546
G1 X117.185 Y112.049 E.00227
;WIDTH:0.705914
G1 X117.213 Y112.002 E.00244
G1 X117.213 Y111.825 E.00791
G1 X115.825 Y112.629 F9000
;WIDTH:0.609448
G1 F1440
G1 X116.056 Y112.65 E.00887
;WIDTH:0.582347
G1 X116.287 Y112.671 E.00846
G1 X115.793 Y113.806 F9000
;WIDTH:0.48824
G1 F1440
G1 X116.039 Y113.775 E.00749
;WIDTH:0.45007
G1 X116.285 Y113.744 E.00686
G1 E-3.5 F3600
;WIPE_START
G1 F7200
G1 X116.039 Y113.775 E-.11777
G1 X115.793 Y113.806 E-.11777
;WIPE_END
G1 E-1.26446 F3600
G1 X114.345 Y112.818 F9000
G1 E5 F2400
;WIDTH:0.374336
G1 F1440
G1 X114.347 Y112.404 E.00936
G1 E-3.5 F3600
;WIPE_START
G1 F7200
G1 X114.345 Y112.818 E-.19665
;WIPE_END
G1 E-1.30335 F3600
G1 X114.439 Y115.533 F9000
G1 E5 F2400
;TYPE:Perimeter
;WIDTH:0.5676
G1 F1440
G1 X113.981 Y115.964 E.02231
G1 X113.862 Y115.953 E.00424
G1 X113.764 Y115.705 E.00946
G1 X113.559 Y115.478 E.01085
G1 X113.883 Y115.102 E.01761
G1 X114.054 Y115.283 E.00883
G1 X114.389 Y115.5 E.01416
G1 X114.345 Y117.464 F9000
;TYPE:External perimeter
;WIDTH:0.374336
G1 F1440
G1 X114.347 Y117.05 E.00936
G1 X115.825 Y117.275 F9000
;WIDTH:0.609446
G1 F1440
G1 X116.056 Y117.296 E.00887
;WIDTH:0.582346
G1 X116.287 Y117.317 E.00846
G1 X117.009 Y117.247 F9000
;WIDTH:0.374336
G1 F1440
G1 X117.018 Y116.976 E.00613
;WIDTH:0.421705
G1 X117.046 Y116.929 E.00141
;WIDTH:0.469073
G1 X117.074 Y116.883 E.00156
;WIDTH:0.516441
G1 X117.101 Y116.836 E.00174
;WIDTH:0.563809
G1 X117.129 Y116.789 E.00193
;WIDTH:0.611178
G1 X117.157 Y116.742 E.0021
;WIDTH:0.658546
G1 X117.185 Y116.695 E.00227
;WIDTH:0.705914
G1 X117.213 Y116.648 E.00244
G1 X117.213 Y116.471 E.00791
G1 E-3.5 F3600
;WIPE_START
G1 F7200
G1 X117.213 Y116.648 E-.08407
G1 X117.185 Y116.695 E-.02599
G1 X117.157 Y116.742 E-.02599
G1 X117.129 Y116.789 E-.02599
G1 X117.101 Y116.836 E-.02599
G1 X117.074 Y116.883 E-.02575
G1 X117.046 Y116.929 E-.02558
G1 X117.018 Y116.976 E-.02599
G1 X117.009 Y117.247 E-.1288
;WIPE_END
G1 E-1.10585 F3600
G1 X115.793 Y118.452 F9000
G1 E5 F2400
;WIDTH:0.488244
G1 F1440
G1 X116.039 Y118.421 E.00749
;WIDTH:0.450071
G1 X116.285 Y118.39 E.00686
G1 E-3.5 F3600
;WIPE_START
G1 F7200
G1 X116.039 Y118.421 E-.11777
G1 X115.793 Y118.452 E-.11777
;WIPE_END
G1 E-1.26446 F3600
G1 X110.955 Y116.134 F9000
G1 E5 F2400
;TYPE:Perimeter
;WIDTH:0.399999
G1 F1440
G1 X110.805 Y116.263 E.00481
G1 X110.721 Y116.131 E.00381
G1 X110.442 Y115.831 E.00997
G1 X109.94 Y115.485 E.01483
G1 X110.423 Y115.151 E.01428
G1 X110.754 Y114.729 E.01305
;WIDTH:0.421636
G1 X110.938 Y114.264 E.01288
G1 X110.958 Y114.91 E.01665
;WIDTH:0.399999
G1 X111.083 Y115.255 E.00893
G1 X111.292 Y115.498 E.0078
G1 X111.09 Y115.73 E.00748
G1 X111.013 Y115.882 E.00414
G1 X110.968 Y116.076 E.00484
G1 E-3.5 F3600
;WIPE_START
G1 F7200
G1 X110.805 Y116.263 E-.11783
G1 X110.721 Y116.131 E-.07432
G1 X110.442 Y115.831 E-.1946
G1 X109.94 Y115.485 E-.2896
G1 X110.423 Y115.151 E-.27894
G1 X110.754 Y114.729 E-.25475
G1 X110.938 Y114.264 E-.23754
G1 X110.941 Y114.374 E-.05242
;WIPE_END
G1 X107.312 Y113.893 F9000
G1 E5 F2400
;TYPE:External perimeter
;WIDTH:0.513404
G1 F1440
G1 X107.298 Y113.796 E.00312
;WIDTH:0.485727
G1 X107.251 Y113.727 E.00251
;WIDTH:0.451286
G1 X107.204 Y113.657 E.00234
;WIDTH:0.416845
G1 X107.138 Y113.625 E.00187
;WIDTH:0.399999
G1 X106.914 Y113.613 E.00546
;WIDTH:0.411892
G1 X106.564 Y113.744 E.00939
G1 X106.673 Y113.571 E.00514
;WIDTH:0.404188
G1 X106.67 Y113.37 E.00495
;WIDTH:0.433362
G1 X106.667 Y113.167 E.00539
;WIDTH:0.466725
G1 X106.663 Y112.965 E.00581
;WIDTH:0.500087
G1 X106.659 Y112.762 E.00629
;WIDTH:0.527667
G1 X106.612 Y112.716 E.00216
;WIDTH:0.555246
G1 X106.565 Y112.671 E.00225
G1 X106.678 Y112.694 E.004
;WIDTH:0.510496
G1 X106.791 Y112.718 E.00366
;WIDTH:0.465746
G1 X106.904 Y112.742 E.00332
;WIDTH:0.420995
G1 X107.155 Y112.753 E.00646
;WIDTH:0.399999
G1 X107.314 Y112.574 E.00582
;WIDTH:0.393473
G1 X107.336 Y112.84 E.00638
;WIDTH:0.399999
G1 X107.507 Y113.219 E.01011
G1 X107.621 Y113.346 E.00415
G1 X107.491 Y113.512 E.00513
;WIDTH:0.437801
G1 X107.431 Y113.639 E.00377
;WIDTH:0.475603
G1 X107.372 Y113.766 E.00411
;WIDTH:0.513404
G1 X107.338 Y113.838 E.00254
G1 X106.071 Y113.806 F9000
;WIDTH:0.488242
G1 F1440
G1 X106.317 Y113.775 E.00749
;WIDTH:0.450067
G1 X106.564 Y113.744 E.00688
G1 X106.103 Y112.629 F9000
;WIDTH:0.609448
G1 F1440
G1 X106.334 Y112.65 E.00887
;WIDTH:0.582347
G1 X106.565 Y112.671 E.00846
G1 X107.325 Y112.332 F9000
;WIDTH:0.374336
G1 F1440
G1 X107.314 Y112.574 E.00548
G1 E-3.5 F3600
;WIPE_START
G1 F7200
G1 X107.325 Y112.332 E-.11507
;WIPE_END
G1 E-1.38493 F3600
G1 X104.722 Y113.32 F9000
G1 E5 F2400
;WIDTH:0.671884
G1 F1440
G1 X104.7 Y113.251 E.00307
;WIDTH:0.630121
G1 X104.678 Y113.182 E.00287
;WIDTH:0.588359
G1 X104.656 Y113.113 E.00267
;WIDTH:0.546596
G1 X104.633 Y113.043 E.00251
;WIDTH:0.504833
G1 X104.611 Y112.974 E.00227
;WIDTH:0.46307
G1 X104.56 Y112.573 E.01153
G1 X104.596 Y113.876 F9000
;WIDTH:0.53814
G1 F1440
G1 X104.614 Y113.721 E.00523
G1 E-3.5 F3600
;WIPE_START
G1 F7200
G1 X104.596 Y113.876 E-.07412
;WIPE_END
G1 E-1.42588 F3600
G1 X105.286 Y115.665 F9000
G1 E5 F2400
;TYPE:Perimeter
;WIDTH:0.4419
G1 F1440
G1 X104.988 Y116.131 E.015
G1 X104.647 Y115.794 E.013
;WIDTH:0.399462
G1 X104.195 Y115.497 E.01314
;WIDTH:0.393512
G1 X104.548 Y115.274 E.00998
;WIDTH:0.439851
G1 X105.01 Y115.589 E.01508
;WIDTH:0.4419
G1 X105.228 Y115.649 E.00613
G1 E-3.5 F3600
;WIPE_START
G1 F7200
G1 X104.988 Y116.131 E-.25576
G1 X104.647 Y115.794 E-.22773
G1 X104.195 Y115.497 E-.2569
G1 X104.548 Y115.274 E-.19833
G1 X105.01 Y115.589 E-.2656
G1 X105.228 Y115.649 E-.1074
;WIPE_END
G1 E-.18828 F3600
G1 X108.472 Y115.51 F9000
G1 E5 F2400
;WIDTH:0.673264
G1 F1440
G1 X108.409 Y115.544 E.00304
;WIDTH:0.626662
G1 X108.346 Y115.577 E.0028
;WIDTH:0.58006
G1 X108.283 Y115.611 E.0026
;WIDTH:0.533457
G1 X108.11 Y115.687 E.00627
;WIDTH:0.488971
G1 X107.936 Y115.764 E.00575
;WIDTH:0.444485
G1 X107.763 Y115.84 E.00516
;WIDTH:0.399999
G1 X107.493 Y116.035 E.0081
G1 X107.245 Y115.79 E.00848
G1 X106.98 Y115.711 E.00673
G1 X106.413 Y115.7 E.01379
;WIDTH:0.383864
G1 X105.911 Y115.698 E.01167
;WIDTH:0.396131
G1 X105.692 Y115.78 E.00563
;WIDTH:0.399999
G1 X105.531 Y115.956 E.0058
G1 X104.934 Y117.045 E.03021
G1 X104.906 Y116.893 E.00376
G1 X104.741 Y116.493 E.01052
G1 X104.491 Y116.156 E.01021
G1 X104.225 Y115.932 E.00846
G1 X103.864 Y115.745 E.00989
;WIDTH:0.445911
G1 X103.779 Y115.706 E.00256
;WIDTH:0.491824
G1 X103.694 Y115.667 E.00285
;WIDTH:0.537736
G1 X103.609 Y115.629 E.00312
;WIDTH:0.583648
G1 X103.525 Y115.59 E.00338
;WIDTH:0.62956
G1 X103.44 Y115.551 E.0037
;WIDTH:0.675472
G1 X103.355 Y115.513 E.00397
G1 X103.418 Y115.479 E.00305
;WIDTH:0.62956
G1 X103.481 Y115.445 E.00283
;WIDTH:0.583648
G1 X103.544 Y115.411 E.00262
;WIDTH:0.537736
G1 X103.607 Y115.377 E.0024
;WIDTH:0.491824
G1 X103.67 Y115.343 E.00218
;WIDTH:0.445911
G1 X103.733 Y115.309 E.00196
;WIDTH:0.399999
G1 X104.275 Y115.034 E.01478
G1 X104.536 Y114.761 E.00919
G1 X104.575 Y114.826 E.00184
G1 X105.038 Y115.18 E.01418
G1 X105.614 Y115.35 E.01461
;WIDTH:0.396131
G1 X105.878 Y115.358 E.00636
;WIDTH:0.387473
G1 X106.461 Y115.34 E.0137
;WIDTH:0.399999
G1 X107.151 Y115.135 E.01751
G1 X107.452 Y114.926 E.00891
G1 X107.676 Y115.111 E.00707
G1 X107.961 Y115.241 E.00762
;WIDTH:0.445543
G1 X108.046 Y115.286 E.00263
;WIDTH:0.491088
G1 X108.131 Y115.331 E.00292
;WIDTH:0.536632
G1 X108.216 Y115.376 E.00321
;WIDTH:0.582176
G1 X108.302 Y115.421 E.00354
;WIDTH:0.62772
G1 X108.387 Y115.465 E.00378
;WIDTH:0.673264
G1 X108.419 Y115.482 E.00154
G1 X107.433 Y115.433 F9000
;WIDTH:0.475536
G1 F1440
G1 X107.537 Y115.503 E.00368
G1 E-3.5 F3600
;WIPE_START
G1 F7200
G1 X107.433 Y115.433 E-.05955
;WIPE_END
G1 E-1.44045 F3600
G1 X104.477 Y118.608 F9000
G1 E5 F2400
;TYPE:External perimeter
;WIDTH:0.588104
G1 F1440
G1 X104.54 Y118.465 E.00576
G1 X102.996 Y118.514 F9000
;WIDTH:0.39267
G1 F1440
G1 X102.491 Y118.493 E.01205
;WIDTH:0.42009
G1 X102.342 Y118.44 E.00406
G1 E-3.5 F3600
;WIPE_START
G1 F7200
G1 X102.491 Y118.493 E-.07512
G1 X102.996 Y118.514 E-.24008
;WIPE_END
G1 E-1.1848 F3600
G1 X110.938 Y118.91 F9000
G1 E5 F2400
;TYPE:Perimeter
;WIDTH:0.421638
G1 F1440
