;FLAVOR:Marlin
;TIME:2758
;Filament used: 1.65811m
;Layer height: 0.2
;MINX:102.7
;MINY:102.7
;MINZ:0.2
;MAXX:132.3
;MAXY:132.3
;MAXZ:20
;POSTPROCESSED
;Generated with Cura_SteamEngine 5.3.0
M82 ;absolute extrusion mode
; Ender 3 Custom Start G-code
G92 E0 ; Reset Extruder

M140 S70 ; set bed temp
M190 S70 ; wait for bed temp

G28 ; Home all axes
BED_MESH_CALIBRATE  AREA_START=102.7,102.7 AREA_END=132.3,132.3
M104 S205 ; set extruder temp 

G1 Z2.0 F3000 ; Move Z Axis up little to prevent scratching of Heat Bed
M109 S205 ; wait for extruder temp
G1 X0.1 Y20 Z0.3 F5000.0 ; Move to start position

G1 X0.1 Y200.0 Z0.3 F1500.0 E15 ; Draw the first line
G1 X0.4 Y200.0 Z0.3 F5000.0 ; Move to side a little
G1 X0.4 Y20 Z0.3 F1500.0 E30 ; Draw the second line
G92 E0 ; Reset Extruder
G1 Z2.0 F3000 ; Move Z Axis up little to prevent scratching of Heat Bed
G1 X5 Y20 Z0.3 F5000.0 ; Move over to prevent blob squish
G92 E0
G92 E0
G1 F2700 E-6
;LAYER_COUNT:100
;LAYER:0
M107
M205 X8 Y8
G0 F6000 X105.289 Y105.204 Z0.2
;TYPE:SKIRT
G1 F2700 E0
G1 F900 X105.68 Y104.883 E0.01683
G1 X106.117 Y104.628 E0.03365
G1 X106.588 Y104.444 E0.05047
G1 X107.082 Y104.338 E0.06728
G1 X107.419 Y104.31 E0.07852
G1 X107.74 Y104.301 E0.08921
G1 X126.839 Y104.3 E0.72444
G1 X127.537 Y104.31 E0.74766
G1 X128.04 Y104.357 E0.76446
G1 X128.53 Y104.483 E0.78129
G1 X128.994 Y104.685 E0.79812
G1 X129.42 Y104.957 E0.81493
G1 X129.798 Y105.292 E0.83173
G1 X130.118 Y105.683 E0.84854
G1 X130.373 Y106.12 E0.86536
G1 X130.556 Y106.591 E0.88217
G1 X130.663 Y107.085 E0.89898
G1 X130.69 Y107.42 E0.91016
G1 X130.699 Y107.74 E0.92081
G1 X130.7 Y126.804 E1.55488
G1 X130.691 Y127.531 E1.57906
G1 X130.645 Y128.034 E1.59586
G1 X130.52 Y128.524 E1.61268
G1 X130.319 Y128.988 E1.6295
G1 X130.048 Y129.415 E1.64632
G1 X129.713 Y129.794 E1.66314
G1 X129.323 Y130.115 E1.67994
G1 X128.887 Y130.371 E1.69676
G1 X128.416 Y130.554 E1.71357
G1 X127.922 Y130.662 E1.73038
G1 X127.581 Y130.69 E1.74176
G1 X127.26 Y130.699 E1.75244
G1 X108.166 Y130.7 E2.38751
G1 X107.468 Y130.691 E2.41073
G1 X106.964 Y130.644 E2.42757
G1 X106.474 Y130.519 E2.44439
G1 X106.01 Y130.318 E2.46121
G1 X105.584 Y130.047 E2.478
G1 X105.205 Y129.712 E2.49482
G1 X104.884 Y129.321 E2.51165
G1 X104.629 Y128.885 E2.52845
G1 X104.445 Y128.414 E2.54527
G1 X104.338 Y127.92 E2.56208
G1 X104.31 Y127.577 E2.57352
G1 X104.301 Y127.244 E2.5846
G1 X104.3 Y108.131 E3.2203
G1 X104.309 Y107.466 E3.24242
G1 X104.356 Y106.962 E3.25926
G1 X104.482 Y106.473 E3.27606
G1 X104.683 Y106.009 E3.29287
G1 X104.954 Y105.582 E3.30969
G1 X105.289 Y105.204 E3.32649
G0 F6000 X105.035 Y104.895
G1 F900 X105.478 Y104.538 E3.34542
G1 X105.971 Y104.255 E3.36432
G1 X106.442 Y104.071 E3.38114
G1 X107.049 Y103.939 E3.4018
G1 X107.408 Y103.91 E3.41378
G1 X107.74 Y103.901 E3.42483
G1 X126.845 Y103.9 E4.06026
G1 X127.543 Y103.91 E4.08348
G1 X128.14 Y103.97 E4.10344
G1 X128.69 Y104.116 E4.12236
G1 X129.154 Y104.318 E4.1392
G1 X129.635 Y104.62 E4.15809
G1 X130.108 Y105.039 E4.1791
G1 X130.428 Y105.43 E4.19591
G1 X130.746 Y105.975 E4.21689
G1 X130.947 Y106.506 E4.23578
G1 X131.062 Y107.053 E4.25437
G1 X131.09 Y107.409 E4.26625
G1 X131.099 Y107.74 E4.27726
G1 X131.1 Y126.809 E4.9115
G1 X131.091 Y127.536 E4.93568
G1 X131.033 Y128.133 E4.95563
G1 X130.908 Y128.623 E4.97245
G1 X130.657 Y129.202 E4.99344
G1 X130.348 Y129.68 E5.01237
G1 X129.967 Y130.103 E5.0313
G1 X129.526 Y130.46 E5.05018
G1 X129.032 Y130.744 E5.06913
G1 X128.501 Y130.945 E5.08801
G1 X127.955 Y131.061 E5.10658
G1 X127.592 Y131.09 E5.11869
G1 X127.271 Y131.099 E5.12937
G1 X108.161 Y131.1 E5.76497
G1 X107.463 Y131.091 E5.78819
G1 X106.865 Y131.032 E5.80817
G1 X106.375 Y130.907 E5.82499
G1 X105.851 Y130.685 E5.84392
G1 X105.319 Y130.347 E5.86489
G1 X104.94 Y130.012 E5.88171
G1 X104.575 Y129.575 E5.90065
G1 X104.256 Y129.031 E5.92162
G1 X104.072 Y128.56 E5.93844
G1 X103.939 Y127.953 E5.95911
G1 X103.91 Y127.588 E5.97129
G1 X103.901 Y127.244 E5.98273
G1 X103.9 Y108.126 E6.6186
G1 X103.909 Y107.461 E6.64072
G1 X103.969 Y106.862 E6.66074
G1 X104.115 Y106.314 E6.6796
G1 X104.345 Y105.795 E6.69849
G1 X104.616 Y105.368 E6.71531
G1 X105.035 Y104.895 E6.73632
G0 F6000 X104.759 Y104.604
G1 F900 X105.279 Y104.191 E6.75841
G1 X105.825 Y103.882 E6.77928
G1 X106.296 Y103.698 E6.79609
G1 X107.017 Y103.54 E6.82064
G1 X107.397 Y103.51 E6.83332
G1 X107.74 Y103.501 E6.84473
G1 X126.851 Y103.5 E7.48037
G1 X127.549 Y103.51 E7.50359
G1 X128.243 Y103.583 E7.5268
G1 X128.793 Y103.729 E7.54572
G1 X129.314 Y103.951 E7.56456
G1 X129.848 Y104.281 E7.58544
G1 X130.418 Y104.786 E7.61077
G1 X130.738 Y105.177 E7.62757
G1 X131.108 Y105.802 E7.65173
G1 X131.321 Y106.364 E7.67172
G1 X131.461 Y107.022 E7.69409
G1 X131.49 Y107.398 E7.70664
G1 X131.499 Y107.74 E7.71802
G1 X131.5 Y126.814 E8.35242
G1 X131.491 Y127.541 E8.3766
G1 X131.421 Y128.232 E8.3997
G1 X131.296 Y128.722 E8.41652
G1 X131.011 Y129.392 E8.44074
G1 X130.645 Y129.948 E8.46288
G1 X130.219 Y130.414 E8.48388
G1 X129.778 Y130.771 E8.50275
G1 X129.231 Y131.091 E8.52383
G1 X128.643 Y131.319 E8.5448
G1 X127.987 Y131.46 E8.56712
G1 X127.603 Y131.49 E8.57993
G1 X127.271 Y131.499 E8.59098
G1 X108.156 Y131.5 E9.22674
G1 X107.458 Y131.491 E9.24996
G1 X106.766 Y131.42 E9.2731
G1 X106.276 Y131.295 E9.28992
G1 X105.636 Y131.023 E9.31305
G1 X105.104 Y130.685 E9.33401
G1 X104.675 Y130.312 E9.35292
G1 X104.247 Y129.806 E9.37496
G1 X103.883 Y129.177 E9.39913
G1 X103.681 Y128.646 E9.41803
G1 X103.54 Y127.985 E9.44051
G1 X103.51 Y127.598 E9.45342
G1 X103.501 Y127.244 E9.46519
G1 X103.5 Y108.121 E10.10123
G1 X103.511 Y107.421 E10.12451
G1 X103.582 Y106.759 E10.14666
G1 X103.728 Y106.211 E10.16552
G1 X103.979 Y105.633 E10.18648
G1 X104.278 Y105.154 E10.20526
G1 X104.759 Y104.604 E10.22956
G0 F6000 X104.483 Y104.312
G1 F900 X105.082 Y103.843 E10.25486
G1 X105.679 Y103.509 E10.27762
G1 X106.15 Y103.325 E10.29444
G1 X106.931 Y103.149 E10.32106
G1 X107.387 Y103.11 E10.33629
G1 X107.74 Y103.101 E10.34803
G1 X126.857 Y103.1 E10.98386
G1 X127.591 Y103.112 E11.00828
G1 X128.346 Y103.196 E11.03355
G1 X128.896 Y103.342 E11.05247
G1 X129.471 Y103.583 E11.07321
G1 X130.087 Y103.959 E11.09721
G1 X130.728 Y104.533 E11.12583
G1 X131.048 Y104.924 E11.14264
G1 X131.47 Y105.627 E11.16991
G1 X131.695 Y106.222 E11.19106
G1 X131.86 Y106.991 E11.21722
G1 X131.89 Y107.387 E11.23043
G1 X131.899 Y107.74 E11.24218
G1 X131.9 Y126.819 E11.87675
G1 X131.889 Y127.581 E11.90209
G1 X131.809 Y128.331 E11.92718
G1 X131.684 Y128.821 E11.944
G1 X131.365 Y129.581 E11.97141
G1 X130.94 Y130.218 E11.99688
G1 X130.471 Y130.725 E12.01986
G1 X130.03 Y131.082 E12.03873
G1 X129.376 Y131.464 E12.06392
G1 X128.788 Y131.692 E12.08489
G1 X128.018 Y131.859 E12.1111
G1 X127.614 Y131.89 E12.12458
G1 X127.271 Y131.899 E12.13599
G1 X108.151 Y131.9 E12.77192
G1 X107.417 Y131.889 E12.79634
G1 X106.667 Y131.808 E12.82143
G1 X106.177 Y131.683 E12.83825
G1 X105.421 Y131.361 E12.86558
G1 X104.889 Y131.023 E12.88654
G1 X104.413 Y130.614 E12.90741
G1 X103.918 Y130.036 E12.93272
G1 X103.509 Y129.319 E12.96018
G1 X103.307 Y128.788 E12.97908
G1 X103.141 Y128.016 E13.00534
G1 X103.11 Y127.608 E13.01895
G1 X103.101 Y127.244 E13.03106
G1 X103.1 Y108.115 E13.66729
G1 X103.113 Y107.378 E13.69181
G1 X103.195 Y106.656 E13.71598
G1 X103.341 Y106.108 E13.73484
G1 X103.612 Y105.474 E13.75777
G1 X103.939 Y104.942 E13.77854
G1 X104.483 Y104.312 E13.80623
G0 F6000 X104.206 Y104.02
G1 F900 X104.835 Y103.528 E13.83279
G1 X105.533 Y103.136 E13.85941
G1 X106.004 Y102.952 E13.87623
G1 X106.897 Y102.75 E13.90668
G1 X107.377 Y102.71 E13.9227
G1 X107.74 Y102.701 E13.93478
G1 X126.864 Y102.7 E14.57085
G1 X127.635 Y102.714 E14.59649
G1 X128.449 Y102.809 E14.62375
G1 X128.999 Y102.955 E14.64268
G1 X129.626 Y103.214 E14.66524
G1 X130.33 Y103.639 E14.69259
G1 X131.038 Y104.28 E14.72436
G1 X131.391 Y104.718 E14.74307
G1 X131.831 Y105.451 E14.7715
G1 X132.086 Y106.138 E14.79588
G1 X132.259 Y106.961 E14.82385
G1 X132.29 Y107.377 E14.83772
G1 X132.299 Y107.74 E14.8498
G1 X132.3 Y126.825 E15.48457
G1 X132.287 Y127.623 E15.51111
G1 X132.197 Y128.43 E15.53812
G1 X132.072 Y128.92 E15.55494
G1 X131.719 Y129.771 E15.58558
G1 X131.234 Y130.49 E15.61443
G1 X130.765 Y130.997 E15.6374
G1 X130.282 Y131.393 E15.65818
G1 X129.521 Y131.837 E15.68748
G1 X128.873 Y132.083 E15.71053
G1 X128.049 Y132.258 E15.73855
G1 X127.624 Y132.29 E15.75273
G1 X127.271 Y132.299 E15.76447
G1 X108.145 Y132.3 E16.4006
G1 X107.374 Y132.287 E16.42625
G1 X106.568 Y132.196 E16.45323
G1 X106.078 Y132.071 E16.47005
G1 X105.206 Y131.699 E16.50158
G1 X104.674 Y131.361 E16.52254
G1 X104.152 Y130.917 E16.54534
G1 X103.591 Y130.269 E16.57384
G1 X103.135 Y129.461 E16.6047
G1 X102.916 Y128.872 E16.6256
G1 X102.742 Y128.046 E16.65368
G1 X102.71 Y127.618 E16.66795
G1 X102.701 Y127.244 E16.6804
G1 X102.7 Y108.108 E17.31686
G1 X102.713 Y107.371 E17.34138
G1 X102.808 Y106.553 E17.36877
G1 X102.954 Y106.005 E17.38763
G1 X103.244 Y105.317 E17.41246
G1 X103.598 Y104.733 E17.43518
G1 X104.206 Y104.02 E17.46634
G1 F2700 E11.46634
;MESH:xyzCalibration_cube.stl
G0 F6000 X107.914 Y106.835
G0 X107.914 Y107.914
G0 X125.928 Y109.072
G0 X126.1 Y126.1
M205 X3 Y3
;TYPE:WALL-INNER
G1 F2700 E17.46634
G1 F900 X126.1 Y108.9 E18.03842
G1 X108.9 Y108.9 E18.61049
G1 X108.9 Y126.1 E19.18257
G1 X126.1 Y126.1 E19.75464
M205 X8 Y8
G0 F6000 X126.5 Y126.5
M205 X3 Y3
G1 F900 X126.5 Y108.5 E20.35332
G1 X108.5 Y108.5 E20.95201
G1 X108.5 Y126.5 E21.55069
G1 X126.5 Y126.5 E22.14937
M205 X8 Y8
G0 F6000 X126.9 Y126.9
M205 X3 Y3
G1 F900 X126.9 Y108.1 E22.77466
G1 X108.1 Y108.1 E23.39995
G1 X108.1 Y126.9 E24.02524
G1 X126.9 Y126.9 E24.65053
M205 X8 Y8
G0 F6000 X127.3 Y127.3
M205 X3 Y3
;TYPE:WALL-OUTER
G1 F900 X127.3 Y107.7 E25.30243
G1 X107.7 Y107.7 E25.95433
G1 X107.7 Y127.3 E26.60623
G1 X127.3 Y127.3 E27.25813
M205 X8 Y8
G0 F6000 X127.03 Y127.03
G0 X126 Y125.74
G0 X125.74 Y125.74
M205 X3 Y3
;TYPE:SKIN
G1 F900 X109.26 Y125.74 E27.80625
G1 X109.26 Y109.26 E28.35438
G1 X125.74 Y109.26 E28.90251
G1 X125.74 Y125.74 E29.45064
M205 X8 Y8
G0 F6000 X126 Y125.74
G0 X126 Y109.7
G0 X125.539 Y109.7
M205 X3 Y3
G1 F900 X125.299 Y109.46 E29.46192
M205 X8 Y8
G0 F6000 X124.733 Y109.46
M205 X3 Y3
G1 F900 X125.539 Y110.266 E29.49984
M205 X8 Y8
G0 F6000 X125.539 Y110.831
M205 X3 Y3
G1 F900 X124.167 Y109.46 E29.56435
M205 X8 Y8
G0 F6000 X123.602 Y109.46
M205 X3 Y3
G1 F900 X125.539 Y111.397 E29.65546
M205 X8 Y8
G0 F6000 X125.539 Y111.963
M205 X3 Y3
G1 F900 X123.036 Y109.46 E29.77319
M205 X8 Y8
G0 F6000 X122.47 Y109.46
M205 X3 Y3
G1 F900 X125.539 Y112.528 E29.91752
M205 X8 Y8
G0 F6000 X125.539 Y113.094
M205 X3 Y3
G1 F900 X121.905 Y109.46 E30.08846
M205 X8 Y8
G0 F6000 X121.339 Y109.46
M205 X3 Y3
G1 F900 X125.539 Y113.66 E30.28601
M205 X8 Y8
G0 F6000 X125.539 Y114.226
M205 X3 Y3
G1 F900 X120.773 Y109.46 E30.51019
M205 X8 Y8
G0 F6000 X120.208 Y109.46
M205 X3 Y3
G1 F900 X125.539 Y114.791 E30.76094
M205 X8 Y8
G0 F6000 X125.539 Y115.357
M205 X3 Y3
G1 F900 X119.642 Y109.46 E31.03832
M205 X8 Y8
G0 F6000 X119.076 Y109.46
M205 X3 Y3
G1 F900 X125.539 Y115.923 E31.34232
M205 X8 Y8
G0 F6000 X125.539 Y116.488
M205 X3 Y3
G1 F900 X118.511 Y109.46 E31.6729
M205 X8 Y8
G0 F6000 X117.945 Y109.46
M205 X3 Y3
G1 F900 X125.539 Y117.054 E32.03009
M205 X8 Y8
G0 F6000 X125.539 Y117.62
M205 X3 Y3
G1 F900 X117.379 Y109.46 E32.41392
M205 X8 Y8
G0 F6000 X116.814 Y109.46
M205 X3 Y3
G1 F900 X125.539 Y118.185 E32.82431
M205 X8 Y8
G0 F6000 X125.539 Y118.751
M205 X3 Y3
G1 F900 X116.248 Y109.46 E33.26133
M205 X8 Y8
G0 F6000 X115.682 Y109.46
M205 X3 Y3
G1 F900 X125.539 Y119.317 E33.72498
M205 X8 Y8
G0 F6000 X125.539 Y119.882
M205 X3 Y3
G1 F900 X115.116 Y109.46 E34.21522
M205 X8 Y8
G0 F6000 X114.551 Y109.46
M205 X3 Y3
G1 F900 X125.539 Y120.448 E34.73206
M205 X8 Y8
G0 F6000 X125.539 Y121.014
M205 X3 Y3
G1 F900 X113.985 Y109.46 E35.27552
M205 X8 Y8
G0 F6000 X113.419 Y109.46
M205 X3 Y3
G1 F900 X125.539 Y121.579 E35.84559
M205 X8 Y8
G0 F6000 X125.539 Y122.145
M205 X3 Y3
G1 F900 X112.854 Y109.46 E36.44225
M205 X8 Y8
G0 F6000 X112.288 Y109.46
M205 X3 Y3
G1 F900 X125.539 Y122.711 E37.06554
M205 X8 Y8
G0 F6000 X125.539 Y123.276
M205 X3 Y3
G1 F900 X111.722 Y109.46 E37.71542
M205 X8 Y8
G0 F6000 X111.157 Y109.46
M205 X3 Y3
G1 F900 X125.539 Y123.842 E38.39191
M205 X8 Y8
G0 F6000 X125.539 Y124.408
M205 X3 Y3
G1 F900 X110.591 Y109.46 E39.09502
M205 X8 Y8
G0 F6000 X110.025 Y109.46
M205 X3 Y3
G1 F900 X125.539 Y124.974 E39.82475
M205 X8 Y8
G0 F6000 X125.539 Y125.539
M205 X3 Y3
G1 F900 X109.459 Y109.459 E40.5811
M205 X8 Y8
G0 F6000 X109.459 Y110.025
M205 X3 Y3
G1 F900 X124.974 Y125.539 E41.31086
M205 X8 Y8
G0 F6000 X124.408 Y125.539
M205 X3 Y3
G1 F900 X109.459 Y110.59 E42.01401
M205 X8 Y8
G0 F6000 X109.459 Y111.156
M205 X3 Y3
G1 F900 X123.842 Y125.539 E42.69054
M205 X8 Y8
G0 F6000 X123.276 Y125.539
M205 X3 Y3
G1 F900 X109.459 Y111.722 E43.34045
M205 X8 Y8
G0 F6000 X109.459 Y112.287
M205 X3 Y3
G1 F900 X122.711 Y125.539 E43.96379
M205 X8 Y8
G0 F6000 X122.145 Y125.539
M205 X3 Y3
G1 F900 X109.459 Y112.853 E44.5605
M205 X8 Y8
G0 F6000 X109.459 Y113.419
M205 X3 Y3
G1 F900 X121.579 Y125.539 E45.13059
M205 X8 Y8
G0 F6000 X121.014 Y125.539
M205 X3 Y3
G1 F900 X109.459 Y113.984 E45.6741
M205 X8 Y8
G0 F6000 X109.459 Y114.55
M205 X3 Y3
G1 F900 X120.448 Y125.539 E46.19099
M205 X8 Y8
G0 F6000 X119.882 Y125.539
M205 X3 Y3
G1 F900 X109.459 Y115.116 E46.68125
M205 X8 Y8
G0 F6000 X109.459 Y115.681
M205 X3 Y3
G1 F900 X119.317 Y125.539 E47.14494
M205 X8 Y8
G0 F6000 X118.751 Y125.539
M205 X3 Y3
G1 F900 X109.459 Y116.247 E47.58201
M205 X8 Y8
G0 F6000 X109.459 Y116.813
M205 X3 Y3
G1 F900 X118.185 Y125.539 E47.99245
M205 X8 Y8
G0 F6000 X117.62 Y125.539
M205 X3 Y3
G1 F900 X109.459 Y117.379 E48.3763
M205 X8 Y8
G0 F6000 X109.459 Y117.944
M205 X3 Y3
G1 F900 X117.054 Y125.539 E48.73354
M205 X8 Y8
G0 F6000 X116.488 Y125.539
M205 X3 Y3
G1 F900 X109.459 Y118.51 E49.06417
M205 X8 Y8
G0 F6000 X109.459 Y119.076
M205 X3 Y3
G1 F900 X115.923 Y125.539 E49.36819
M205 X8 Y8
G0 F6000 X115.357 Y125.539
M205 X3 Y3
G1 F900 X109.459 Y119.641 E49.64561
M205 X8 Y8
G0 F6000 X109.459 Y120.207
M205 X3 Y3
G1 F900 X114.791 Y125.539 E49.89641
M205 X8 Y8
G0 F6000 X114.226 Y125.539
M205 X3 Y3
G1 F900 X109.459 Y120.773 E50.12062
M205 X8 Y8
G0 F6000 X109.459 Y121.338
M205 X3 Y3
G1 F900 X113.66 Y125.539 E50.31822
M205 X8 Y8
G0 F6000 X113.094 Y125.539
M205 X3 Y3
G1 F900 X109.459 Y121.904 E50.4892
M205 X8 Y8
G0 F6000 X109.459 Y122.47
M205 X3 Y3
G1 F900 X112.528 Y125.539 E50.63355
M205 X8 Y8
G0 F6000 X111.963 Y125.539
M205 X3 Y3
G1 F900 X109.459 Y123.035 E50.75133
M205 X8 Y8
G0 F6000 X109.459 Y123.601
M205 X3 Y3
G1 F900 X111.397 Y125.539 E50.84249
M205 X8 Y8
G0 F6000 X110.831 Y125.539
M205 X3 Y3
G1 F900 X109.459 Y124.167 E50.90703
M205 X8 Y8
G0 F6000 X109.459 Y124.732
M205 X3 Y3
G1 F900 X110.266 Y125.539 E50.94499
M205 X8 Y8
G0 F6000 X109.7 Y125.539
M205 X3 Y3
G1 F900 X109.459 Y125.298 E50.95632
M104 S205
M205 X8 Y8
G0 F6000 X108.7 Y125.298
;MESH:NOMESH
G0 F300 X108.7 Y125.298 Z0.4
G0 F6000 X109.072 Y125.928
G0 X126.1 Y126.1
;TIME_ELAPSED:113.845225
;LAYER:1
M106 S42.5
M205 X3 Y3
;TYPE:WALL-INNER
;MESH:xyzCalibration_cube.stl
G1 F975 X126.1 Y108.9 E51.5284
G1 X108.9 Y108.9 E52.10047
G1 X108.9 Y126.1 E52.67254
G1 X126.1 Y126.1 E53.24462
M205 X8 Y8
G0 F6750 X126.5 Y126.5
M205 X3 Y3
G1 F975 X126.5 Y108.5 E53.8433
G1 X108.5 Y108.5 E54.44198
G1 X108.5 Y126.5 E55.04067
G1 X126.5 Y126.5 E55.63935
M205 X8 Y8
G0 F6750 X126.9 Y126.9
M205 X3 Y3
G1 F975 X126.9 Y108.1 E56.26464
G1 X108.1 Y108.1 E56.88993
G1 X108.1 Y126.9 E57.51522
G1 X126.9 Y126.9 E58.14051
M205 X8 Y8
G0 F6750 X127.3 Y127.3
M205 X3 Y3
;TYPE:WALL-OUTER
G1 F975 X127.3 Y107.7 E58.79241
G1 X107.7 Y107.7 E59.44431
G1 X107.7 Y127.3 E60.09621
G1 X127.3 Y127.3 E60.74811
M205 X8 Y8
G0 F6750 X127.03 Y127.03
G0 X126 Y125.74
G0 X125.74 Y125.74
M205 X3.5 Y3.5
;TYPE:SKIN
G1 F1125 X109.26 Y125.74 E61.29623
G1 X109.26 Y109.26 E61.84436
G1 X125.74 Y109.26 E62.39249
G1 X125.74 Y125.74 E62.94061
M205 X8 Y8
G0 F6750 X125.058 Y125.539
M205 X3.5 Y3.5
G1 F1125 X125.539 Y125.058 E62.96324
M205 X8 Y8
G0 F6750 X125.539 Y124.493
M205 X3.5 Y3.5
