; generated by PrusaSlicer 2.7.2+win64 on 2024-03-26 at 15:41:44 UTC

; 

; external perimeters extrusion width = 0.42mm
; perimeters extrusion width = 0.44mm
; infill extrusion width = 0.44mm
; solid infill extrusion width = 0.44mm
; top infill extrusion width = 0.40mm
; first layer extrusion width = 0.42mm


; printing object kostka_oscad1.stl id:0 copy 0
; stop printing object kostka_oscad1.stl id:0 copy 0

;TYPE:Custom
; Ender 3 Custom Start G-code
G92 E0 ; Reset Extruder

M140 S55 ; set bed temp
M104 S160 ; set extruder temp
M109 S160 ; wait for extruder temp
M190 S55 ; wait for bed temp

G28 ; Home all axes
M104 S210 ; set extruder temp 
BED_MESH_CALIBRATE AREA_START=97.4858,80.9008 AREA_END=135.125,139.54

G1 Z2.0 F3000 ; Move Z Axis up little to prevent scratching of Heat Bed
M109 S210 ; wait for extruder temp
G1 X0.1 Y20 Z0.3 F5000.0 ; Move to start position

G1 X0.1 Y200.0 Z0.3 F1500.0 E15 ; Draw the first line
G1 X0.4 Y200.0 Z0.3 F5000.0 ; Move to side a little
G1 X0.4 Y20 Z0.3 F1500.0 E30 ; Draw the second line
G92 E0 ; Reset Extruder
G1 Z2.0 F3000 ; Move Z Axis up little to prevent scratching of Heat Bed
G1 X5 Y20 Z0.3 F5000.0 ; Move over to prevent blob squish
G21 ; set units to millimeters
G90 ; use absolute coordinates
M83 ; use relative distances for extrusion
; Filament gcode
M107
;LAYER_CHANGE
;Z:0.2
;HEIGHT:0.2
G1 E-1.6 F2400
G1 Z.2 F6000
G1 X100.033 Y85.698
G1 Z.2
G1 E1.6 F2400
M204 S500
;TYPE:Skirt/Brim
;WIDTH:0.42
G1 F1200
G1 X100.987 Y84.592 E.0458
G1 X102.032 Y83.644 E.04424
G1 X103.097 Y82.885 E.041
G1 X104.328 Y82.208 E.04405
G1 X105.685 Y81.667 E.0458
G1 X107.304 Y81.263 E.05232
G1 X108.964 Y81.094 E.05232
G1 X123.438 Y81.09 E.45382
G1 X125.307 Y81.263 E.05885
G1 X127.268 Y81.785 E.06363
G1 X128.976 Y82.565 E.05887
G1 X130.579 Y83.644 E.06059
G1 X132.042 Y85.042 E.06345
G1 X133.193 Y86.595 E.06061
G1 X134.107 Y88.407 E.06363
G1 X134.661 Y90.202 E.0589
G1 X134.866 Y91.44 E.03935
G1 X134.937 Y92.692 E.03932
G1 X134.937 Y127.748 E1.09916
G1 X134.813 Y129.413 E.05235
G1 X134.452 Y131.042 E.05232
G1 X133.948 Y132.413 E.0458
G1 X133.2 Y133.835 E.05038
G1 X132.354 Y135.028 E.04586
G1 X131.365 Y136.107 E.04589
G1 X130.249 Y137.052 E.04585
G1 X129.025 Y137.848 E.04578
G1 X127.71 Y138.485 E.04581
G1 X126.326 Y138.952 E.0458
G1 X125.046 Y139.221 E.04101
G1 X123.591 Y139.348 E.04579
G1 X109.229 Y139.351 E.45031
G1 X107.565 Y139.221 E.05233
G1 X105.937 Y138.853 E.05233
G1 X104.517 Y138.32 E.04756
G1 X103.05 Y137.526 E.0523
G1 X101.753 Y136.566 E.05059
G1 X100.566 Y135.395 E.05228
G1 X99.557 Y134.064 E.05237
G1 X98.752 Y132.609 E.05214
G1 X98.205 Y131.194 E.04757
G1 X97.822 Y129.57 E.05232
G1 X97.674 Y127.725 E.05803
G1 X97.674 Y92.692 E1.09844
G1 X97.797 Y91.034 E.05213
G1 X98.157 Y89.404 E.05234
G1 X98.638 Y88.085 E.04402
G1 X99.303 Y86.784 E.04581
G1 X100 Y85.748 E.03915
G1 X100 Y85.748 F6000
G1 X100.318 Y85.967
G1 F1200
G1 X100.456 Y85.768 E.00759
G1 X101.365 Y84.745 E.04291
G1 X102.308 Y83.906 E.03958
G1 X103.426 Y83.124 E.04278
G1 X104.536 Y82.527 E.03952
G1 X105.851 Y82.009 E.04431
G1 X107.371 Y81.634 E.04909
G1 X108.978 Y81.471 E.05064
G1 X123.431 Y81.467 E.45316
G1 X125.24 Y81.634 E.05696
G1 X127.142 Y82.14 E.06171
G1 X128.837 Y82.919 E.05849
G1 X130.46 Y84.033 E.06172
G1 X131.793 Y85.33 E.05831
G1 X132.951 Y86.922 E.06172
G1 X133.758 Y88.549 E.05694
G1 X134.304 Y90.333 E.0585
G1 X134.492 Y91.484 E.03657
G1 X134.56 Y92.696 E.03806
G1 X134.56 Y127.745 E1.09894
G1 X134.44 Y129.356 E.05065
G1 X134.047 Y131.078 E.05538
G1 X133.542 Y132.398 E.04431
G1 X132.851 Y133.681 E.04569
G1 X132.029 Y134.83 E.0443
G1 X131.065 Y135.872 E.04451
G1 X129.982 Y136.78 E.04431
G1 X128.794 Y137.545 E.0443
G1 X127.519 Y138.156 E.04433
G1 X126.178 Y138.602 E.04431
G1 X124.841 Y138.869 E.04275
G1 X123.584 Y138.971 E.03954
G1 X109.229 Y138.974 E.45009
G1 X107.619 Y138.847 E.05064
G1 X105.997 Y138.477 E.05216
G1 X104.536 Y137.914 E.04909
G1 X103.126 Y137.126 E.05065
G1 X101.959 Y136.245 E.04585
G1 X100.814 Y135.106 E.05064
G1 X99.845 Y133.815 E.05061
G1 X99.072 Y132.403 E.05047
G1 X98.507 Y130.89 E.05064
G1 X98.171 Y129.357 E.04921
G1 X98.051 Y127.725 E.05131
G1 X98.053 Y92.547 E1.10298
G1 X98.193 Y90.94 E.05058
G1 X98.562 Y89.368 E.05063
G1 X99.067 Y88.048 E.04431
G1 X99.654 Y86.932 E.03954
G1 X100.284 Y86.017 E.03483
G1 X100.284 Y86.017 F6000
G1 X100.594 Y86.23
G1 F1200
G1 X100.751 Y86.003 E.00865
G1 X101.633 Y85.01 E.04164
G1 X102.541 Y84.203 E.03809
G1 X103.661 Y83.422 E.04281
G1 X104.832 Y82.806 E.04149
G1 X106.11 Y82.323 E.04284
G1 X107.481 Y81.997 E.04419
G1 X108.991 Y81.848 E.04757
G1 X123.425 Y81.844 E.45257
G1 X125.173 Y82.005 E.05504
G1 X127.016 Y82.496 E.0598
G1 X128.65 Y83.247 E.05639
G1 X130.222 Y84.326 E.05978
G1 X131.507 Y85.576 E.05621
G1 X132.629 Y87.118 E.05979
G1 X133.424 Y88.731 E.05638
G1 X133.967 Y90.564 E.05994
G1 X134.122 Y91.572 E.03198
G1 X134.183 Y92.699 E.03539
G1 X134.183 Y127.742 E1.09875
G1 X134.068 Y129.298 E.04892
G1 X133.686 Y130.968 E.05371
G1 X133.197 Y132.244 E.04285
G1 X132.533 Y133.479 E.04396
G1 X131.738 Y134.59 E.04283
G1 X130.807 Y135.597 E.043
G1 X129.761 Y136.475 E.04282
G1 X128.612 Y137.215 E.04285
G1 X127.381 Y137.805 E.0428
G1 X126.084 Y138.236 E.04285
G1 X124.787 Y138.496 E.04148
G1 X123.577 Y138.594 E.03806
G1 X109.229 Y138.597 E.44987
G1 X107.673 Y138.474 E.04894
G1 X106.11 Y138.117 E.05027
G1 X104.655 Y137.553 E.04893
G1 X103.331 Y136.81 E.0476
G1 X102.092 Y135.861 E.04893
G1 X101.1 Y134.861 E.04416
G1 X100.163 Y133.613 E.04893
G1 X99.416 Y132.249 E.04876
G1 X98.87 Y130.787 E.04893
G1 X98.544 Y129.299 E.04776
G1 X98.429 Y127.725 E.04948
G1 X98.43 Y92.551 E1.10286
G1 X98.566 Y90.997 E.04891
G1 X98.923 Y89.478 E.04892
G1 X99.411 Y88.202 E.04283
G1 X99.976 Y87.128 E.03805
G1 X100.56 Y86.28 E.03228
; printing object kostka_oscad1.stl id:0 copy 0
G1 E-1.12 F2400
;WIPE_START
G1 F4800
G1 X100.594 Y86.23 E-.02872
G1 X100.751 Y86.003 E-.1311
G1 X101.199 Y85.499 E-.32018
;WIPE_END
G1 X117.116 Y110.354 F6000
G1 E1.6 F2400
;TYPE:External perimeter
G1 F1200
G1 X117.056 Y110.335 E.00197
G1 X116.916 Y110.233 E.00543
G1 X116.895 Y110.157 E.00247
G1 X116.903 Y109.829 E.01029
G1 X117.184 Y109.889 E.00901
G1 X117.319 Y109.946 E.00459
G1 X117.368 Y110.098 E.00501
G1 X117.365 Y110.187 E.00279
G1 X117.335 Y110.28 E.00306
G1 X117.291 Y110.325 E.00197
G1 X117.23 Y110.35 E.00207
G1 X117.176 Y110.352 E.00169
G1 E-1.12 F2400
;WIPE_START
G1 F4800
G1 X117.116 Y110.354 E-.02852
G1 X117.056 Y110.335 E-.02989
G1 X116.916 Y110.233 E-.08228
G1 X116.895 Y110.157 E-.03745
G1 X116.903 Y109.829 E-.15585
G1 X117.184 Y109.889 E-.13648
G1 X117.202 Y109.897 E-.00953
;WIPE_END
G1 X115.332 Y100.383 F6000
G1 E1.6 F2400
G1 F1200
G1 X115.004 Y100.303 E.01059
G1 X114.852 Y100.202 E.00572
G1 X114.799 Y100.12 E.00306
G1 X114.783 Y99.924 E.00617
G1 X114.883 Y99.822 E.00448
G1 X115.155 Y99.735 E.00895
G1 X115.173 Y99.938 E.00639
G1 X115.22 Y100.137 E.00641
G1 X115.307 Y100.329 E.00661
G1 E-1.12 F2400
;WIPE_START
G1 F4800
G1 X115.332 Y100.383 E-.02827
G1 X115.004 Y100.303 E-.16037
G1 X114.852 Y100.202 E-.08669
G1 X114.799 Y100.12 E-.04638
G1 X114.783 Y99.924 E-.09341
G1 X114.878 Y99.827 E-.06488
;WIPE_END
G1 X115.708 Y108.805 F6000
G1 E1.6 F2400
;TYPE:Perimeter
G1 F1200
G1 X116.292 Y108.875 E.01844
G1 X116.324 Y108.265 E.01915
G1 X116.662 Y108.258 E.0106
G1 X116.561 Y108.781 E.0167
G1 X116.515 Y109.314 E.01677
G1 X115.771 Y109.26 E.02339
G1 X115.716 Y108.864 E.01254
G1 E-1.12 F2400
;WIPE_START
G1 F4800
G1 X115.708 Y108.805 E-.02828
G1 X116.292 Y108.875 E-.27939
G1 X116.311 Y108.513 E-.17233
;WIPE_END
G1 X115.498 Y98.022 F6000
G1 E1.6 F2400
G1 F1200
G1 X115.491 Y97.696 E.01022
G1 X116.006 Y97.697 E.01615
G1 X115.778 Y97.822 E.00815
G1 X115.547 Y97.987 E.0089
G1 E-1.12 F2400
;WIPE_START
G1 F4800
G1 X115.498 Y98.022 E-.0286
G1 X115.491 Y97.696 E-.15489
G1 X116.006 Y97.697 E-.24463
G1 X115.91 Y97.749 E-.05188
;WIPE_END
G1 X114.021 Y103.932 F6000
G1 E1.6 F2400
G1 F1200
G1 X114.021 Y103.555 E.01182
G1 X115.981 Y103.555 E.06145
G1 X119.109 Y106.187 E.12818
G1 X119.105 Y108.292 E.066
G1 X118.33 Y108.269 E.02431
G1 X118.506 Y108.421 E.00729
G1 X118.783 Y108.784 E.01432
G1 X118.974 Y109.222 E.01498
G1 X119.078 Y109.701 E.01537
G1 X119.11 Y110.259 E.01752
G1 X119.07 Y110.823 E.01773
G1 X118.962 Y111.299 E.0153
G1 X118.765 Y111.732 E.01492
G1 X118.462 Y112.097 E.01487
G1 X118.147 Y112.332 E.01232
G1 X117.792 Y112.487 E.01215
G1 X117.409 Y112.551 E.01218
G1 X116.944 Y112.537 E.01459
G1 X117.163 Y112.699 E.00854
G1 X119.109 Y114.327 E.07955
G1 X119.109 Y116.419 E.06559
G1 X116.359 Y116.419 E.08622
G1 X116.359 Y116.98 E.01759
G1 X114.021 Y116.98 E.07331
G1 X114.021 Y116.419 E.01759
G1 X113.185 Y116.419 E.02621
G1 X113.185 Y113.961 E.07707
G1 X114.031 Y113.961 E.02653
G1 X114.044 Y113.259 E.02201
G1 X114.124 Y112.321 E.02952
G1 X114.005 Y112.231 E.00468
G1 X113.905 Y112.194 E.00334
G1 X113.668 Y112.01 E.00941
G1 X113.33 Y111.516 E.01877
G1 X113.208 Y111.152 E.01204
G1 X113.148 Y110.871 E.00901
G1 X113.111 Y110.464 E.01281
G1 X113.113 Y110.049 E.01301
G1 X113.152 Y109.645 E.01273
G1 X113.217 Y109.345 E.00962
G1 X113.327 Y109.02 E.01076
G1 X113.655 Y108.53 E.01849
G1 X113.888 Y108.344 E.00935
G1 X114.046 Y108.265 E.00554
G1 X113.189 Y108.292 E.02688
G1 X113.183 Y105.819 E.07754
G1 X114.021 Y105.819 E.02627
G1 X114.021 Y103.992 E.05728
G1 E-1.12 F2400
;WIPE_START
G1 F4800
G1 X114.021 Y103.932 E-.0285
G1 X114.021 Y103.555 E-.17907
G1 X114.594 Y103.555 E-.27243
;WIPE_END
G1 X115.535 Y109.621 F6000
G1 E1.6 F2400
;TYPE:External perimeter
G1 F1200
G1 X116.826 Y109.714 E.04058
G1 X116.913 Y109.229 E.01545
G1 X116.936 Y108.828 E.01259
G1 X117.063 Y108.171 E.02098
G1 X117.54 Y108.262 E.01523
G1 X117.716 Y108.327 E.00588
G1 X118.011 Y108.492 E.0106
G1 X118.23 Y108.681 E.00907
G1 X118.455 Y108.976 E.01163
G1 X118.613 Y109.338 E.01238
G1 X118.703 Y109.752 E.01328
G1 X118.732 Y110.256 E.01583
G1 X118.696 Y110.767 E.01606
G1 X118.603 Y111.178 E.01321
G1 X118.443 Y111.53 E.01212
G1 X118.201 Y111.822 E.01189
G1 X117.956 Y112.003 E.00955
G1 X117.683 Y112.123 E.00935
G1 X117.384 Y112.173 E.00951
G1 X117.032 Y112.162 E.01104
G1 X116.976 Y112.108 E.00244
G1 X116.824 Y112.065 E.00495
G1 X116.484 Y111.887 E.01203
G1 X116.507 Y111.783 E.00334
G1 X116.398 Y111.677 E.00477
G1 X116.232 Y111.921 E.00925
G1 X116.08 Y112.062 E.0065
G1 X115.838 Y112.2 E.00873
G1 X116.19 Y112.496 E.01442
G1 X116.563 Y112.724 E.01371
G1 X116.93 Y112.996 E.01432
G1 X118.732 Y114.504 E.07367
G1 X118.732 Y116.041 E.04819
G1 X115.982 Y116.041 E.08622
G1 X115.982 Y116.603 E.01762
G1 X114.398 Y116.603 E.04967
G1 X114.398 Y116.041 E.01762
G1 X113.562 Y116.041 E.02621
G1 X113.562 Y114.338 E.0534
G1 X114.402 Y114.338 E.02634
G1 X114.421 Y113.279 E.03321
G1 X114.515 Y112.174 E.03477
G1 X114.631 Y112.174 E.00364
G1 X114.398 Y112.055 E.0082
G1 X114.187 Y111.897 E.00826
G1 X114.09 Y111.861 E.00324
G1 X113.946 Y111.749 E.00572
G1 X113.671 Y111.347 E.01527
G1 X113.572 Y111.052 E.00976
G1 X113.521 Y110.814 E.00763
G1 X113.488 Y110.448 E.01152
G1 X113.49 Y110.068 E.01191
G1 X113.525 Y109.704 E.01147
G1 X113.581 Y109.446 E.00828
G1 X113.668 Y109.188 E.00854
G1 X113.936 Y108.788 E.0151
G1 X114.079 Y108.674 E.00573
G1 X114.183 Y108.633 E.00351
G1 X114.473 Y108.419 E.0113
G1 X114.607 Y108.361 E.00458
G1 X114.498 Y108.361 E.00342
G1 X114.494 Y107.862 E.01565
G1 X113.565 Y107.903 E.02916
G1 X113.561 Y106.196 E.05352
G1 X114.398 Y106.196 E.02624
G1 X114.398 Y103.932 E.07099
G1 X115.843 Y103.932 E.04531
G1 X118.732 Y106.362 E.11836
G1 X118.729 Y107.903 E.04832
G1 X117.051 Y107.855 E.05263
G1 X116.597 Y107.884 E.01426
G1 X115.965 Y107.893 E.01982
G1 X115.936 Y108.453 E.01758
G1 X115.26 Y108.371 E.02135
G1 X115.387 Y109.204 E.02642
G1 X115.443 Y109.807 E.01899
G1 X115.125 Y109.885 E.01027
G1 X114.912 Y110.057 E.00858
G1 X114.879 Y110.129 E.00248
G1 X114.861 Y110.273 E.00455
G1 X114.884 Y110.367 E.00303
G1 X114.933 Y110.439 E.00273
G1 X115.018 Y110.498 E.00324
G1 X115.146 Y110.533 E.00416
G1 X115.293 Y110.536 E.00461
G1 X115.417 Y110.512 E.00396
G1 X115.505 Y110.463 E.00316
G1 X115.588 Y110.359 E.00417
G1 X115.647 Y110.106 E.00815
G1 X115.549 Y109.68 E.01371
G1 E-1.12 F2400
;WIPE_START
G1 F4800
G1 X115.535 Y109.621 E-.0288
G1 X116.482 Y109.689 E-.4512
;WIPE_END
G1 X114.29 Y89.63 F6000
G1 E1.6 F2400
;TYPE:Perimeter
G1 F1200
G1 X114.801 Y89.448 E.01701
G1 X115.656 Y89.298 E.02722
G1 X115.66 Y89.563 E.00831
G1 X116.997 Y89.711 E.04218
G1 X119.033 Y90.04 E.06467
G1 X119.027 Y94.283 E.13304
G1 X117.847 Y94.235 E.03703
G1 X117.886 Y94.292 E.00217
G1 X117.966 Y94.531 E.0079
G1 X118.102 Y94.784 E.00901
G1 X118.261 Y95.014 E.00877
G1 X118.354 Y95.113 E.00426
G1 X118.466 Y95.207 E.00458
G1 X119.109 Y95.581 E.02332
G1 X119.109 Y97.696 E.06631
G1 X117.726 Y97.696 E.04336
G1 X118.048 Y97.852 E.01122
G1 X118.317 Y98.04 E.01029
G1 X118.537 Y98.249 E.00951
G1 X118.724 Y98.49 E.00956
G1 X118.885 Y98.779 E.01037
G1 X119.002 Y99.098 E.01065
G1 X119.074 Y99.437 E.01087
G1 X119.107 Y99.817 E.01196
G1 X119.102 Y100.191 E.01173
G1 X119.062 Y100.561 E.01167
G1 X118.988 Y100.885 E.01042
G1 X118.865 Y101.215 E.01104
G1 X118.708 Y101.492 E.00998
G1 X118.53 Y101.72 E.00907
G1 X118.326 Y101.92 E.00896
G1 X118.097 Y102.094 E.00902
G1 X117.835 Y102.249 E.00954
G1 X117.328 Y102.452 E.01712
G1 X116.737 Y102.566 E.01887
G1 X116.01 Y102.597 E.02282
G1 X115.328 Y102.539 E.02146
G1 X114.996 Y102.471 E.01063
G1 X114.692 Y102.378 E.00997
G1 X114.405 Y102.255 E.00979
G1 X114.129 Y102.095 E.01
G1 X113.79 Y101.811 E.01387
G1 X113.492 Y101.435 E.01504
G1 X113.278 Y101.004 E.01509
G1 X113.151 Y100.533 E.0153
G1 X113.107 Y99.993 E.01699
G1 X113.145 Y99.408 E.01838
G1 X113.253 Y98.952 E.01469
G1 X113.481 Y98.502 E.01582
G1 X113.768 Y98.17 E.01376
G1 X114.097 Y97.919 E.01297
G1 X114.548 Y97.731 E.01532
G1 X114.71 Y97.696 E.0052
G1 X113.185 Y97.696 E.04782
G1 X113.185 Y95.062 E.08259
G1 X114.88 Y95.069 E.05315
G1 X115.409 Y95.094 E.0166
G1 X115.74 Y95.131 E.01044
G1 X115.601 Y94.719 E.01363
G1 X115.616 Y94.423 E.00929
G1 X115.498 Y94.444 E.00376
G1 X115.13 Y94.44 E.01154
G1 X114.785 Y94.38 E.01098
G1 X114.368 Y94.222 E.01398
G1 X114.02 Y94.011 E.01276
G1 X113.739 Y93.763 E.01175
G1 X113.534 Y93.51 E.01021
G1 X113.358 Y93.21 E.01091
G1 X113.245 Y92.922 E.0097
G1 X113.162 Y92.593 E.01064
G1 X113.116 Y92.217 E.01188
G1 X113.11 Y91.816 E.01257
G1 X113.135 Y91.442 E.01175
G1 X113.199 Y91.078 E.01159
G1 X113.292 Y90.773 E.01
G1 X113.413 Y90.504 E.00925
G1 X113.576 Y90.247 E.00954
G1 X113.776 Y90.014 E.00963
G1 X114.008 Y89.812 E.00965
G1 X114.239 Y89.663 E.00862
G1 E-1.12 F2400
;WIPE_START
G1 F4800
G1 X114.29 Y89.63 E-.02885
G1 X114.801 Y89.448 E-.25766
G1 X115.202 Y89.377 E-.19349
;WIPE_END
G1 X115.121 Y97.995 F6000
G1 E1.6 F2400
;TYPE:External perimeter
G1 F1200
G1 X115.137 Y98.714 E.02255
G1 X115.203 Y99.233 E.0164
G1 X115.285 Y98.988 E.0081
G1 X115.411 Y98.761 E.00814
G1 X115.551 Y98.58 E.00717
G1 X115.618 Y98.446 E.0047
G1 X115.726 Y98.323 E.00513
G1 X115.979 Y98.141 E.00977
G1 X116.155 Y98.045 E.00629
G1 X116.598 Y97.93 E.01435
G1 X116.835 Y97.914 E.00745
G1 X117.102 Y97.926 E.00838
G1 X117.369 Y97.975 E.00851
G1 X117.61 Y98.055 E.00796
G1 X117.855 Y98.177 E.00858
G1 X118.078 Y98.332 E.00852
G1 X118.257 Y98.503 E.00776
G1 X118.409 Y98.698 E.00775
G1 X118.541 Y98.936 E.00853
G1 X118.638 Y99.202 E.00888
G1 X118.701 Y99.493 E.00934
G1 X118.73 Y99.831 E.01064
G1 X118.725 Y100.168 E.01057
G1 X118.689 Y100.498 E.01041
G1 X118.626 Y100.777 E.00897
G1 X118.522 Y101.055 E.00931
G1 X118.393 Y101.282 E.00819
G1 X118.249 Y101.468 E.00738
G1 X118.079 Y101.634 E.00745
G1 X117.886 Y101.781 E.00761
G1 X117.668 Y101.91 E.00794
G1 X117.221 Y102.088 E.01509
G1 X116.693 Y102.19 E.01686
G1 X116.018 Y102.22 E.02119
G1 X115.382 Y102.166 E.02001
G1 X115.089 Y102.106 E.00938
G1 X114.821 Y102.024 E.00879
G1 X114.574 Y101.918 E.00843
G1 X114.347 Y101.785 E.00825
G1 X114.062 Y101.546 E.01166
G1 X113.812 Y101.232 E.01258
G1 X113.633 Y100.87 E.01266
G1 X113.524 Y100.468 E.01306
G1 X113.485 Y99.99 E.01504
G1 X113.519 Y99.464 E.01653
G1 X113.61 Y99.082 E.01231
