; generated by PrusaSlicer 2.6.0-alpha4+MacOS-x64 on 2023-03-19 at 08:35:26 UTC

; 

; external perimeters extrusion width = 0.40mm
; perimeters extrusion width = 0.40mm
; infill extrusion width = 0.40mm
; solid infill extrusion width = 0.40mm
; top infill extrusion width = 0.40mm
; support material extrusion width = 0.36mm
; first layer extrusion width = 0.40mm

M107
;TYPE:Custom
; Ender 3 Custom Start G-code
G92 E0 ; Reset Extruder

M140 S50 ; set bed temp
M190 S50 ; wait for bed temp

G28 ; Home all axes
M104 S205 ; set extruder temp 
BED_MESH_CALIBRATE AREA_START=92.0303,100.289 AREA_END=138.97,130.711

G1 Z2.0 F3000 ; Move Z Axis up little to prevent scratching of Heat Bed
M109 S205 ; wait for extruder temp
G1 X0.1 Y20 Z0.3 F5000.0 ; Move to start position

G1 X0.1 Y200.0 Z0.3 F1500.0 E15 ; Draw the first line
G1 X0.4 Y200.0 Z0.3 F5000.0 ; Move to side a little
G1 X0.4 Y20 Z0.3 F1500.0 E30 ; Draw the second line
G92 E0 ; Reset Extruder
G1 Z2.0 F3000 ; Move Z Axis up little to prevent scratching of Heat Bed
G1 X5 Y20 Z0.3 F5000.0 ; Move over to prevent blob squish
G21 ; set units to millimeters
G90 ; use absolute coordinates
M83 ; use relative distances for extrusion
; Filament gcode
M107
;LAYER_CHANGE
;Z:0.24
;HEIGHT:0.24
;BEFORE_LAYER_CHANGE
G92 E0
;0.24


G1 E-5 F3600
G1 Z.24 F9000
;AFTER_LAYER_CHANGE
;0.24
G1 X95.438 Y103.077
G1 E5 F2400
M204 S500
;TYPE:Skirt/Brim
;WIDTH:0.4
G1 F1440
G1 X96.245 Y102.422 E.03614
G1 X97.114 Y101.853 E.03612
G1 X98.417 Y101.214 E.05046
G1 X100.004 Y100.718 E.05782
G1 X101.432 Y100.5 E.05023
G1 X128.94 Y100.468 E.95654
G1 X129.972 Y100.541 E.03598
G1 X130.996 Y100.718 E.03614
G1 X132.583 Y101.214 E.05782
G1 X133.886 Y101.853 E.05046
G1 X135.245 Y102.803 E.05766
G1 X136.007 Y103.505 E.03603
G1 X136.697 Y104.289 E.03632
G1 X137.52 Y105.509 E.05117
G1 X138.212 Y107.004 E.05728
G1 X138.61 Y108.434 E.05162
G1 X138.795 Y110.293 E.06496
G1 X138.795 Y120.707 E.36213
G1 X138.61 Y122.566 E.06496
G1 X138.212 Y123.996 E.05162
G1 X137.806 Y124.951 E.03608
G1 X137.296 Y125.865 E.0364
G1 X136.301 Y127.182 E.0574
G1 X135.562 Y127.923 E.03639
G1 X134.755 Y128.579 E.03616
G1 X133.886 Y129.147 E.0361
G1 X132.58 Y129.787 E.05057
G1 X130.996 Y130.282 E.05771
G1 X129.568 Y130.5 E.05023
G1 X101.432 Y130.5 E.97837
G1 X100.004 Y130.282 E.05023
G1 X99.008 Y130.004 E.03596
G1 X98.038 Y129.624 E.03623
G1 X97.114 Y129.147 E.03616
G1 X96.245 Y128.578 E.03612
G1 X95.438 Y127.923 E.03614
G1 X94.699 Y127.182 E.03639
G1 X94.048 Y126.372 E.03614
G1 X93.48 Y125.491 E.03645
G1 X92.788 Y123.996 E.05728
G1 X92.484 Y122.995 E.03638
G1 X92.244 Y121.532 E.05155
G1 X92.244 Y109.468 E.4195
G1 X92.39 Y108.434 E.03631
G1 X92.647 Y107.422 E.03631
G1 X93.014 Y106.439 E.03649
G1 X93.48 Y105.509 E.03617
G1 X94.048 Y104.627 E.03648
G1 X94.699 Y103.818 E.03611
G1 X95.396 Y103.119 E.03433
G1 X95.642 Y103.366 F9000
G1 F1440
G1 X96.459 Y102.696 E.03674
G1 X97.299 Y102.148 E.03488
G1 X98.538 Y101.541 E.04798
G1 X100.091 Y101.055 E.05659
G1 X101.449 Y100.848 E.04777
G1 X128.922 Y100.816 E.95532
G1 X129.919 Y100.885 E.03475
G1 X130.909 Y101.055 E.03493
G1 X132.462 Y101.541 E.05659
G1 X133.701 Y102.148 E.04798
G1 X135.031 Y103.078 E.05643
G1 X135.766 Y103.756 E.03477
G1 X136.43 Y104.514 E.03504
G1 X137.212 Y105.672 E.04859
G1 X137.889 Y107.133 E.05599
G1 X138.266 Y108.49 E.04897
G1 X138.447 Y110.293 E.06301
G1 X138.447 Y120.707 E.36213
G1 X138.267 Y122.51 E.06301
G1 X137.889 Y123.867 E.04898
G1 X137.498 Y124.788 E.03479
G1 X137.007 Y125.67 E.0351
G1 X136.034 Y126.957 E.0561
G1 X135.321 Y127.672 E.03511
G1 X134.541 Y128.304 E.03491
G1 X133.701 Y128.852 E.03488
G1 X132.46 Y129.46 E.04805
G1 X130.909 Y129.945 E.05651
G1 X129.551 Y130.152 E.04777
G1 X101.449 Y130.152 E.97719
G1 X100.091 Y129.945 E.04777
G1 X99.128 Y129.677 E.03476
G1 X98.192 Y129.311 E.03495
G1 X97.299 Y128.852 E.03491
G1 X96.459 Y128.304 E.03488
G1 X95.679 Y127.672 E.03491
G1 X94.966 Y126.957 E.03511
G1 X94.336 Y126.177 E.03487
G1 X93.788 Y125.328 E.03514
G1 X93.111 Y123.866 E.05602
G1 X92.82 Y122.901 E.03505
G1 X92.592 Y121.513 E.04891
G1 X92.592 Y109.487 E.41818
G1 X92.734 Y108.49 E.03502
G1 X92.983 Y107.515 E.03499
G1 X93.338 Y106.568 E.03517
G1 X93.788 Y105.672 E.03487
G1 X94.336 Y104.823 E.03514
G1 X94.966 Y104.043 E.03487
G1 X95.6 Y103.408 E.0312
G1 X95.846 Y103.655 F9000
G1 F1440
G1 X96.673 Y102.971 E.03732
G1 X97.483 Y102.444 E.0336
G1 X98.658 Y101.868 E.0455
G1 X100.178 Y101.393 E.05538
G1 X101.467 Y101.196 E.04534
G1 X128.904 Y101.164 E.95407
G1 X130.822 Y101.393 E.06717
G1 X132.342 Y101.868 E.05538
G1 X133.517 Y102.444 E.0455
G1 X134.817 Y103.353 E.05516
G1 X135.525 Y104.008 E.03354
G1 X136.164 Y104.738 E.03374
G1 X136.904 Y105.835 E.04601
G1 X137.565 Y107.263 E.05472
G1 X137.923 Y108.547 E.04635
G1 X138.098 Y110.293 E.06102
G1 X138.098 Y120.707 E.36213
G1 X137.923 Y122.453 E.06102
G1 X137.565 Y123.737 E.04635
G1 X137.189 Y124.625 E.03353
G1 X136.718 Y125.474 E.03376
G1 X136.164 Y126.262 E.0335
G1 X135.525 Y126.992 E.03374
G1 X134.327 Y128.029 E.0551
G1 X133.517 Y128.556 E.0336
G1 X132.339 Y129.133 E.04561
G1 X130.822 Y129.607 E.05527
G1 X129.533 Y129.804 E.04534
G1 X101.467 Y129.804 E.97594
G1 X100.178 Y129.607 E.04534
G1 X99.249 Y129.35 E.03352
G1 X97.483 Y128.556 E.06733
G1 X95.921 Y127.42 E.06716
G1 X95.232 Y126.733 E.03383
G1 X94.625 Y125.982 E.03358
G1 X94.096 Y125.165 E.03384
G1 X93.435 Y123.737 E.05472
G1 X93.156 Y122.808 E.03373
G1 X92.939 Y121.494 E.04631
G1 X92.939 Y109.506 E.41686
G1 X93.077 Y108.547 E.03369
G1 X93.318 Y107.608 E.03371
G1 X93.661 Y106.697 E.03385
G1 X94.096 Y105.835 E.03357
G1 X94.625 Y105.018 E.03384
G1 X95.232 Y104.267 E.03358
G1 X95.803 Y103.697 E.02806
; printing object NO_TXT_Kostka.stl id:0 copy 0
G1 E-3.5 F3600
;WIPE_START
G1 F7200
G1 X96.673 Y102.971 E-.53824
G1 X97.483 Y102.444 E-.45902
G1 X98.433 Y101.978 E-.50274
;WIPE_END
G1 X121.808 Y115.554 F9000
G1 E5 F2400
;TYPE:Perimeter
;WIDTH:0.399999
G1 F1440
G1 X121.382 Y115.807 E.01723
G1 X121.146 Y116.014 E.01092
G1 X120.715 Y116.611 E.0256
G1 X120.613 Y116.396 E.00827
G1 X120.358 Y116.144 E.01247
G1 X120.243 Y116.081 E.00456
G1 X119.886 Y116.004 E.0127
G1 X119.31 Y116.004 E.02003
G1 X119.238 Y115.756 E.00898
G1 X119.139 Y115.625 E.00571
G1 X118.956 Y115.484 E.00803
G1 X119.13 Y115.332 E.00803
G1 X120.441 Y113.712 E.07247
G1 X120.537 Y114.218 E.01791
G1 X120.725 Y114.661 E.01673
G1 X121.022 Y115.065 E.01744
G1 X121.361 Y115.354 E.01549
G1 X121.753 Y115.529 E.01493
G1 E-3.5 F3600
;WIPE_START
G1 F7200
G1 X121.382 Y115.807 E-.22021
G1 X121.146 Y116.014 E-.14911
G1 X120.715 Y116.611 E-.34975
G1 X120.613 Y116.396 E-.11304
G1 X120.358 Y116.144 E-.17029
G1 X120.243 Y116.081 E-.06228
G1 X119.886 Y116.004 E-.17347
G1 X119.335 Y116.004 E-.26185
;WIPE_END
G1 X122.923 Y112.477 F9000
G1 E5 F2400
;TYPE:External perimeter
;WIDTH:0.39569
G1 F1440
G1 X123.281 Y112.508 E.01234
;WIDTH:0.420796
G1 X123.432 Y112.563 E.00592
G1 E-3.5 F3600
;WIPE_START
G1 F7200
G1 X123.281 Y112.508 E-.07633
G1 X122.923 Y112.477 E-.17069
;WIPE_END
G1 E-1.25298 F3600
G1 X122.923 Y117.123 F9000
G1 E5 F2400
;WIDTH:0.395688
G1 F1440
G1 X123.281 Y117.154 E.01234
;WIDTH:0.420796
G1 X123.432 Y117.209 E.00592
G1 E-3.5 F3600
;WIPE_START
G1 F7200
G1 X123.281 Y117.154 E-.07633
G1 X122.923 Y117.123 E-.17069
;WIPE_END
G1 E-1.25298 F3600
G1 X127.963 Y118.474 F9000
G1 E5 F2400
;WIDTH:0.399374
G1 F1440
G1 X127.698 Y118.453 E.00923
G1 E-3.5 F3600
;WIPE_START
G1 F7200
G1 X127.963 Y118.474 E-.12627
;WIPE_END
G1 E-1.37373 F3600
G1 X130.295 Y115.907 F9000
G1 E5 F2400
;TYPE:Perimeter
;WIDTH:0.61127
G1 F1440
G1 X130.23 Y115.858 E.00455
;WIDTH:0.572945
G1 X130.164 Y115.808 E.00431
;WIDTH:0.534619
G1 X130.099 Y115.758 E.00395
;WIDTH:0.496293
G1 X130.033 Y115.708 E.00367
;WIDTH:0.457967
G1 X129.775 Y115.565 E.01196
;WIDTH:0.441933
G1 X129.883 Y115.5 E.00491
;WIDTH:0.489155
G1 X129.984 Y115.398 E.00627
;WIDTH:0.536376
G1 X130.084 Y115.297 E.00688
;WIDTH:0.583597
G1 X130.184 Y115.195 E.00758
;WIDTH:0.630818
G1 X130.285 Y115.093 E.0083
G1 X130.295 Y115.167 E.00432
;WIDTH:0.587086
G1 X130.306 Y115.241 E.004
;WIDTH:0.543353
G1 X130.317 Y115.315 E.00367
;WIDTH:0.49962
G1 X130.327 Y115.39 E.00338
;WIDTH:0.455887
G1 X130.338 Y115.464 E.00302
;WIDTH:0.461933
G1 X130.327 Y115.575 E.00457
;WIDTH:0.511712
G1 X130.317 Y115.685 E.00507
;WIDTH:0.561491
G1 X130.306 Y115.796 E.00568
;WIDTH:0.61127
G1 X130.301 Y115.848 E.00292
G1 X130.303 Y115.005 F9000
;WIDTH:0.638228
G1 F1440
G1 X130.291 Y114.972 E.00206
;WIDTH:0.590583
G1 X130.273 Y114.921 E.00291
;WIDTH:0.542937
G1 X130.254 Y114.87 E.00267
;WIDTH:0.495291
G1 X130.236 Y114.82 E.00235
;WIDTH:0.447645
G1 X130.218 Y114.769 E.00214
;WIDTH:0.399999
G1 X130.194 Y113.719 E.03652
G1 X130.122 Y112.94 E.0272
G1 X130.205 Y112.74 E.00753
G1 X130.29 Y112.242 E.01757
G1 X130.316 Y111.68 E.01956
G1 X130.235 Y111.374 E.01101
G1 X130.033 Y111.1 E.01184
G1 X129.724 Y110.919 E.01245
G1 X129.002 Y110.703 E.02621
G1 X128.346 Y110.646 E.0229
G1 X128.016 Y110.671 E.01151
G1 X127.492 Y110.755 E.01845
G1 X127.03 Y110.97 E.01772
G1 X126.788 Y110.804 E.0102
G1 X126.46 Y110.731 E.01168
G1 X125.671 Y110.706 E.02745
G1 X125.028 Y110.712 E.02236
G1 X124.197 Y110.81 E.0291
G1 X123.967 Y110.873 E.00829
G1 X123.58 Y110.722 E.01445
G1 X123.193 Y110.681 E.01353
G1 X122.667 Y110.674 E.01829
G1 X122.108 Y110.787 E.01983
G1 X121.833 Y110.893 E.01025
G1 X121.382 Y111.161 E.01824
G1 X121.146 Y111.368 E.01092
G1 X120.715 Y111.965 E.0256
G1 X120.613 Y111.75 E.00827
G1 X120.285 Y111.455 E.01534
G1 X119.886 Y111.358 E.01428
G1 X119.296 Y111.358 E.02052
G1 X119.176 Y111.022 E.01241
G1 X118.871 Y110.781 E.01352
G1 X118.449 Y110.698 E.01496
G1 X117.92 Y110.727 E.01842
G1 X117.398 Y110.808 E.01837
G1 X117.101 Y110.92 E.01104
G1 X116.908 Y110.834 E.00735
G1 X116.354 Y110.687 E.01993
G1 X115.672 Y110.648 E.02375
G1 X115.009 Y110.753 E.02334
G1 X114.487 Y110.987 E.01989
G1 X114.238 Y111.194 E.01126
G1 X114.029 Y111.446 E.01138
G1 X113.767 Y111.426 E.00914
G1 X113.657 Y111.105 E.0118
G1 X113.506 Y110.922 E.00825
G1 X112.917 Y110.693 E.02197
G1 X111.703 Y110.706 E.04222
G1 X111.238 Y110.947 E.01821
G1 X111.042 Y111.248 E.01249
G1 X110.987 Y111.504 E.00911
G1 X110.809 Y111.655 E.00812
G1 X110.57 Y111.341 E.01372
G1 X110.166 Y111.017 E.01801
G1 X109.815 Y110.827 E.01388
G1 X109.101 Y110.654 E.02555
G1 X108.567 Y110.653 E.01857
G1 X107.851 Y110.807 E.02547
G1 X107.491 Y110.988 E.01401
G1 X107.201 Y110.838 E.01135
G1 X106.634 Y110.687 E.0204
G1 X105.928 Y110.65 E.02458
G1 X105.365 Y110.725 E.01975
G1 X105.05 Y110.832 E.01157
G1 X104.552 Y111.134 E.02025
G1 X104.472 Y111.063 E.00372
G1 X104.116 Y110.846 E.0145
G1 X103.756 Y110.716 E.01331
G1 X103.126 Y110.642 E.02206
G1 X102.594 Y110.7 E.01861
G1 X102.104 Y110.868 E.01801
G1 X101.684 Y111.148 E.01755
G1 X101.353 Y111.522 E.01737
G1 X101.118 Y112.002 E.01858
G1 X100.999 Y112.503 E.01791
G1 X100.948 Y112.9 E.01392
G1 X100.971 Y113.74 E.02922
G1 X101.116 Y114.344 E.0216
G1 X101.329 Y114.786 E.01706
G1 X101.672 Y115.194 E.01853
G1 X102.123 Y115.496 E.01887
G1 X101.625 Y115.802 E.02032
G1 X101.34 Y116.1 E.01434
G1 X101.114 Y116.474 E.0152
G1 X100.958 Y116.961 E.01778
G1 X100.954 Y117.607 E.02246
G1 X101.085 Y118.12 E.01841
G1 X101.299 Y118.432 E.01316
G1 X101.21 Y118.807 E.0134
G1 X101.171 Y119.336 E.01844
G1 X101.199 Y119.628 E.0102
G1 X101.334 Y119.911 E.0109
G1 X101.585 Y120.143 E.01189
G1 X101.911 Y120.262 E.01207
G1 X102.445 Y120.342 E.01878
G1 X102.951 Y120.349 E.0176
G1 X103.32 Y120.286 E.01302
G1 X103.805 Y120.167 E.01737
G1 X104.093 Y120.002 E.01154
G1 X104.127 Y120.062 E.0024
G1 X104.327 Y120.185 E.00816
G1 X104.622 Y120.256 E.01055
G1 X105.34 Y120.293 E.025
G1 X106.258 Y120.294 E.03192
G1 X107.278 Y120.189 E.03566
G1 X107.567 Y120.071 E.01085
G1 X107.767 Y120.174 E.00782
G1 X108.468 Y120.351 E.02514
G1 X109.158 Y120.341 E.024
G1 X109.693 Y120.203 E.01921
G1 X109.964 Y120.078 E.01038
G1 X110.425 Y119.75 E.01967
G1 X110.721 Y119.365 E.01689
;WIDTH:0.44519
G1 X110.829 Y119.138 E.00987
;WIDTH:0.49038
G1 X110.938 Y118.911 E.01103
G1 X110.96 Y119.104 E.00851
;WIDTH:0.446213
G1 X111.028 Y119.711 E.02406
;WIDTH:0.399999
G1 X111.16 Y119.96 E.0098
G1 X111.472 Y120.216 E.01403
G1 X111.854 Y120.304 E.01363
G1 X113.003 Y120.294 E.03996
G1 X113.332 Y120.171 E.01221
G1 X113.55 Y119.976 E.01017
G1 X113.885 Y119.556 E.01868
G1 X114.185 Y119.881 E.01538
G1 X114.467 Y120.057 E.01156
G1 X114.834 Y120.228 E.01408
;WIDTH:0.441418
G1 X114.938 Y120.272 E.00439
;WIDTH:0.482836
G1 X115.042 Y120.316 E.00486
;WIDTH:0.524254
G1 X115.147 Y120.359 E.00535
;WIDTH:0.565672
G1 X115.251 Y120.403 E.00579
;WIDTH:0.60709
G1 X115.356 Y120.447 E.00631
G1 X115.309 Y120.462 E.00273
;WIDTH:0.58202
G1 X115.263 Y120.476 E.00255
;WIDTH:0.55695
G1 X115.114 Y120.533 E.00805
;WIDTH:0.517713
G1 X114.965 Y120.589 E.0074
;WIDTH:0.478475
G1 X114.816 Y120.645 E.00678
;WIDTH:0.439237
G1 X114.667 Y120.701 E.00616
;WIDTH:0.399999
G1 X114.231 Y120.918 E.01694
G1 X113.8 Y121.265 E.01924
G1 X113.531 Y121.602 E.01499
G1 X113.275 Y122.098 E.01941
G1 X113.143 Y122.639 E.01936
G1 X113.14 Y123.169 E.01843
G1 X113.273 Y123.729 E.02001
G1 X113.494 Y124.179 E.01743
;WIDTH:0.434004
G1 X113.635 Y124.386 E.00956
;WIDTH:0.468008
G1 X113.777 Y124.594 E.01047
G1 X113.93 Y124.712 E.00803
;WIDTH:0.442715
G1 X114.082 Y124.831 E.00754
;WIDTH:0.417422
G1 X114.354 Y124.964 E.01105
;WIDTH:0.387673
G1 X114.626 Y125.097 E.01016
;WIDTH:0.357923
G1 X115.111 Y125.221 E.01531
;WIDTH:0.335138
G1 X115.615 Y125.245 E.01428
;WIDTH:0.342944
G1 X116.14 Y125.169 E.01543
;WIDTH:0.380065
G1 X116.602 Y125.004 E.01608
;WIDTH:0.405877
G1 X116.814 Y124.878 E.00872
;WIDTH:0.431688
G1 X117.026 Y124.751 E.00937
G1 X117.363 Y124.383 E.01893
;WIDTH:0.399999
G1 X117.589 Y124.029 E.0146
G1 X117.798 Y123.498 E.01984
G1 X117.844 Y123.197 E.01059
G1 X117.859 Y122.653 E.01892
G1 X117.714 Y122.08 E.02055
G1 X117.515 Y121.676 E.01566
G1 X117.152 Y121.216 E.02038
G1 X116.763 Y120.911 E.01719
G1 X116.319 Y120.692 E.01722
;WIDTH:0.445332
G1 X116.227 Y120.645 E.00406
;WIDTH:0.490665
G1 X116.136 Y120.599 E.00447
;WIDTH:0.535997
G1 X116.045 Y120.552 E.00495
;WIDTH:0.58133
G1 X115.954 Y120.506 E.00539
;WIDTH:0.626662
G1 X115.863 Y120.459 E.00588
G1 X115.96 Y120.426 E.00588
;WIDTH:0.58133
G1 X116.058 Y120.392 E.00548
;WIDTH:0.535997
G1 X116.155 Y120.359 E.00495
;WIDTH:0.490665
G1 X116.253 Y120.325 E.00455
;WIDTH:0.445332
G1 X116.35 Y120.292 E.00403
;WIDTH:0.399999
G1 X117.077 Y120.11 E.02606
G1 X117.446 Y120.224 E.01343
G1 X118.385 Y120.298 E.03275
G1 X118.838 Y120.211 E.01604
G1 X119.13 Y119.978 E.01299
G1 X120.441 Y118.358 E.07247
G1 X120.463 Y118.548 E.00665
G1 X120.598 Y119.038 E.01767
G1 X120.838 Y119.486 E.01767
G1 X121.168 Y119.852 E.01714
G1 X121.607 Y120.131 E.01809
G1 X122.086 Y120.295 E.01761
G1 X122.368 Y120.342 E.00994
G1 X122.922 Y120.342 E.01926
G1 X123.207 Y120.294 E.01005
G1 X123.685 Y120.128 E.0176
G1 X124.059 Y119.903 E.01518
G1 X124.264 Y120.136 E.01079
G1 X124.58 Y120.286 E.01216
G1 X125.075 Y120.311 E.01723
G1 X125.974 Y120.279 E.03128
G1 X126.283 Y120.127 E.01197
G1 X126.407 Y119.946 E.00763
G1 X126.548 Y120.114 E.00763
G1 X126.729 Y120.199 E.00695
G1 X127.269 Y120.263 E.01891
G1 X127.935 Y120.301 E.0232
G1 X129.465 Y120.296 E.0532
G1 X129.799 Y120.178 E.01232
G1 X130.029 Y119.974 E.01069
G1 X130.19 Y119.653 E.01249
G1 X130.213 Y119.157 E.01727
G1 X130.194 Y118.365 E.02755
G1 X130.122 Y117.587 E.02717
G1 X130.207 Y117.378 E.00785
G1 X130.303 Y116.669 E.02488
;WIDTH:0.442254
G1 X130.316 Y116.548 E.00474
;WIDTH:0.484508
G1 X130.328 Y116.426 E.0053
;WIDTH:0.526762
G1 X130.341 Y116.305 E.00577
;WIDTH:0.569016
G1 X130.354 Y116.184 E.00628
;WIDTH:0.61127
G1 X130.367 Y116.062 E.00685
G1 X130.46 Y116.122 E.00618
;WIDTH:0.569016
G1 X130.553 Y116.182 E.00571
;WIDTH:0.526762
G1 X130.646 Y116.241 E.00522
;WIDTH:0.484508
G1 X130.739 Y116.301 E.00478
;WIDTH:0.442254
G1 X130.832 Y116.361 E.00432
;WIDTH:0.399999
G1 X131.286 Y116.588 E.01765
G1 X131.738 Y116.875 E.01862
G1 X132.151 Y117.205 E.01838
G1 X132.521 Y117.571 E.0181
G1 X132.847 Y117.971 E.01794
G1 X133.127 Y118.402 E.01787
