; generated by PrusaSlicer 2.6.0-alpha4+MacOS-x64 on 2023-03-19 at 11:23:13 UTC

; 

; external perimeters extrusion width = 0.40mm
; perimeters extrusion width = 0.40mm
; infill extrusion width = 0.40mm
; solid infill extrusion width = 0.40mm
; top infill extrusion width = 0.40mm
; support material extrusion width = 0.36mm
; first layer extrusion width = 0.40mm

M107
;TYPE:Custom
; Ender 3 Custom Start G-code
G92 E0 ; Reset Extruder

M140 S50 ; set bed temp
M190 S50 ; wait for bed temp

G28 ; Home all axes
M104 S205 ; set extruder temp 
BED_MESH_CALIBRATE AREA_START=86.7202,97.231 AREA_END=144.28,133.769

G1 Z2.0 F3000 ; Move Z Axis up little to prevent scratching of Heat Bed
M109 S205 ; wait for extruder temp
G1 X0.1 Y20 Z0.3 F5000.0 ; Move to start position

G1 X0.1 Y200.0 Z0.3 F1500.0 E15 ; Draw the first line
G1 X0.4 Y200.0 Z0.3 F5000.0 ; Move to side a little
G1 X0.4 Y20 Z0.3 F1500.0 E30 ; Draw the second line
G92 E0 ; Reset Extruder
G1 Z2.0 F3000 ; Move Z Axis up little to prevent scratching of Heat Bed
G1 X5 Y20 Z0.3 F5000.0 ; Move over to prevent blob squish
G21 ; set units to millimeters
G90 ; use absolute coordinates
M83 ; use relative distances for extrusion
; Filament gcode
M107
;LAYER_CHANGE
;Z:0.16
;HEIGHT:0.16
;BEFORE_LAYER_CHANGE
G92 E0
;0.16


G1 E-5 F3600
G1 Z.16 F9000
;AFTER_LAYER_CHANGE
;0.16
G1 X90.695 Y100.447
G1 E5 F2400
M204 S500
;TYPE:Skirt/Brim
;WIDTH:0.4
G1 F1440
G1 X91.639 Y99.685 E.02951
G1 X92.657 Y99.023 E.02954
G1 X94.122 Y98.305 E.03968
G1 X96.041 Y97.705 E.04891
G1 X97.648 Y97.46 E.03954
G1 X132.552 Y97.419 E.84901
G1 X133.76 Y97.501 E.02945
G1 X134.959 Y97.705 E.02958
G1 X136.878 Y98.305 E.04891
G1 X138.343 Y99.023 E.03968
G1 X139.984 Y100.17 E.0487
G1 X140.872 Y100.992 E.02943
G1 X141.673 Y101.909 E.02962
G1 X142.596 Y103.276 E.04012
G1 X143.43 Y105.078 E.0483
G1 X143.875 Y106.678 E.0404
G1 X144.049 Y107.881 E.02957
G1 X144.097 Y108.873 E.02416
G1 X144.097 Y122.127 E.32239
G1 X144.049 Y123.119 E.02416
G1 X143.875 Y124.323 E.02959
G1 X143.43 Y125.922 E.04037
G1 X142.959 Y127.037 E.02944
G1 X142.369 Y128.102 E.02961
G1 X141.673 Y129.091 E.02942
G1 X140.872 Y130.008 E.02962
G1 X139.361 Y131.315 E.0486
G1 X138.343 Y131.977 E.02954
G1 X136.875 Y132.697 E.03977
G1 X134.959 Y133.295 E.04882
G1 X133.352 Y133.54 E.03954
G1 X97.648 Y133.54 E.86847
G1 X96.041 Y133.295 E.03954
G1 X94.874 Y132.973 E.02945
G1 X93.739 Y132.532 E.02962
G1 X92.657 Y131.977 E.02958
G1 X91.639 Y131.315 E.02954
G1 X90.695 Y130.553 E.02951
G1 X89.831 Y129.69 E.0297
G1 X89.068 Y128.749 E.02947
G1 X88.404 Y127.724 E.02971
G1 X87.57 Y125.922 E.0483
G1 X87.22 Y124.756 E.02961
G1 X86.951 Y123.119 E.04035
G1 X86.951 Y107.881 E.37065
G1 X87.125 Y106.677 E.02959
G1 X87.427 Y105.5 E.02956
G1 X87.858 Y104.358 E.02969
G1 X88.404 Y103.276 E.02948
G1 X89.068 Y102.251 E.02971
G1 X89.831 Y101.31 E.02947
G1 X90.653 Y100.49 E.02824
G1 X90.911 Y100.749 F9000
G1 F1440
G1 X91.864 Y99.973 E.02989
G1 X92.851 Y99.333 E.02861
G1 X94.249 Y98.648 E.03787
G1 X96.132 Y98.059 E.04799
G1 X97.667 Y97.825 E.03777
G1 X132.533 Y97.784 E.84808
G1 X133.705 Y97.863 E.02857
G1 X134.868 Y98.059 E.02869
G1 X136.751 Y98.648 E.04799
G1 X138.149 Y99.333 E.03787
G1 X139.759 Y100.458 E.04778
G1 X140.618 Y101.256 E.02852
G1 X141.393 Y102.144 E.02867
G1 X142.273 Y103.447 E.03825
G1 X143.09 Y105.213 E.04733
G1 X143.514 Y106.737 E.03848
G1 X143.684 Y107.901 E.02861
G1 X143.731 Y108.873 E.02367
G1 X143.731 Y122.127 E.32239
G1 X143.684 Y123.099 E.02367
G1 X143.515 Y124.263 E.02861
G1 X143.09 Y125.787 E.03848
G1 X142.636 Y126.866 E.02847
G1 X142.066 Y127.898 E.02868
G1 X141.393 Y128.856 E.02848
G1 X140.618 Y129.744 E.02867
G1 X139.136 Y131.027 E.04768
G1 X138.149 Y131.667 E.02861
G1 X136.748 Y132.354 E.03795
G1 X134.868 Y132.941 E.04791
G1 X133.333 Y133.175 E.03777
G1 X98.467 Y133.216 E.84808
G1 X96.503 Y133.017 E.04802
G1 X95.359 Y132.742 E.02862
G1 X94.252 Y132.354 E.02853
G1 X93.186 Y131.853 E.02865
G1 X91.864 Y131.027 E.03792
G1 X90.949 Y130.289 E.02859
G1 X90.111 Y129.455 E.02876
G1 X89.371 Y128.544 E.02855
G1 X88.727 Y127.553 E.02875
G1 X87.91 Y125.787 E.04733
G1 X87.573 Y124.658 E.02866
G1 X87.316 Y123.099 E.03843
G1 X87.316 Y107.901 E.36968
G1 X87.486 Y106.737 E.02861
G1 X87.78 Y105.598 E.02861
G1 X88.198 Y104.493 E.02874
G1 X88.727 Y103.447 E.02851
G1 X89.371 Y102.456 E.02875
G1 X90.111 Y101.545 E.02855
G1 X90.868 Y100.791 E.02599
G1 X91.126 Y101.051 F9000
G1 F1440
G1 X92.089 Y100.262 E.03028
G1 X93.045 Y99.643 E.0277
G1 X94.376 Y98.991 E.03605
G1 X96.224 Y98.413 E.0471
G1 X97.685 Y98.19 E.03595
G1 X132.515 Y98.15 E.84721
G1 X133.65 Y98.224 E.02767
G1 X134.776 Y98.413 E.02777
G1 X136.624 Y98.991 E.0471
G1 X137.955 Y99.643 E.03605
G1 X139.534 Y100.747 E.04686
G1 X140.365 Y101.52 E.02761
G1 X141.113 Y102.38 E.02772
G1 X141.949 Y103.618 E.03634
G1 X142.751 Y105.349 E.0464
G1 X143.154 Y106.796 E.03654
G1 X143.366 Y108.873 E.05078
G1 X143.366 Y122.127 E.32239
G1 X143.154 Y124.204 E.05078
G1 X142.751 Y125.651 E.03654
G1 X142.313 Y126.695 E.02754
G1 X141.763 Y127.693 E.02772
G1 X141.113 Y128.62 E.02754
G1 X140.365 Y129.481 E.02774
G1 X138.911 Y130.738 E.04675
G1 X137.955 Y131.357 E.0277
G1 X136.622 Y132.011 E.03612
G1 X134.776 Y132.587 E.04704
G1 X133.315 Y132.81 E.03595
G1 X98.485 Y132.85 E.84721
G1 X96.558 Y132.656 E.04711
G1 X95.45 Y132.388 E.02773
G1 X94.378 Y132.011 E.02764
G1 X93.347 Y131.525 E.02772
G1 X92.089 Y130.738 E.03609
G1 X91.202 Y130.025 E.02768
G1 X90.391 Y129.22 E.02779
G1 X89.674 Y128.339 E.02763
G1 X89.051 Y127.382 E.02778
G1 X88.249 Y125.651 E.0464
G1 X87.925 Y124.56 E.02768
G1 X87.681 Y123.079 E.03651
G1 X87.681 Y107.921 E.3687
G1 X87.846 Y106.796 E.02766
G1 X88.132 Y105.696 E.02765
G1 X88.537 Y104.629 E.02776
G1 X89.051 Y103.618 E.02759
G1 X89.674 Y102.661 E.02778
G1 X90.391 Y101.78 E.02763
G1 X91.083 Y101.093 E.02372
; printing object NO_TXT_Kostka.stl id:0 copy 0
G1 E-3.5 F3600
;WIPE_START
G1 F7200
G1 X92.089 Y100.262 E-.6198
G1 X93.045 Y99.643 E-.54098
G1 X93.686 Y99.329 E-.33922
;WIPE_END
G1 X99.096 Y118.266 F9000
G1 E5 F2400
;TYPE:External perimeter
;WIDTH:0.399999
G1 F1440
G1 X99.108 Y118.444 E.00434
G1 X98.877 Y118.502 E.00579
G1 X98.529 Y118.491 E.00847
G1 X98.353 Y118.44 E.00446
G1 X98.243 Y118.308 E.00418
G1 X98.174 Y117.988 E.00796
G1 X98.226 Y117.735 E.00628
G1 X98.35 Y117.499 E.00648
G1 X98.509 Y117.408 E.00446
G1 X98.838 Y117.457 E.00809
G1 X98.99 Y117.628 E.00557
G1 X99.07 Y117.892 E.00671
G1 X99.092 Y118.207 E.00768
G1 X98.951 Y118.37 F9000
G1 E-3.5 F3600
;WIPE_START
G1 F7200
G1 X99.108 Y118.444 E-.11283
G1 X98.877 Y118.502 E-.11313
G1 X98.529 Y118.491 E-.16538
G1 X98.353 Y118.44 E-.08704
G1 X98.243 Y118.308 E-.08162
G1 X98.174 Y117.988 E-.15549
G1 X98.226 Y117.735 E-.12269
G1 X98.35 Y117.499 E-.12663
G1 X98.509 Y117.408 E-.08702
G1 X98.838 Y117.457 E-.158
G1 X98.99 Y117.628 E-.10868
G1 X99.07 Y117.892 E-.13103
G1 X99.077 Y117.998 E-.05046
;WIPE_END
G1 X98.197 Y111.891 F9000
G1 E5 F2400
G1 F1440
G1 X98.215 Y111.619 E.00663
G1 X98.314 Y111.184 E.01085
G1 X98.507 Y110.852 E.00934
G1 X98.647 Y110.803 E.00361
G1 X98.826 Y110.831 E.00441
G1 X99.006 Y111.058 E.00705
G1 X99.159 Y111.576 E.01314
G1 X99.193 Y112.187 E.01488
G1 X99.161 Y112.752 E.01377
G1 X99.063 Y113.188 E.01087
G1 X98.864 Y113.518 E.00937
G1 X98.729 Y113.571 E.00353
G1 X98.545 Y113.541 E.00453
G1 X98.37 Y113.316 E.00693
G1 X98.217 Y112.798 E.01314
G1 X98.178 Y112.187 E.01489
G1 X98.193 Y111.951 E.00575
G1 X98.438 Y111.763 F9000
G1 X98.688 Y112.725
;TYPE:Perimeter
;WIDTH:0.649608
G1 F1440
G1 X98.687 Y112.456 E.01101
;WIDTH:0.681886
G1 X98.687 Y111.918 E.02317
;WIDTH:0.649608
G1 X98.688 Y111.649 E.01101
G1 E-3.5 F3600
;WIPE_START
G1 F7200
G1 X98.687 Y111.918 E-.12778
G1 X98.685 Y112.187 E-.12778
G1 X98.687 Y112.456 E-.12778
G1 X98.688 Y112.725 E-.12778
;WIPE_END
G1 E-.98888 F3600
G1 X111.953 Y111.925 F9000
G1 E5 F2400
;TYPE:External perimeter
;WIDTH:0.405156
G1 F1440
G1 X112.114 Y111.925 E.00397
G1 X111.605 Y112.734 E.02358
G1 X111.605 Y111.925 E.01996
G1 X111.893 Y111.925 E.0071
G1 X112.08 Y112.023 F9000
G1 E-3.5 F3600
;WIPE_START
G1 F7200
G1 X112.114 Y111.925 E-.10498
G1 X111.605 Y112.734 E-.45401
G1 X111.605 Y111.925 E-.38428
G1 X111.893 Y111.925 E-.1368
;WIPE_END
G1 E-.41993 F3600
G1 X106.658 Y111.389 F9000
G1 E5 F2400
;WIDTH:0.399999
G1 F1440
G1 X106.654 Y111.422 E.00081
G1 X106.396 Y111.711 E.00942
G1 X106.123 Y111.613 E.00706
G1 X105.869 Y111.471 E.00708
G1 X105.755 Y111.319 E.00462
G1 X105.718 Y111.079 E.00591
G1 X105.812 Y110.9 E.00492
G1 X106.082 Y110.775 E.00724
G1 X106.381 Y110.796 E.00729
G1 X106.609 Y110.901 E.00611
G1 X106.701 Y111.087 E.00505
G1 X106.667 Y111.33 E.00597
G1 X106.629 Y111.404 F9000
G1 E-3.5 F3600
;WIPE_START
G1 F7200
G1 X106.654 Y111.422 E-.04413
G1 X106.396 Y111.711 E-.18402
G1 X106.123 Y111.613 E-.13778
G1 X105.869 Y111.471 E-.13822
G1 X105.755 Y111.319 E-.09025
G1 X105.718 Y111.079 E-.11535
G1 X105.812 Y110.9 E-.09604
G1 X106.082 Y110.775 E-.14133
G1 X106.381 Y110.796 E-.14237
G1 X106.609 Y110.901 E-.11923
G1 X106.701 Y111.087 E-.09857
G1 X106.667 Y111.33 E-.11655
;WIPE_END
G1 E-.07616 F3600
G1 X106.579 Y113.353 F9000
G1 E5 F2400
G1 F1440
G1 X106.568 Y113.434 E.00199
G1 X106.411 Y113.572 E.00508
G1 X106.102 Y113.6 E.00755
G1 X105.901 Y113.486 E.00562
G1 X105.807 Y113.273 E.00566
G1 X105.867 Y113.007 E.00663
G1 X106.117 Y112.749 E.00874
G1 X106.27 Y112.806 E.00397
G1 X106.493 Y112.963 E.00663
G1 X106.6 Y113.193 E.00617
G1 X106.587 Y113.293 E.00245
G1 X106.507 Y113.393 F9000
G1 X106.225 Y113.177
;TYPE:Perimeter
;WIDTH:0.43451
G1 F1440
G1 X106.175 Y113.177 E.00133
G1 X106.15 Y113.22 E.00132
G1 X106.175 Y113.264 E.00135
G1 X106.225 Y113.264 E.00133
G1 X106.25 Y113.22 E.00135
G1 E-3.5 F3600
;WIPE_START
G1 F7200
G1 X106.225 Y113.264 E-.02404
G1 X106.175 Y113.264 E-.02375
G1 X106.15 Y113.22 E-.02404
G1 X106.175 Y113.177 E-.02363
G1 X106.225 Y113.177 E-.02375
;WIPE_END
G1 E-1.38079 F3600
G1 X106.392 Y118.341 F9000
G1 E5 F2400
;TYPE:External perimeter
;WIDTH:0.399999
G1 F1440
G1 X106.052 Y118.218 E.00879
G1 X105.804 Y118.049 E.0073
G1 X105.72 Y117.798 E.00644
G1 X105.718 Y117.71 E.00214
G1 X105.812 Y117.531 E.00492
G1 X106.082 Y117.405 E.00725
G1 X106.381 Y117.426 E.00729
G1 X106.609 Y117.532 E.00612
G1 X106.701 Y117.718 E.00505
G1 X106.654 Y118.053 E.00823
G1 X106.433 Y118.301 E.00808
G1 X106.169 Y118.056 F9000
G1 X106.416 Y120.198
G1 F1440
G1 X106.201 Y120.24 E.00533
G1 X105.94 Y120.159 E.00665
G1 X105.829 Y119.976 E.00521
G1 X105.807 Y119.904 E.00183
G1 X105.867 Y119.638 E.00663
G1 X106.117 Y119.38 E.00874
G1 X106.27 Y119.437 E.00397
G1 X106.493 Y119.594 E.00663
G1 X106.6 Y119.823 E.00615
G1 X106.568 Y120.065 E.00594
G1 X106.461 Y120.159 E.00346
G1 X106.229 Y120.084 F9000
G1 X106.225 Y119.808
;TYPE:Perimeter
;WIDTH:0.434512
G1 F1440
G1 X106.175 Y119.808 E.00133
G1 X106.15 Y119.851 E.00132
G1 X106.175 Y119.895 E.00135
G1 X106.225 Y119.895 E.00133
G1 X106.25 Y119.851 E.00135
G1 E-3.5 F3600
;WIPE_START
G1 F7200
G1 X106.225 Y119.895 E-.02404
G1 X106.175 Y119.895 E-.02375
G1 X106.15 Y119.851 E-.02404
G1 X106.175 Y119.808 E-.02363
G1 X106.225 Y119.808 E-.02375
;WIPE_END
G1 E-1.38079 F3600
G1 X111.731 Y119.172 F9000
G1 E5 F2400
;TYPE:External perimeter
;WIDTH:0.405155
G1 F1440
G1 X111.605 Y119.364 E.00566
G1 X111.605 Y118.555 E.01996
G1 X112.114 Y118.555 E.01256
G1 X111.764 Y119.122 E.01644
G1 X111.506 Y119.219 F9000
G1 E-3.5 F3600
;WIPE_START
G1 F7200
G1 X111.605 Y119.364 E-.13754
G1 X111.605 Y118.555 E-.38427
G1 X112.114 Y118.555 E-.24178
G1 X111.764 Y119.122 E-.3165
;WIPE_END
G1 E-.41991 F3600
G1 X124.438 Y119.981 F9000
G1 E5 F2400
;WIDTH:0.399999
G1 F1440
G1 X124.377 Y119.867 E.00314
G1 X124.301 Y119.195 E.01645
G1 X124.764 Y119.125 E.01139
G1 X125.061 Y119.198 E.00744
G1 X125.171 Y119.316 E.00392
G1 X125.237 Y119.582 E.00667
G1 X125.198 Y119.899 E.00777
G1 X125.116 Y120.074 E.0047
G1 X124.921 Y120.223 E.00597
G1 X124.681 Y120.22 E.00584
G1 X124.505 Y120.106 E.0051
G1 X124.466 Y120.033 E.00201
G1 X124.495 Y119.865 F9000
G1 E-3.5 F3600
;WIPE_START
G1 F7200
G1 X124.377 Y119.867 E-.08947
G1 X124.301 Y119.195 E-.32123
G1 X124.764 Y119.125 E-.22242
G1 X125.061 Y119.198 E-.14527
G1 X125.171 Y119.316 E-.07663
G1 X125.237 Y119.582 E-.13018
G1 X125.198 Y119.899 E-.15171
G1 X125.116 Y120.074 E-.0918
G1 X124.921 Y120.223 E-.11657
G1 X124.681 Y120.22 E-.11401
G1 X124.609 Y120.173 E-.04071
;WIPE_END
G1 X119.268 Y119.15 F9000
G1 E5 F2400
;WIDTH:0.405154
G1 F1440
G1 X119.128 Y119.364 E.00631
G1 X119.128 Y118.555 E.01996
G1 X119.636 Y118.555 E.01253
G1 X119.301 Y119.099 E.01576
G1 X119.017 Y119.204 F9000
G1 E-3.5 F3600
;WIPE_START
G1 F7200
G1 X119.128 Y119.364 E-.15032
G1 X119.128 Y118.555 E-.38427
G1 X119.636 Y118.555 E-.2413
G1 X119.301 Y119.099 E-.30347
;WIPE_END
G1 E-.42064 F3600
G1 X119.128 Y112.269 F9000
G1 E5 F2400
G1 F1440
G1 X119.128 Y111.925 E.00849
G1 X119.636 Y111.925 E.01253
G1 X119.128 Y112.734 E.02356
G1 X119.128 Y112.329 E.00999
G1 X119.238 Y111.943 F9000
G1 E-3.5 F3600
;WIPE_START
G1 F7200
G1 X119.128 Y111.925 E-.1919
G1 X119.636 Y111.925 E-.2413
G1 X119.128 Y112.734 E-.45375
G1 X119.128 Y112.329 E-.19238
;WIPE_END
G1 E-.42067 F3600
G1 X124.5 Y113.466 F9000
G1 E5 F2400
;WIDTH:0.399999
G1 F1440
G1 X124.377 Y113.236 E.00634
G1 X124.301 Y112.564 E.01645
G1 X124.764 Y112.494 E.01139
G1 X125.061 Y112.567 E.00744
G1 X125.171 Y112.685 E.00392
G1 X125.237 Y112.951 E.00667
G1 X125.198 Y113.269 E.00779
G1 X125.116 Y113.443 E.00468
G1 X124.921 Y113.592 E.00597
G1 X124.681 Y113.589 E.00584
G1 X124.546 Y113.502 E.00391
G1 X124.575 Y113.217 F9000
G1 E-3.5 F3600
;WIPE_START
G1 F7200
G1 X124.377 Y113.236 E-.14969
G1 X124.301 Y112.564 E-.32123
G1 X124.764 Y112.494 E-.22242
G1 X125.061 Y112.567 E-.14527
G1 X125.171 Y112.685 E-.07663
G1 X125.237 Y112.951 E-.13018
G1 X125.198 Y113.269 E-.15218
G1 X125.116 Y113.443 E-.09137
G1 X124.921 Y113.592 E-.11657
G1 X124.722 Y113.59 E-.09446
;WIPE_END
G1 X103.855 Y112.815 F9000
G1 E5 F2400
;TYPE:Perimeter
;WIDTH:0.501719
G1 F1440
G1 X103.877 Y112.341 E.01475
G1 X103.859 Y112.163 E.00556
;WIDTH:0.45938
G1 X103.841 Y111.984 E.00509
;WIDTH:0.417041
G1 X103.823 Y111.806 E.00455
;WIDTH:0.374702
G1 X103.68 Y111.507 E.0075
;WIDTH:0.372319
G1 X103.95 Y111.538 E.00611
G1 X104.108 Y111.443 E.00414
G1 X104.141 Y111.675 E.00527
;WIDTH:0.409787
G1 X104.194 Y111.845 E.00445
;WIDTH:0.447255
G1 X104.247 Y112.016 E.00492
;WIDTH:0.484723
G1 X104.3 Y112.186 E.00533
;WIDTH:0.501719
G1 X104.383 Y112.323 E.00498
G1 X104.238 Y112.62 E.01028
G1 X104.136 Y113.066 E.01422
G1 X103.967 Y112.874 E.00795
G1 X103.908 Y112.843 E.00207
G1 E-3.5 F3600
;WIPE_START
G1 F7200
G1 X103.877 Y112.341 E-.2389
G1 X103.859 Y112.163 E-.08498
G1 X103.841 Y111.984 E-.08545
G1 X103.823 Y111.806 E-.08498
G1 X103.68 Y111.507 E-.15743
G1 X103.95 Y111.538 E-.12909
G1 X104.108 Y111.443 E-.08757
G1 X104.141 Y111.675 E-.11131
G1 X104.194 Y111.845 E-.08458
G1 X104.247 Y112.016 E-.08504
G1 X104.3 Y112.186 E-.08458
G1 X104.383 Y112.323 E-.07609
G1 X104.238 Y112.62 E-.15699
G1 X104.223 Y112.688 E-.03301
;WIPE_END
G1 X100.644 Y113.648 F9000
G1 E5 F2400
;WIDTH:0.399999
G1 F1440
G1 X100.397 Y114.186 E.0144
G1 X100.084 Y114.584 E.01232
G1 X99.66 Y114.909 E.01299
G1 X99.167 Y115.1 E.01286
;WIDTH:0.441949
G1 X99.041 Y115.135 E.00355
;WIDTH:0.483898
G1 X98.915 Y115.169 E.0039
;WIDTH:0.525848
G1 X98.789 Y115.204 E.00428
;WIDTH:0.567797
G1 X98.663 Y115.238 E.00463
G1 X98.527 Y115.201 E.005
;WIDTH:0.52463
G1 X98.391 Y115.165 E.00459
;WIDTH:0.481463
G1 X98.255 Y115.128 E.00419
;WIDTH:0.438296
G1 X97.767 Y114.937 E.01408
;WIDTH:0.399999
G1 X97.278 Y114.57 E.01487
G1 X96.981 Y114.189 E.01175
G1 X96.76 Y113.746 E.01204
G1 X96.614 Y113.259 E.01237
G1 X96.532 Y112.733 E.01295
G1 X96.508 Y112.213 E.01266
G1 X96.529 Y111.706 E.01234
G1 X96.614 Y111.115 E.01452
G1 X96.76 Y110.629 E.01234
G1 X97.014 Y110.131 E.0136
G1 X97.362 Y109.721 E.01308
G1 X97.783 Y109.431 E.01243
G1 X98.256 Y109.266 E.01219
G1 X98.726 Y109.224 E.01148
G1 X99.248 Y109.299 E.01283
G1 X99.708 Y109.497 E.01218
G1 X100.093 Y109.802 E.01195
G1 X100.397 Y110.189 E.01197
G1 X100.56 Y110.507 E.00869
