; generated by PrusaSlicer 2.6.0-alpha4+MacOS-x64 on 2023-02-28 at 12:55:15 UTC

; 

; external perimeters extrusion width = 0.45mm
; perimeters extrusion width = 0.45mm
; infill extrusion width = 0.45mm
; solid infill extrusion width = 0.45mm
; top infill extrusion width = 0.40mm
; first layer extrusion width = 0.42mm

M201 X500 Y500 Z100 E5000 ; sets maximum accelerations, mm/sec^2
M203 X500 Y500 Z10 E60 ; sets maximum feedrates, mm / sec
M204 P500 R1000 T500 ; sets acceleration (P, T) and retract acceleration (R), mm/sec^2
M205 X8.00 Y8.00 Z0.40 E5.00 ; sets the jerk limits, mm/sec
M205 S0 T0 ; sets the minimum extruding and travel feed rate, mm/sec
M107
;TYPE:Custom
; Ender 3 Custom Start G-code
G92 E0 ; Reset Extruder

M140 S50 ; set bed temp
M190 S50 ; wait for bed temp

G28 ; Home all axes
BED_MESH_CALIBRATE AREA_START=87.4344,97.9452 AREA_END=143.566,133.055
M104 S205 ; set extruder temp 

G1 Z2.0 F3000 ; Move Z Axis up little to prevent scratching of Heat Bed
M109 S205 ; wait for extruder temp
G1 X0.1 Y20 Z0.3 F5000.0 ; Move to start position

G1 X0.1 Y200.0 Z0.3 F1500.0 E15 ; Draw the first line
G1 X0.4 Y200.0 Z0.3 F5000.0 ; Move to side a little
G1 X0.4 Y20 Z0.3 F1500.0 E30 ; Draw the second line
G92 E0 ; Reset Extruder
G1 Z2.0 F3000 ; Move Z Axis up little to prevent scratching of Heat Bed
G1 X5 Y20 Z0.3 F5000.0 ; Move over to prevent blob squish
G21 ; set units to millimeters
G90 ; use absolute coordinates
M83 ; use relative distances for extrusion
; Filament gcode
M107
;LAYER_CHANGE
;Z:0.2
;HEIGHT:0.2
;BEFORE_LAYER_CHANGE
G92 E0
;0.2


G1 E-5 F3600
G1 Z.2 F9000
;AFTER_LAYER_CHANGE
;0.2
G1 X91.194 Y100.967
G1 E5 F2400
M204 S500
;TYPE:Skirt/Brim
;WIDTH:0.42
G1 F1200
G1 X92.082 Y100.253 E.03573
G1 X93.038 Y99.633 E.03573
G1 X94.372 Y98.98 E.04657
G1 X96.221 Y98.402 E.06074
G1 X97.685 Y98.179 E.04643
G1 X132.515 Y98.138 E1.09207
G1 X133.652 Y98.213 E.03573
G1 X134.779 Y98.402 E.03583
G1 X136.628 Y98.98 E.06074
G1 X137.961 Y99.633 E.04654
G1 X139.541 Y100.738 E.06045
G1 X140.373 Y101.511 E.03561
G1 X141.122 Y102.372 E.03578
G1 X141.96 Y103.613 E.04695
G1 X142.761 Y105.345 E.05983
G1 X143.165 Y106.795 E.0472
G1 X143.33 Y107.92 E.03565
G1 X143.377 Y108.873 E.02992
G1 X143.377 Y122.127 E.41557
G1 X143.165 Y124.206 E.06552
G1 X142.761 Y125.655 E.04717
G1 X142.323 Y126.7 E.03553
G1 X141.772 Y127.699 E.03577
G1 X141.122 Y128.628 E.03555
G1 X140.373 Y129.489 E.03578
G1 X138.918 Y130.747 E.06031
G1 X137.962 Y131.367 E.03573
G1 X136.626 Y132.022 E.04665
G1 X134.779 Y132.598 E.06066
G1 X133.315 Y132.821 E.04643
G1 X98.485 Y132.862 E1.09207
G1 X96.556 Y132.667 E.06079
G1 X95.447 Y132.399 E.03577
G1 X94.374 Y132.022 E.03566
G1 X93.342 Y131.535 E.03578
G1 X92.082 Y130.747 E.0466
G1 X91.194 Y130.033 E.03573
G1 X90.382 Y129.227 E.03587
G1 X89.665 Y128.345 E.03564
G1 X89.04 Y127.387 E.03586
G1 X88.239 Y125.655 E.05983
G1 X87.914 Y124.563 E.03572
G1 X87.67 Y123.08 E.04712
G1 X87.67 Y107.92 E.47533
G1 X87.835 Y106.794 E.03568
G1 X88.121 Y105.693 E.03567
G1 X88.526 Y104.625 E.03581
G1 X89.04 Y103.613 E.03559
G1 X89.665 Y102.655 E.03586
G1 X90.382 Y101.773 E.03564
G1 X91.151 Y101.009 E.03399
G1 E-3.5 F3600
;WIPE_START
G1 F7200
G1 X92.082 Y100.253 E-.56966
G1 X93.038 Y99.633 E-.54124
G1 X93.774 Y99.273 E-.3891
;WIPE_END
G1 X131.32 Y117.968 F9000
G1 E5 F2400
;TYPE:Perimeter
;WIDTH:0.516877
G1 F1200
G1 X131.073 Y118.106 E.01115
G1 X130.795 Y118.056 E.01113
G1 X130.743 Y117.885 E.00704
G1 X130.802 Y117.69 E.00803
G1 X130.945 Y117.629 E.00613
G1 X131.124 Y117.655 E.00713
G1 X131.288 Y117.917 E.01218
G1 E-3.5 F3600
;WIPE_START
G1 F7200
G1 X131.073 Y118.106 E-.13597
G1 X130.795 Y118.056 E-.13417
G1 X130.743 Y117.885 E-.0849
G1 X130.802 Y117.69 E-.09677
G1 X130.945 Y117.629 E-.07385
G1 X131.124 Y117.655 E-.08592
G1 X131.288 Y117.917 E-.14682
;WIPE_END
G1 E-.7416 F3600
G1 X126.142 Y119.094 F9000
G1 E5 F2400
;WIDTH:0.569328
G1 F1200
G1 X126.067 Y118.878 E.01001
;WIDTH:0.523282
G1 X125.992 Y118.661 E.00917
;WIDTH:0.477235
G1 X125.68 Y118.12 E.02255
G1 X125.815 Y118.018 E.00611
G1 X125.85 Y117.911 E.00407
;WIDTH:0.440953
G1 X125.885 Y117.804 E.00373
;WIDTH:0.404671
G1 X125.92 Y117.698 E.00336
;WIDTH:0.417526
G1 X125.949 Y117.619 E.00262
;WIDTH:0.466662
G1 X125.978 Y117.54 E.00297
;WIDTH:0.515799
G1 X126.007 Y117.462 E.00327
;WIDTH:0.564935
G1 X126.037 Y117.383 E.00367
;WIDTH:0.614072
G1 X126.066 Y117.305 E.00395
;WIDTH:0.663208
G1 X126.095 Y117.226 E.00434
G1 X126.117 Y117.283 E.00315
;WIDTH:0.620182
G1 X126.138 Y117.34 E.00292
;WIDTH:0.577157
G1 X126.16 Y117.397 E.00271
;WIDTH:0.534131
G1 X126.181 Y117.454 E.00248
;WIDTH:0.491105
G1 X126.203 Y117.511 E.00228
;WIDTH:0.448079
G1 X126.224 Y117.568 E.00205
;WIDTH:0.405053
G1 X126.246 Y117.625 E.00184
;WIDTH:0.368389
G1 X126.243 Y117.726 E.00273
;WIDTH:0.404671
G1 X126.225 Y117.948 E.0067
;WIDTH:0.440953
G1 X126.206 Y118.17 E.00737
;WIDTH:0.477235
G1 X126.188 Y118.392 E.00804
;WIDTH:0.523282
G1 X126.165 Y118.743 E.01405
;WIDTH:0.569328
G1 X126.146 Y119.034 E.01276
G1 X126.084 Y117.09 F9000
;WIDTH:0.685336
G1 F1200
G1 X126.106 Y117.006 E.00464
;WIDTH:0.641114
G1 X126.128 Y116.923 E.00427
;WIDTH:0.596891
G1 X126.151 Y116.839 E.00401
;WIDTH:0.552668
G1 X126.173 Y116.756 E.00364
;WIDTH:0.508445
G1 X126.195 Y116.673 E.00332
;WIDTH:0.464222
G1 X126.217 Y116.589 E.00304
;WIDTH:0.419999
G1 X126.256 Y116.176 E.01301
G1 X126.352 Y116.015 E.00588
G1 X126.497 Y115.895 E.0059
;WIDTH:0.460535
G1 X126.64 Y115.836 E.00537
;WIDTH:0.50107
G1 X126.783 Y115.776 E.00591
G1 X127.616 Y115.777 E.03173
;WIDTH:0.499032
G1 X127.81 Y115.874 E.00823
;WIDTH:0.459516
G1 X128.003 Y115.97 E.00747
;WIDTH:0.419999
G1 X128.132 Y116.15 E.00694
G1 X128.182 Y116.47 E.01016
;WIDTH:0.441508
G1 X128.192 Y117.121 E.02158
;WIDTH:0.476265
G1 X128.21 Y117.369 E.00896
;WIDTH:0.511022
G1 X128.227 Y117.616 E.00964
G1 X128.222 Y118.13 E.02001
;WIDTH:0.548665
G1 X128.246 Y118.872 E.03122
G1 X128.862 Y118.906 E.02594
G1 X128.744 Y118.558 E.01545
G1 X128.681 Y118.107 E.01915
;WIDTH:0.524057
G1 X128.707 Y117.496 E.02447
G1 X128.805 Y117.272 E.00978
;WIDTH:0.489371
G1 X128.902 Y117.047 E.0091
;WIDTH:0.454685
G1 X128.999 Y116.823 E.00836
;WIDTH:0.419999
G1 X129.306 Y116.382 E.01685
G1 X129.673 Y116.064 E.01523
G1 X130.1 Y115.852 E.01495
;WIDTH:0.454535
G1 X130.348 Y115.778 E.00886
;WIDTH:0.489071
G1 X130.596 Y115.703 E.00961
G1 X131.289 Y115.694 E.02571
;WIDTH:0.502779
G1 X131.482 Y115.713 E.00742
G1 X131.733 Y115.814 E.01035
;WIDTH:0.461389
G1 X131.984 Y115.915 E.00941
;WIDTH:0.419999
G1 X132.474 Y116.222 E.01813
G1 X132.613 Y116.357 E.00608
G1 X132.913 Y116.79 E.01652
G1 X133.058 Y117.323 E.01732
G1 X133.045 Y117.752 E.01346
G1 X132.978 Y117.953 E.00664
G1 X132.903 Y118.057 E.00402
G1 X132.742 Y118.125 E.00548
G1 X132.86 Y118.255 E.0055
G1 X132.881 Y118.516 E.00821
G1 X132.821 Y119.463 E.02975
G1 X132.605 Y121.034 E.04972
G1 X132.51 Y121.279 E.00824
G1 X132.294 Y121.465 E.00894
G1 X132.045 Y121.522 E.00801
G1 X129.53 Y121.522 E.07886
G1 X129.248 Y121.447 E.00915
G1 X129.141 Y121.368 E.00417
G1 X128.989 Y121.124 E.00901
G1 X128.965 Y120.492 E.01983
G1 X128.692 Y120.721 E.01117
G1 X128.187 Y120.795 E.016
G1 X128.091 Y120.829 E.00319
G1 X127.969 Y121.193 E.01204
G1 X127.842 Y121.402 E.00767
G1 X127.631 Y121.542 E.00794
G1 X127.433 Y121.578 E.00631
G1 X126.783 Y121.578 E.02038
G1 X126.481 Y121.491 E.00985
G1 X126.311 Y121.324 E.00747
G1 X126.233 Y121.147 E.00606
G1 X126.217 Y120.599 E.01719
;WIDTH:0.439038
G1 X126.207 Y120.176 E.01394
;WIDTH:0.485279
G1 X126.184 Y120.06 E.00435
;WIDTH:0.53152
G1 X126.161 Y119.943 E.00484
;WIDTH:0.57776
G1 X126.138 Y119.827 E.00526
G1 X126.059 Y119.999 E.00842
;WIDTH:0.53832
G1 X125.98 Y120.171 E.0078
;WIDTH:0.49888
G1 X125.901 Y120.342 E.00714
;WIDTH:0.45944
G1 X125.822 Y120.514 E.00656
;WIDTH:0.419999
G1 X125.48 Y120.994 E.01848
G1 X125.339 Y121.126 E.00606
G1 X124.879 Y121.424 E.01718
G1 X124.365 Y121.57 E.01675
G1 X123.891 Y121.598 E.01489
G1 X123.256 Y121.496 E.02017
G1 X122.697 Y121.217 E.01959
G1 X122.325 Y120.869 E.01597
G1 X122.03 Y120.379 E.01793
G1 X121.815 Y119.686 E.02275
G1 X121.743 Y118.898 E.02481
G1 X121.823 Y117.923 E.03067
G1 X122.012 Y117.228 E.02258
G1 X122.306 Y116.635 E.02075
G1 X122.729 Y116.156 E.02004
G1 X123.276 Y115.836 E.01987
G1 X123.469 Y115.771 E.00639
;WIDTH:0.429586
G1 X124.019 Y115.691 E.01787
;WIDTH:0.443332
G1 X124.493 Y115.721 E.01581
G1 X125.005 Y115.894 E.01799
;WIDTH:0.419999
G1 X125.351 Y116.109 E.01277
G1 X125.546 Y116.283 E.00819
;WIDTH:0.464222
G1 X125.636 Y116.417 E.00565
;WIDTH:0.508445
G1 X125.725 Y116.552 E.00626
;WIDTH:0.552668
G1 X125.815 Y116.686 E.00684
;WIDTH:0.596891
G1 X125.905 Y116.821 E.00747
;WIDTH:0.641114
G1 X125.994 Y116.955 E.008
;WIDTH:0.685336
G1 X126.051 Y117.04 E.00547
G1 X125.523 Y117.735 F9000
;TYPE:External perimeter
;WIDTH:0.419999
G1 F1200
G1 X125.383 Y117.793 E.00475
;WIDTH:0.456942
G1 X125.179 Y117.806 E.00704
;WIDTH:0.493885
G1 X124.974 Y117.82 E.0077
;WIDTH:0.530827
G1 X124.769 Y117.833 E.00833
;WIDTH:0.545635
G1 X124.725 Y117.84 E.00186
G1 X124.893 Y117.974 E.00898
;WIDTH:0.503757
G1 X125.061 Y118.108 E.00823
;WIDTH:0.461878
G1 X125.229 Y118.242 E.00749
;WIDTH:0.419999
G1 X125.337 Y118.336 E.00449
G1 X125.597 Y118.755 E.01546
G1 X125.708 Y119.249 E.01588
G1 X125.686 Y119.761 E.01607
G1 X125.602 Y120.086 E.01052
G1 X125.457 Y120.396 E.01073
G1 X125.154 Y120.794 E.01568
G1 X124.738 Y121.071 E.01567
G1 X124.333 Y121.194 E.01327
G1 X123.937 Y121.224 E.01245
G1 X123.408 Y121.151 E.01674
G1 X122.952 Y120.939 E.01577
G1 X122.593 Y120.598 E.01552
G1 X122.338 Y120.147 E.01624
G1 X122.178 Y119.583 E.01838
G1 X122.119 Y118.869 E.02246
G1 X122.187 Y118.021 E.02667
G1 X122.376 Y117.327 E.02255
G1 X122.641 Y116.809 E.01824
G1 X123.003 Y116.414 E.0168
G1 X123.45 Y116.171 E.01595
G1 X123.953 Y116.079 E.01603
G1 X124.403 Y116.099 E.01412
G1 X124.844 Y116.236 E.01448
G1 X125.114 Y116.402 E.00994
G1 X125.421 Y116.732 E.01413
G1 X125.601 Y117.251 E.01722
G1 X125.582 Y117.568 E.00996
G1 X125.543 Y117.679 E.00369
G1 E-3.5 F3600
;WIPE_START
G1 F7200
G1 X125.383 Y117.793 E-.09332
G1 X125.179 Y117.806 E-.0971
G1 X124.974 Y117.82 E-.0976
G1 X124.769 Y117.833 E-.09757
G1 X124.725 Y117.84 E-.02116
G1 X124.893 Y117.974 E-.10208
G1 X125.061 Y118.108 E-.10208
G1 X125.229 Y118.242 E-.10208
G1 X125.337 Y118.336 E-.06801
G1 X125.597 Y118.755 E-.23423
G1 X125.708 Y119.249 E-.2405
G1 X125.686 Y119.761 E-.24342
G1 X125.686 Y119.763 E-.00085
;WIPE_END
G1 X123.384 Y117.853 F9000
G1 E5 F2400
;WIDTH:0.516697
G1 F1200
G1 X123.463 Y117.564 E.0118
G1 X123.677 Y117.336 E.01232
;WIDTH:0.531804
G1 X123.892 Y117.239 E.00959
;WIDTH:0.535176
G1 X124.124 Y117.223 E.00952
;WIDTH:0.536
G1 X124.328 Y117.288 E.00878
G1 X124.473 Y117.426 E.00821
;WIDTH:0.540304
G1 X124.529 Y117.626 E.00859
;WIDTH:0.55389
G1 X124.656 Y117.815 E.00967
G1 X124.084 Y117.712 E.02469
;WIDTH:0.536
G1 X123.89 Y117.74 E.00804
;WIDTH:0.516697
G1 X123.442 Y117.84 E.01808
G1 E-3.5 F3600
;WIPE_START
G1 F7200
G1 X123.463 Y117.564 E-.13148
G1 X123.677 Y117.336 E-.14853
G1 X123.892 Y117.239 E-.11204
G1 X124.124 Y117.223 E-.11046
G1 X124.328 Y117.288 E-.1017
G1 X124.473 Y117.426 E-.09508
G1 X124.529 Y117.626 E-.09865
G1 X124.656 Y117.815 E-.10816
G1 X124.084 Y117.712 E-.27607
G1 X123.89 Y117.74 E-.0931
G1 X123.442 Y117.84 E-.21804
;WIPE_END
G1 E-.00669 F3600
G1 X126.594 Y116.383 F9000
G1 E5 F2400
;WIDTH:0.419999
G1 F1200
G1 X126.639 Y116.26 E.00411
G1 X126.783 Y116.194 E.00497
G1 X127.616 Y116.194 E.02612
G1 X127.768 Y116.271 E.00534
G1 X127.805 Y116.47 E.00635
G1 X127.805 Y119.313 E.08914
G1 X128.655 Y119.313 E.02665
G1 X128.812 Y119.401 E.00564
;WIDTH:0.451088
G1 X128.842 Y119.778 E.01284
;WIDTH:0.482176
G1 X128.872 Y120.155 E.01381
;WIDTH:0.485177
G1 X128.87 Y120.193 E.0014
G1 X128.754 Y120.271 E.00514
;WIDTH:0.452588
G1 X128.637 Y120.348 E.00477
;WIDTH:0.419999
G1 X128.096 Y120.428 E.01715
G1 X127.868 Y120.508 E.00758
G1 X127.738 Y120.695 E.00714
G1 X127.569 Y121.142 E.01498
G1 X127.433 Y121.201 E.00465
G1 X126.783 Y121.201 E.02038
G1 X126.665 Y121.159 E.00393
G1 X126.594 Y121.012 E.00512
G1 X126.594 Y117.625 E.1062
G1 X126.594 Y116.443 E.03706
G1 E-3.5 F3600
;WIPE_START
G1 F7200
G1 X126.639 Y116.26 E-.08951
G1 X126.783 Y116.194 E-.07524
G1 X127.616 Y116.194 E-.39567
G1 X127.768 Y116.271 E-.08094
G1 X127.805 Y116.47 E-.09614
G1 X127.805 Y118.075 E-.7625
;WIPE_END
G1 X126.142 Y119.094 F9000
G1 E5 F2400
;TYPE:Perimeter
;WIDTH:0.569328
G1 F1200
G1 X126.143 Y119.737 E.02814
;WIDTH:0.57776
G1 X126.138 Y119.827 E.00401
G1 E-3.5 F3600
;WIPE_START
G1 F7200
G1 X126.143 Y119.737 E-.04282
G1 X126.142 Y119.094 E-.30543
;WIPE_END
G1 E-1.15175 F3600
G1 X129.311 Y120.167 F9000
G1 E5 F2400
;TYPE:External perimeter
;WIDTH:0.482176
G1 F1200
G1 X129.409 Y120.08 E.00479
;WIDTH:0.451088
G1 X129.506 Y119.992 E.00445
;WIDTH:0.431659
G1 X130.824 Y120.012 E.04261
;WIDTH:0.445713
G1 X131.317 Y120.012 E.01651
G1 X131.407 Y119.51 E.01708
G1 X131.146 Y119.608 E.00934
G1 X130.399 Y119.606 E.02502
;WIDTH:0.436011
G1 X130.015 Y119.466 E.01336
;WIDTH:0.419999
G1 X129.602 Y119.169 E.01595
G1 X129.446 Y118.998 E.00726
G1 X129.21 Y118.602 E.01445
G1 X129.104 Y118.175 E.01379
G1 X129.117 Y117.641 E.01675
G1 X129.212 Y117.265 E.01216
G1 X129.408 Y116.879 E.01357
G1 X129.602 Y116.622 E.0101
G1 X129.91 Y116.364 E.0126
G1 X130.197 Y116.217 E.01011
G1 X130.603 Y116.115 E.01313
G1 X131.299 Y116.103 E.02183
G1 X131.827 Y116.261 E.01728
G1 X132.261 Y116.533 E.01606
G1 X132.564 Y116.936 E.01581
G1 X132.697 Y117.44 E.01634
G1 X132.649 Y117.769 E.01042
G1 X132.479 Y117.865 E.00612
;WIDTH:0.419615
G1 X131.834 Y117.843 E.02021
;WIDTH:0.420018
G1 X131.723 Y117.802 E.00371
G1 X131.418 Y117.34 E.01736
G1 X131.141 Y117.207 E.00963
G1 X130.791 Y117.224 E.01099
G1 X130.665 Y117.247 E.00402
G1 X130.478 Y117.393 E.00744
G1 X130.338 Y117.727 E.01136
G1 X130.33 Y117.992 E.00831
G1 X130.362 Y118.179 E.00595
G1 X130.496 Y118.372 E.00737
G1 X130.696 Y118.495 E.00736
G1 X131.155 Y118.524 E.01442
G1 X131.792 Y118.218 E.02216
G1 X132.326 Y118.236 E.01675
;WIDTH:0.419615
G1 X132.393 Y118.251 E.00215
;WIDTH:0.419999
G1 X132.508 Y118.41 E.00615
G1 X132.452 Y119.337 E.02912
G1 X132.232 Y120.983 E.05207
G1 X132.145 Y121.117 E.00501
G1 X131.978 Y121.145 E.00531
G1 X129.53 Y121.145 E.07676
G1 X129.4 Y121.094 E.00438
G1 X129.341 Y120.956 E.00471
;WIDTH:0.452588
G1 X129.325 Y120.594 E.01234
;WIDTH:0.485177
G1 X129.31 Y120.227 E.01351
G1 X129.316 Y119.551 F9000
;TYPE:Perimeter
;WIDTH:0.615418
G1 F1200
G1 X129.269 Y119.463 E.00475
;WIDTH:0.565826
G1 X129.222 Y119.375 E.00434
;WIDTH:0.516233
G1 X129.176 Y119.287 E.00391
;WIDTH:0.466641
G1 X129.129 Y119.199 E.00351
G1 E-3.5 F3600
;WIPE_START
G1 F7200
G1 X129.176 Y119.287 E-.04739
G1 X129.222 Y119.375 E-.04717
G1 X129.269 Y119.463 E-.04739
G1 X129.316 Y119.551 E-.04739
;WIPE_END
G1 E-1.31066 F3600
G1 X130.743 Y111.585 F9000
G1 E5 F2400
;WIDTH:0.516876
G1 F1200
G1 X130.802 Y111.39 E.00803
G1 X130.945 Y111.329 E.00613
G1 X131.124 Y111.355 E.00713
G1 X131.32 Y111.668 E.01455
G1 X131.073 Y111.806 E.01115
G1 X130.795 Y111.756 E.01113
G1 X130.76 Y111.643 E.00466
G1 E-3.5 F3600
;WIPE_START
G1 F7200
G1 X130.802 Y111.39 E-.12182
G1 X130.945 Y111.329 E-.07385
G1 X131.124 Y111.355 E-.08592
G1 X131.32 Y111.668 E-.17542
G1 X131.073 Y111.806 E-.13439
G1 X130.795 Y111.756 E-.13417
G1 X130.76 Y111.643 E-.05619
;WIPE_END
G1 E-.71824 F3600
G1 X126.095 Y110.926 F9000
G1 E5 F2400
;WIDTH:0.663208
G1 F1200
G1 X126.117 Y110.983 E.00315
;WIDTH:0.620182
G1 X126.138 Y111.04 E.00292
;WIDTH:0.577157
G1 X126.16 Y111.097 E.00271
;WIDTH:0.534131
G1 X126.181 Y111.154 E.00248
;WIDTH:0.491105
G1 X126.203 Y111.211 E.00228
;WIDTH:0.448079
G1 X126.224 Y111.268 E.00205
;WIDTH:0.405053
G1 X126.246 Y111.325 E.00184
;WIDTH:0.368389
G1 X126.243 Y111.426 E.00273
;WIDTH:0.404671
G1 X126.225 Y111.648 E.0067
;WIDTH:0.440953
G1 X126.206 Y111.87 E.00737
;WIDTH:0.477235
G1 X126.188 Y112.092 E.00804
;WIDTH:0.523282
G1 X126.165 Y112.443 E.01405
;WIDTH:0.569328
G1 X126.142 Y112.794 E.0154
G1 X126.067 Y112.578 E.01001
;WIDTH:0.523282
G1 X125.992 Y112.361 E.00917
;WIDTH:0.477235
