;FLAVOR:Marlin
;TIME:2345
;Filament used: 1.88147m
;Layer height: 0.2
;MINX:87.303
;MINY:107.525
;MINZ:0.2
;MAXX:147.443
;MAXY:125.286
;MAXZ:28.6
;POSTPROCESSED
;Generated with Cura_SteamEngine 5.3.1
M82 ;absolute extrusion mode
; Ender 3 Custom Start G-code
G92 E0 ; Reset Extruder

M140 S55 ; set bed temp
M190 S55 ; wait for bed temp

G28 ; Home all axes
BED_MESH_CALIBRATE  AREA_START=87.303,107.525 AREA_END=147.443,125.286
M104 S200 ; set extruder temp 

G1 Z2.0 F3000 ; Move Z Axis up little to prevent scratching of Heat Bed
M109 S200 ; wait for extruder temp
G1 X0.1 Y20 Z0.3 F5000.0 ; Move to start position

G1 X0.1 Y200.0 Z0.3 F1500.0 E15 ; Draw the first line
G1 X0.4 Y200.0 Z0.3 F5000.0 ; Move to side a little
G1 X0.4 Y20 Z0.3 F1500.0 E30 ; Draw the second line
G92 E0 ; Reset Extruder
G1 Z2.0 F3000 ; Move Z Axis up little to prevent scratching of Heat Bed
G1 X5 Y20 Z0.3 F5000.0 ; Move over to prevent blob squish
G92 E0
G92 E0
G1 F1500 E-1
;LAYER_COUNT:143
;LAYER:0
M107
G0 F3600 X89.577 Y111.759 Z0.2
;TYPE:SKIRT
G1 F1500 E0
G1 X90.48 Y111.081 E0.03756
G1 X90.995 Y110.718 E0.05851
G1 X91.43 Y110.461 E0.07532
G1 X91.884 Y110.28 E0.09157
G1 X92.423 Y110.112 E0.11035
G1 X94.062 Y109.623 E0.16724
G1 X96.691 Y108.758 E0.25929
G1 X97.408 Y108.511 E0.28452
G1 X97.898 Y108.385 E0.30134
G1 X98.393 Y108.338 E0.31788
G1 X99.166 Y108.325 E0.34359
G1 X99.943 Y108.336 E0.36944
G1 X103.844 Y108.324 E0.49919
G1 X104.532 Y108.401 E0.52221
G1 X105.263 Y108.557 E0.54707
G1 X107.99 Y109.104 E0.63958
G1 X110.663 Y109.561 E0.72978
G1 X113.354 Y109.944 E0.82018
G1 X116.142 Y110.26 E0.9135
G1 X117.397 Y110.38 E0.95544
G1 X120.182 Y110.616 E1.0484
G1 X122.53 Y110.749 E1.12662
G1 X123.923 Y110.848 E1.17307
G1 X124.649 Y110.909 E1.1973
G1 X127.371 Y111.061 E1.28797
G1 X131.387 Y111.144 E1.42157
G1 X134.147 Y111.105 E1.51338
G1 X136.866 Y110.99 E1.6039
G1 X138.89 Y110.855 E1.67136
G1 X140.394 Y110.744 E1.72152
G1 X141.271 Y110.729 E1.7507
G1 X141.949 Y110.737 E1.77325
G1 X142.453 Y110.784 E1.79008
G1 X142.942 Y110.91 E1.80688
G1 X143.521 Y111.161 E1.82787
G1 X144.462 Y111.826 E1.86619
G1 X144.937 Y112.182 E1.88594
G1 X145.316 Y112.517 E1.90276
G1 X145.638 Y112.906 E1.91956
G1 X145.955 Y113.444 E1.94033
G1 X146.288 Y114.407 E1.97422
G1 X146.503 Y115.097 E1.99825
G1 X146.614 Y115.59 E2.01506
G1 X146.647 Y116.094 E2.03186
G1 X146.587 Y116.719 E2.05274
G1 X146.249 Y117.82 E2.09105
G1 X146.057 Y118.385 E2.1109
G1 X145.857 Y118.849 E2.1277
G1 X145.586 Y119.276 E2.14452
G1 X145.171 Y119.746 E2.16538
G1 X144.264 Y120.427 E2.2031
G1 X143.742 Y120.794 E2.22432
G1 X143.28 Y121.064 E2.24212
G1 X142.687 Y121.347 E2.26398
G1 X141.774 Y121.799 E2.29786
G1 X140.818 Y122.255 E2.33309
G1 X140.346 Y122.436 E2.3499
G1 X139.719 Y122.569 E2.37122
G1 X138.818 Y122.563 E2.40119
G1 X136.057 Y122.585 E2.49302
G1 X133.302 Y122.685 E2.58472
G1 X130.59 Y122.86 E2.6751
G1 X127.884 Y123.112 E2.7655
G1 X125.117 Y123.448 E2.8582
G1 X122.454 Y123.849 E2.94777
G1 X119.345 Y124.412 E3.05286
G1 X118.792 Y124.47 E3.07135
G1 X117.864 Y124.486 E3.10222
G1 X116.751 Y124.476 E3.13924
G1 X116.198 Y124.422 E3.15772
G1 X114.965 Y124.193 E3.19944
G1 X112.231 Y123.725 E3.29169
G1 X109.544 Y123.343 E3.38196
G1 X106.772 Y123.029 E3.47475
G1 X104.091 Y122.8 E3.56424
G1 X101.349 Y122.646 E3.65559
G1 X98.589 Y122.568 E3.74742
G1 X96.183 Y122.56 E3.82744
G1 X95.648 Y122.539 E3.84525
G1 X95.146 Y122.479 E3.86207
G1 X94.66 Y122.341 E3.87887
G1 X94.103 Y122.07 E3.89947
G1 X92.844 Y121.299 E3.94858
G1 X91.18 Y120.31 E4.01296
G1 X90.274 Y119.672 E4.04981
G1 X89.808 Y119.322 E4.0692
G1 X89.429 Y118.987 E4.08602
G1 X89.108 Y118.597 E4.10282
G1 X88.792 Y118.059 E4.12357
G1 X88.453 Y117.077 E4.15813
G1 X88.244 Y116.404 E4.18157
G1 X88.133 Y115.911 E4.19837
G1 X88.101 Y115.407 E4.21517
G1 X88.162 Y114.78 E4.23612
G1 X88.473 Y113.765 E4.27143
G1 X88.692 Y113.119 E4.29412
G1 X88.892 Y112.655 E4.31092
G1 X89.163 Y112.228 E4.32774
G1 X89.577 Y111.759 E4.34855
G0 F3600 X89.303 Y111.464
G1 F1500 X90.25 Y110.754 E4.38792
G1 X90.765 Y110.391 E4.40887
G1 X91.426 Y110.005 E4.43433
G1 X92.309 Y109.729 E4.4651
G1 X93.937 Y109.243 E4.52161
G1 X96.566 Y108.378 E4.61366
G1 X97.308 Y108.124 E4.63975
G1 X97.86 Y107.987 E4.65867
G1 X98.386 Y107.938 E4.67624
G1 X99.172 Y107.925 E4.70238
G1 X99.948 Y107.936 E4.72819
G1 X103.888 Y107.926 E4.85924
G1 X104.576 Y108.003 E4.88227
G1 X105.342 Y108.165 E4.90831
G1 X108.071 Y108.712 E5.00088
G1 X110.719 Y109.165 E5.09023
G1 X113.41 Y109.548 E5.18064
G1 X116.18 Y109.862 E5.27336
G1 X117.431 Y109.981 E5.31515
G1 X120.216 Y110.218 E5.40812
G1 X122.558 Y110.35 E5.48614
G1 X123.956 Y110.449 E5.53275
G1 X124.682 Y110.511 E5.55699
G1 X127.379 Y110.661 E5.64683
G1 X131.389 Y110.744 E5.78023
G1 X134.13 Y110.705 E5.8714
G1 X136.849 Y110.59 E5.96192
G1 X138.861 Y110.456 E6.02899
G1 X140.387 Y110.344 E6.07988
G1 X141.276 Y110.329 E6.10945
G1 X141.954 Y110.337 E6.132
G1 X142.553 Y110.397 E6.15202
G1 X143.101 Y110.543 E6.17089
G1 X143.72 Y110.811 E6.19332
G1 X144.702 Y111.506 E6.23334
G1 X145.202 Y111.882 E6.25414
G1 X145.581 Y112.217 E6.27097
G1 X145.983 Y112.703 E6.29194
G1 X146.32 Y113.274 E6.314
G1 X146.67 Y114.288 E6.34968
G1 X146.885 Y114.978 E6.37371
G1 X147.013 Y115.564 E6.39366
G1 X147.045 Y116.132 E6.41259
G1 X146.981 Y116.796 E6.43477
G1 X146.628 Y117.949 E6.47488
G1 X146.436 Y118.514 E6.49473
G1 X146.195 Y119.063 E6.51467
G1 X145.886 Y119.541 E6.5336
G1 X145.445 Y120.041 E6.55577
G1 X144.494 Y120.754 E6.59531
G1 X143.944 Y121.139 E6.61764
G1 X143.452 Y121.425 E6.63656
G1 X142.859 Y121.708 E6.65842
G1 X141.946 Y122.16 E6.6923
G1 X140.99 Y122.616 E6.72753
G1 X140.429 Y122.827 E6.74747
G1 X139.758 Y122.969 E6.77028
G1 X138.818 Y122.963 E6.80154
G1 X136.072 Y122.985 E6.89288
G1 X133.317 Y123.085 E6.98457
G1 X130.616 Y123.259 E7.07459
G1 X127.932 Y123.509 E7.16425
G1 X125.177 Y123.844 E7.25655
G1 X122.514 Y124.245 E7.34612
G1 X119.416 Y124.806 E7.45084
G1 X118.834 Y124.868 E7.47031
G1 X117.86 Y124.886 E7.50271
G1 X116.747 Y124.876 E7.53973
G1 X116.159 Y124.82 E7.55937
G1 X114.892 Y124.586 E7.60223
G1 X112.175 Y124.121 E7.69391
G1 X109.488 Y123.739 E7.78418
G1 X106.738 Y123.428 E7.87623
G1 X104.057 Y123.198 E7.96572
G1 X101.338 Y123.046 E8.0563
G1 X98.578 Y122.968 E8.14813
G1 X96.167 Y122.96 E8.22832
G1 X95.632 Y122.939 E8.24613
G1 X95.037 Y122.864 E8.26608
G1 X94.516 Y122.716 E8.28409
G1 X93.928 Y122.43 E8.30584
G1 X92.635 Y121.64 E8.35624
G1 X90.95 Y120.637 E8.42146
G1 X90.034 Y119.992 E8.45872
G1 X89.543 Y119.622 E8.47917
G1 X89.12 Y119.241 E8.4981
G1 X88.763 Y118.8 E8.51697
G1 X88.427 Y118.228 E8.53904
G1 X88.071 Y117.196 E8.57535
G1 X87.862 Y116.523 E8.59879
G1 X87.743 Y115.999 E8.61666
G1 X87.702 Y115.432 E8.63557
G1 X87.767 Y114.705 E8.65984
G1 X88.094 Y113.637 E8.69699
G1 X88.313 Y112.991 E8.71968
G1 X88.554 Y112.441 E8.73965
G1 X88.863 Y111.963 E8.75858
G1 X89.303 Y111.464 E8.78071
G0 F3600 X89.029 Y111.169
G1 F1500 X90.02 Y110.427 E8.82189
G1 X90.563 Y110.046 E8.84395
G1 X91.265 Y109.636 E8.87099
G1 X92.195 Y109.346 E8.90339
G1 X93.812 Y108.863 E8.95952
G1 X96.441 Y107.998 E9.05157
G1 X97.212 Y107.736 E9.07865
G1 X97.823 Y107.589 E9.09956
G1 X98.379 Y107.538 E9.11813
G1 X99.178 Y107.525 E9.1447
G1 X99.953 Y107.536 E9.17048
G1 X103.932 Y107.528 E9.30283
G1 X104.62 Y107.605 E9.32585
G1 X105.421 Y107.773 E9.35307
G1 X108.152 Y108.32 E9.44571
G1 X110.775 Y108.769 E9.53422
G1 X113.466 Y109.152 E9.62463
G1 X116.218 Y109.464 E9.71674
G1 X117.465 Y109.582 E9.7584
G1 X120.25 Y109.82 E9.85137
G1 X122.586 Y109.951 E9.92919
G1 X123.99 Y110.05 E9.976
G1 X124.716 Y110.113 E10.00024
G1 X127.387 Y110.261 E10.08921
G1 X131.391 Y110.344 E10.22242
G1 X134.113 Y110.305 E10.31296
G1 X136.832 Y110.19 E10.40348
G1 X138.832 Y110.057 E10.47014
G1 X140.38 Y109.944 E10.52177
G1 X141.281 Y109.929 E10.55174
G1 X141.994 Y109.939 E10.57545
G1 X142.656 Y110.01 E10.5976
G1 X143.204 Y110.156 E10.61646
G1 X143.918 Y110.461 E10.64229
G1 X144.942 Y111.186 E10.68402
G1 X145.467 Y111.582 E10.70589
G1 X145.846 Y111.917 E10.72271
G1 X146.291 Y112.448 E10.74575
G1 X146.686 Y113.107 E10.77131
G1 X147.052 Y114.169 E10.80867
G1 X147.276 Y114.893 E10.83388
G1 X147.404 Y115.479 E10.85383
G1 X147.443 Y116.17 E10.87685
G1 X147.375 Y116.873 E10.90034
G1 X147.007 Y118.078 E10.94224
G1 X146.815 Y118.643 E10.96209
G1 X146.531 Y119.28 E10.98529
G1 X146.186 Y119.806 E11.00621
G1 X145.719 Y120.336 E11.0297
G1 X144.723 Y121.082 E11.07109
G1 X144.145 Y121.485 E11.09453
G1 X143.653 Y121.771 E11.11346
G1 X143.031 Y122.069 E11.1364
G1 X142.118 Y122.521 E11.17028
G1 X141.162 Y122.977 E11.20551
G1 X140.512 Y123.218 E11.22857
G1 X139.797 Y123.369 E11.25287
G1 X138.818 Y123.363 E11.28543
G1 X136.087 Y123.385 E11.37627
G1 X133.332 Y123.485 E11.46796
G1 X130.642 Y123.658 E11.55762
G1 X127.98 Y123.906 E11.64654
G1 X125.237 Y124.24 E11.73845
G1 X122.574 Y124.641 E11.82802
G1 X119.487 Y125.2 E11.93236
G1 X118.876 Y125.266 E11.9528
G1 X117.856 Y125.286 E11.98673
G1 X116.743 Y125.276 E12.02375
G1 X116.121 Y125.218 E12.04453
G1 X114.819 Y124.979 E12.08856
G1 X112.119 Y124.517 E12.17966
G1 X109.432 Y124.135 E12.26993
G1 X106.704 Y123.827 E12.36124
G1 X104.023 Y123.596 E12.45074
G1 X101.327 Y123.446 E12.54055
G1 X98.567 Y123.368 E12.63239
G1 X96.151 Y123.36 E12.71274
G1 X95.616 Y123.339 E12.73055
G1 X94.987 Y123.261 E12.75163
G1 X94.373 Y123.092 E12.77281
G1 X93.753 Y122.79 E12.79575
G1 X92.43 Y121.984 E12.84728
G1 X90.745 Y120.981 E12.9125
G1 X89.793 Y120.311 E12.95122
G1 X89.275 Y119.919 E12.97282
G1 X88.809 Y119.493 E12.99382
G1 X88.418 Y119.003 E13.01467
G1 X88.063 Y118.399 E13.03797
G1 X87.689 Y117.315 E13.07611
G1 X87.472 Y116.612 E13.10058
G1 X87.344 Y116.028 E13.12047
G1 X87.303 Y115.461 E13.13938
G1 X87.372 Y114.63 E13.16711
G1 X87.715 Y113.509 E13.2061
G1 X87.934 Y112.863 E13.22879
G1 X88.218 Y112.224 E13.25205
G1 X88.563 Y111.698 E13.27297
G1 X89.029 Y111.169 E13.29642
G1 F1500 E12.29642
G0 F3600 X91.885 Y114.263
G1 F1500 E13.29642
G1 X92.9 Y113.525 E13.33816
G1 X94.15 Y113.525 E13.37973
G1 X95.165 Y114.263 E13.42147
G1 X95.428 Y115.072 E13.44977
G1 X95.502 Y115.173 E13.45393
G1 X95.656 Y115.206 E13.45917
G1 X96.388 Y115.063 E13.48397
G1 X96.966 Y115.857 E13.51664
G1 X96.547 Y117.95 E13.58763
G1 X96.562 Y118.074 E13.59179
G1 X96.647 Y118.165 E13.59593
G1 X96.711 Y118.186 E13.59817
G1 X97.092 Y118.247 E13.611
G1 X97.095 Y118.41 E13.61643
G1 X96.454 Y119.168 E13.64944
G1 X95.97 Y119.156 E13.66555
G1 X95.966 Y118.994 E13.67094
G1 X95.924 Y118.877 E13.67507
G1 X95.846 Y118.816 E13.67836
G1 X95.116 Y118.498 E13.70485
G1 X95.105 Y117.25 E13.74636
G1 X95.065 Y117.132 E13.7505
G1 X94.963 Y117.06 E13.75465
G1 X94.819 Y117.071 E13.75946
G1 X94.17 Y117.379 E13.78335
G1 X92.9 Y117.379 E13.82559
G1 X91.885 Y116.641 E13.86733
G1 X91.498 Y115.452 E13.90892
G1 X91.885 Y114.263 E13.95051
G0 F3600 X92.226 Y114.509
G1 F1500 X93.029 Y113.925 E13.98353
G1 X94.021 Y113.925 E14.01653
G1 X94.824 Y114.509 E14.04955
G1 X95.047 Y115.195 E14.07354
G1 X95.151 Y115.387 E14.0808
G1 X95.317 Y115.529 E14.08807
G1 X95.523 Y115.602 E14.09534
G1 X95.733 Y115.599 E14.10232
G1 X96.216 Y115.505 E14.11869
G1 X96.539 Y115.95 E14.13698
G1 X96.155 Y117.871 E14.20214
G1 X96.151 Y118.089 E14.20939
G1 X96.226 Y118.294 E14.21665
G1 X96.37 Y118.459 E14.22393
G1 X96.487 Y118.51 E14.22818
G1 X96.297 Y118.735 E14.23797
G1 X96.203 Y118.588 E14.24378
G1 X96.006 Y118.449 E14.25179
G1 X95.514 Y118.234 E14.26965
G1 X95.505 Y117.247 E14.30248
G1 X95.463 Y117.033 E14.30974
G1 X95.348 Y116.847 E14.31701
G1 X95.174 Y116.716 E14.32425
G1 X94.965 Y116.655 E14.33149
G1 X94.648 Y116.71 E14.3422
G1 X94.081 Y116.979 E14.36307
G1 X93.029 Y116.979 E14.39806
G1 X92.226 Y116.395 E14.43108
G1 X91.919 Y115.452 E14.46407
G1 X92.226 Y114.509 E14.49705
G0 F3600 X92.565 Y114.757
G1 F1500 X93.159 Y114.325 E14.52148
G1 X93.891 Y114.325 E14.54583
G1 X94.484 Y114.757 E14.57023
G1 X94.667 Y115.319 E14.58989
G1 X94.791 Y115.572 E14.59926
G1 X94.981 Y115.781 E14.60865
G1 X95.222 Y115.928 E14.61804
G1 X95.494 Y116.002 E14.62742
G1 X95.809 Y115.992 E14.6379
G1 X96.042 Y115.947 E14.64579
G1 X96.112 Y116.043 E14.64974
G1 X95.891 Y117.149 E14.68726
G1 X95.863 Y116.964 E14.69348
G1 X95.744 Y116.708 E14.70287
G1 X95.559 Y116.495 E14.71225
G1 X95.322 Y116.343 E14.72162
G1 X95.051 Y116.263 E14.73102
G1 X94.769 Y116.261 E14.7404
G1 X94.476 Y116.349 E14.75057
G1 X93.991 Y116.579 E14.76842
G1 X93.159 Y116.579 E14.7961
G1 X92.565 Y116.147 E14.82052
G1 X92.339 Y115.452 E14.84483
G1 X92.565 Y114.757 E14.86914
G0 F3600 X92.905 Y115.005
G1 F1500 X93.29 Y114.725 E14.88497
G1 X93.76 Y114.725 E14.90061
G1 X94.144 Y115.004 E14.91639
G1 X94.287 Y115.443 E14.93175
G1 X94.427 Y115.746 E14.94285
G1 X94.561 Y115.914 E14.95
G1 X94.305 Y115.987 E14.95885
G1 X93.9 Y116.179 E14.97376
G1 X93.29 Y116.179 E14.99405
G1 X92.905 Y115.899 E15.00988
G1 X92.76 Y115.452 E15.02551
G1 X92.905 Y115.005 E15.04114
G0 F3600 X93.246 Y115.251
G1 F1500 X93.42 Y115.125 E15.04829
G1 X93.63 Y115.125 E15.05527
G1 X93.804 Y115.252 E15.06244
G1 X93.906 Y115.566 E15.07342
G1 X93.968 Y115.704 E15.07845
G1 X93.811 Y115.779 E15.08424
G1 X93.42 Y115.779 E15.09724
G1 X93.246 Y115.653 E15.10439
G1 X93.181 Y115.452 E15.11141
G1 X93.246 Y115.251 E15.11844
G1 F1500 E14.11844
G0 F3600 X97.719 Y114.221
G1 F1500 E15.11844
G1 X97.408 Y113.267 E15.15181
G1 X97.719 Y112.313 E15.18519
G1 X98.533 Y111.721 E15.21866
G1 X99.535 Y111.721 E15.25199
G1 X100.349 Y112.313 E15.28547
G1 X100.66 Y113.267 E15.31884
G1 X100.349 Y114.221 E15.35221
G1 X99.535 Y114.813 E15.38569
G1 X98.533 Y114.813 E15.41902
G1 X97.719 Y114.221 E15.45249
G0 F3600 X98.06 Y113.975
G1 F1500 X97.83 Y113.267 E15.47725
G1 X98.06 Y112.559 E15.50201
G1 X98.662 Y112.121 E15.52677
G1 X99.406 Y112.121 E15.55152
G1 X100.008 Y112.559 E15.57628
G1 X100.238 Y113.267 E15.60104
G1 X100.008 Y113.975 E15.6258
G1 X99.406 Y114.413 E15.65056
G1 X98.662 Y114.413 E15.67531
G1 X98.06 Y113.975 E15.70007
G0 F3600 X98.4 Y113.727
G1 F1500 X98.25 Y113.267 E15.71616
G1 X98.4 Y112.807 E15.73225
G1 X98.793 Y112.521 E15.74842
G1 X99.275 Y112.521 E15.76445
G1 X99.668 Y112.807 E15.78062
G1 X99.818 Y113.267 E15.79671
G1 X99.668 Y113.727 E15.8128
G1 X99.275 Y114.013 E15.82897
G1 X98.793 Y114.013 E15.845
G1 X98.4 Y113.727 E15.86116
G0 F3600 X98.739 Y113.479
G1 F1500 X98.67 Y113.267 E15.86858
G1 X98.739 Y113.055 E15.876
G1 X98.923 Y112.921 E15.88357
G1 X99.145 Y112.921 E15.89095
G1 X99.329 Y113.055 E15.89852
G1 X99.398 Y113.267 E15.90594
G1 X99.329 Y113.479 E15.91335
G1 X99.145 Y113.613 E15.92092
G1 X98.923 Y113.613 E15.92831
G1 X98.739 Y113.479 E15.93588
G1 F1500 E14.93588
G0 F3600 X101.677 Y113.267
G1 F1500 E15.93588
G1 X101.988 Y112.313 E15.96925
G1 X102.802 Y111.721 E16.00273
G1 X103.804 Y111.721 E16.03605
G1 X104.618 Y112.313 E16.06953
G1 X104.929 Y113.267 E16.1029
G1 X104.696 Y113.982 E16.12792
G1 X104.696 Y114.107 E16.13207
G1 X104.771 Y114.207 E16.13623
G1 X104.835 Y114.237 E16.13858
G1 X105.691 Y114.463 E16.16803
G1 X105.783 Y114.466 E16.17109
G1 X106.937 Y114.222 E16.21032
G1 X107.014 Y114.188 E16.21312
G1 X107.855 Y113.576 E16.24771
G1 X109.326 Y113.576 E16.29664
G1 X110.392 Y114.134 E16.33666
G1 X110.485 Y114.157 E16.33984
G1 X111.653 Y114.157 E16.37869
G1 X113.435 Y115.266 E16.4485
G1 X113.557 Y115.295 E16.45267
G1 X113.668 Y115.251 E16.45664
G1 X115.46 Y113.778 E16.5338
G1 X117.247 Y113.778 E16.59323
G1 X118.832 Y115.108 E16.66205
G1 X118.898 Y115.145 E16.66457
G1 X119.523 Y115.354 E16.68649
G1 X119.647 Y115.354 E16.69061
G1 X119.719 Y115.314 E16.69335
G1 X121.033 Y114.147 E16.7518
G1 X122.476 Y114.147 E16.7998
G1 X124.406 Y115.303 E16.87462
G1 X124.566 Y115.793 E16.89177
G1 X124.64 Y115.894 E16.89593
G1 X124.8 Y115.926 E16.90136
G1 X126.386 Y115.566 E16.95545
G1 X128.817 Y115.83 E17.03678
G1 X129.227 Y116.129 E17.05366
G1 X129.346 Y116.167 E17.05781
G1 X129.456 Y116.133 E17.06164
G1 X129.947 Y115.803 E17.08132
G1 X131.392 Y116.132 E17.13061
G1 X131.187 Y116.814 E17.1543
G1 X131.183 Y116.914 E17.15763
G1 X131.413 Y117.998 E17.19448
G1 X131.476 Y118.105 E17.19861
G1 X131.565 Y118.151 E17.20194
G1 X131.89 Y118.225 E17.21303
