; generated by PrusaSlicer 2.6.0-rc2+win64 on 2023-06-17 at 15:47:17 UTC

; 

; external perimeters extrusion width = 0.42mm
; perimeters extrusion width = 0.44mm
; infill extrusion width = 0.44mm
; solid infill extrusion width = 0.44mm
; top infill extrusion width = 0.40mm
; first layer extrusion width = 0.42mm

;TYPE:Custom
; Ender 3 Custom Start G-code
G92 E0 ; Reset Extruder

M140 S50 ; set bed temp
M190 S50 ; wait for bed temp

G28 ; Home all axes
M104 S205 ; set extruder temp 
BED_MESH_CALIBRATE AREA_START=83.7684,88.5669 AREA_END=143.763,126.207

G1 Z2.0 F3000 ; Move Z Axis up little to prevent scratching of Heat Bed
M109 S205 ; wait for extruder temp
G1 X0.1 Y20 Z0.3 F5000.0 ; Move to start position

G1 X0.1 Y200.0 Z0.3 F1500.0 E15 ; Draw the first line
G1 X0.4 Y200.0 Z0.3 F5000.0 ; Move to side a little
G1 X0.4 Y20 Z0.3 F1500.0 E30 ; Draw the second line
G92 E0 ; Reset Extruder
G1 Z2.0 F3000 ; Move Z Axis up little to prevent scratching of Heat Bed
G1 X5 Y20 Z0.3 F5000.0 ; Move over to prevent blob squish
G21 ; set units to millimeters
G90 ; use absolute coordinates
M83 ; use relative distances for extrusion
; Filament gcode
M107
;LAYER_CHANGE
;Z:0.2
;HEIGHT:0.2
;BEFORE_LAYER_CHANGE
G92 E0
;0.2


G1 E-1.6 F2400
G1 Z.2 F6000
;AFTER_LAYER_CHANGE
;0.2
G1 X87.835 Y91.72
G1 E1.6 F2400
M204 S500
;TYPE:Skirt/Brim
;WIDTH:0.42
G1 F1200
G1 X88.741 Y90.984 E.03257
G1 X89.691 Y90.363 E.03167
G1 X91.364 Y89.549 E.05192
G1 X93.035 Y89.039 E.04875
G1 X94.748 Y88.788 E.04831
G1 X131.685 Y88.755 E1.03074
G1 X132.884 Y88.805 E.03349
G1 X133.84 Y88.938 E.02693
G1 X135.871 Y89.494 E.05876
G1 X137.699 Y90.365 E.05651
G1 X139.104 Y91.346 E.04782
G1 X140.524 Y92.706 E.05487
G1 X141.376 Y93.792 E.03852
G1 X141.851 Y94.545 E.02484
G1 X142.684 Y96.31 E.05446
G1 X143.244 Y98.361 E.05933
G1 X143.425 Y100.338 E.0554
G1 X143.575 Y114.341 E.39078
G1 X143.507 Y115.643 E.03638
G1 X143.3 Y116.869 E.0347
G1 X142.676 Y118.864 E.05833
G1 X142.11 Y120.04 E.03642
G1 X141.629 Y120.827 E.02574
G1 X140.468 Y122.295 E.05223
G1 X139.689 Y123.063 E.03053
G1 X138.815 Y123.771 E.03139
G1 X137.158 Y124.786 E.05422
G1 X135.524 Y125.453 E.04925
G1 X134.297 Y125.78 E.03543
G1 X132.408 Y126.009 E.0531
G1 X95.105 Y126.011 E1.04095
G1 X93.403 Y125.812 E.04782
G1 X92.2 Y125.516 E.03457
G1 X91.187 Y125.153 E.03003
G1 X89.868 Y124.514 E.0409
G1 X88.799 Y123.834 E.03535
G1 X87.85 Y123.075 E.03391
G1 X86.766 Y121.967 E.04326
G1 X86.162 Y121.201 E.02722
G1 X85.33 Y119.864 E.04394
G1 X84.773 Y118.666 E.03687
G1 X84.299 Y117.194 E.04315
G1 X84.013 Y115.508 E.04772
G1 X83.957 Y114.504 E.02806
G1 X83.992 Y99.513 E.41833
G1 X84.267 Y97.721 E.05059
G1 X84.535 Y96.773 E.02749
G1 X84.983 Y95.607 E.03486
G1 X85.464 Y94.662 E.02959
G1 X86.261 Y93.442 E.04067
G1 X86.889 Y92.667 E.02784
G1 X87.793 Y91.763 E.03568
G1 X88.06 Y92.029 F6000
G1 F1200
G1 X88.953 Y91.296 E.03224
G1 X89.871 Y90.694 E.03063
G1 X91.493 Y89.903 E.05036
G1 X93.113 Y89.408 E.04727
G1 X94.767 Y89.165 E.04665
G1 X131.685 Y89.133 E1.03021
G1 X133.763 Y89.307 E.05819
G1 X135.725 Y89.843 E.05676
G1 X137.508 Y90.69 E.05508
G1 X138.862 Y91.634 E.04606
G1 X140.242 Y92.956 E.05333
G1 X141.072 Y94.016 E.03757
G1 X141.528 Y94.739 E.02385
G1 X142.335 Y96.453 E.05287
G1 X142.874 Y98.434 E.05729
G1 X143.048 Y100.342 E.05346
G1 X143.198 Y114.345 E.39078
G1 X143.11 Y115.748 E.03923
G1 X142.902 Y116.941 E.03379
G1 X142.63 Y117.912 E.02814
G1 X141.737 Y119.935 E.06171
G1 X140.982 Y121.092 E.03855
G1 X140.3 Y121.922 E.02998
G1 X139.594 Y122.643 E.02816
G1 X138.603 Y123.459 E.03582
G1 X137.046 Y124.418 E.05103
G1 X135.938 Y124.908 E.03381
G1 X134.335 Y125.388 E.04669
G1 X132.43 Y125.631 E.05359
G1 X95.129 Y125.635 E1.0409
G1 X93.462 Y125.44 E.04684
G1 X92.305 Y125.154 E.03326
G1 X91.338 Y124.808 E.02866
G1 X90.044 Y124.18 E.04014
G1 X89.033 Y123.538 E.03342
G1 X88.169 Y122.853 E.03077
G1 X87.411 Y122.116 E.0295
G1 X86.468 Y120.981 E.04118
G1 X85.658 Y119.679 E.04279
G1 X85.128 Y118.54 E.03506
G1 X84.667 Y117.109 E.04195
G1 X84.387 Y115.462 E.04662
G1 X84.334 Y114.504 E.02677
G1 X84.367 Y99.547 E.41738
G1 X84.697 Y97.549 E.05651
G1 X85.299 Y95.829 E.05085
G1 X85.705 Y95.004 E.02566
G1 X86.539 Y93.701 E.04317
G1 X87.156 Y92.935 E.02745
G1 X88.017 Y92.071 E.03404
G1 X88.284 Y92.338 F6000
G1 F1200
G1 X89.16 Y91.612 E.03175
G1 X90.709 Y90.668 E.05062
G1 X92.33 Y90.01 E.04882
G1 X93.912 Y89.639 E.04534
G1 X95.367 Y89.513 E.04075
G1 X131.685 Y89.51 E1.01347
G1 X133.687 Y89.676 E.05606
G1 X135.603 Y90.199 E.05542
G1 X137.316 Y91.015 E.05295
G1 X138.619 Y91.923 E.04432
G1 X139.989 Y93.24 E.05303
G1 X140.767 Y94.238 E.03531
G1 X141.205 Y94.934 E.02295
G1 X141.986 Y96.596 E.05124
G1 X142.505 Y98.507 E.05526
G1 X142.671 Y100.346 E.05153
G1 X142.821 Y114.349 E.39078
G1 X142.738 Y115.684 E.03733
G1 X142.534 Y116.859 E.03328
G1 X142.264 Y117.82 E.02786
G1 X141.409 Y119.751 E.05893
G1 X140.674 Y120.874 E.03745
G1 X140.017 Y121.673 E.02887
G1 X139.333 Y122.371 E.02727
G1 X138.391 Y123.147 E.03406
G1 X136.867 Y124.086 E.04995
G1 X135.814 Y124.552 E.03213
G1 X134.254 Y125.02 E.04545
G1 X132.412 Y125.254 E.05181
G1 X95.153 Y125.258 E1.03972
G1 X93.479 Y125.06 E.04704
G1 X92.411 Y124.792 E.03073
G1 X91.476 Y124.457 E.02772
G1 X90.219 Y123.847 E.03899
G1 X89.237 Y123.22 E.03251
G1 X88.306 Y122.47 E.03336
G1 X87.325 Y121.46 E.03929
G1 X86.743 Y120.716 E.02636
G1 X85.986 Y119.493 E.04014
G1 X85.483 Y118.414 E.03322
G1 X85.034 Y117.025 E.04074
G1 X84.761 Y115.417 E.04551
G1 X84.743 Y99.58 E.44194
G1 X85.059 Y97.656 E.05441
G1 X85.65 Y95.967 E.04993
G1 X86.04 Y95.177 E.02459
G1 X86.848 Y93.917 E.04177
G1 X87.437 Y93.186 E.0262
G1 X88.242 Y92.38 E.03179
; printing object Shape-Box id:0 copy 0
G1 E-1.12 F2400
;WIPE_START
G1 F4800
G1 X89.017 Y91.732 E-.48
;WIPE_END
G1 X128.646 Y101.362 F6000
G1 E1.6 F2400
;TYPE:Perimeter
;WIDTH:0.419999
G1 F1200
G1 X128.807 Y101.193 E.00651
G1 X129.028 Y101.114 E.00655
G1 X130.335 Y101.098 E.03647
G1 X130.589 Y101.164 E.00732
G1 X130.781 Y101.332 E.00712
G1 X130.888 Y101.663 E.00971
G1 X130.888 Y101.895 E.00647
G1 X131.733 Y101.926 E.0236
G1 X131.911 Y101.965 E.00508
;WIDTH:0.450321
G1 X132.086 Y102.121 E.00707
;WIDTH:0.480643
G1 X132.26 Y102.277 E.00757
;WIDTH:0.523254
G1 X132.301 Y102.381 E.00397
;WIDTH:0.565864
G1 X132.343 Y102.486 E.00438
G1 X132.363 Y102.37 E.00456
;WIDTH:0.523254
G1 X132.383 Y102.253 E.00422
;WIDTH:0.480643
G1 X132.489 Y102.044 E.00759
;WIDTH:0.450321
G1 X132.594 Y101.835 E.00705
;WIDTH:0.419999
G1 X132.809 Y101.709 E.00695
G1 X133.584 Y101.683 E.02164
G1 X134.101 Y101.69 E.01443
G1 X134.343 Y101.792 E.00733
G1 X134.523 Y102.012 E.00793
G1 X134.575 Y102.254 E.00691
G1 X134.575 Y102.717 E.01292
G1 X135.203 Y102.742 E.01754
G1 X135.397 Y102.846 E.00614
G1 X135.556 Y103.055 E.00733
G1 X135.604 Y103.282 E.00647
G1 X135.604 Y104.313 E.02877
G1 X135.574 Y104.493 E.00509
G1 X135.4 Y104.748 E.00861
G1 X135.156 Y104.866 E.00756
G1 X134.575 Y104.878 E.01622
G1 X134.563 Y105.459 E.01622
G1 X134.478 Y105.659 E.00606
G1 X134.341 Y105.799 E.00547
G1 X134.01 Y105.907 E.00972
G1 X132.979 Y105.907 E.02877
G1 X132.713 Y105.84 E.00765
G1 X132.617 Y105.775 E.00324
G1 X132.414 Y105.312 E.01411
G1 X132.415 Y104.847 E.01298
G1 X131.842 Y104.746 E.01624
G1 X131.669 Y104.522 E.0079
G1 X131.415 Y105.018 E.01555
G1 X130.788 Y106.096 E.0348
G1 X130.574 Y106.306 E.00837
G1 X130.299 Y106.377 E.00793
G1 X129.094 Y106.376 E.03363
G1 X128.816 Y106.302 E.00803
G1 X128.668 Y106.18 E.00535
G1 X128.514 Y105.812 E.01113
G1 X128.144 Y106.148 E.01395
G1 X127.672 Y106.382 E.0147
G1 X127.345 Y106.458 E.00937
G1 X126.948 Y106.495 E.01113
G1 X126.543 Y106.45 E.01137
G1 X126.002 Y106.258 E.01602
G1 X125.556 Y105.916 E.01568
G1 X125.255 Y105.465 E.01513
G1 X125.111 Y104.964 E.01455
G1 X125.107 Y104.44 E.01462
G1 X125.211 Y103.992 E.01283
G1 X125.054 Y103.676 E.00985
G1 X124.941 Y103.167 E.01455
G1 X124.933 Y102.891 E.00771
G1 X125.025 Y102.327 E.01595
G1 X125.194 Y101.923 E.01222
G1 X125.431 Y101.6 E.01118
G1 X125.848 Y101.263 E.01496
G1 X126.22 Y101.094 E.0114
G1 X126.62 Y101 E.01147
G1 X127.038 Y100.974 E.01169
G1 X127.533 Y101.032 E.01391
G1 X127.954 Y101.178 E.01243
G1 X128.371 Y101.457 E.014
G1 X128.544 Y101.647 E.00717
G1 X128.608 Y101.407 E.00693
G1 X128.94 Y101.582 F6000
;TYPE:External perimeter
G1 F1200
G1 X129.079 Y101.487 E.0047
G1 X130.327 Y101.475 E.03483
G1 X130.45 Y101.524 E.00369
G1 X130.511 Y101.663 E.00424
G1 X130.511 Y102.269 E.01691
G1 X131.144 Y102.273 E.01766
G1 X131.714 Y102.303 E.01593
G1 X131.88 Y102.423 E.00572
G1 X131.829 Y102.945 E.01464
;WIDTH:0.454798
G1 X131.84 Y103.376 E.01314
G1 X132.045 Y103.194 E.00836
;WIDTH:0.419999
G1 X132.425 Y103.189 E.0106
G1 X132.797 Y103.136 E.01049
G1 X132.791 Y102.25 E.02472
G1 X132.887 Y102.084 E.00535
G1 X133.584 Y102.06 E.01946
G1 X134.088 Y102.077 E.01407
G1 X134.19 Y102.194 E.00433
G1 X134.198 Y103.094 E.02512
G1 X135.039 Y103.094 E.02347
G1 X135.158 Y103.137 E.00353
G1 X135.227 Y103.282 E.00448
G1 X135.227 Y104.313 E.02877
G1 X135.159 Y104.458 E.00447
G1 X135.038 Y104.501 E.00358
G1 X134.198 Y104.501 E.02344
G1 X134.198 Y105.341 E.02344
G1 X134.145 Y105.472 E.00394
G1 X134.01 Y105.529 E.00409
G1 X132.98 Y105.529 E.02874
G1 X132.859 Y105.486 E.00358
G1 X132.791 Y105.312 E.00521
G1 X132.792 Y104.487 E.02302
G1 X131.959 Y104.387 E.02341
G1 X131.85 Y104.214 E.00571
;WIDTH:0.450578
G1 X131.841 Y103.489 E.02187
;WIDTH:0.457854
G1 X131.838 Y103.414 E.0023
G1 X131.571 Y103.85 E.0157
;WIDTH:0.419999
G1 X131.177 Y104.679 E.02561
G1 X130.462 Y105.906 E.03963
G1 X130.391 Y105.976 E.00278
G1 X130.299 Y106 E.00265
G1 X129.096 Y105.999 E.03357
G1 X128.953 Y105.934 E.00438
G1 X128.908 Y105.81 E.00368
;WIDTH:0.426081
G1 X128.912 Y104.469 E.03802
;WIDTH:0.469856
G1 X128.901 Y104.195 E.00866
;WIDTH:0.516847
G1 X128.891 Y103.92 E.00965
;WIDTH:0.524073
G1 X128.903 Y103.674 E.00877
G1 X128.701 Y103.649 E.00725
G1 X128.561 Y103.501 E.00725
G1 X128.344 Y103.872 E.0153
G1 X128.461 Y104.043 E.00738
;WIDTH:0.516847
G1 X128.497 Y104.254 E.00751
;WIDTH:0.469856
G1 X128.532 Y104.466 E.00679
;WIDTH:0.427942
G1 X128.525 Y104.967 E.01428
G1 X128.306 Y105.469 E.01561
;WIDTH:0.419999
G1 X127.89 Y105.869 E.0161
G1 X127.43 Y106.067 E.01398
G1 X126.977 Y106.119 E.01272
G1 X126.653 Y106.09 E.00908
G1 X126.214 Y105.947 E.01288
G1 X125.859 Y105.691 E.01221
G1 X125.613 Y105.345 E.01185
G1 X125.488 Y104.949 E.01159
G1 X125.476 Y104.516 E.01209
G1 X125.597 Y104.056 E.01327
G1 X125.651 Y103.955 E.0032
G1 X125.415 Y103.567 E.01267
G1 X125.316 Y103.13 E.0125
G1 X125.305 Y102.952 E.00498
G1 X125.397 Y102.388 E.01595
G1 X125.556 Y102.052 E.01037
G1 X125.727 Y101.833 E.00775
G1 X126.014 Y101.602 E.01028
G1 X126.315 Y101.459 E.0093
G1 X126.65 Y101.376 E.00963
G1 X127.275 Y101.371 E.01744
G1 X127.745 Y101.492 E.01354
G1 X128.162 Y101.77 E.01399
G1 X128.439 Y102.24 E.01522
G1 X128.519 Y102.409 E.00522
G1 X128.603 Y102.917 E.01437
;WIDTH:0.418807
G1 X128.598 Y102.558 E.00999
;WIDTH:0.419999
G1 X128.683 Y102.4 E.00501
G1 X128.966 Y102.358 E.00798
G1 X128.917 Y101.688 E.01875
G1 X128.927 Y101.641 E.00134
G1 X128.873 Y101.428 F6000
G1 E-1.12 F2400
;WIPE_START
G1 F4800
G1 X129.079 Y101.487 E-.10278
G1 X129.873 Y101.479 E-.37722
;WIPE_END
G1 X132.33 Y102.728 F6000
G1 E1.6 F2400
;TYPE:Perimeter
;WIDTH:0.595136
G1 F1200
G1 X132.343 Y102.486 E.0099
G1 E-1.12 F2400
;WIPE_START
G1 F4800
G1 X132.33 Y102.728 E-.11512
;WIPE_END
G1 E-.36488 F2400
G1 X130.743 Y108.438 F6000
G1 E1.6 F2400
;WIDTH:0.419999
G1 F1200
G1 X130.807 Y108.499 E.00247
G1 X130.888 Y108.791 E.00846
G1 X130.888 Y109.022 E.00645
G1 X131.733 Y109.053 E.0236
G1 X131.911 Y109.092 E.00508
;WIDTH:0.450321
G1 X132.086 Y109.248 E.00707
;WIDTH:0.480643
G1 X132.26 Y109.404 E.00757
;WIDTH:0.523254
G1 X132.301 Y109.509 E.00401
;WIDTH:0.565864
G1 X132.343 Y109.614 E.00438
G1 X132.363 Y109.497 E.00459
;WIDTH:0.523254
G1 X132.383 Y109.381 E.00418
;WIDTH:0.480643
G1 X132.489 Y109.171 E.00762
;WIDTH:0.450321
G1 X132.594 Y108.962 E.00705
;WIDTH:0.419999
G1 X132.85 Y108.825 E.0081
G1 X132.98 Y108.81 E.00365
G1 X134.01 Y108.81 E.02874
G1 X134.333 Y108.912 E.00945
G1 X134.522 Y109.137 E.0082
G1 X134.575 Y109.382 E.00699
G1 X134.575 Y109.844 E.01289
G1 X135.159 Y109.857 E.0163
G1 X135.41 Y109.984 E.00785
G1 X135.534 Y110.138 E.00552
G1 X135.604 Y110.41 E.00784
G1 X135.604 Y111.44 E.02874
G1 X135.562 Y111.654 E.00609
G1 X135.386 Y111.886 E.00813
G1 X135.206 Y111.98 E.00567
G1 X134.575 Y112.006 E.01762
G1 X134.55 Y112.636 E.01759
G1 X134.436 Y112.84 E.00652
G1 X134.19 Y113.005 E.00827
G1 X133.424 Y113.034 E.02139
G1 X132.905 Y113.029 E.01448
G1 X132.719 Y112.97 E.00545
G1 X132.617 Y112.902 E.00342
G1 X132.414 Y112.439 E.01411
G1 X132.415 Y111.975 E.01295
G1 X131.842 Y111.874 E.01624
G1 X131.669 Y111.65 E.0079
G1 X131.415 Y112.145 E.01553
G1 X130.788 Y113.223 E.0348
G1 X130.584 Y113.427 E.00805
G1 X130.308 Y113.504 E.008
G1 X129.092 Y113.504 E.03393
G1 X128.816 Y113.429 E.00798
G1 X128.668 Y113.307 E.00535
G1 X128.514 Y112.939 E.01113
G1 X128.144 Y113.276 E.01397
G1 X127.625 Y113.529 E.01611
G1 X127.075 Y113.62 E.01556
G1 X126.543 Y113.578 E.01489
G1 X126.018 Y113.397 E.0155
G1 X125.557 Y113.043 E.01622
G1 X125.255 Y112.592 E.01515
G1 X125.111 Y112.091 E.01455
G1 X125.107 Y111.567 E.01462
G1 X125.211 Y111.12 E.01281
G1 X125.054 Y110.804 E.00985
G1 X124.941 Y110.295 E.01455
G1 X124.928 Y110.165 E.00365
G1 X124.991 Y109.66 E.0142
G1 X125.086 Y109.276 E.01104
G1 X125.259 Y108.946 E.0104
G1 X125.521 Y108.636 E.01133
G1 X125.848 Y108.391 E.0114
G1 X126.22 Y108.221 E.01141
G1 X126.666 Y108.123 E.01274
G1 X127.113 Y108.107 E.01248
G1 X127.489 Y108.148 E.01055
G1 X127.954 Y108.306 E.0137
G1 X128.371 Y108.584 E.01399
G1 X128.544 Y108.774 E.00717
G1 X128.61 Y108.526 E.00716
G1 X128.863 Y108.29 E.00965
G1 X129.104 Y108.236 E.00689
G1 X130.318 Y108.225 E.03388
G1 X130.59 Y108.292 E.00782
G1 X130.7 Y108.397 E.00424
G1 X130.476 Y108.68 F6000
;TYPE:External perimeter
G1 F1200
G1 X130.511 Y108.791 E.00325
G1 X130.511 Y109.397 E.01691
G1 X131.144 Y109.401 E.01766
G1 X131.714 Y109.43 E.01593
G1 X131.88 Y109.551 E.00573
G1 X131.829 Y110.073 E.01464
;WIDTH:0.454798
G1 X131.84 Y110.503 E.01311
G1 X132.045 Y110.321 E.00836
;WIDTH:0.419999
G1 X132.425 Y110.316 E.0106
G1 X132.797 Y110.264 E.01048
G1 X132.791 Y109.377 E.02475
G1 X132.899 Y109.205 E.00567
G1 X132.98 Y109.188 E.00231
G1 X134.01 Y109.187 E.02874
G1 X134.165 Y109.269 E.00489
G1 X134.198 Y109.382 E.00329
G1 X134.198 Y110.221 E.02341
G1 X135.039 Y110.221 E.02347
G1 X135.184 Y110.291 E.00449
G1 X135.227 Y110.495 E.00582
G1 X135.227 Y111.44 E.02637
G1 X135.154 Y111.588 E.00461
G1 X135.038 Y111.629 E.00343
G1 X134.198 Y111.629 E.02344
G1 X134.198 Y112.468 E.02341
G1 X134.126 Y112.617 E.00462
G1 X134.01 Y112.657 E.00342
G1 X132.978 Y112.657 E.0288
G1 X132.859 Y112.613 E.00354
G1 X132.791 Y112.44 E.00519
G1 X132.792 Y111.615 E.02302
G1 X131.959 Y111.514 E.02342
G1 X131.85 Y111.342 E.00568
;WIDTH:0.450578
G1 X131.841 Y110.617 E.02187
;WIDTH:0.457854
G1 X131.838 Y110.541 E.00234
G1 X131.571 Y110.977 E.0157
;WIDTH:0.419999
G1 X131.177 Y111.806 E.02561
G1 X130.462 Y113.034 E.03965
G1 X130.335 Y113.124 E.00434
G1 X129.095 Y113.127 E.0346
G1 X128.953 Y113.061 E.00437
G1 X128.908 Y112.937 E.00368
;WIDTH:0.426081
G1 X128.912 Y111.596 E.03802
;WIDTH:0.469856
G1 X128.901 Y111.322 E.00866
;WIDTH:0.516847
G1 X128.891 Y111.048 E.00962
;WIDTH:0.524074
G1 X128.903 Y110.801 E.00881
G1 X128.701 Y110.776 E.00725
G1 X128.561 Y110.629 E.00723
G1 X128.344 Y111 E.0153
G1 X128.461 Y111.17 E.00735
;WIDTH:0.516847
G1 X128.497 Y111.382 E.00754
;WIDTH:0.469856
G1 X128.532 Y111.593 E.00676
;WIDTH:0.427942
G1 X128.525 Y112.095 E.0143
G1 X128.306 Y112.597 E.01561
;WIDTH:0.419999
G1 X127.89 Y112.997 E.0161
G1 X127.43 Y113.195 E.01398
G1 X126.988 Y113.247 E.01242
G1 X126.653 Y113.217 E.00939
G1 X126.195 Y113.061 E.0135
G1 X125.859 Y112.818 E.01157
G1 X125.613 Y112.472 E.01185
G1 X125.488 Y112.076 E.01159
G1 X125.476 Y111.643 E.01209
G1 X125.597 Y111.184 E.01325
G1 X125.651 Y111.082 E.00322
G1 X125.415 Y110.695 E.01265
G1 X125.316 Y110.258 E.0125
G1 X125.303 Y110.128 E.00365
