;FLAVOR:Marlin
;TIME:2014
;Filament used: 1.30446m
;Layer height: 0.15
;MINX:88.507
;MINY:99.238
;MINZ:0.15
;MAXX:146.493
;MAXY:135.768
;MAXZ:4.05
;POSTPROCESSED
;Generated with Cura_SteamEngine 5.3.1
M82 ;absolute extrusion mode
; Ender 3 Custom Start G-code
G92 E0 ; Reset Extruder

M140 S50 ; set bed temp
M190 S50 ; wait for bed temp

G28 ; Home all axes
BED_MESH_CALIBRATE  AREA_START=88.507,99.238 AREA_END=146.493,135.768
M104 S210 ; set extruder temp 

G1 Z2.0 F3000 ; Move Z Axis up little to prevent scratching of Heat Bed
M109 S210 ; wait for extruder temp
G1 X0.1 Y20 Z0.3 F5000.0 ; Move to start position

G1 X0.1 Y200.0 Z0.3 F1500.0 E15 ; Draw the first line
G1 X0.4 Y200.0 Z0.3 F5000.0 ; Move to side a little
G1 X0.4 Y20 Z0.3 F1500.0 E30 ; Draw the second line
G92 E0 ; Reset Extruder
G1 Z2.0 F3000 ; Move Z Axis up little to prevent scratching of Heat Bed
G1 X5 Y20 Z0.3 F5000.0 ; Move over to prevent blob squish
G92 E0
G92 E0
G1 F1500 E-1
;LAYER_COUNT:27
;LAYER:0
M107
G0 F3600 X93.153 Y102.602 Z0.15
;TYPE:SKIRT
G1 F1500 E0
G1 X94.019 Y101.951 E0.02703
G1 X95.056 Y101.329 E0.05719
G1 X95.983 Y100.891 E0.08277
G1 X96.747 Y100.616 E0.10302
G1 X97.852 Y100.311 E0.13162
G1 X98.515 Y100.181 E0.14847
G1 X99.397 Y100.067 E0.17065
G1 X100.196 Y100.038 E0.1906
G1 X100.783 Y100.048 E0.20524
G1 X101.629 Y100.108 E0.2264
G1 X104.376 Y100.521 E0.29569
G1 X107.147 Y100.858 E0.36533
G1 X109.859 Y101.111 E0.43327
G1 X112.567 Y101.287 E0.50096
G1 X115.322 Y101.388 E0.56973
G1 X118.075 Y101.411 E0.63841
G1 X120.79 Y101.357 E0.70615
G1 X123.508 Y101.225 E0.77403
G1 X126.285 Y101.013 E0.84351
G1 X128.97 Y100.73 E0.91085
G1 X133.672 Y100.074 E1.02928
G1 X134.582 Y100.038 E1.052
G1 X135.148 Y100.048 E1.06612
G1 X136.061 Y100.112 E1.08895
G1 X137.234 Y100.317 E1.11866
G1 X137.956 Y100.528 E1.13742
G1 X139.202 Y100.962 E1.17033
G1 X140.053 Y101.396 E1.19416
G1 X140.53 Y101.672 E1.20791
G1 X141.009 Y101.98 E1.22211
G1 X141.499 Y102.338 E1.23725
G1 X142.17 Y102.885 E1.25885
G1 X142.722 Y103.428 E1.27816
G1 X143.068 Y103.807 E1.29096
G1 X143.668 Y104.548 E1.31475
G1 X144.24 Y105.414 E1.34064
G1 X144.661 Y106.222 E1.36336
G1 X144.933 Y106.848 E1.38039
G1 X145.172 Y107.496 E1.39762
G1 X145.474 Y108.586 E1.42583
G1 X145.627 Y109.578 E1.45087
G1 X145.669 Y110.14 E1.46493
G1 X145.688 Y110.873 E1.48322
G1 X145.656 Y111.688 E1.50357
G1 X145.552 Y113.584 E1.55093
G1 X145.48 Y116.335 E1.61958
G1 X145.486 Y119.054 E1.68741
G1 X145.57 Y121.831 E1.75671
G1 X145.66 Y123.445 E1.79704
G1 X145.693 Y124.346 E1.81953
G1 X145.632 Y125.397 E1.84579
G1 X145.472 Y126.373 E1.87046
G1 X145.354 Y126.876 E1.88335
G1 X145.148 Y127.585 E1.90176
G1 X144.967 Y128.07 E1.91468
G1 X144.682 Y128.753 E1.93314
G1 X144.274 Y129.51 E1.95459
G1 X143.917 Y130.081 E1.97139
G1 X143.481 Y130.706 E1.9904
G1 X142.905 Y131.377 E2.01246
G1 X142.506 Y131.79 E2.02678
G1 X141.937 Y132.326 E2.04628
G1 X140.944 Y133.075 E2.07731
G1 X140.245 Y133.497 E2.09768
G1 X139.717 Y133.778 E2.1126
G1 X138.897 Y134.158 E2.13514
G1 X137.819 Y134.53 E2.16359
G1 X136.696 Y134.792 E2.19235
G1 X135.602 Y134.933 E2.21987
G1 X134.804 Y134.962 E2.23979
G1 X134.225 Y134.953 E2.25423
G1 X132.235 Y134.829 E2.30397
G1 X129.856 Y134.7 E2.3634
G1 X127.106 Y134.63 E2.43202
G1 X124.352 Y134.639 E2.50072
G1 X121.653 Y134.723 E2.56808
G1 X119.483 Y134.866 E2.62233
G1 X119.401 Y134.865 E2.62438
G1 X118.032 Y134.947 E2.65859
G1 X117.282 Y134.967 E2.6773
G1 X115.277 Y134.835 E2.72743
G1 X112.485 Y134.691 E2.79717
G1 X109.766 Y134.627 E2.86501
G1 X107.014 Y134.641 E2.93366
G1 X104.282 Y134.732 E3.00185
G1 X100.982 Y134.942 E3.08433
G1 X100.074 Y134.968 E3.10699
G1 X98.956 Y134.889 E3.13495
G1 X97.907 Y134.714 E3.16148
G1 X96.729 Y134.389 E3.19196
G1 X95.761 Y134.015 E3.21785
G1 X94.656 Y133.451 E3.2488
G1 X93.711 Y132.833 E3.27696
G1 X93.091 Y132.337 E3.29677
G1 X92.636 Y131.926 E3.31206
G1 X92.002 Y131.286 E3.33454
G1 X91.3 Y130.413 E3.36248
G1 X90.688 Y129.462 E3.39069
G1 X90.282 Y128.666 E3.41298
G1 X89.956 Y127.895 E3.43386
G1 X89.737 Y127.202 E3.45199
G1 X89.581 Y126.609 E3.46729
G1 X89.48 Y126.117 E3.47982
G1 X89.389 Y125.525 E3.49476
G1 X89.337 Y124.947 E3.50923
G1 X89.307 Y124.255 E3.52651
G1 X89.341 Y123.388 E3.54816
G1 X89.452 Y121.325 E3.59969
G1 X89.521 Y118.574 E3.66834
G1 X89.512 Y115.821 E3.73701
G1 X89.427 Y113.106 E3.80477
G1 X89.34 Y111.534 E3.84405
G1 X89.313 Y110.866 E3.86072
G1 X89.319 Y110.364 E3.87325
G1 X89.36 Y109.74 E3.88885
G1 X89.481 Y108.818 E3.91204
G1 X89.67 Y108.04 E3.93201
G1 X89.856 Y107.404 E3.94854
G1 X90.155 Y106.611 E3.96968
G1 X90.481 Y105.942 E3.98825
G1 X90.912 Y105.166 E4.01039
G1 X91.54 Y104.261 E4.03787
G1 X92.332 Y103.361 E4.06778
G1 X93.153 Y102.602 E4.09567
G0 F3600 X92.881 Y102.308
G1 F1500 X93.813 Y101.608 E4.12474
G1 X94.885 Y100.967 E4.1559
G1 X95.812 Y100.529 E4.18147
G1 X96.641 Y100.23 E4.20346
G1 X97.775 Y99.918 E4.2328
G1 X98.438 Y99.788 E4.24965
G1 X99.382 Y99.667 E4.27339
G1 X100.203 Y99.638 E4.29388
G1 X100.811 Y99.649 E4.30905
G1 X101.688 Y99.712 E4.33099
G1 X104.435 Y100.125 E4.40028
G1 X107.196 Y100.461 E4.46966
G1 X109.885 Y100.712 E4.53703
G1 X112.582 Y100.887 E4.60445
G1 X115.337 Y100.988 E4.67322
G1 X118.07 Y101.011 E4.7414
G1 X120.771 Y100.957 E4.80879
G1 X123.489 Y100.825 E4.87667
G1 X126.246 Y100.615 E4.94564
G1 X128.928 Y100.332 E5.01291
G1 X133.656 Y99.674 E5.13199
G1 X134.589 Y99.638 E5.15528
G1 X135.176 Y99.649 E5.16993
G1 X136.13 Y99.718 E5.19379
G1 X137.346 Y99.933 E5.22459
G1 X138.088 Y100.15 E5.24388
G1 X139.334 Y100.584 E5.27679
G1 X140.253 Y101.05 E5.30249
G1 X140.746 Y101.336 E5.31671
G1 X141.245 Y101.657 E5.33151
G1 X141.752 Y102.028 E5.34718
G1 X142.451 Y102.6 E5.36971
G1 X143.017 Y103.158 E5.38954
G1 X143.379 Y103.555 E5.40294
G1 X143.979 Y104.296 E5.42673
G1 X144.595 Y105.229 E5.45461
G1 X145.016 Y106.037 E5.47734
G1 X145.3 Y106.689 E5.49508
G1 X145.557 Y107.389 E5.51368
G1 X145.869 Y108.525 E5.54307
G1 X146.026 Y109.548 E5.56889
G1 X146.069 Y110.13 E5.58345
G1 X146.088 Y110.889 E5.60239
G1 X146.055 Y111.71 E5.62288
G1 X145.952 Y113.594 E5.66995
G1 X145.88 Y116.345 E5.7386
G1 X145.886 Y119.042 E5.80587
G1 X145.97 Y121.819 E5.87518
G1 X146.06 Y123.43 E5.91543
G1 X146.093 Y124.331 E5.93792
G1 X146.027 Y125.462 E5.96618
G1 X145.867 Y126.438 E5.99085
G1 X145.738 Y126.988 E6.00494
G1 X145.523 Y127.725 E6.02409
G1 X145.336 Y128.224 E6.03739
G1 X145.034 Y128.943 E6.05684
G1 X144.613 Y129.722 E6.07893
G1 X144.245 Y130.31 E6.09623
G1 X143.785 Y130.967 E6.11624
G1 X143.209 Y131.638 E6.1383
G1 X142.794 Y132.068 E6.1532
G1 X142.178 Y132.645 E6.17426
G1 X141.151 Y133.417 E6.20631
G1 X140.433 Y133.85 E6.22722
G1 X139.885 Y134.141 E6.2427
G1 X139.065 Y134.521 E6.26525
G1 X137.91 Y134.92 E6.29573
G1 X136.787 Y135.182 E6.32449
G1 X135.617 Y135.333 E6.35392
G1 X134.798 Y135.362 E6.37436
G1 X134.2 Y135.352 E6.38928
G1 X132.21 Y135.228 E6.43902
G1 X129.846 Y135.1 E6.49808
G1 X127.097 Y135.03 E6.56667
G1 X124.364 Y135.039 E6.63485
G1 X121.665 Y135.123 E6.70221
G1 X119.509 Y135.265 E6.75611
G1 X119.406 Y135.265 E6.75868
G1 X118.043 Y135.347 E6.79274
G1 X117.293 Y135.367 E6.81145
G1 X115.251 Y135.234 E6.8625
G1 X112.476 Y135.091 E6.93181
G1 X109.759 Y135.027 E6.99961
G1 X107.027 Y135.041 E7.06776
G1 X104.295 Y135.132 E7.13595
G1 X100.993 Y135.342 E7.21848
G1 X100.085 Y135.368 E7.24114
G1 X98.89 Y135.284 E7.27102
G1 X97.841 Y135.109 E7.29755
G1 X96.623 Y134.775 E7.32906
G1 X95.579 Y134.371 E7.35698
G1 X94.437 Y133.786 E7.38899
G1 X93.492 Y133.168 E7.41716
G1 X92.823 Y132.634 E7.43851
G1 X92.352 Y132.208 E7.45435
G1 X91.69 Y131.537 E7.47786
G1 X90.988 Y130.664 E7.50581
G1 X90.332 Y129.644 E7.53606
G1 X89.926 Y128.848 E7.55835
G1 X89.575 Y128.016 E7.58088
G1 X89.35 Y127.304 E7.5995
G1 X89.189 Y126.689 E7.61536
G1 X89.085 Y126.178 E7.62837
G1 X88.991 Y125.561 E7.64394
G1 X88.937 Y124.964 E7.65889
G1 X88.907 Y124.239 E7.67699
G1 X88.942 Y123.367 E7.69876
G1 X89.052 Y121.315 E7.75002
G1 X89.121 Y118.564 E7.81867
G1 X89.112 Y115.822 E7.88707
G1 X89.028 Y113.119 E7.95453
G1 X88.94 Y111.55 E7.99373
G1 X88.913 Y110.861 E8.01093
G1 X88.92 Y110.338 E8.02397
G1 X88.963 Y109.688 E8.04022
G1 X89.084 Y108.766 E8.06342
G1 X89.286 Y107.928 E8.08492
G1 X89.472 Y107.292 E8.10145
G1 X89.795 Y106.436 E8.12428
G1 X90.131 Y105.748 E8.14338
G1 X90.583 Y104.938 E8.16651
G1 X91.211 Y104.033 E8.19399
G1 X92.06 Y103.067 E8.22607
G1 X92.881 Y102.308 E8.25396
G0 F3600 X92.609 Y102.014
G1 F1500 X93.573 Y101.288 E8.28407
G1 X94.714 Y100.605 E8.31724
G1 X95.641 Y100.167 E8.34282
G1 X96.535 Y99.844 E8.36653
G1 X97.698 Y99.525 E8.39661
G1 X98.361 Y99.395 E8.41346
G1 X99.368 Y99.267 E8.43879
G1 X100.21 Y99.238 E8.4598
G1 X100.84 Y99.25 E8.47552
G1 X101.747 Y99.316 E8.49821
G1 X104.494 Y99.729 E8.5675
G1 X107.245 Y100.064 E8.63663
G1 X109.911 Y100.313 E8.70342
G1 X112.597 Y100.487 E8.77057
G1 X115.352 Y100.588 E8.83934
G1 X118.065 Y100.611 E8.90701
G1 X120.752 Y100.557 E8.97406
G1 X123.47 Y100.425 E9.04194
G1 X126.207 Y100.217 E9.11041
G1 X128.886 Y99.934 E9.17761
G1 X133.641 Y99.274 E9.29736
G1 X134.596 Y99.238 E9.3212
G1 X135.205 Y99.25 E9.33639
G1 X136.2 Y99.324 E9.36128
G1 X137.416 Y99.539 E9.39209
G1 X138.22 Y99.772 E9.41297
G1 X139.466 Y100.206 E9.44588
G1 X140.454 Y100.704 E9.47348
G1 X140.947 Y100.99 E9.4877
G1 X141.481 Y101.334 E9.50354
G1 X142.005 Y101.718 E9.51975
G1 X142.732 Y102.315 E9.54321
G1 X143.313 Y102.888 E9.56357
G1 X143.675 Y103.285 E9.57697
G1 X144.29 Y104.044 E9.60134
G1 X144.95 Y105.044 E9.63123
G1 X145.383 Y105.877 E9.65465
G1 X145.667 Y106.529 E9.67239
G1 X145.943 Y107.283 E9.69242
G1 X146.255 Y108.419 E9.7218
G1 X146.425 Y109.519 E9.74957
G1 X146.469 Y110.12 E9.7646
G1 X146.488 Y110.905 E9.78419
G1 X146.454 Y111.732 E9.80484
G1 X146.352 Y113.604 E9.8516
G1 X146.28 Y116.355 E9.92025
G1 X146.286 Y119.03 E9.98698
G1 X146.37 Y121.807 E10.05628
G1 X146.46 Y123.415 E10.09646
G1 X146.493 Y124.316 E10.11895
G1 X146.422 Y125.527 E10.14921
G1 X146.262 Y126.503 E10.17388
G1 X146.122 Y127.1 E10.18918
G1 X145.898 Y127.865 E10.20906
G1 X145.705 Y128.379 E10.22276
G1 X145.403 Y129.098 E10.24221
G1 X144.952 Y129.934 E10.2659
G1 X144.573 Y130.539 E10.28371
G1 X144.089 Y131.228 E10.30472
G1 X143.513 Y131.899 E10.32678
G1 X143.082 Y132.346 E10.34227
G1 X142.418 Y132.965 E10.36491
G1 X141.358 Y133.76 E10.39796
G1 X140.64 Y134.193 E10.41888
G1 X140.053 Y134.504 E10.43545
G1 X139.196 Y134.899 E10.45899
G1 X138.001 Y135.31 E10.49051
G1 X136.878 Y135.572 E10.51928
G1 X135.631 Y135.733 E10.55064
G1 X134.791 Y135.762 E10.57161
G1 X134.175 Y135.751 E10.58698
G1 X132.185 Y135.627 E10.63671
G1 X129.836 Y135.5 E10.6954
G1 X127.088 Y135.43 E10.76397
G1 X124.376 Y135.439 E10.83162
G1 X121.677 Y135.523 E10.89898
G1 X119.509 Y135.665 E10.95317
G1 X119.413 Y135.665 E10.95557
G1 X118.054 Y135.747 E10.98953
G1 X117.304 Y135.767 E11.00825
G1 X115.225 Y135.633 E11.06022
G1 X112.467 Y135.491 E11.1291
G1 X109.752 Y135.427 E11.19685
G1 X107.04 Y135.441 E11.2645
G1 X104.308 Y135.532 E11.33269
G1 X101.004 Y135.742 E11.41527
G1 X100.096 Y135.768 E11.43793
G1 X98.824 Y135.679 E11.46974
G1 X97.775 Y135.504 E11.49627
G1 X96.517 Y135.161 E11.5288
G1 X95.397 Y134.727 E11.55876
G1 X94.218 Y134.121 E11.59183
G1 X93.242 Y133.481 E11.62094
G1 X92.573 Y132.947 E11.64229
G1 X92.067 Y132.489 E11.65932
G1 X91.378 Y131.788 E11.68384
G1 X90.676 Y130.915 E11.71178
G1 X89.976 Y129.826 E11.74408
G1 X89.557 Y129.003 E11.76711
G1 X89.206 Y128.171 E11.78964
G1 X88.963 Y127.405 E11.80969
G1 X88.797 Y126.769 E11.82608
G1 X88.693 Y126.258 E11.83909
G1 X88.593 Y125.597 E11.85577
G1 X88.537 Y124.981 E11.8712
G1 X88.507 Y124.223 E11.89012
G1 X88.543 Y123.346 E11.91201
G1 X88.652 Y121.305 E11.963
G1 X88.721 Y118.554 E12.03165
G1 X88.712 Y115.823 E12.09977
G1 X88.628 Y113.131 E12.16696
G1 X88.54 Y111.566 E12.20606
G1 X88.513 Y110.856 E12.22378
G1 X88.521 Y110.312 E12.23735
G1 X88.566 Y109.636 E12.25425
G1 X88.687 Y108.714 E12.27745
G1 X88.902 Y107.816 E12.30048
G1 X89.088 Y107.18 E12.31701
G1 X89.436 Y106.26 E12.34155
G1 X89.782 Y105.553 E12.36118
G1 X90.254 Y104.71 E12.38528
G1 X90.882 Y103.805 E12.41276
G1 X91.788 Y102.773 E12.44702
G1 X92.609 Y102.014 E12.47491
G1 F1500 E11.47491
;MESH:NO_TXT_Kostka (4).stl
G0 F3600 X91.834 Y110.739
G0 X91.882 Y111.595
G0 X92.021 Y112.443
G0 X92.252 Y113.273
G0 X92.571 Y114.074
G0 X92.976 Y114.838
G0 X93.462 Y115.556
G0 X94.021 Y116.221
G0 X94.649 Y116.824
G0 X95.595 Y117.5
G0 X100.112 Y113.789
;TYPE:WALL-OUTER
G1 F1500 E12.47491
G1 F765.3 X99.911 Y113.777 E12.47983
G1 X99.821 Y113.593 E12.48484
G1 X99.821 Y112.608 E12.50892
G1 X99.886 Y112.429 E12.51357
G1 X100.016 Y112.394 E12.51687
G1 X100.123 Y112.415 E12.51953
G1 X100.213 Y112.6 E12.52456
G1 X100.213 Y113.593 E12.54884
G1 X100.174 Y113.727 E12.55225
G1 X100.112 Y113.789 E12.55439
G0 F3600 X100.174 Y113.727
G0 X100.205 Y113.619
G1 F1500 E11.55439
G0 F3600 X100.1 Y120.793
G1 F1500 E12.55439
G1 F765.3 X99.925 Y120.794 E12.55867
G1 X99.823 Y120.675 E12.5625
G1 X99.821 Y119.609 E12.58856
G1 X99.884 Y119.435 E12.59308
G1 X100.06 Y119.404 E12.59745
G1 X100.156 Y119.453 E12.60009
G1 X100.213 Y119.61 E12.60417
G1 X100.213 Y120.589 E12.6281
G1 X100.151 Y120.759 E12.63253
G1 X100.1 Y120.793 E12.63403
G0 F3600 X100.151 Y120.759
G0 X100.198 Y120.628
G1 F1500 E11.63403
G0 F3600 X105.607 Y122.568
G1 F1500 E12.63403
G1 F753.8 X105.54 Y122.374 E12.63912
G1 X105.54 Y121.872 E12.65158
G1 X105.575 Y121.742 E12.65492
G1 X105.663 Y121.672 E12.65771
G1 X105.835 Y121.672 E12.66198
G1 X105.938 Y121.798 E12.66602
G1 X105.938 Y122.387 E12.68064
G1 X105.898 Y122.527 E12.68425
G1 X105.739 Y122.604 E12.68864
G1 X105.607 Y122.568 E12.69203
G0 F3600 X105.739 Y122.604
G0 X105.796 Y122.576
G1 F1500 E11.69203
G0 F3600 X105.739 Y120.308
G0 X105.683 Y120.536
G1 F1500 E12.69203
G1 F704.2 X105.601 Y120.497 E12.69445
G1 X105.526 Y120.278 E12.7006
G1 X105.526 Y119.666 E12.71686
G1 F705.9 X105.572 Y119.489 E12.7217
G1 X105.646 Y119.425 E12.7243
G1 X105.785 Y119.417 E12.72799
G1 X105.87 Y119.453 E12.73043
G1 X105.953 Y119.582 E12.7345
G1 X105.952 Y120.278 E12.75294
G1 F704.2 X105.882 Y120.486 E12.75877
G1 X105.683 Y120.536 E12.76423
G0 F3600 X105.877 Y120.488
G1 F1500 E11.76423
G0 F3600 X105.739 Y120.228
G0 X109.983 Y120.454
G1 F1500 E12.76423
G1 F488.6 X109.944 Y120.519 E12.76713
G1 X109.869 Y120.519 E12.77
G1 X109.831 Y120.454 E12.77288
G1 X109.87 Y120.389 E12.77579
G1 X109.944 Y120.389 E12.77862
G1 F1500 E11.77862
G0 F3600 X115.683 Y120.454
G1 F1500 E12.77862
G1 F488.6 X115.644 Y120.519 E12.78152
G1 X115.569 Y120.519 E12.78439
G1 X115.531 Y120.454 E12.78728
G1 X115.57 Y120.389 E12.79018
G1 X115.644 Y120.389 E12.79301
G1 F1500 E11.79301
G0 F3600 X119.64 Y122.578
G1 F1500 E12.79301
G1 F765.3 X119.484 Y122.599 E12.79686
G1 X119.388 Y122.549 E12.79951
G1 X119.331 Y122.393 E12.80357
G1 X119.331 Y121.412 E12.82755
G1 X119.397 Y121.233 E12.83221
G1 X119.52 Y121.198 E12.83534
G1 X119.664 Y121.241 E12.83901
G1 X119.723 Y121.411 E12.84341
G1 X119.723 Y122.401 E12.86761
G1 X119.64 Y122.578 E12.87239
G0 F3600 X119.723 Y122.401
G0 X119.723 Y122.396
G1 F1500 E11.87239
G0 F3600 X119.641 Y115.574
G1 F1500 E12.87239
G1 F765.3 X119.485 Y115.596 E12.87624
G1 X119.387 Y115.546 E12.87893
G1 X119.331 Y115.39 E12.88299
G1 X119.331 Y114.412 E12.90689
G1 X119.394 Y114.24 E12.91137
G1 X119.522 Y114.192 E12.91471
G1 X119.657 Y114.229 E12.91814
G1 X119.723 Y114.413 E12.92291
G1 X119.723 Y115.397 E12.94697
G1 X119.641 Y115.574 E12.95174
G0 F3600 X119.723 Y115.397
G0 X119.723 Y115.392
G1 F1500 E11.95174
G0 F3600 X115.644 Y113.387
G1 F1500 E12.95174
G1 F488.6 X115.57 Y113.387 E12.95457
G1 X115.531 Y113.452 E12.95747
G1 X115.569 Y113.517 E12.96036
G1 X115.644 Y113.517 E12.96323
G1 X115.683 Y113.452 E12.96613
G1 F1500 E11.96613
G0 F3600 X109.944 Y113.387
G1 F1500 E12.96613
G1 F488.6 X109.87 Y113.387 E12.96896
G1 X109.831 Y113.452 E12.97187
G1 X109.869 Y113.517 E12.97475
G1 X109.944 Y113.517 E12.97762
G1 X109.983 Y113.452 E12.98052
G1 F1500 E11.98052
G0 F3600 X105.799 Y114.659
G1 F1500 E12.98052
G1 F753.8 X105.871 Y114.693 E12.9825
G1 X105.938 Y114.886 E12.98757
G1 X105.938 Y115.381 E12.99986
