; generated by PrusaSlicer 2.6.0-rc2+win64 on 2023-06-17 at 13:43:21 UTC

; 

; external perimeters extrusion width = 0.42mm
; perimeters extrusion width = 0.44mm
; infill extrusion width = 0.44mm
; solid infill extrusion width = 0.44mm
; top infill extrusion width = 0.40mm
; first layer extrusion width = 0.42mm

;TYPE:Custom
; Ender 3 Custom Start G-code
G92 E0 ; Reset Extruder

M140 S50 ; set bed temp
M190 S50 ; wait for bed temp

G28 ; Home all axes
M104 S205 ; set extruder temp 
BED_MESH_CALIBRATE AREA_START=83.1455,87.944 AREA_END=144.386,126.83

G1 Z2.0 F3000 ; Move Z Axis up little to prevent scratching of Heat Bed
M109 S205 ; wait for extruder temp
G1 X0.1 Y20 Z0.3 F5000.0 ; Move to start position

G1 X0.1 Y200.0 Z0.3 F1500.0 E15 ; Draw the first line
G1 X0.4 Y200.0 Z0.3 F5000.0 ; Move to side a little
G1 X0.4 Y20 Z0.3 F1500.0 E30 ; Draw the second line
G92 E0 ; Reset Extruder
G1 Z2.0 F3000 ; Move Z Axis up little to prevent scratching of Heat Bed
G1 X5 Y20 Z0.3 F5000.0 ; Move over to prevent blob squish
G21 ; set units to millimeters
G90 ; use absolute coordinates
M83 ; use relative distances for extrusion
; Filament gcode
M107
;LAYER_CHANGE
;Z:0.2
;HEIGHT:0.2
;BEFORE_LAYER_CHANGE
G92 E0
;0.2


G1 E-1.6 F2400
G1 Z.2 F6000
;AFTER_LAYER_CHANGE
;0.2
G1 X87.415 Y91.261
G1 E1.6 F2400
M204 S500
;TYPE:Skirt/Brim
;WIDTH:0.42
G1 F1200
G1 X88.374 Y90.482 E.03448
G1 X89.393 Y89.816 E.03397
G1 X91.153 Y88.963 E.05458
G1 X92.905 Y88.43 E.0511
G1 X94.717 Y88.166 E.0511
G1 X131.685 Y88.133 E1.0316
G1 X132.964 Y88.188 E.03572
G1 X133.966 Y88.328 E.02823
G1 X136.078 Y88.907 E.06111
G1 X138.015 Y89.828 E.05985
G1 X139.505 Y90.869 E.05072
G1 X141.02 Y92.326 E.05865
G1 X141.878 Y93.424 E.03889
G1 X142.399 Y94.248 E.0272
G1 X143.26 Y96.073 E.05631
G1 X143.614 Y97.163 E.03198
G1 X143.843 Y98.178 E.02904
G1 X144.048 Y100.332 E.06038
G1 X144.198 Y114.335 E.39078
G1 X144.124 Y115.728 E.03893
G1 X143.914 Y116.975 E.03529
G1 X143.588 Y118.199 E.03535
G1 X143.246 Y119.115 E.02728
G1 X142.67 Y120.313 E.03709
G1 X142.185 Y121.114 E.02613
G1 X140.912 Y122.732 E.05745
G1 X140.248 Y123.401 E.0263
G1 X139.166 Y124.286 E.03901
G1 X137.45 Y125.336 E.05614
G1 X135.73 Y126.04 E.05186
G1 X134.411 Y126.393 E.0381
G1 X132.429 Y126.632 E.05571
G1 X95.065 Y126.633 E1.04265
G1 X93.306 Y126.427 E.04942
G1 X92.073 Y126.128 E.0354
G1 X90.924 Y125.718 E.03404
G1 X89.577 Y125.065 E.04177
G1 X88.414 Y124.325 E.03847
G1 X87.437 Y123.54 E.03497
G1 X86.305 Y122.386 E.04511
G1 X85.676 Y121.591 E.02829
G1 X84.787 Y120.171 E.04675
G1 X84.185 Y118.874 E.0399
G1 X83.692 Y117.334 E.04512
G1 X83.394 Y115.583 E.04956
G1 X83.334 Y114.504 E.03016
G1 X83.365 Y99.534 E.41774
G1 X83.5 Y98.398 E.03192
G1 X83.738 Y97.266 E.03228
G1 X84.369 Y95.462 E.05333
G1 X84.832 Y94.517 E.02937
G1 X85.721 Y93.126 E.04607
G1 X86.409 Y92.27 E.03065
G1 X87.373 Y91.303 E.0381
G1 X87.621 Y91.584 F6000
G1 F1200
G1 X88.46 Y90.883 E.03051
G1 X89.533 Y90.169 E.03597
G1 X91.281 Y89.317 E.05426
G1 X92.984 Y88.799 E.04967
G1 X94.735 Y88.543 E.04938
G1 X131.685 Y88.51 E1.0311
G1 X132.916 Y88.562 E.03438
G1 X133.89 Y88.697 E.02744
G1 X135.953 Y89.263 E.0597
G1 X137.824 Y90.153 E.05782
G1 X139.262 Y91.157 E.04894
G1 X140.708 Y92.543 E.05589
G1 X141.574 Y93.647 E.03915
G1 X142.061 Y94.418 E.02545
G1 X142.911 Y96.216 E.0555
G1 X143.252 Y97.268 E.03086
G1 X143.486 Y98.313 E.02988
G1 X143.671 Y100.336 E.05669
G1 X143.821 Y114.339 E.39078
G1 X143.75 Y115.677 E.03739
G1 X143.542 Y116.911 E.03492
G1 X143.227 Y118.091 E.03408
G1 X142.901 Y118.963 E.02598
G1 X142.337 Y120.136 E.03632
G1 X141.867 Y120.911 E.02529
G1 X140.643 Y122.467 E.05524
G1 X139.846 Y123.252 E.03122
G1 X138.953 Y123.974 E.03205
G1 X137.273 Y125.003 E.05498
G1 X135.605 Y125.685 E.05029
G1 X134.342 Y126.022 E.03648
G1 X132.416 Y126.255 E.05414
G1 X95.089 Y126.256 E1.04162
G1 X93.365 Y126.055 E.04843
G1 X92.173 Y125.764 E.03424
G1 X91.088 Y125.378 E.03214
G1 X89.753 Y124.731 E.0414
G1 X88.672 Y124.045 E.03573
G1 X87.687 Y123.258 E.03518
G1 X86.584 Y122.132 E.04399
G1 X85.963 Y121.345 E.02798
G1 X85.116 Y119.985 E.04471
G1 X84.541 Y118.748 E.03807
G1 X84.06 Y117.249 E.04393
G1 X83.768 Y115.537 E.04846
G1 X83.711 Y114.504 E.02887
G1 X83.747 Y99.492 E.41892
G1 X84.113 Y97.328 E.06124
G1 X84.72 Y95.6 E.05111
G1 X85.165 Y94.693 E.02819
G1 X85.68 Y93.842 E.02776
G1 X86.649 Y92.568 E.04467
G1 X87.578 Y91.627 E.0369
; printing object Shape-Box id:0 copy 0
G1 E-1.12 F2400
;WIPE_START
G1 F4800
G1 X88.35 Y90.975 E-.48
;WIPE_END
G1 X121.226 Y110.393 F6000
G1 E1.6 F2400
;TYPE:Perimeter
;WIDTH:0.466126
G1 F1200
G1 X120.833 Y111.12 E.02588
G1 X120.723 Y111.066 E.00384
G1 X120.12 Y110.958 E.01919
G1 X120.142 Y110.663 E.00926
G1 X120.777 Y110.642 E.0199
G1 X121.173 Y110.422 E.01419
G1 X119.557 Y111.391 F6000
;TYPE:External perimeter
;WIDTH:0.350725
G1 F1200
G1 X119.462 Y111.653 E.00635
G1 X119.369 Y111.749 E.00304
G1 X119.192 Y111.683 E.0043
G1 X119.17 Y111.523 E.00368
G1 X119.204 Y111.44 E.00204
G1 X119.497 Y111.399 E.00674
G1 X119.389 Y111.613 F6000
G1 E-1.12 F2400
;WIPE_START
G1 F4800
G1 X119.462 Y111.653 E-.12179
G1 X119.369 Y111.749 E-.06349
G1 X119.192 Y111.683 E-.08973
G1 X119.17 Y111.523 E-.07672
G1 X119.204 Y111.44 E-.0426
G1 X119.383 Y111.415 E-.08567
;WIPE_END
G1 X116.945 Y110.643 F6000
G1 E1.6 F2400
;TYPE:Perimeter
;WIDTH:0.433966
G1 F1200
G1 X117.297 Y110.597 E.01027
G1 X117.326 Y110.701 E.00312
G1 X117.524 Y111.079 E.01235
G1 X116.922 Y110.971 E.0177
G1 X116.941 Y110.703 E.00778
G1 X116.451 Y110.341 F6000
;TYPE:External perimeter
;WIDTH:0.432775
G1 F1200
G1 X116.045 Y110.385 E.01178
G1 X115.916 Y110.289 E.00464
G1 X115.897 Y110.069 E.00637
G1 X116.006 Y109.906 E.00566
G1 X116.169 Y109.905 E.0047
G1 X116.364 Y110.268 E.01189
G1 X116.458 Y110.316 E.00305
G1 X116.816 Y110.273 E.0104
;WIDTH:0.419999
G1 X117.513 Y110.171 E.01966
;WIDTH:0.407253
G1 X117.642 Y110.051 E.00475
;WIDTH:0.419999
G1 X117.669 Y110.509 E.0128
G1 X117.781 Y110.801 E.00873
G1 X118.067 Y111.015 E.00997
;WIDTH:0.45079
G1 X117.927 Y111.226 E.00764
;WIDTH:0.48158
G1 X117.787 Y111.438 E.00825
;WIDTH:0.519356
G1 X117.763 Y111.505 E.00251
;WIDTH:0.557131
G1 X117.738 Y111.572 E.00272
;WIDTH:0.594906
G1 X117.714 Y111.64 E.00295
G1 X117.67 Y111.546 E.00424
;WIDTH:0.547668
G1 X117.627 Y111.514 E.002
;WIDTH:0.514624
G1 X117.584 Y111.481 E.00189
;WIDTH:0.48158
G1 X117.304 Y111.43 E.00924
;WIDTH:0.45079
G1 X117.024 Y111.379 E.00859
;WIDTH:0.419999
G1 X116.497 Y111.3 E.01487
G1 X116.516 Y111.264 E.00114
G1 X116.568 Y110.536 E.02037
;WIDTH:0.432775
G1 X116.482 Y110.392 E.00484
G1 X116.375 Y111.391 F6000
;WIDTH:0.350726
G1 F1200
G1 X116.28 Y111.653 E.00635
G1 X116.187 Y111.749 E.00304
G1 X116.01 Y111.683 E.0043
G1 X115.989 Y111.523 E.00368
G1 X116.022 Y111.44 E.00203
G1 X116.316 Y111.399 E.00676
G1 X116.207 Y111.613 F6000
G1 E-1.12 F2400
;WIPE_START
G1 F4800
G1 X116.28 Y111.653 E-.12186
G1 X116.187 Y111.749 E-.06349
G1 X116.01 Y111.683 E-.08973
G1 X115.989 Y111.523 E-.07665
G1 X116.022 Y111.44 E-.04243
G1 X116.201 Y111.415 E-.08584
;WIPE_END
G1 X120.478 Y108.647 F6000
G1 E1.6 F2400
;TYPE:Perimeter
;WIDTH:0.419999
G1 F1200
G1 X120.564 Y108.697 E.00278
G1 X120.954 Y109.068 E.01502
G1 X121.198 Y109.53 E.01458
;WIDTH:0.420529
G1 X121.306 Y109.892 E.01056
;WIDTH:0.42681
G1 X121.302 Y110.238 E.00983
G1 X121.51 Y109.517 E.02132
;WIDTH:0.419999
G1 X121.587 Y108.891 E.0176
G1 X121.704 Y108.605 E.00862
G1 X121.814 Y108.497 E.0043
G1 X122.074 Y108.392 E.00782
G1 X123.348 Y108.387 E.03555
G1 X123.661 Y108.483 E.00914
G1 X123.85 Y108.696 E.00795
G1 X123.912 Y108.967 E.00776
G1 X123.82 Y109.578 E.01724
G1 X123.668 Y110.186 E.01749
G1 X123.551 Y110.534 E.01025
G1 X123.309 Y111.036 E.01555
G1 X123.865 Y111.005 E.01554
G1 X124.136 Y111.058 E.00771
G1 X124.372 Y111.266 E.00878
G1 X124.447 Y111.447 E.00547
G1 X124.467 Y112.607 E.03237
G1 X124.385 Y112.903 E.00857
G1 X124.185 Y113.1 E.00783
G1 X123.9 Y113.176 E.00823
G1 X121.931 Y113.17 E.05495
G1 X120.931 Y113.07 E.02804
G1 X120.642 Y112.954 E.00869
G1 X120.522 Y112.826 E.0049
G1 X120.304 Y112.98 E.00745
G1 X119.837 Y113.163 E.014
G1 X119.307 Y113.229 E.0149
G1 X118.679 Y113.179 E.01758
G1 X118.224 Y113.035 E.01332
G1 X117.844 Y112.764 E.01302
G1 X117.663 Y112.54 E.00804
G1 X117.281 Y112.911 E.01486
G1 X116.975 Y113.059 E.00949
G1 X116.467 Y113.207 E.01477
G1 X115.854 Y113.226 E.01711
G1 X115.243 Y113.112 E.01734
G1 X114.925 Y112.988 E.00952
G1 X114.678 Y112.828 E.00821
G1 X114.374 Y112.478 E.01294
G1 X114.182 Y112.053 E.01301
G1 X114.151 Y111.628 E.01189
G1 X114.284 Y111.097 E.01528
;WIDTH:0.465433
G1 X114.143 Y110.858 E.00868
;WIDTH:0.510867
G1 X114.001 Y110.619 E.00963
;WIDTH:0.537792
G1 X113.96 Y110.521 E.00389
;WIDTH:0.564717
G1 X113.918 Y110.423 E.00412
;WIDTH:0.588264
G1 X113.884 Y109.964 E.01857
G1 X113.925 Y109.864 E.00436
;WIDTH:0.543017
G1 X113.966 Y109.764 E.004
;WIDTH:0.497769
G1 X114.007 Y109.665 E.00361
;WIDTH:0.452521
G1 X114.288 Y109.114 E.01875
;WIDTH:0.419999
G1 X114.651 Y108.733 E.01468
G1 X115.116 Y108.476 E.01483
G1 X115.684 Y108.347 E.01625
G1 X116.226 Y108.358 E.01513
G1 X116.704 Y108.402 E.0134
G1 X117.129 Y108.573 E.01278
G1 X117.562 Y108.909 E.01529
G1 X117.636 Y109.009 E.00347
G1 X117.827 Y108.785 E.00821
G1 X118.267 Y108.504 E.01457
G1 X118.702 Y108.374 E.01267
G1 X119.279 Y108.331 E.01615
G1 X119.819 Y108.379 E.01513
G1 X120.348 Y108.571 E.0157
G1 X120.426 Y108.617 E.00253
G1 X120.944 Y109.999 F6000
;TYPE:External perimeter
G1 F1200
G1 X120.915 Y110.165 E.0047
G1 X120.729 Y110.243 E.00563
G1 X120.184 Y110.255 E.01521
;WIDTH:0.432783
G1 X119.64 Y110.316 E.01579
G1 X119.545 Y110.268 E.00307
G1 X119.35 Y109.905 E.01189
G1 X119.188 Y109.906 E.00467
G1 X119.079 Y110.069 E.00566
G1 X119.097 Y110.289 E.00637
G1 X119.227 Y110.385 E.00466
G1 X119.633 Y110.341 E.01178
G1 X119.75 Y110.536 E.00656
;WIDTH:0.419999
G1 X119.697 Y111.264 E.02037
G1 X119.678 Y111.3 E.00114
G1 X120.198 Y111.378 E.01467
G1 X120.746 Y111.506 E.0157
;WIDTH:0.4563
G1 X120.844 Y111.691 E.0064
G1 X121.104 Y111.45 E.01085
;WIDTH:0.419999
G1 X121.571 Y110.564 E.02795
G1 X121.78 Y110.016 E.01637
G1 X121.896 Y109.512 E.01443
G1 X121.962 Y108.932 E.01629
G1 X122.038 Y108.801 E.00423
G1 X122.149 Y108.764 E.00327
G1 X123.347 Y108.764 E.03343
G1 X123.485 Y108.825 E.00421
G1 X123.533 Y108.982 E.00458
G1 X123.446 Y109.528 E.01543
G1 X123.303 Y110.093 E.01626
G1 X123.211 Y110.37 E.00814
G1 X122.961 Y110.889 E.01608
G1 X122.531 Y111.463 E.02001
G1 X122.943 Y111.474 E.0115
G1 X123.885 Y111.382 E.02641
G1 X124.013 Y111.423 E.00375
G1 X124.084 Y111.572 E.00461
G1 X124.09 Y112.609 E.02894
G1 X124.029 Y112.749 E.00426
G1 X123.901 Y112.799 E.00383
G1 X121.932 Y112.793 E.05495
G1 X120.969 Y112.695 E.02701
G1 X120.832 Y112.613 E.00446
;WIDTH:0.456813
G1 X120.782 Y111.839 E.02376
;WIDTH:0.46198
G1 X120.785 Y111.792 E.00146
G1 X120.588 Y112.176 E.01338
;WIDTH:0.419999
G1 X120.24 Y112.577 E.01482
G1 X119.721 Y112.803 E.0158
G1 X119.336 Y112.853 E.01083
G1 X118.709 Y112.803 E.01755
G1 X118.374 Y112.687 E.00989
G1 X118.068 Y112.445 E.01089
G1 X117.948 Y112.285 E.00558
;WIDTH:0.469307
G1 X117.875 Y112.109 E.00601
;WIDTH:0.518615
G1 X117.802 Y111.933 E.00671
;WIDTH:0.567922
G1 X117.729 Y111.757 E.0074
;WIDTH:0.599088
G1 X117.713 Y111.688 E.00292
G1 X117.629 Y111.834 E.00693
;WIDTH:0.554316
G1 X117.546 Y111.979 E.00632
;WIDTH:0.509544
G1 X117.463 Y112.125 E.0058
;WIDTH:0.464772
G1 X117.379 Y112.271 E.00526
;WIDTH:0.419999
G1 X117.235 Y112.452 E.00645
G1 X116.971 Y112.662 E.00941
G1 X116.493 Y112.825 E.01409
G1 X115.842 Y112.849 E.01818
G1 X115.322 Y112.744 E.0148
G1 X114.964 Y112.578 E.01101
G1 X114.717 Y112.32 E.00997
G1 X114.531 Y111.88 E.01333
G1 X114.532 Y111.624 E.00714
G1 X114.66 Y111.198 E.01241
G1 X114.886 Y110.998 E.00842
G1 X114.526 Y110.755 E.01212
G1 X114.365 Y110.376 E.01149
G1 X114.353 Y109.966 E.01145
G1 X114.394 Y109.734 E.00657
G1 X114.623 Y109.288 E.01399
G1 X114.962 Y108.973 E.01291
G1 X115.332 Y108.797 E.01143
G1 X115.798 Y108.715 E.0132
G1 X116.54 Y108.751 E.02073
G1 X116.902 Y108.874 E.01067
G1 X117.315 Y109.205 E.01477
G1 X117.571 Y109.664 E.01467
;WIDTH:0.418803
G1 X117.659 Y109.936 E.00795
;WIDTH:0.419999
G1 X117.731 Y109.631 E.00875
G1 X117.984 Y109.168 E.01472
G1 X118.237 Y108.956 E.00921
G1 X118.497 Y108.813 E.00828
G1 X118.828 Y108.743 E.00944
G1 X119.334 Y108.707 E.01416
G1 X119.867 Y108.792 E.01506
G1 X120.308 Y108.974 E.01331
G1 X120.671 Y109.323 E.01405
G1 X120.836 Y109.638 E.00992
G1 X120.927 Y109.942 E.00886
G1 X121.09 Y110.082 F6000
G1 E-1.12 F2400
;WIPE_START
G1 F4800
G1 X120.915 Y110.165 E-.10608
G1 X120.729 Y110.243 E-.0958
G1 X120.184 Y110.255 E-.25894
G1 X120.144 Y110.259 E-.01918
;WIPE_END
G1 X109.669 Y111.353 F6000
G1 E1.6 F2400
;WIDTH:0.48127
G1 F1200
G1 X109.676 Y111.024 E.01068
;WIDTH:0.44524
G1 X109.683 Y110.695 E.0098
;WIDTH:0.412556
G1 X109.683 Y110.659 E.00098
G1 E-1.12 F2400
;WIPE_START
G1 F4800
G1 X109.683 Y110.695 E-.0171
G1 X109.676 Y111.024 E-.15631
G1 X109.669 Y111.353 E-.15631
;WIPE_END
G1 E-.15028 F2400
G1 X106.488 Y111.353 F6000
G1 E1.6 F2400
;WIDTH:0.481262
G1 F1200
G1 X106.494 Y111.024 E.01067
;WIDTH:0.445241
G1 X106.501 Y110.695 E.0098
;WIDTH:0.412566
G1 X106.502 Y110.659 E.00099
G1 X106.508 Y112.493 F6000
;TYPE:Perimeter
;WIDTH:0.419999
G1 F1200
G1 X106.126 Y112.876 E.0151
G1 X105.722 Y113.096 E.01284
G1 X105.168 Y113.218 E.01583
G1 X104.54 Y113.211 E.01753
G1 X104.035 Y113.073 E.01461
G1 X103.739 Y112.937 E.00909
G1 X103.495 Y112.753 E.00853
G1 X103.196 Y112.373 E.01349
G1 X102.973 Y111.905 E.01447
G1 X102.86 Y111.367 E.01534
;WIDTH:0.448724
G1 X102.833 Y111.007 E.01084
;WIDTH:0.477449
G1 X102.806 Y110.648 E.01158
;WIDTH:0.516691
G1 X102.79 Y110.501 E.00518
;WIDTH:0.555932
G1 X102.773 Y110.354 E.00562
;WIDTH:0.570229
G1 X102.806 Y110.146 E.00822
G1 X102.85 Y110.014 E.00543
;WIDTH:0.532672
G1 X102.894 Y109.882 E.00504
;WIDTH:0.495114
G1 X102.938 Y109.751 E.00462
;WIDTH:0.457557
G1 X102.983 Y109.619 E.00428
;WIDTH:0.419999
G1 X103.211 Y109.118 E.01536
G1 X103.551 Y108.743 E.01413
G1 X103.803 Y108.576 E.00844
G1 X104.287 Y108.392 E.01445
G1 X104.771 Y108.334 E.0136
G1 X105.356 Y108.365 E.01635
G1 X105.773 Y108.498 E.01221
G1 X106.216 Y108.766 E.01445
G1 X106.493 Y109.083 E.01175
G1 X106.725 Y108.785 E.01054
G1 X107.148 Y108.513 E.01403
G1 X107.529 Y108.384 E.01122
G1 X107.952 Y108.334 E.01189
G1 X108.505 Y108.358 E.01545
G1 X108.956 Y108.499 E.01319
G1 X109.397 Y108.766 E.01439
G1 X109.675 Y109.083 E.01177
G1 X109.906 Y108.785 E.01052
G1 X110.309 Y108.52 E.01346
G1 X110.711 Y108.384 E.01184
G1 X111.132 Y108.334 E.01183
G1 X111.681 Y108.355 E.01533
G1 X112.092 Y108.468 E.01189
G1 X112.542 Y108.706 E.01421
G1 X112.932 Y109.117 E.01581
;WIDTH:0.452521
G1 X113.228 Y109.722 E.02042
;WIDTH:0.497769
G1 X113.267 Y109.798 E.00288
;WIDTH:0.543017
G1 X113.306 Y109.873 E.00313
;WIDTH:0.588264
G1 X113.345 Y109.949 E.00345
G1 X113.4 Y110.482 E.02162
;WIDTH:0.564717
G1 X113.395 Y110.604 E.00471
;WIDTH:0.537792
G1 X113.391 Y110.726 E.00447
;WIDTH:0.510867
G1 X113.343 Y111.057 E.01158
;WIDTH:0.465433
G1 X113.295 Y111.388 E.01046
;WIDTH:0.419999
G1 X113.244 Y111.762 E.01053
G1 X113.085 Y112.211 E.01329
G1 X112.774 Y112.672 E.01552
G1 X112.356 Y112.982 E.01452
G1 X111.968 Y113.139 E.01168
G1 X111.522 Y113.219 E.01264
G1 X110.901 Y113.21 E.01733
G1 X110.282 Y113.022 E.01805
G1 X109.936 Y112.782 E.01175
G1 X109.673 Y112.495 E.01086
G1 X109.408 Y112.789 E.01105
G1 X109.191 Y112.953 E.00759
G1 X108.791 Y113.134 E.01225
G1 X108.341 Y113.218 E.01277
G1 X107.72 Y113.21 E.01733
G1 X107.135 Y113.034 E.01705
G1 X106.858 Y112.866 E.00904
G1 X106.549 Y112.536 E.01262
G1 X106.483 Y111.381 F6000
;TYPE:External perimeter
;WIDTH:0.476812
G1 F1200
G1 X106.439 Y111.608 E.00742
;WIDTH:0.438457
G1 X106.199 Y112.208 E.01892
;WIDTH:0.419999
G1 X106.101 Y112.4 E.00602
G1 X105.841 Y112.616 E.00943
G1 X105.528 Y112.766 E.00969
G1 X105.165 Y112.841 E.01034
G1 X104.544 Y112.834 E.01733
G1 X104.044 Y112.68 E.0146
G1 X103.772 Y112.497 E.00915
G1 X103.531 Y112.199 E.01069
G1 X103.34 Y111.821 E.01182
G1 X103.237 Y111.354 E.01334
G1 X103.207 Y110.48 E.0244
