; generated by PrusaSlicer 2.6.0-rc2+win64 on 2023-06-17 at 20:30:28 UTC

; 

; external perimeters extrusion width = 0.42mm
; perimeters extrusion width = 0.44mm
; infill extrusion width = 0.44mm
; solid infill extrusion width = 0.44mm
; top infill extrusion width = 0.40mm
; first layer extrusion width = 0.42mm

;TYPE:Custom
; Ender 3 Custom Start G-code
G92 E0 ; Reset Extruder

M140 S50 ; set bed temp
M190 S50 ; wait for bed temp

G28 ; Home all axes
M104 S205 ; set extruder temp 
BED_MESH_CALIBRATE AREA_START=83.7684,88.5669 AREA_END=143.763,126.207

G1 Z2.0 F3000 ; Move Z Axis up little to prevent scratching of Heat Bed
M109 S205 ; wait for extruder temp
G1 X0.1 Y20 Z0.3 F5000.0 ; Move to start position

G1 X0.1 Y200.0 Z0.3 F1500.0 E15 ; Draw the first line
G1 X0.4 Y200.0 Z0.3 F5000.0 ; Move to side a little
G1 X0.4 Y20 Z0.3 F1500.0 E30 ; Draw the second line
G92 E0 ; Reset Extruder
G1 Z2.0 F3000 ; Move Z Axis up little to prevent scratching of Heat Bed
G1 X5 Y20 Z0.3 F5000.0 ; Move over to prevent blob squish
G21 ; set units to millimeters
G90 ; use absolute coordinates
M83 ; use relative distances for extrusion
; Filament gcode
M107
;LAYER_CHANGE
;Z:0.2
;HEIGHT:0.2
;BEFORE_LAYER_CHANGE
G92 E0
;0.2


G1 E-1.6 F2400
G1 Z.2 F6000
;AFTER_LAYER_CHANGE
;0.2
G1 X87.857 Y91.701
G1 E1.6 F2400
M204 S500
;TYPE:Skirt/Brim
;WIDTH:0.42
G1 F1200
G1 X88.725 Y90.996 E.0312
G1 X89.656 Y90.382 E.03112
G1 X91.322 Y89.564 E.05179
G1 X93.099 Y89.026 E.05181
G1 X94.721 Y88.79 E.04574
G1 X131.692 Y88.755 E1.03169
G1 X132.884 Y88.805 E.03329
G1 X133.843 Y88.938 E.02702
G1 X135.87 Y89.494 E.05865
G1 X137.7 Y90.365 E.05656
G1 X139.14 Y91.376 E.0491
G1 X140.583 Y92.775 E.05609
G1 X141.374 Y93.79 E.03591
G1 X141.835 Y94.519 E.02407
G1 X142.681 Y96.304 E.05512
G1 X143.24 Y98.341 E.05894
G1 X143.425 Y100.341 E.05605
G1 X143.575 Y114.341 E.3907
G1 X143.503 Y115.668 E.03708
G1 X143.296 Y116.888 E.03453
G1 X142.676 Y118.864 E.05779
G1 X141.69 Y120.733 E.05897
G1 X140.467 Y122.296 E.05538
G1 X139.688 Y123.064 E.03053
G1 X138.815 Y123.771 E.03135
G1 X137.173 Y124.778 E.05375
G1 X136.08 Y125.257 E.0333
G1 X134.281 Y125.783 E.0523
G1 X132.523 Y126.003 E.04944
G1 X95.078 Y126.009 E1.04491
G1 X93.39 Y125.81 E.04743
G1 X92.295 Y125.542 E.03146
G1 X91.185 Y125.153 E.03282
G1 X89.854 Y124.506 E.0413
G1 X88.8 Y123.835 E.03487
G1 X87.852 Y123.076 E.03389
G1 X86.76 Y121.96 E.04357
G1 X86.154 Y121.19 E.02734
G1 X85.328 Y119.862 E.04364
G1 X84.772 Y118.665 E.03683
G1 X84.319 Y117.276 E.04077
G1 X84.013 Y115.506 E.05013
G1 X83.957 Y114.505 E.02798
G1 X83.987 Y99.578 E.41654
G1 X84.339 Y97.433 E.06066
G1 X84.956 Y95.673 E.05204
G1 X85.359 Y94.854 E.02547
G1 X86.242 Y93.468 E.04586
G1 X86.875 Y92.684 E.02812
G1 X87.814 Y91.744 E.03708
G1 X88.08 Y92.01 F6000
G1 F1200
G1 X88.937 Y91.308 E.03091
G1 X89.836 Y90.714 E.03007
G1 X91.455 Y89.917 E.05036
G1 X92.992 Y89.437 E.04493
G1 X94.74 Y89.166 E.04936
G1 X131.692 Y89.133 E1.03116
G1 X133.767 Y89.308 E.05811
G1 X135.748 Y89.851 E.05732
G1 X137.509 Y90.69 E.05443
G1 X138.893 Y91.661 E.04718
G1 X140.304 Y93.029 E.05484
G1 X141.07 Y94.013 E.0348
G1 X141.565 Y94.802 E.02599
G1 X142.414 Y96.673 E.05733
G1 X142.882 Y98.473 E.0519
G1 X143.048 Y100.345 E.05244
G1 X143.198 Y114.345 E.3907
G1 X143.13 Y115.614 E.03546
G1 X142.924 Y116.824 E.03425
G1 X142.331 Y118.712 E.05522
G1 X141.369 Y120.534 E.0575
G1 X140.198 Y122.031 E.05304
G1 X139.594 Y122.642 E.02397
G1 X138.603 Y123.459 E.03584
G1 X136.981 Y124.453 E.05309
G1 X135.395 Y125.098 E.04778
G1 X134.218 Y125.411 E.03399
G1 X132.355 Y125.634 E.05236
G1 X95.105 Y125.633 E1.03947
G1 X93.449 Y125.437 E.04653
G1 X92.304 Y125.154 E.03291
G1 X91.337 Y124.807 E.02867
G1 X90.03 Y124.173 E.04054
G1 X89.019 Y123.528 E.03346
G1 X88.102 Y122.794 E.03278
G1 X87.039 Y121.706 E.04245
G1 X86.452 Y120.958 E.02653
G1 X85.657 Y119.676 E.04209
G1 X85.128 Y118.539 E.03499
G1 X84.684 Y117.182 E.03984
G1 X84.387 Y115.46 E.04876
G1 X84.334 Y114.505 E.02669
G1 X84.363 Y99.603 E.41585
G1 X84.7 Y97.541 E.0583
G1 X85.307 Y95.811 E.05116
G1 X85.705 Y95.004 E.02511
G1 X86.553 Y93.681 E.04385
G1 X87.156 Y92.934 E.02679
G1 X88.038 Y92.052 E.03481
G1 X88.304 Y92.318 F6000
G1 F1200
G1 X89.149 Y91.62 E.03058
G1 X90.029 Y91.037 E.02946
G1 X91.588 Y90.27 E.04848
G1 X93.208 Y89.773 E.04729
G1 X94.758 Y89.543 E.04373
G1 X131.692 Y89.51 E1.03066
G1 X133.69 Y89.677 E.05595
G1 X135.628 Y90.208 E.05607
G1 X137.318 Y91.015 E.05226
G1 X138.647 Y91.947 E.0453
G1 X140.013 Y93.269 E.05305
G1 X140.766 Y94.236 E.0342
G1 X141.237 Y94.988 E.02476
G1 X142.054 Y96.785 E.05509
G1 X142.512 Y98.545 E.05075
G1 X142.671 Y100.349 E.05054
G1 X142.821 Y114.349 E.3907
G1 X142.744 Y115.641 E.03612
G1 X142.521 Y116.917 E.03615
G1 X142.276 Y117.78 E.02503
G1 X141.409 Y119.75 E.06006
G1 X140.675 Y120.874 E.03746
G1 X140.018 Y121.672 E.02884
G1 X139.333 Y122.37 E.02729
G1 X138.39 Y123.147 E.0341
G1 X136.804 Y124.12 E.05192
G1 X135.27 Y124.742 E.04619
G1 X134.141 Y125.042 E.0326
G1 X132.345 Y125.257 E.05048
G1 X95.131 Y125.257 E1.03847
G1 X93.508 Y125.065 E.04561
G1 X92.409 Y124.792 E.0316
G1 X91.488 Y124.462 E.0273
G1 X90.206 Y123.839 E.03978
G1 X89.238 Y123.221 E.03205
G1 X88.306 Y122.47 E.0334
G1 X87.318 Y121.453 E.03957
G1 X86.76 Y120.741 E.02524
G1 X85.985 Y119.491 E.04104
G1 X85.483 Y118.413 E.03318
G1 X85.05 Y117.087 E.03893
G1 X84.761 Y115.415 E.04735
G1 X84.739 Y99.629 E.44051
G1 X85.061 Y97.651 E.05592
G1 X85.658 Y95.949 E.05033
G1 X86.04 Y95.178 E.02401
G1 X86.862 Y93.897 E.04247
G1 X87.438 Y93.185 E.02556
G1 X88.262 Y92.361 E.03252
; printing object Shape-Box id:0 copy 0
G1 E-1.12 F2400
;WIPE_START
G1 F4800
G1 X89.038 Y91.713 E-.48
;WIPE_END
G1 X116.27 Y109.58 F6000
G1 E1.6 F2400
;TYPE:Perimeter
G1 F1200
G1 X116.156 Y109.586 E.00319
G1 X116.087 Y109.557 E.00209
G1 X116.077 Y109.459 E.00275
G1 X116.114 Y109.42 E.0015
G1 X116.178 Y109.419 E.00179
G1 X116.245 Y109.525 E.0035
G1 X117.53 Y109.971 F6000
G1 F1200
G1 X117.627 Y110.266 E.00867
G1 X117.793 Y110.551 E.0092
G1 X117.757 Y110.618 E.00212
G1 X117.004 Y110.568 E.02106
G1 X117.105 Y110.056 E.01456
G1 X117.471 Y109.983 E.01041
G1 E-1.12 F2400
;WIPE_START
G1 F4800
G1 X117.627 Y110.266 E-.1535
G1 X117.793 Y110.551 E-.15666
G1 X117.757 Y110.618 E-.03613
G1 X117.476 Y110.599 E-.13371
;WIPE_END
G1 X119.459 Y109.581 F6000
G1 E1.6 F2400
G1 F1200
G1 X119.362 Y109.586 E.00271
G1 X119.294 Y109.557 E.00206
G1 X119.284 Y109.459 E.00275
G1 X119.32 Y109.42 E.00148
G1 X119.383 Y109.419 E.00176
G1 X119.434 Y109.527 E.00333
G1 E-1.12 F2400
;WIPE_START
G1 F4800
G1 X119.362 Y109.586 E-.04422
G1 X119.294 Y109.557 E-.03511
G1 X119.284 Y109.459 E-.04679
G1 X119.32 Y109.42 E-.02521
G1 X119.383 Y109.419 E-.02993
G1 X119.434 Y109.527 E-.05673
;WIPE_END
G1 E-.24201 F2400
G1 X98.262 Y110.523 F6000
G1 E1.6 F2400
G1 F1200
G1 X98.174 Y110.726 E.00617
G1 X98.155 Y110.327 E.01115
G1 X98.234 Y110.47 E.00456
G1 E-1.12 F2400
;WIPE_START
G1 F4800
G1 X98.174 Y110.726 E-.1249
G1 X98.155 Y110.327 E-.18974
G1 X98.234 Y110.47 E-.0776
;WIPE_END
G1 E-.08776 F2400
G1 X93.475 Y111.034 F6000
G1 E1.6 F2400
G1 F1200
G1 X93.467 Y111.124 E.00252
G1 X93.417 Y111.131 E.00141
G1 X93.439 Y111.082 E.0015
G1 E-1.12 F2400
;WIPE_START
G1 F4800
G1 X93.467 Y111.124 E-.02398
G1 X93.417 Y111.131 E-.02398
G1 X93.439 Y111.082 E-.02551
;WIPE_END
G1 E-.40653 F2400
G1 X94.979 Y104.625 F6000
G1 E1.6 F2400
G1 F1200
G1 X94.968 Y104.382 E.00679
G1 X95.19 Y104.645 E.0096
G1 X95.039 Y104.631 E.00423
G1 E-1.12 F2400
;WIPE_START
G1 F4800
G1 X94.968 Y104.382 E-.12299
G1 X95.19 Y104.645 E-.16348
G1 X95.039 Y104.631 E-.07203
;WIPE_END
G1 E-.1215 F2400
G1 X96.55 Y103.207 F6000
G1 E1.6 F2400
G1 F1200
G1 X96.597 Y103.08 E.00378
G1 X96.635 Y103.053 E.0013
G1 X96.709 Y103.063 E.00208
G1 X96.798 Y103.199 E.00454
G1 X96.889 Y103.403 E.00623
G1 X96.793 Y103.45 E.00298
G1 X96.598 Y103.45 E.00544
G1 X96.56 Y103.409 E.00156
G1 X96.548 Y103.267 E.00398
G1 E-1.12 F2400
;WIPE_START
G1 F4800
G1 X96.597 Y103.08 E-.09182
G1 X96.635 Y103.053 E-.02214
G1 X96.709 Y103.063 E-.03547
G1 X96.798 Y103.199 E-.0772
G1 X96.889 Y103.403 E-.1061
G1 X96.793 Y103.45 E-.05077
G1 X96.598 Y103.45 E-.09263
G1 X96.592 Y103.444 E-.00387
;WIPE_END
G1 X121.303 Y110.611 F6000
G1 E1.6 F2400
G1 F1200
G1 X121.412 Y110.432 E.00585
G1 X121.698 Y109.84 E.01835
G1 X121.806 Y109.56 E.00837
G1 X121.957 Y109.047 E.01492
G1 X122.035 Y108.592 E.01288
G1 X122.116 Y107.716 E.02455
G1 X123.95 Y107.716 E.05118
G1 X123.891 Y108.713 E.02787
G1 X123.792 Y109.325 E.0173
G1 X123.607 Y110.008 E.01975
G1 X123.475 Y110.367 E.01067
G1 X123.313 Y110.718 E.01079
G1 X123.111 Y111.066 E.01123
G1 X124.429 Y110.989 E.03684
G1 X124.443 Y112.838 E.0516
G1 X120.575 Y112.816 E.10794
G1 X120.606 Y112.435 E.01067
G1 X120.47 Y112.563 E.00521
G1 X120.182 Y112.734 E.00935
G1 X119.872 Y112.844 E.00918
G1 X119.546 Y112.896 E.00921
G1 X119.168 Y112.89 E.01055
G1 X118.93 Y112.849 E.00674
G1 X118.693 Y112.778 E.0069
G1 X118.298 Y112.575 E.01239
G1 X117.966 Y112.273 E.01252
G1 X117.777 Y111.958 E.01025
G1 X117.71 Y112.097 E.00431
G1 X117.502 Y112.362 E.0094
G1 X117.253 Y112.577 E.00918
G1 X116.97 Y112.74 E.00911
G1 X116.663 Y112.845 E.00905
G1 X116.339 Y112.896 E.00915
G1 X115.961 Y112.89 E.01055
G1 X115.706 Y112.846 E.00722
G1 X115.292 Y112.693 E.01232
G1 X114.909 Y112.433 E.01292
G1 X114.631 Y112.092 E.01228
G1 X114.507 Y111.853 E.00751
G1 X114.403 Y111.464 E.01124
G1 X114.385 Y111.202 E.00733
G1 X114.423 Y110.951 E.00708
G1 X114.573 Y110.583 E.01109
G1 X114.313 Y110.117 E.01489
G1 X114.221 Y109.825 E.00854
G1 X114.198 Y109.523 E.00845
G1 X114.228 Y109.154 E.01033
G1 X114.339 Y108.792 E.01057
G1 X114.522 Y108.466 E.01043
G1 X114.77 Y108.18 E.01056
G1 X115.071 Y107.945 E.01066
G1 X115.412 Y107.776 E.01062
G1 X115.769 Y107.681 E.01031
G1 X115.998 Y107.654 E.00643
G1 X116.34 Y107.654 E.00954
G1 X116.688 Y107.711 E.00984
G1 X117.02 Y107.834 E.00988
G1 X117.333 Y108.027 E.01026
G1 X117.586 Y108.288 E.01014
G1 X117.737 Y108.515 E.00761
G1 X117.965 Y108.214 E.01054
G1 X118.265 Y107.958 E.01101
G1 X118.601 Y107.786 E.01053
G1 X118.814 Y107.716 E.00626
G1 X119.202 Y107.652 E.01097
G1 X119.708 Y107.671 E.01413
G1 X120.059 Y107.761 E.01011
G1 X120.377 Y107.911 E.00981
G1 X120.661 Y108.122 E.00987
G1 X120.898 Y108.381 E.0098
G1 X121.08 Y108.684 E.00986
G1 X121.194 Y109.021 E.00993
G1 X121.326 Y110.023 E.0282
G1 X120.307 Y110.078 E.02848
G1 X120.21 Y110.569 E.01397
G1 X121.265 Y110.65 E.02953
G1 E-1.12 F2400
;WIPE_START
G1 F4800
G1 X121.412 Y110.432 E-.12489
G1 X121.698 Y109.84 E-.3123
G1 X121.73 Y109.756 E-.04281
;WIPE_END
G1 X117.607 Y109.571 F6000
G1 E1.6 F2400
;TYPE:External perimeter
G1 F1200
G1 X116.754 Y109.741 E.02427
G1 X116.542 Y109.265 E.01454
G1 X116.493 Y109.194 E.00241
G1 X116.371 Y109.087 E.00453
G1 X116.242 Y109.041 E.00382
G1 X116.052 Y109.044 E.0053
G1 X115.899 Y109.108 E.00463
G1 X115.826 Y109.169 E.00265
G1 X115.765 Y109.243 E.00268
G1 X115.7 Y109.401 E.00477
G1 X115.7 Y109.62 E.00611
G1 X115.716 Y109.68 E.00173
G1 X115.816 Y109.831 E.00505
G1 X115.865 Y109.872 E.00178
G1 X116.046 Y109.95 E.0055
G1 X116.136 Y109.964 E.00254
G1 X116.745 Y109.934 E.01701
G1 X116.567 Y110.83 E.02549
G1 X116.346 Y110.815 E.00618
G1 X116.047 Y110.933 E.00897
G1 X115.939 Y111.012 E.00373
G1 X115.867 Y111.137 E.00403
G1 X115.854 Y111.301 E.00459
G1 X115.907 Y111.402 E.00318
G1 X115.968 Y111.465 E.00245
G1 X116.164 Y111.521 E.00569
G1 X116.326 Y111.496 E.00457
G1 X116.446 Y111.435 E.00376
G1 X116.62 Y111.21 E.00794
G1 X116.699 Y110.925 E.00825
G1 X117.629 Y110.988 E.02601
G1 X117.574 Y111.403 E.01168
G1 X117.503 Y111.659 E.00741
G1 X117.388 Y111.896 E.00735
G1 X117.228 Y112.101 E.00726
G1 X117.034 Y112.268 E.00714
G1 X116.813 Y112.395 E.00711
G1 X116.572 Y112.478 E.00711
G1 X116.312 Y112.519 E.00735
G1 X115.997 Y112.513 E.00879
G1 X115.804 Y112.48 E.00546
G1 X115.465 Y112.355 E.01008
G1 X115.167 Y112.152 E.01006
G1 X114.948 Y111.884 E.00966
G1 X114.86 Y111.715 E.00532
G1 X114.776 Y111.402 E.00904
G1 X114.764 Y111.218 E.00515
G1 X114.79 Y111.043 E.00494
G1 X114.989 Y110.584 E.01396
G1 X115.164 Y110.503 E.00538
G1 X115.063 Y110.428 E.00351
G1 X114.867 Y110.336 E.00604
G1 X114.661 Y109.967 E.01179
G1 X114.593 Y109.753 E.00627
G1 X114.577 Y109.524 E.00641
G1 X114.601 Y109.226 E.00834
G1 X114.688 Y108.942 E.00829
G1 X114.833 Y108.684 E.00826
G1 X115.031 Y108.455 E.00845
G1 X115.273 Y108.266 E.00857
G1 X115.546 Y108.131 E.0085
G1 X115.84 Y108.052 E.0085
G1 X116.02 Y108.031 E.00506
G1 X116.309 Y108.031 E.00806
G1 X116.591 Y108.077 E.00797
G1 X116.854 Y108.175 E.00783
G1 X117.095 Y108.323 E.00789
G1 X117.291 Y108.526 E.00787
G1 X117.441 Y108.75 E.00752
G1 X117.499 Y108.897 E.00441
G1 X117.597 Y109.512 E.01738
G1 X117.685 Y109.963 F6000
G1 E-1.12 F2400
;WIPE_START
G1 F4800
G1 X116.754 Y109.741 E-.41494
G1 X116.698 Y109.616 E-.06506
;WIPE_END
G1 X119.951 Y109.934 F6000
G1 E1.6 F2400
G1 F1200
G1 X119.774 Y110.83 E.02549
G1 X119.552 Y110.815 E.00621
G1 X119.253 Y110.933 E.00897
G1 X119.145 Y111.012 E.00373
G1 X119.086 Y111.09 E.00273
G1 X119.061 Y111.301 E.00593
G1 X119.113 Y111.402 E.00317
G1 X119.175 Y111.465 E.00247
G1 X119.371 Y111.521 E.00569
G1 X119.532 Y111.496 E.00455
G1 X119.653 Y111.435 E.00378
G1 X119.826 Y111.21 E.00792
G1 X119.905 Y110.924 E.00828
G1 X120.846 Y110.996 E.02634
G1 X120.757 Y111.415 E.01195
G1 X120.587 Y111.877 E.01374
G1 X120.428 Y112.086 E.00733
G1 X120.242 Y112.26 E.00711
G1 X120.021 Y112.391 E.00717
G1 X119.779 Y112.477 E.00717
G1 X119.519 Y112.518 E.00735
G1 X119.203 Y112.513 E.00882
G1 X118.835 Y112.426 E.01055
G1 X118.515 Y112.262 E.01003
G1 X118.255 Y112.025 E.00982
G1 X118.149 Y111.866 E.00533
G1 X118.016 Y111.563 E.00923
G1 X117.989 Y111.379 E.00519
G1 X117.998 Y111.055 E.00904
G1 X118.103 Y110.769 E.0085
G1 X118.205 Y110.586 E.00585
G1 X118.368 Y110.502 E.00512
G1 X118.086 Y110.304 E.00962
G1 X117.972 Y110.108 E.00633
G1 X117.904 Y109.909 E.00587
G1 X117.879 Y109.52 E.01088
G1 X117.904 Y109.254 E.00746
G1 X117.984 Y108.866 E.01106
G1 X118.06 Y108.713 E.00477
G1 X118.241 Y108.475 E.00834
G1 X118.477 Y108.273 E.00867
G1 X118.746 Y108.135 E.00844
G1 X118.904 Y108.083 E.00464
G1 X119.226 Y108.03 E.00911
G1 X119.654 Y108.047 E.01195
G1 X119.931 Y108.118 E.00798
G1 X120.182 Y108.236 E.00774
G1 X120.407 Y108.403 E.00782
G1 X120.594 Y108.608 E.00774
G1 X120.736 Y108.844 E.00769
G1 X120.825 Y109.107 E.00775
G1 X120.899 Y109.668 E.01579
G1 X119.963 Y109.719 E.02616
G1 X119.697 Y109.193 E.01645
G1 X119.576 Y109.087 E.00449
G1 X119.448 Y109.041 E.0038
G1 X119.258 Y109.044 E.0053
G1 X119.106 Y109.108 E.0046
G1 X118.971 Y109.243 E.00533
G1 X118.93 Y109.321 E.00246
G1 X118.907 Y109.401 E.00232
G1 X118.906 Y109.62 E.00611
G1 X118.923 Y109.68 E.00174
G1 X119.022 Y109.831 E.00504
G1 X119.071 Y109.872 E.00178
G1 X119.252 Y109.95 E.0055
G1 X119.342 Y109.964 E.00254
G1 X119.891 Y109.937 E.01534
G1 X120.348 Y109.983 F6000
G1 E-1.12 F2400
;WIPE_START
G1 F4800
G1 X119.774 Y110.83 E-.4278
G1 X119.664 Y110.823 E-.0522
;WIPE_END
G1 X120.984 Y112.441 F6000
G1 E1.6 F2400
G1 F1200
G1 X121.045 Y111.696 E.02086
G1 X121.404 Y111.171 E.01775
G1 X121.743 Y110.612 E.01824
G1 X122.045 Y109.99 E.01929
G1 X122.164 Y109.681 E.00924
G1 X122.325 Y109.132 E.01597
G1 X122.409 Y108.642 E.01387
G1 X122.46 Y108.093 E.01539
G1 X123.55 Y108.093 E.03042
G1 X123.516 Y108.671 E.01616
G1 X123.423 Y109.245 E.01623
G1 X123.247 Y109.894 E.01876
G1 X123.126 Y110.223 E.00978
G1 X122.979 Y110.544 E.00985
G1 X122.794 Y110.86 E.01022
G1 X122.571 Y111.117 E.0095
G1 X122.326 Y111.487 E.01238
G1 X122.808 Y111.49 E.01345
G1 X123.267 Y111.424 E.01294
G1 X124.055 Y111.385 E.02202
G1 X124.063 Y112.459 E.02997
G1 X121.044 Y112.441 E.08425
G1 X120.585 Y112.463 F6000
G1 E-1.12 F2400
;WIPE_START
G1 F4800
G1 X121.045 Y111.696 E-.35388
G1 X121.195 Y111.477 E-.12612
;WIPE_END
G1 X120.905 Y103.472 F6000
G1 E1.6 F2400
;TYPE:Perimeter
G1 F1200
G1 X121.032 Y103.651 E.00612
G1 X121.226 Y104.172 E.01551
G1 X121.235 Y104.365 E.00539
G1 X121.411 Y104.072 E.00954
G1 X121.698 Y103.479 E.01838
G1 X121.806 Y103.199 E.00837
G1 X121.957 Y102.686 E.01492
G1 X122.035 Y102.231 E.01288
