;FLAVOR:Marlin
;TIME:1101
;Filament used: 1.34005m
;Layer height: 0.3
;MINX:88.508
;MINY:99.238
;MINZ:0.3
;MAXX:146.493
;MAXY:135.766
;MAXZ:3.9
;POSTPROCESSED
;Generated with Cura_SteamEngine 5.3.1
M82 ;absolute extrusion mode
; Ender 3 Custom Start G-code
G92 E0 ; Reset Extruder

M140 S55 ; set bed temp
M190 S55 ; wait for bed temp

G28 ; Home all axes
BED_MESH_CALIBRATE  AREA_START=88.508,99.238 AREA_END=146.493,135.766
M104 S210 ; set extruder temp 

G1 Z2.0 F3000 ; Move Z Axis up little to prevent scratching of Heat Bed
M109 S210 ; wait for extruder temp
G1 X0.1 Y20 Z0.3 F5000.0 ; Move to start position

G1 X0.1 Y200.0 Z0.3 F1500.0 E15 ; Draw the first line
G1 X0.4 Y200.0 Z0.3 F5000.0 ; Move to side a little
G1 X0.4 Y20 Z0.3 F1500.0 E30 ; Draw the second line
G92 E0 ; Reset Extruder
G1 Z2.0 F3000 ; Move Z Axis up little to prevent scratching of Heat Bed
G1 X5 Y20 Z0.3 F5000.0 ; Move over to prevent blob squish
G92 E0
G92 E0
G1 F1500 E-1
;LAYER_COUNT:13
;LAYER:0
M107
G0 F3600 X93.152 Y102.604 Z0.3
;TYPE:SKIRT
G1 F1500 E0
G1 X93.797 Y102.115 E0.04038
G1 X94.323 Y101.763 E0.07196
G1 X95.042 Y101.336 E0.11368
G1 X95.987 Y100.889 E0.16583
G1 X96.747 Y100.616 E0.20612
G1 X97.852 Y100.311 E0.26331
G1 X98.515 Y100.181 E0.29702
G1 X99.397 Y100.067 E0.34139
G1 X100.196 Y100.038 E0.38128
G1 X100.783 Y100.048 E0.41057
G1 X101.629 Y100.108 E0.45288
G1 X104.376 Y100.521 E0.59147
G1 X107.147 Y100.858 E0.73073
G1 X109.859 Y101.111 E0.86662
G1 X112.567 Y101.287 E1.00201
G1 X115.322 Y101.388 E1.13955
G1 X118.075 Y101.411 E1.2769
G1 X120.79 Y101.357 E1.41238
G1 X123.508 Y101.225 E1.54814
G1 X126.285 Y101.013 E1.68709
G1 X128.97 Y100.73 E1.82179
G1 X133.672 Y100.074 E2.05864
G1 X134.582 Y100.038 E2.10408
G1 X135.147 Y100.048 E2.13227
G1 X136.058 Y100.112 E2.17783
G1 X137.234 Y100.317 E2.23739
G1 X137.956 Y100.528 E2.27492
G1 X138.902 Y100.857 E2.32488
G1 X139.544 Y101.137 E2.35983
G1 X140.329 Y101.544 E2.40394
G1 X140.999 Y101.973 E2.44363
G1 X141.509 Y102.344 E2.4751
G1 X142.173 Y102.887 E2.51789
G1 X142.724 Y103.431 E2.55652
G1 X143.068 Y103.807 E2.58195
G1 X143.668 Y104.548 E2.62952
G1 X144.24 Y105.414 E2.68129
G1 X144.661 Y106.222 E2.72675
G1 X144.933 Y106.848 E2.7608
G1 X145.172 Y107.496 E2.79526
G1 X145.42 Y108.391 E2.84159
G1 X145.592 Y109.261 E2.88584
G1 X145.662 Y110.028 E2.92426
G1 X145.693 Y110.752 E2.96042
G1 X145.655 Y111.698 E3.00765
G1 X145.554 Y113.546 E3.09998
G1 X145.481 Y116.303 E3.23758
G1 X145.486 Y119.021 E3.37318
G1 X145.57 Y121.802 E3.51199
G1 X145.659 Y123.437 E3.59368
G1 X145.687 Y124.143 E3.62893
G1 X145.677 Y124.692 E3.65633
G1 X145.639 Y125.261 E3.68478
G1 X145.566 Y125.836 E3.71369
G1 X145.473 Y126.37 E3.74074
G1 X145.33 Y126.964 E3.77122
G1 X145.181 Y127.474 E3.79772
G1 X144.954 Y128.101 E3.83099
G1 X144.707 Y128.696 E3.86313
G1 X144.25 Y129.552 E3.91154
G1 X143.978 Y129.992 E3.93735
G1 X143.415 Y130.79 E3.98608
G1 X142.661 Y131.647 E4.04302
G1 X141.856 Y132.391 E4.09771
G1 X140.926 Y133.086 E4.15563
G1 X140.137 Y133.563 E4.20163
G1 X139.689 Y133.793 E4.22676
G1 X138.914 Y134.15 E4.26933
G1 X138.174 Y134.414 E4.30852
G1 X137.607 Y134.58 E4.338
G1 X136.719 Y134.788 E4.3835
G1 X135.578 Y134.937 E4.44091
G1 X134.783 Y134.956 E4.48058
G1 X133.945 Y134.933 E4.52241
G1 X132.07 Y134.812 E4.61615
G1 X129.321 Y134.68 E4.75345
G1 X126.606 Y134.626 E4.88893
G1 X123.853 Y134.649 E5.02628
G1 X121.123 Y134.749 E5.16257
G1 X119.45 Y134.862 E5.24623
G1 X118.088 Y134.944 E5.3143
G1 X117.28 Y134.966 E5.35463
G1 X115.072 Y134.82 E5.46503
G1 X112.314 Y134.684 E5.60279
G1 X109.596 Y134.626 E5.73843
G1 X106.845 Y134.645 E5.87568
G1 X104.105 Y134.742 E6.01246
G1 X101.114 Y134.936 E6.162
G1 X100.497 Y134.959 E6.1928
G1 X99.404 Y134.923 E6.24736
G1 X98.699 Y134.847 E6.28274
G1 X97.825 Y134.695 E6.32699
G1 X96.821 Y134.42 E6.37893
G1 X95.975 Y134.096 E6.42413
G1 X95.462 Y133.866 E6.45217
G1 X94.643 Y133.444 E6.49814
G1 X93.732 Y132.848 E6.55245
G1 X92.896 Y132.179 E6.60587
G1 X92.062 Y131.356 E6.66433
G1 X91.459 Y130.618 E6.71187
G1 X91.161 Y130.197 E6.73761
G1 X90.735 Y129.547 E6.77638
G1 X90.337 Y128.775 E6.81971
G1 X90.102 Y128.242 E6.84877
G1 X89.903 Y127.724 E6.87646
G1 X89.705 Y127.085 E6.90983
G1 X89.494 Y126.237 E6.95343
G1 X89.347 Y125.181 E7.00662
G1 X89.308 Y124.268 E7.05221
G1 X89.349 Y123.23 E7.10404
G1 X89.448 Y121.41 E7.19497
G1 X89.52 Y118.656 E7.33242
G1 X89.514 Y115.904 E7.46972
G1 X89.431 Y113.199 E7.60473
G1 X89.343 Y111.607 E7.68428
G1 X89.313 Y110.868 E7.72118
G1 X89.325 Y110.271 E7.75097
G1 X89.361 Y109.734 E7.77782
G1 X89.428 Y109.195 E7.80492
G1 X89.532 Y108.608 E7.83466
G1 X89.753 Y107.707 E7.88094
G1 X90.139 Y106.642 E7.93746
G1 X90.481 Y105.942 E7.97633
G1 X90.913 Y105.165 E8.02068
G1 X91.38 Y104.492 E8.06155
G1 X91.761 Y104.01 E8.0922
G1 X92.333 Y103.36 E8.1354
G1 X93.152 Y102.604 E8.19101
G0 F3600 X92.91 Y102.285
G1 F1500 X93.555 Y101.796 E8.23139
G1 X94.119 Y101.419 E8.26523
G1 X94.871 Y100.974 E8.30883
G1 X95.816 Y100.527 E8.36098
G1 X96.641 Y100.23 E8.40473
G1 X97.775 Y99.918 E8.4634
G1 X98.438 Y99.788 E8.49711
G1 X99.382 Y99.667 E8.54459
G1 X100.203 Y99.638 E8.58558
G1 X100.811 Y99.649 E8.61592
G1 X101.688 Y99.712 E8.65978
G1 X104.435 Y100.125 E8.79837
G1 X107.196 Y100.461 E8.93713
G1 X109.885 Y100.712 E9.07187
G1 X112.582 Y100.887 E9.20671
G1 X115.337 Y100.988 E9.34425
G1 X118.07 Y101.011 E9.4806
G1 X120.771 Y100.957 E9.61538
G1 X123.489 Y100.825 E9.75115
G1 X126.246 Y100.615 E9.88909
G1 X128.928 Y100.332 E10.02364
G1 X133.656 Y99.674 E10.26179
G1 X134.589 Y99.638 E10.30838
G1 X135.175 Y99.649 E10.33762
G1 X136.127 Y99.718 E10.38524
G1 X137.346 Y99.933 E10.44699
G1 X138.087 Y100.15 E10.48551
G1 X139.062 Y100.49 E10.53703
G1 X139.704 Y100.77 E10.57197
G1 X140.545 Y101.207 E10.61926
G1 X141.215 Y101.636 E10.65895
G1 X141.762 Y102.034 E10.6927
G1 X142.454 Y102.602 E10.73736
G1 X143.019 Y103.161 E10.77701
G1 X143.379 Y103.555 E10.80364
G1 X143.979 Y104.296 E10.85121
G1 X144.595 Y105.229 E10.90699
G1 X145.016 Y106.037 E10.95244
G1 X145.3 Y106.689 E10.98792
G1 X145.557 Y107.389 E11.02512
G1 X145.812 Y108.313 E11.07295
G1 X145.99 Y109.225 E11.1193
G1 X146.062 Y110.011 E11.15868
G1 X146.093 Y110.768 E11.19648
G1 X146.054 Y111.72 E11.24402
G1 X145.954 Y113.557 E11.3358
G1 X145.881 Y116.314 E11.4734
G1 X145.886 Y119.009 E11.60785
G1 X145.97 Y121.79 E11.74666
G1 X146.059 Y123.421 E11.82815
G1 X146.087 Y124.15 E11.86455
G1 X146.076 Y124.719 E11.89294
G1 X146.036 Y125.311 E11.92254
G1 X145.96 Y125.905 E11.95242
G1 X145.862 Y126.464 E11.98073
G1 X145.714 Y127.076 E12.01214
G1 X145.557 Y127.61 E12.03991
G1 X145.323 Y128.254 E12.0741
G1 X145.06 Y128.884 E12.10816
G1 X144.603 Y129.74 E12.15657
G1 X144.305 Y130.223 E12.18488
G1 X143.742 Y131.021 E12.23361
G1 X142.932 Y131.941 E12.29476
G1 X142.127 Y132.685 E12.34945
G1 X141.133 Y133.428 E12.41136
G1 X140.32 Y133.919 E12.45875
G1 X139.872 Y134.149 E12.48387
G1 X139.048 Y134.527 E12.5291
G1 X138.286 Y134.798 E12.56945
G1 X137.719 Y134.964 E12.59892
G1 X136.771 Y135.185 E12.64749
G1 X135.63 Y135.334 E12.7049
G1 X134.772 Y135.356 E12.74771
G1 X133.919 Y135.332 E12.79029
G1 X132.051 Y135.212 E12.88368
G1 X129.302 Y135.08 E13.02098
G1 X126.601 Y135.026 E13.15576
G1 X123.868 Y135.049 E13.29212
G1 X121.138 Y135.149 E13.42841
G1 X119.474 Y135.261 E13.51161
G1 X118.099 Y135.344 E13.58034
G1 X117.291 Y135.366 E13.62066
G1 X115.052 Y135.22 E13.7326
G1 X112.294 Y135.084 E13.87037
G1 X109.59 Y135.026 E14.0053
G1 X106.859 Y135.045 E14.14156
G1 X104.119 Y135.142 E14.27834
G1 X101.129 Y135.336 E14.42783
G1 X100.484 Y135.359 E14.46003
G1 X99.361 Y135.321 E14.51609
G1 X98.656 Y135.245 E14.55146
G1 X97.719 Y135.081 E14.59892
G1 X96.678 Y134.794 E14.65279
G1 X95.811 Y134.461 E14.69913
G1 X95.279 Y134.222 E14.72823
G1 X94.424 Y133.779 E14.77627
G1 X93.513 Y133.183 E14.83058
G1 X92.615 Y132.464 E14.88797
G1 X91.781 Y131.641 E14.94643
G1 X91.149 Y130.871 E14.99613
G1 X90.826 Y130.416 E15.02396
G1 X90.379 Y129.73 E15.06481
G1 X89.981 Y128.958 E15.10815
G1 X89.729 Y128.385 E15.13938
G1 X89.521 Y127.842 E15.16839
G1 X89.317 Y127.182 E15.20285
G1 X89.106 Y126.334 E15.24645
G1 X88.947 Y125.198 E15.30368
G1 X88.908 Y124.252 E15.35091
G1 X88.95 Y123.208 E15.40304
G1 X89.048 Y121.4 E15.49337
G1 X89.12 Y118.646 E15.63082
G1 X89.114 Y115.905 E15.76757
G1 X89.031 Y113.211 E15.90203
G1 X88.943 Y111.623 E15.98138
G1 X88.913 Y110.86 E16.01948
G1 X88.926 Y110.244 E16.05022
G1 X88.964 Y109.685 E16.07817
G1 X89.034 Y109.125 E16.10633
G1 X89.138 Y108.538 E16.13607
G1 X89.377 Y107.571 E16.18576
G1 X89.763 Y106.506 E16.24228
G1 X90.131 Y105.748 E16.28432
G1 X90.584 Y104.937 E16.33066
G1 X91.066 Y104.244 E16.37278
G1 X91.447 Y103.762 E16.40343
G1 X92.062 Y103.066 E16.44977
G1 X92.91 Y102.285 E16.50728
G0 F3600 X92.668 Y101.966
G1 F1500 X93.333 Y101.463 E16.54888
G1 X93.915 Y101.075 E16.58378
G1 X94.7 Y100.612 E16.62925
G1 X95.645 Y100.165 E16.6814
G1 X96.535 Y99.844 E16.7286
G1 X97.698 Y99.525 E16.78877
G1 X98.361 Y99.395 E16.82247
G1 X99.368 Y99.267 E16.87312
G1 X100.21 Y99.238 E16.91515
G1 X100.84 Y99.25 E16.94659
G1 X101.747 Y99.316 E16.99196
G1 X104.494 Y99.729 E17.13055
G1 X107.245 Y100.064 E17.26881
G1 X109.911 Y100.313 E17.40239
G1 X112.597 Y100.487 E17.53668
G1 X115.352 Y100.588 E17.67422
G1 X118.065 Y100.611 E17.80958
G1 X120.752 Y100.557 E17.94366
G1 X123.47 Y100.425 E18.07942
G1 X126.207 Y100.217 E18.21636
G1 X128.886 Y99.934 E18.35076
G1 X133.641 Y99.274 E18.59026
G1 X134.597 Y99.238 E18.63799
G1 X135.204 Y99.25 E18.66828
G1 X136.156 Y99.319 E18.7159
G1 X137.458 Y99.549 E18.78187
G1 X138.219 Y99.772 E18.82143
G1 X139.222 Y100.123 E18.87444
G1 X139.864 Y100.403 E18.90939
G1 X140.761 Y100.87 E18.95984
G1 X141.431 Y101.299 E18.99953
G1 X142.016 Y101.725 E19.03564
G1 X142.708 Y102.293 E19.0803
G1 X143.314 Y102.891 E19.12278
G1 X143.69 Y103.303 E19.1506
G1 X144.29 Y104.044 E19.19817
G1 X144.95 Y105.044 E19.25795
G1 X145.383 Y105.877 E19.30479
G1 X145.667 Y106.529 E19.34027
G1 X145.943 Y107.283 E19.38033
G1 X146.205 Y108.236 E19.42963
G1 X146.383 Y109.148 E19.47599
G1 X146.462 Y109.995 E19.51843
G1 X146.493 Y110.784 E19.55783
G1 X146.453 Y111.742 E19.60566
G1 X146.354 Y113.568 E19.6969
G1 X146.281 Y116.325 E19.83449
G1 X146.286 Y118.997 E19.9678
G1 X146.37 Y121.778 E20.10661
G1 X146.459 Y123.406 E20.18795
G1 X146.487 Y124.158 E20.22549
G1 X146.475 Y124.746 E20.25483
G1 X146.433 Y125.362 E20.28564
G1 X146.354 Y125.974 E20.31642
G1 X146.251 Y126.558 E20.34601
G1 X146.098 Y127.189 E20.3784
G1 X145.933 Y127.747 E20.40743
G1 X145.692 Y128.408 E20.44253
G1 X145.413 Y129.072 E20.47847
G1 X144.956 Y129.928 E20.52688
G1 X144.632 Y130.454 E20.5577
G1 X144.069 Y131.252 E20.60642
G1 X143.203 Y132.235 E20.67178
G1 X142.398 Y132.979 E20.72647
G1 X141.34 Y133.77 E20.79237
G1 X140.503 Y134.275 E20.84114
G1 X140.039 Y134.513 E20.86716
G1 X139.215 Y134.891 E20.91239
G1 X138.398 Y135.182 E20.95566
G1 X137.81 Y135.354 E20.98622
G1 X136.823 Y135.582 E21.03676
G1 X135.682 Y135.731 E21.09417
G1 X134.761 Y135.756 E21.14013
G1 X133.893 Y135.731 E21.18346
G1 X132.032 Y135.612 E21.27649
G1 X129.283 Y135.48 E21.4138
G1 X126.596 Y135.426 E21.54788
G1 X123.883 Y135.449 E21.68324
G1 X121.153 Y135.549 E21.81953
G1 X118.11 Y135.744 E21.97166
G1 X117.302 Y135.766 E22.01198
G1 X115.032 Y135.62 E22.12547
G1 X112.274 Y135.484 E22.26323
G1 X109.584 Y135.426 E22.39747
G1 X106.873 Y135.445 E22.53272
G1 X104.133 Y135.542 E22.66951
G1 X101.143 Y135.736 E22.81899
G1 X100.47 Y135.759 E22.85259
G1 X99.318 Y135.719 E22.9101
G1 X98.613 Y135.643 E22.94547
G1 X97.613 Y135.467 E22.99613
G1 X96.572 Y135.18 E23.05
G1 X95.647 Y134.826 E23.09942
G1 X95.095 Y134.577 E23.12963
G1 X94.205 Y134.114 E23.17968
G1 X93.294 Y133.518 E23.23399
G1 X92.334 Y132.749 E23.29536
G1 X91.5 Y131.926 E23.35382
G1 X90.823 Y131.103 E23.40698
G1 X90.491 Y130.634 E23.43565
G1 X90.023 Y129.913 E23.47853
G1 X89.625 Y129.141 E23.52187
G1 X89.355 Y128.528 E23.55528
G1 X89.147 Y127.985 E23.58429
G1 X88.929 Y127.279 E23.62116
G1 X88.718 Y126.431 E23.66475
G1 X88.547 Y125.214 E23.72607
G1 X88.508 Y124.236 E23.7749
G1 X88.551 Y123.186 E23.82733
G1 X88.648 Y121.39 E23.91706
G1 X88.72 Y118.636 E24.0545
G1 X88.714 Y115.906 E24.19071
G1 X88.631 Y113.223 E24.32462
G1 X88.543 Y111.639 E24.40377
G1 X88.513 Y110.852 E24.44306
G1 X88.527 Y110.217 E24.47475
G1 X88.567 Y109.635 E24.50386
G1 X88.64 Y109.055 E24.53302
G1 X88.744 Y108.468 E24.56276
G1 X89.001 Y107.435 E24.61587
G1 X89.403 Y106.331 E24.67449
G1 X89.771 Y105.573 E24.71653
G1 X90.235 Y104.742 E24.76401
G1 X90.752 Y103.996 E24.80929
G1 X91.147 Y103.497 E24.84104
G1 X91.762 Y102.801 E24.88738
G1 X92.668 Y101.966 E24.94885
G1 F1500 E23.94885
;MESH:NO_TXT_Kostka (5).stl
G0 F3600 X91.834 Y110.738
G0 X91.882 Y111.596
G0 X92.021 Y112.443
G0 X92.252 Y113.273
G0 X92.571 Y114.074
G0 X92.976 Y114.838
G0 X93.462 Y115.556
G0 X94.021 Y116.221
G0 X94.649 Y116.825
G0 X95.595 Y117.5
G0 X99.054 Y113.568
;TYPE:WALL-OUTER
G1 F1500 E24.94885
G1 F576.9 X98.827 Y113.542 E24.9607
G1 X98.753 Y113.362 E24.9708
G1 F578.3 X98.752 Y112.228 E25.0295
G1 X98.832 Y112.113 E25.03675
G1 X99.012 Y112.089 E25.04615
G1 X99.105 Y112.126 E25.05133
G1 X99.169 Y112.303 E25.06107
G1 F576.9 X99.169 Y113.356 E25.11571
G1 X99.126 Y113.51 E25.12401
G1 X99.054 Y113.568 E25.1288
G0 F3600 X99.126 Y113.51
G0 X99.155 Y113.406
G1 F1500 E24.1288
G0 F3600 X98.995 Y113.33
G0 X104.995 Y113.016
G0 X105.166 Y113.26
G1 F1500 E25.1288
G1 F527.5 X104.958 Y113.289 E25.14072
G1 X104.87 Y113.241 E25.14641
G1 X104.803 Y113.035 E25.1587
G1 F528.6 X104.802 Y112.364 E25.1967
G1 F529.8 X104.861 Y112.172 E25.20805
G1 X104.942 Y112.116 E25.21361
G1 X105.085 Y112.107 E25.22171
G1 X105.189 Y112.16 E25.2283
G1 X105.254 Y112.364 E25.2404
G1 F528.6 X105.259 Y113.011 E25.27704
G1 F527.5 X105.166 Y113.26 E25.29212
G0 F3600 X105.236 Y113.073
G1 F1500 E24.29212
G0 F3600 X104.979 Y113.022
G0 X105.001 Y114.753
G0 X104.934 Y114.493
G1 F1500 E25.29212
G1 F567.4 X105.073 Y114.486 E25.29946
G1 X105.174 Y114.527 E25.30521
G1 X105.24 Y114.71 E25.31548
G1 X105.24 Y115.341 E25.34877
G1 X105.132 Y115.469 E25.3576
G1 X104.924 Y115.47 E25.36858
G1 X104.816 Y115.341 E25.37745
G1 X104.816 Y114.71 E25.41075
G1 X104.859 Y114.554 E25.41928
G1 X104.934 Y114.493 E25.42438
G0 F3600 X104.859 Y114.554
G0 X104.832 Y114.654
G1 F1500 E24.42438
G0 F3600 X105.002 Y114.745
G0 X109.528 Y113.206
G1 F1500 E25.42438
G1 F368.1 X109.487 Y113.276 E25.43098
G1 X109.407 Y113.276 E25.43749
G1 X109.366 Y113.206 E25.44408
G1 X109.407 Y113.136 E25.45068
G1 X109.487 Y113.136 E25.45719
G1 F1500 E24.45719
G0 F3600 X115.575 Y113.207
G1 F1500 E25.45719
G1 F365.9 X115.533 Y113.278 E25.46394
G1 X115.452 Y113.278 E25.47056
G1 X115.411 Y113.207 E25.47727
G1 X115.453 Y113.136 E25.48402
G1 X115.533 Y113.136 E25.49057
G1 F1500 E24.49057
G0 F3600 X119.684 Y115.201
G0 X119.658 Y115.489
G1 F1500 E25.49057
G1 F582.5 X119.499 Y115.441 E25.4991
G1 X119.44 Y115.271 E25.50835
G1 X119.44 Y114.217 E25.56251
G1 X119.53 Y114.022 E25.57355
G1 X119.747 Y114.006 E25.58473
G1 F581.1 X119.861 Y114.146 E25.59403
G1 F579.7 X119.861 Y115.342 E25.65578
G1 F582.5 X119.753 Y115.468 E25.66431
G1 X119.658 Y115.489 E25.66931
G0 F3600 X119.753 Y115.468
G0 X119.82 Y115.39
G1 F1500 E24.66931
G0 F3600 X119.684 Y115.201
G0 X119.684 Y122.633
G0 X119.74 Y122.9
G1 F1500 E25.66931
G1 F582.5 X119.547 Y122.902 E25.67923
G1 X119.483 Y122.85 E25.68347
G1 X119.44 Y122.697 E25.69163
G1 F581.1 X119.441 Y121.65 E25.74557
G1 F579.7 X119.52 Y121.449 E25.75672
G1 X119.694 Y121.425 E25.76579
G1 X119.813 Y121.487 E25.77272
G1 F576.9 X119.861 Y121.735 E25.78582
G1 F574.2 X119.861 Y122.605 E25.83118
G1 F578.3 X119.811 Y122.856 E25.84443
G1 F582.5 X119.74 Y122.9 E25.84872
G0 F3600 X119.811 Y122.856
G0 X119.833 Y122.741
G1 F1500 E24.84872
G0 F3600 X119.684 Y122.633
G0 X115.533 Y120.562
G1 F1500 E25.84872
G1 F365.9 X115.453 Y120.562 E25.85527
G1 X115.411 Y120.633 E25.86202
G1 X115.452 Y120.704 E25.86872
G1 X115.533 Y120.704 E25.87535
G1 X115.575 Y120.633 E25.8821
G1 F1500 E24.8821
G0 F3600 X109.489 Y120.563
G1 F1500 E25.8821
G1 F367 X109.409 Y120.563 E25.88863
G1 X109.368 Y120.633 E25.89524
