;FLAVOR:Marlin
;TIME:1649
;Filament used: 1.3149m
;Layer height: 0.2
;MINX:88.512
;MINY:98.507
;MINZ:0.2
;MAXX:146.488
;MAXY:136.492
;MAXZ:4
;POSTPROCESSED
;Generated with Cura_SteamEngine 5.3.1
M82 ;absolute extrusion mode
; Ender 3 Custom Start G-code
G92 E0 ; Reset Extruder

M140 S50 ; set bed temp
M190 S50 ; wait for bed temp

G28 ; Home all axes
BED_MESH_CALIBRATE  AREA_START=88.512,98.507 AREA_END=146.488,136.492
M104 S205 ; set extruder temp 

G1 Z2.0 F3000 ; Move Z Axis up little to prevent scratching of Heat Bed
M109 S205 ; wait for extruder temp
G1 X0.1 Y20 Z0.3 F5000.0 ; Move to start position

G1 X0.1 Y200.0 Z0.3 F1500.0 E15 ; Draw the first line
G1 X0.4 Y200.0 Z0.3 F5000.0 ; Move to side a little
G1 X0.4 Y20 Z0.3 F1500.0 E30 ; Draw the second line
G92 E0 ; Reset Extruder
G1 Z2.0 F3000 ; Move Z Axis up little to prevent scratching of Heat Bed
G1 X5 Y20 Z0.3 F5000.0 ; Move over to prevent blob squish
G92 E0
G92 E0
G1 F2400 E-1.6
;LAYER_COUNT:20
;LAYER:0
M107
G0 X93.114 Y102.002 Z0.2
;TYPE:SKIRT
G1 F2400 E0
G1 F1800 X94.045 Y101.275 E0.03492
G1 X94.984 Y100.691 E0.06762
G1 X95.932 Y100.218 E0.09894
G1 X96.783 Y99.898 E0.12582
G1 X97.377 Y99.717 E0.14418
G1 X98.195 Y99.508 E0.16914
G1 X99.377 Y99.344 E0.20442
G1 X100.332 Y99.307 E0.23267
G1 X101.441 Y99.366 E0.26551
G1 X104.903 Y99.868 E0.36893
G1 X107.578 Y100.182 E0.44856
G1 X110.355 Y100.427 E0.53098
G1 X113.07 Y100.591 E0.6114
G1 X115.787 Y100.677 E0.69177
G1 X118.54 Y100.686 E0.77316
G1 X121.255 Y100.619 E0.85345
G1 X124.043 Y100.471 E0.93599
G1 X126.713 Y100.253 E1.0152
G1 X129.465 Y99.949 E1.09705
G1 X133.63 Y99.356 E1.22143
G1 X134.567 Y99.313 E1.24916
G1 X135.257 Y99.329 E1.26957
G1 X136.064 Y99.392 E1.2935
G1 X136.85 Y99.527 E1.31708
G1 X137.743 Y99.74 E1.34422
G1 X138.441 Y99.978 E1.36602
G1 X139.04 Y100.217 E1.38509
G1 X139.59 Y100.474 E1.40304
G1 X140.098 Y100.744 E1.42005
G1 X140.528 Y101.003 E1.43489
G1 X141.363 Y101.574 E1.4648
G1 X141.979 Y102.096 E1.48867
G1 X142.392 Y102.484 E1.50542
G1 X143.031 Y103.161 E1.53294
G1 X143.694 Y104.011 E1.56481
G1 X144.315 Y105.02 E1.59984
G1 X144.698 Y105.797 E1.62545
G1 X144.935 Y106.364 E1.64362
G1 X145.224 Y107.177 E1.66913
G1 X145.486 Y108.238 E1.70144
G1 X145.656 Y109.445 E1.73748
G1 X145.688 Y110.272 E1.76195
G1 X145.679 Y110.84 E1.77874
G1 X145.521 Y113.832 E1.86733
G1 X145.457 Y116.545 E1.94756
G1 X145.471 Y119.29 E2.02871
G1 X145.634 Y123.374 E2.14955
G1 X145.667 Y123.921 E2.16576
G1 X145.688 Y124.483 E2.18238
G1 X145.677 Y125.089 E2.2003
G1 X145.638 Y125.663 E2.21731
G1 X145.571 Y126.216 E2.23378
G1 X145.409 Y127.122 E2.26099
G1 X145.127 Y128.132 E2.29199
G1 X144.788 Y128.997 E2.31946
G1 X144.533 Y129.549 E2.33744
G1 X144.116 Y130.331 E2.36364
G1 X143.529 Y131.218 E2.39509
G1 X142.724 Y132.187 E2.43233
G1 X141.889 Y132.996 E2.4667
G1 X140.976 Y133.71 E2.50097
G1 X140.107 Y134.261 E2.53139
G1 X139.192 Y134.721 E2.56167
G1 X138.718 Y134.917 E2.57683
G1 X138.22 Y135.103 E2.59255
G1 X137.623 Y135.284 E2.61099
G1 X136.824 Y135.488 E2.63537
G1 X135.86 Y135.628 E2.66417
G1 X135.351 Y135.666 E2.67926
G1 X134.808 Y135.687 E2.69533
G1 X134.17 Y135.675 E2.7142
G1 X132.585 Y135.569 E2.76116
G1 X129.787 Y135.421 E2.844
G1 X127.072 Y135.355 E2.92429
G1 X124.32 Y135.366 E3.00566
G1 X121.606 Y135.454 E3.08594
G1 X119.588 Y135.568 E3.14569
G1 X118.124 Y135.667 E3.18908
G1 X117.284 Y135.692 E3.21392
G1 X115.681 Y135.581 E3.26143
G1 X112.915 Y135.428 E3.34333
G1 X110.164 Y135.354 E3.42469
G1 X107.445 Y135.358 E3.50508
G1 X104.694 Y135.44 E3.58645
G1 X101.929 Y135.6 E3.66833
G1 X101.074 Y135.662 E3.69368
G1 X100.415 Y135.687 E3.71317
G1 X99.815 Y135.676 E3.73092
G1 X99.272 Y135.639 E3.74701
G1 X98.757 Y135.576 E3.76235
G1 X98.147 Y135.472 E3.78064
G1 X97.5 Y135.318 E3.8003
G1 X96.849 Y135.126 E3.82037
G1 X95.958 Y134.784 E3.84859
G1 X95.41 Y134.527 E3.86648
G1 X94.902 Y134.257 E3.88349
G1 X94.367 Y133.929 E3.90204
G1 X93.67 Y133.45 E3.92705
G1 X93.022 Y132.905 E3.95208
G1 X92.581 Y132.489 E3.97
G1 X92.205 Y132.098 E3.98604
G1 X91.827 Y131.658 E4.00319
G1 X91.28 Y130.944 E4.02978
G1 X90.667 Y129.952 E4.06426
G1 X90.302 Y129.205 E4.08884
G1 X90.074 Y128.658 E4.10636
G1 X89.764 Y127.785 E4.13375
G1 X89.492 Y126.653 E4.16817
G1 X89.343 Y125.533 E4.20157
G1 X89.312 Y124.721 E4.2256
G1 X89.32 Y124.175 E4.24174
G1 X89.478 Y121.205 E4.32967
G1 X89.542 Y118.463 E4.41076
G1 X89.529 Y115.715 E4.49201
G1 X89.367 Y111.632 E4.61282
G1 X89.334 Y111.082 E4.62911
G1 X89.312 Y110.513 E4.64594
G1 X89.324 Y109.891 E4.66434
G1 X89.377 Y109.112 E4.68742
G1 X89.571 Y107.959 E4.72199
G1 X89.916 Y106.739 E4.75947
G1 X90.327 Y105.726 E4.79179
G1 X90.716 Y104.977 E4.81674
G1 X91.018 Y104.467 E4.83427
G1 X91.337 Y103.986 E4.85133
G1 X91.695 Y103.507 E4.86901
G1 X92.033 Y103.097 E4.88472
G1 X92.473 Y102.621 E4.90389
G1 X93.114 Y102.002 E4.93023
G0 F2400 X92.836 Y101.714
G1 F1800 X93.834 Y100.935 E4.96766
G1 X94.805 Y100.333 E5.00144
G1 X95.753 Y99.86 E5.03276
G1 X96.666 Y99.515 E5.06162
G1 X97.278 Y99.329 E5.08053
G1 X98.096 Y99.12 E5.10549
G1 X99.362 Y98.944 E5.14328
G1 X100.317 Y98.907 E5.17153
G1 X101.498 Y98.97 E5.2065
G1 X104.96 Y99.472 E5.30992
G1 X107.625 Y99.785 E5.38925
G1 X110.379 Y100.028 E5.47099
G1 X113.083 Y100.191 E5.55108
G1 X115.8 Y100.277 E5.63145
G1 X118.531 Y100.286 E5.71219
G1 X121.245 Y100.219 E5.79246
G1 X124.01 Y100.073 E5.87432
G1 X126.673 Y99.855 E5.95331
G1 X129.421 Y99.551 E6.03505
G1 X133.612 Y98.956 E6.1602
G1 X134.549 Y98.913 E6.18793
G1 X135.288 Y98.93 E6.20979
G1 X136.095 Y98.993 E6.23372
G1 X136.943 Y99.138 E6.25915
G1 X137.872 Y99.361 E6.2874
G1 X138.589 Y99.606 E6.3098
G1 X139.188 Y99.845 E6.32887
G1 X139.778 Y100.121 E6.34812
G1 X140.304 Y100.401 E6.36574
G1 X140.754 Y100.673 E6.38129
G1 X141.622 Y101.269 E6.41242
G1 X142.253 Y101.804 E6.43688
G1 X142.683 Y102.209 E6.45434
G1 X143.322 Y102.886 E6.48186
G1 X144.035 Y103.801 E6.51616
G1 X144.656 Y104.81 E6.55119
G1 X145.057 Y105.62 E6.57791
G1 X145.312 Y106.23 E6.59745
G1 X145.601 Y107.043 E6.62296
G1 X145.882 Y108.182 E6.65765
G1 X146.056 Y109.43 E6.6949
G1 X146.088 Y110.278 E6.71999
G1 X146.078 Y110.861 E6.73723
G1 X145.921 Y113.841 E6.82546
G1 X145.857 Y116.554 E6.90569
G1 X145.871 Y119.274 E6.98611
G1 X146.033 Y123.358 E7.10694
G1 X146.067 Y123.906 E7.12318
G1 X146.088 Y124.49 E7.14045
G1 X146.076 Y125.116 E7.15896
G1 X146.035 Y125.711 E7.1766
G1 X145.965 Y126.286 E7.19372
G1 X145.803 Y127.192 E7.22093
G1 X145.512 Y128.24 E7.25309
G1 X145.151 Y129.165 E7.28245
G1 X144.886 Y129.737 E7.30108
G1 X144.45 Y130.552 E7.32841
G1 X143.837 Y131.474 E7.36114
G1 X143.032 Y132.443 E7.39839
G1 X142.135 Y133.311 E7.43529
G1 X141.19 Y134.048 E7.47072
G1 X140.321 Y134.599 E7.50114
G1 X139.345 Y135.091 E7.53346
G1 X138.858 Y135.292 E7.54904
G1 X138.336 Y135.486 E7.5655
G1 X137.722 Y135.672 E7.58447
G1 X136.923 Y135.876 E7.60885
G1 X135.89 Y136.027 E7.63971
G1 X135.366 Y136.066 E7.65525
G1 X134.8 Y136.087 E7.67199
G1 X134.143 Y136.074 E7.69142
G1 X132.558 Y135.968 E7.73839
G1 X129.777 Y135.821 E7.82072
G1 X127.064 Y135.755 E7.90095
G1 X124.333 Y135.766 E7.9817
G1 X121.619 Y135.854 E8.06198
G1 X119.615 Y135.967 E8.12132
G1 X118.136 Y136.067 E8.16515
G1 X117.296 Y136.092 E8.18999
G1 X115.653 Y135.98 E8.23868
G1 X112.904 Y135.828 E8.32008
G1 X110.154 Y135.754 E8.40141
G1 X107.457 Y135.758 E8.48115
G1 X104.706 Y135.84 E8.56252
G1 X101.958 Y135.999 E8.6439
G1 X101.089 Y136.062 E8.66966
G1 X100.408 Y136.087 E8.6898
G1 X99.788 Y136.075 E8.70814
G1 X99.223 Y136.036 E8.72488
G1 X98.69 Y135.97 E8.74076
G1 X98.054 Y135.861 E8.75984
G1 X97.387 Y135.702 E8.78011
G1 X96.736 Y135.51 E8.80018
G1 X95.788 Y135.146 E8.8302
G1 X95.222 Y134.88 E8.84869
G1 X94.693 Y134.598 E8.86641
G1 X94.14 Y134.259 E8.88559
G1 X93.443 Y133.78 E8.91059
G1 X92.748 Y133.196 E8.93743
G1 X92.293 Y132.766 E8.95594
G1 X91.902 Y132.359 E8.97263
G1 X91.509 Y131.901 E8.99047
G1 X90.962 Y131.187 E9.01706
G1 X90.308 Y130.128 E9.05386
G1 X89.933 Y129.359 E9.07915
G1 X89.697 Y128.792 E9.09731
G1 X89.387 Y127.919 E9.1247
G1 X89.095 Y126.706 E9.16159
G1 X88.946 Y125.586 E9.19499
G1 X88.912 Y124.715 E9.22076
G1 X88.921 Y124.154 E9.23735
G1 X89.078 Y121.196 E9.32493
G1 X89.142 Y118.454 E9.40602
G1 X89.129 Y115.731 E9.48652
G1 X88.968 Y111.648 E9.60733
G1 X88.934 Y111.097 E9.62365
G1 X88.912 Y110.505 E9.64116
G1 X88.925 Y109.864 E9.66012
G1 X88.978 Y109.085 E9.6832
G1 X89.186 Y107.85 E9.72023
G1 X89.545 Y106.589 E9.75899
G1 X89.956 Y105.576 E9.79131
G1 X90.372 Y104.773 E9.81805
G1 X90.685 Y104.246 E9.83617
G1 X91.017 Y103.747 E9.85389
G1 X91.386 Y103.253 E9.87212
G1 X91.739 Y102.825 E9.88853
G1 X92.195 Y102.333 E9.90836
G1 X92.836 Y101.714 E9.9347
G0 F2400 X92.558 Y101.426
G1 F1800 X93.623 Y100.595 E9.97464
G1 X94.626 Y99.975 E10.0095
G1 X95.574 Y99.502 E10.04083
G1 X96.55 Y99.132 E10.07168
G1 X97.179 Y98.941 E10.09112
G1 X97.997 Y98.732 E10.11608
G1 X99.347 Y98.544 E10.15638
G1 X100.302 Y98.507 E10.18463
G1 X101.555 Y98.574 E10.22173
G1 X105.017 Y99.076 E10.32516
G1 X107.672 Y99.388 E10.40419
G1 X110.403 Y99.629 E10.48525
G1 X113.096 Y99.791 E10.56501
G1 X115.813 Y99.877 E10.64538
G1 X118.522 Y99.886 E10.72547
G1 X121.235 Y99.819 E10.8057
G1 X123.977 Y99.675 E10.88688
G1 X126.632 Y99.457 E10.96564
G1 X129.377 Y99.153 E11.04729
G1 X133.594 Y98.556 E11.17321
G1 X134.531 Y98.513 E11.20094
G1 X135.319 Y98.531 E11.22425
G1 X136.126 Y98.594 E11.24818
G1 X137.036 Y98.749 E11.27547
G1 X138.001 Y98.982 E11.30482
G1 X138.737 Y99.234 E11.32782
G1 X139.336 Y99.473 E11.34689
G1 X139.966 Y99.768 E11.36745
G1 X140.511 Y100.059 E11.38572
G1 X140.98 Y100.343 E11.40193
G1 X141.881 Y100.964 E11.43428
G1 X142.527 Y101.513 E11.45934
G1 X142.974 Y101.934 E11.4775
G1 X143.638 Y102.64 E11.50615
G1 X144.376 Y103.591 E11.54174
G1 X144.997 Y104.6 E11.57677
G1 X145.426 Y105.466 E11.60534
G1 X145.689 Y106.096 E11.62553
G1 X145.978 Y106.909 E11.65104
G1 X146.278 Y108.127 E11.68812
G1 X146.456 Y109.415 E11.72656
G1 X146.488 Y110.285 E11.7523
G1 X146.477 Y110.882 E11.76996
G1 X146.321 Y113.85 E11.85783
G1 X146.257 Y116.563 E11.93806
G1 X146.271 Y119.258 E12.01774
G1 X146.433 Y123.342 E12.13858
G1 X146.467 Y123.892 E12.15487
G1 X146.488 Y124.498 E12.17279
G1 X146.475 Y125.143 E12.19187
G1 X146.432 Y125.759 E12.21012
G1 X146.359 Y126.356 E12.22791
G1 X146.197 Y127.262 E12.25512
G1 X145.885 Y128.385 E12.28958
G1 X145.514 Y129.333 E12.31967
G1 X145.239 Y129.926 E12.339
G1 X144.803 Y130.741 E12.36632
G1 X144.145 Y131.73 E12.40144
G1 X143.34 Y132.699 E12.43869
G1 X142.381 Y133.626 E12.47812
G1 X141.404 Y134.386 E12.51472
G1 X140.535 Y134.937 E12.54514
G1 X139.498 Y135.461 E12.57949
G1 X138.997 Y135.667 E12.59551
G1 X138.452 Y135.869 E12.61269
G1 X137.821 Y136.06 E12.63218
G1 X137.022 Y136.264 E12.65656
G1 X135.948 Y136.423 E12.68866
G1 X135.381 Y136.466 E12.70547
G1 X134.792 Y136.487 E12.7229
G1 X134.116 Y136.473 E12.74289
G1 X132.531 Y136.367 E12.78985
G1 X129.767 Y136.221 E12.87168
G1 X127.056 Y136.155 E12.95186
G1 X124.346 Y136.166 E13.03198
G1 X121.632 Y136.254 E13.11226
G1 X119.642 Y136.366 E13.17119
G1 X118.148 Y136.467 E13.21546
G1 X117.308 Y136.492 E13.2403
G1 X115.626 Y136.379 E13.29014
G1 X112.893 Y136.228 E13.37107
G1 X110.144 Y136.154 E13.45237
G1 X107.469 Y136.158 E13.53146
G1 X104.718 Y136.24 E13.61283
G1 X101.987 Y136.398 E13.6937
G1 X101.104 Y136.462 E13.71988
G1 X100.4 Y136.487 E13.7407
G1 X99.76 Y136.474 E13.75963
G1 X99.174 Y136.433 E13.777
G1 X98.622 Y136.364 E13.79344
G1 X97.961 Y136.25 E13.81328
G1 X97.274 Y136.086 E13.83416
G1 X96.623 Y135.894 E13.85422
G1 X95.618 Y135.508 E13.88605
G1 X95.034 Y135.233 E13.90514
G1 X94.484 Y134.939 E13.92358
G1 X93.913 Y134.589 E13.94338
G1 X93.216 Y134.11 E13.96838
G1 X92.473 Y133.487 E13.99705
G1 X92.018 Y133.057 E14.01556
G1 X91.598 Y132.619 E14.0335
G1 X91.191 Y132.144 E14.05199
G1 X90.644 Y131.43 E14.07858
G1 X89.948 Y130.303 E14.11774
G1 X89.573 Y129.534 E14.14304
G1 X89.32 Y128.926 E14.16251
G1 X88.998 Y128.013 E14.19113
G1 X88.698 Y126.759 E14.22925
G1 X88.549 Y125.639 E14.26266
G1 X88.512 Y124.709 E14.29017
G1 X88.522 Y124.133 E14.3072
G1 X88.678 Y121.187 E14.39442
G1 X88.742 Y118.445 E14.47551
G1 X88.729 Y115.747 E14.55528
G1 X88.568 Y111.664 E14.67609
G1 X88.534 Y111.112 E14.69244
G1 X88.512 Y110.497 E14.71063
G1 X88.526 Y109.837 E14.73015
G1 X88.579 Y109.058 E14.75323
G1 X88.801 Y107.74 E14.79275
G1 X89.16 Y106.479 E14.83151
G1 X89.585 Y105.426 E14.86508
G1 X90.028 Y104.569 E14.89361
G1 X90.352 Y104.024 E14.91235
G1 X90.684 Y103.525 E14.93007
G1 X91.077 Y102.998 E14.94951
G1 X91.43 Y102.57 E14.96591
G1 X91.917 Y102.045 E14.98708
G1 X92.558 Y101.426 E15.01343
G1 F2400 E13.41343
;MESH:NO_TXT_Kostka (7).stl
G0 X91.834 Y110.395
G0 X91.882 Y111.289
G0 X92.02 Y112.173
G0 X92.248 Y113.038
G0 X92.566 Y113.875
G0 X92.97 Y114.672
G0 X93.452 Y115.423
G0 X94.011 Y116.12
G0 X94.638 Y116.754
G0 X95.636 Y117.501
G0 X99.058 Y113.375
;TYPE:WALL-OUTER
G1 F2400 E15.01343
G1 F1730.8 X98.864 Y113.376 E15.01939
G1 X98.753 Y113.238 E15.02484
G1 X98.753 Y112.05 E15.06137
G1 X98.826 Y111.841 E15.06817
G1 X99.03 Y111.806 E15.07454
G1 X99.129 Y111.892 E15.07857
G1 X99.169 Y112.037 E15.08319
G1 X99.169 Y113.189 E15.11861
G1 X99.125 Y113.312 E15.12263
G1 X99.058 Y113.375 E15.12546
G0 F2400 X99.125 Y113.312
G0 X99.161 Y113.209
G1 F2400 E13.52546
G0 X98.994 Y113.13
G0 X104.995 Y112.797
G0 X104.884 Y111.865
G1 F2400 E15.12546
G1 F529.8 X105.076 Y111.817 E15.13209
G1 X105.176 Y111.869 E15.13586
G1 X105.254 Y112.111 E15.14437
G1 F528.6 X105.259 Y112.836 E15.1687
G1 F527.5 X105.208 Y112.993 E15.17425
G1 X105.134 Y113.075 E15.17797
G1 X104.982 Y113.094 E15.18312
G1 X104.883 Y113.047 E15.1868
G1 X104.803 Y112.804 E15.19541
G1 F528.6 X104.802 Y112.113 E15.2186
G1 F529.8 X104.884 Y111.865 E15.22734
G0 F2400 X104.822 Y112.055
G1 F2400 E13.62734
G0 X105.028 Y112.112
G0 X105.026 Y114.538
G0 X105.127 Y114.336
G1 F2400 E15.22734
G1 F563.4 X105.192 Y114.395 E15.23011
G1 X105.238 Y114.57 E15.2358
G1 X105.243 Y115.182 E15.25507
G1 X105.149 Y115.364 E15.26152
G1 X104.96 Y115.385 E15.26751
G1 X104.855 Y115.294 E15.27189
G1 X104.819 Y115.189 E15.27538
G1 X104.814 Y114.538 E15.29588
G1 X104.863 Y114.394 E15.30067
G1 X104.933 Y114.336 E15.30353
G1 X105.127 Y114.336 E15.30964
G0 F2400 X104.933 Y114.336
G0 X104.929 Y114.339
G1 F2400 E13.70964
G0 X105.001 Y114.604
G0 X109.533 Y112.976
G1 F2400 E15.30964
G1 F363.6 X109.491 Y113.047 E15.31366
G1 X109.41 Y113.047 E15.31761
G1 X109.369 Y112.976 E15.32161
G1 X109.411 Y112.905 E15.32564
G1 X109.491 Y112.905 E15.32954
G1 F2400 E13.72954
G0 X115.579 Y112.977
G1 F2400 E15.32954
G1 F362.5 X115.537 Y113.048 E15.33358
G1 X115.456 Y113.048 E15.33754
G1 X115.415 Y112.977 E15.34155
G1 X115.457 Y112.906 E15.34559
G1 X115.537 Y112.906 E15.3495
G1 F2400 E13.7495
G0 X119.653 Y114.092
G0 X119.513 Y113.843
G1 F2400 E15.3495
G1 F1743.3 X119.654 Y113.802 E15.35399
G1 X119.77 Y113.829 E15.35762
G1 X119.861 Y113.959 E15.36246
G1 X119.861 Y115.25 E15.40187
G1 F1747.6 X119.77 Y115.373 E15.40653
G1 F1751.8 X119.643 Y115.401 E15.41048
G1 X119.526 Y115.369 E15.41417
G1 X119.439 Y115.236 E15.419
G1 F1747.6 X119.44 Y114.058 E15.45487
G1 F1743.3 X119.513 Y113.843 E15.4618
G0 F2400 X119.449 Y114.032
G1 F2400 E13.8618
G0 X119.615 Y114.12
G0 X119.645 Y122.873
G0 X119.769 Y123.172
G1 F2400 E15.4618
G1 F1722.5 X119.643 Y123.2 E15.46579
G1 X119.511 Y123.149 E15.47016
G1 X119.445 Y122.947 E15.47673
G1 F1743.3 X119.439 Y121.809 E15.51146
G1 F1760.4 X119.482 Y121.684 E15.51546
G1 X119.564 Y121.613 E15.51874
G1 X119.769 Y121.63 E15.52496
G1 F1751.8 X119.861 Y121.755 E15.52967
G1 F1734.9 X119.861 Y122.87 E15.56387
G1 F1722.5 X119.826 Y123.096 E15.57094
G1 X119.769 Y123.172 E15.57387
G0 F2400 X119.826 Y123.096
G0 X119.842 Y122.992
G1 F2400 E13.97387
G0 X119.683 Y122.908
G0 X115.537 Y120.709
G1 F2400 E15.57387
G1 F362.5 X115.457 Y120.709 E15.57779
G1 X115.415 Y120.78 E15.58182
G1 X115.456 Y120.851 E15.58584
G1 X115.537 Y120.851 E15.5898
G1 X115.579 Y120.78 E15.59384
G1 F2400 E13.99384
G0 X109.491 Y120.708
G1 F2400 E15.59384
G1 F363.6 X109.411 Y120.708 E15.59774
G1 X109.369 Y120.779 E15.60176
G1 X109.41 Y120.85 E15.60576
