;FLAVOR:Marlin
;TIME:3119
;Filament used: 1.33092m
;Layer height: 0.12
;MINX:84.706
;MINY:95.426
;MINZ:0.12
;MAXX:150.295
;MAXY:139.574
;MAXZ:3.96
;POSTPROCESSED
;Generated with Cura_SteamEngine 5.3.1
M82 ;absolute extrusion mode
; Ender 3 Custom Start G-code
G92 E0 ; Reset Extruder

M140 S60 ; set bed temp
M190 S60 ; wait for bed temp

G28 ; Home all axes
BED_MESH_CALIBRATE  AREA_START=84.706,95.426 AREA_END=150.295,139.574
M104 S200 ; set extruder temp 

G1 Z2.0 F3000 ; Move Z Axis up little to prevent scratching of Heat Bed
M109 S200 ; wait for extruder temp
G1 X0.1 Y20 Z0.3 F5000.0 ; Move to start position

G1 X0.1 Y200.0 Z0.3 F1500.0 E15 ; Draw the first line
G1 X0.4 Y200.0 Z0.3 F5000.0 ; Move to side a little
G1 X0.4 Y20 Z0.3 F1500.0 E30 ; Draw the second line
G92 E0 ; Reset Extruder
G1 Z2.0 F3000 ; Move Z Axis up little to prevent scratching of Heat Bed
G1 X5 Y20 Z0.3 F5000.0 ; Move over to prevent blob squish
G92 E0
G92 E0
G1 F1500 E-6
;LAYER_COUNT:33
;LAYER:0
M107
G0 F2880 X90.287 Y98.995 Z0.12
;TYPE:SKIRT
G1 F1500 E0
G1 F1200 X90.94 Y98.487 E0.01651
G1 X92.921 Y97.251 E0.06311
G1 X93.685 Y96.875 E0.0801
G1 X95.949 Y96.038 E0.12827
G1 X96.815 Y95.817 E0.1461
G1 X99.087 Y95.469 E0.19197
G1 X99.954 Y95.426 E0.2093
G1 X102.383 Y95.564 E0.25785
G1 X103.572 Y95.762 E0.2819
G1 X104.927 Y96.115 E0.30985
G1 X106.934 Y96.872 E0.35265
G1 X107.697 Y97.248 E0.36963
G1 X109.685 Y98.487 E0.41637
G1 X110.338 Y98.995 E0.43288
G1 X112.092 Y100.684 E0.48148
G1 X122.942 Y100.684 E0.698
G1 X123.244 Y100.332 E0.70726
G1 X124.662 Y98.995 E0.74615
G1 X125.315 Y98.487 E0.76266
G1 X127.296 Y97.251 E0.80926
G1 X128.06 Y96.875 E0.82625
G1 X130.324 Y96.038 E0.87442
G1 X131.19 Y95.817 E0.89225
G1 X133.462 Y95.469 E0.93812
G1 X134.33 Y95.426 E0.95547
G1 X136.758 Y95.564 E1.004
G1 X137.947 Y95.762 E1.02805
G1 X139.302 Y96.115 E1.056
G1 X141.309 Y96.872 E1.0988
G1 X142.072 Y97.248 E1.11578
G1 X144.06 Y98.487 E1.16252
G1 X144.713 Y98.995 E1.17903
G1 X146.495 Y100.717 E1.22849
G1 X147.073 Y101.412 E1.24653
G1 X148.318 Y103.27 E1.29116
G1 X148.749 Y104.086 E1.30957
G1 X149.643 Y106.351 E1.35817
G1 X149.931 Y107.432 E1.38049
G1 X150.222 Y109.246 E1.41716
G1 X150.293 Y110.673 E1.44567
G1 X150.178 Y112.547 E1.48314
G1 X149.865 Y114.346 E1.51958
G1 X149.64 Y115.159 E1.53641
G1 X148.765 Y117.347 E1.58344
G1 X148.672 Y117.523 E1.58741
G1 X148.981 Y118.111 E1.60067
G1 X149.375 Y119.08 E1.62154
G1 X149.977 Y121.222 E1.66594
G1 X150.232 Y122.86 E1.69902
G1 X150.295 Y124.122 E1.72424
G1 X150.162 Y126.293 E1.76765
G1 X150.027 Y127.113 E1.78423
G1 X149.37 Y129.454 E1.83275
G1 X149.01 Y130.347 E1.85197
G1 X148.011 Y132.228 E1.89447
G1 X147.336 Y133.223 E1.91846
G1 X145.849 Y134.966 E1.96419
G1 X145.048 Y135.718 E1.98611
G1 X143.643 Y136.809 E2.02161
G1 X142.723 Y137.394 E2.04337
G1 X141.021 Y138.248 E2.08137
G1 X139.202 Y138.919 E2.12006
G1 X138.297 Y139.158 E2.13874
G1 X135.874 Y139.534 E2.18767
G1 X135.027 Y139.574 E2.20459
G1 X132.642 Y139.432 E2.25227
G1 X131.063 Y139.158 E2.28425
G1 X130.119 Y138.907 E2.30375
G1 X128.497 Y138.309 E2.33825
G1 X126.638 Y137.386 E2.37967
G1 X125.822 Y136.867 E2.39896
G1 X125.529 Y137.099 E2.40642
G1 X124.966 Y137.464 E2.41981
G1 X123.218 Y138.367 E2.45907
G1 X121.801 Y138.901 E2.48929
G1 X120.227 Y139.304 E2.52172
G1 X118.582 Y139.538 E2.55488
G1 X117.86 Y139.574 E2.5693
G1 X115.584 Y139.443 E2.6148
G1 X114.875 Y139.329 E2.62913
G1 X112.674 Y138.734 E2.67463
G1 X111.947 Y138.45 E2.6902
G1 X110.236 Y137.573 E2.72857
G1 X109.168 Y136.871 E2.75408
G1 X108.313 Y137.413 E2.77428
G1 X106.646 Y138.248 E2.81149
G1 X104.827 Y138.919 E2.85018
G1 X103.922 Y139.158 E2.86886
G1 X101.499 Y139.534 E2.91779
G1 X100.651 Y139.574 E2.93473
G1 X98.239 Y139.437 E2.98294
G1 X97.109 Y139.249 E3.0058
G1 X95.65 Y138.871 E3.03588
G1 X93.986 Y138.253 E3.0713
G1 X92.541 Y137.539 E3.10347
G1 X91.117 Y136.641 E3.13706
G1 X90.233 Y135.958 E3.15936
G1 X88.618 Y134.4 E3.20414
G1 X87.68 Y133.263 E3.23355
G1 X87.025 Y132.302 E3.25676
G1 X86.084 Y130.546 E3.29652
G1 X85.478 Y129.006 E3.32955
G1 X84.987 Y127.155 E3.36776
G1 X84.778 Y125.753 E3.39605
G1 X84.707 Y124.324 E3.4246
G1 X84.838 Y122.234 E3.46639
G1 X84.979 Y121.382 E3.48363
G1 X85.609 Y119.119 E3.5305
G1 X86.05 Y118.034 E3.55388
G1 X86.307 Y117.535 E3.56508
G1 X85.342 Y115.085 E3.61763
G1 X85.078 Y114.093 E3.63811
G1 X84.773 Y112.189 E3.67659
G1 X84.706 Y110.846 E3.70343
G1 X84.838 Y108.727 E3.7458
G1 X84.97 Y107.918 E3.76215
G1 X85.652 Y105.492 E3.81244
G1 X86.046 Y104.53 E3.83319
G1 X86.953 Y102.818 E3.87185
G1 X87.647 Y101.789 E3.89662
G1 X88.953 Y100.248 E3.93693
G1 X90.287 Y98.995 E3.97346
G0 F2880 X90.533 Y99.311
G1 F1200 X91.186 Y98.803 E3.98997
G1 X93.098 Y97.61 E4.03494
G1 X93.862 Y97.234 E4.05193
G1 X96.048 Y96.426 E4.09844
G1 X96.914 Y96.205 E4.11628
G1 X99.107 Y95.869 E4.16055
G1 X99.974 Y95.826 E4.17787
G1 X102.317 Y95.959 E4.22471
G1 X103.506 Y96.157 E4.24876
G1 X104.786 Y96.489 E4.27515
G1 X106.757 Y97.231 E4.31718
G1 X107.52 Y97.607 E4.33415
G1 X109.439 Y98.803 E4.37928
G1 X110.092 Y99.311 E4.39579
G1 X111.724 Y100.882 E4.44099
G1 X111.892 Y101.084 E4.44624
G1 X123.126 Y101.084 E4.67042
G1 X123.548 Y100.592 E4.68336
G1 X124.908 Y99.311 E4.72064
G1 X125.561 Y98.803 E4.73715
G1 X127.473 Y97.61 E4.78213
G1 X128.237 Y97.234 E4.79912
G1 X130.423 Y96.426 E4.84563
G1 X131.289 Y96.205 E4.86347
G1 X133.482 Y95.869 E4.90774
G1 X134.35 Y95.826 E4.92508
G1 X136.692 Y95.959 E4.9719
G1 X137.881 Y96.157 E4.99595
G1 X139.161 Y96.489 E5.02234
G1 X141.132 Y97.231 E5.06437
G1 X141.895 Y97.607 E5.08134
G1 X143.814 Y98.803 E5.12647
G1 X144.467 Y99.311 E5.14298
G1 X146.187 Y100.973 E5.19071
G1 X146.765 Y101.668 E5.20875
G1 X147.964 Y103.457 E5.25172
G1 X148.395 Y104.273 E5.27014
G1 X149.256 Y106.454 E5.31693
G1 X149.544 Y107.535 E5.33926
G1 X149.822 Y109.266 E5.37425
G1 X149.893 Y110.693 E5.40276
G1 X149.784 Y112.479 E5.43847
G1 X149.479 Y114.239 E5.47411
G1 X149.254 Y115.052 E5.49095
G1 X148.394 Y117.198 E5.53708
G1 X148.219 Y117.52 E5.5444
G1 X148.61 Y118.262 E5.56113
G1 X149.004 Y119.231 E5.58201
G1 X149.592 Y121.33 E5.62551
G1 X149.832 Y122.88 E5.65681
G1 X149.895 Y124.142 E5.68203
G1 X149.767 Y126.228 E5.72373
G1 X149.632 Y127.048 E5.74032
G1 X148.999 Y129.304 E5.78708
G1 X148.639 Y130.197 E5.80629
G1 X147.68 Y132.003 E5.8471
G1 X147.005 Y132.998 E5.87109
G1 X145.575 Y134.674 E5.91506
G1 X144.774 Y135.426 E5.93698
G1 X143.428 Y136.471 E5.97099
G1 X142.508 Y137.056 E5.99275
G1 X140.882 Y137.873 E6.02906
G1 X139.1 Y138.532 E6.06698
G1 X138.195 Y138.771 E6.08566
G1 X135.855 Y139.134 E6.13291
G1 X135.008 Y139.174 E6.14983
G1 X132.71 Y139.038 E6.19577
G1 X131.166 Y138.771 E6.22704
G1 X130.222 Y138.52 E6.24653
G1 X128.636 Y137.934 E6.28028
G1 X126.853 Y137.048 E6.32001
G1 X125.798 Y136.377 E6.34496
G1 X125.311 Y136.763 E6.35736
G1 X124.748 Y137.128 E6.37075
G1 X123.076 Y137.993 E6.40832
G1 X121.702 Y138.513 E6.43764
G1 X120.128 Y138.916 E6.47006
G1 X118.562 Y139.138 E6.50162
G1 X117.84 Y139.174 E6.51605
G1 X115.648 Y139.048 E6.55987
G1 X114.939 Y138.934 E6.5742
G1 X112.82 Y138.361 E6.618
G1 X112.093 Y138.077 E6.63358
G1 X110.456 Y137.239 E6.67028
G1 X109.172 Y136.395 E6.70094
G1 X108.133 Y137.056 E6.72552
G1 X106.507 Y137.873 E6.76183
G1 X104.725 Y138.532 E6.79975
G1 X103.82 Y138.771 E6.81843
G1 X101.48 Y139.134 E6.86568
G1 X100.632 Y139.174 E6.88262
G1 X98.305 Y139.042 E6.92914
G1 X97.175 Y138.854 E6.952
G1 X95.751 Y138.484 E6.98136
G1 X94.163 Y137.894 E7.01516
G1 X92.718 Y137.18 E7.04733
G1 X91.362 Y136.324 E7.07933
G1 X90.478 Y135.641 E7.10162
G1 X88.927 Y134.145 E7.14463
G1 X87.989 Y133.008 E7.17404
G1 X87.356 Y132.077 E7.19651
G1 X86.456 Y130.399 E7.23451
G1 X85.865 Y128.903 E7.26661
G1 X85.374 Y127.052 E7.30482
G1 X85.178 Y125.733 E7.33143
G1 X85.107 Y124.304 E7.35999
G1 X85.233 Y122.299 E7.40008
G1 X85.374 Y121.447 E7.41731
G1 X85.98 Y119.27 E7.46241
G1 X86.421 Y118.185 E7.48578
G1 X86.77 Y117.512 E7.50091
G1 X86.604 Y117.198 E7.508
G1 X85.729 Y114.982 E7.55554
G1 X85.465 Y113.99 E7.57603
G1 X85.173 Y112.169 E7.61283
G1 X85.106 Y110.826 E7.63967
G1 X85.233 Y108.791 E7.68035
G1 X85.365 Y107.982 E7.69671
G1 X86.022 Y105.644 E7.74518
G1 X86.416 Y104.682 E7.76592
G1 X87.285 Y103.042 E7.80296
G1 X87.979 Y102.013 E7.82773
G1 X89.227 Y100.539 E7.86627
G1 X90.533 Y99.311 E7.90205
G0 F2880 X90.779 Y99.627
G1 F1200 X91.432 Y99.119 E7.91856
G1 X93.275 Y97.969 E7.96191
G1 X94.039 Y97.593 E7.9789
G1 X96.147 Y96.814 E8.02375
G1 X97.013 Y96.593 E8.04159
G1 X99.127 Y96.269 E8.08427
G1 X99.994 Y96.226 E8.10159
G1 X102.251 Y96.354 E8.1467
G1 X103.44 Y96.552 E8.17076
G1 X104.685 Y96.876 E8.19643
G1 X106.58 Y97.59 E8.23684
G1 X107.343 Y97.966 E8.25382
G1 X109.193 Y99.119 E8.29732
G1 X109.846 Y99.627 E8.31383
G1 X111.416 Y101.137 E8.3573
G1 X111.704 Y101.484 E8.3663
G1 X123.31 Y101.484 E8.59791
G1 X123.823 Y100.883 E8.61368
G1 X125.154 Y99.627 E8.6502
G1 X125.807 Y99.119 E8.66671
G1 X127.65 Y97.969 E8.71006
G1 X128.414 Y97.593 E8.72705
G1 X130.522 Y96.814 E8.7719
G1 X131.388 Y96.593 E8.78974
G1 X133.502 Y96.269 E8.83242
G1 X134.37 Y96.226 E8.84976
G1 X136.626 Y96.354 E8.89485
G1 X137.815 Y96.552 E8.91891
G1 X139.06 Y96.876 E8.94458
G1 X140.955 Y97.59 E8.98499
G1 X141.718 Y97.966 E9.00197
G1 X143.568 Y99.119 E9.04547
G1 X144.221 Y99.627 E9.06198
G1 X145.879 Y101.229 E9.10799
G1 X146.457 Y101.924 E9.12603
G1 X147.61 Y103.644 E9.16735
G1 X148.041 Y104.46 E9.18577
G1 X148.869 Y106.557 E9.23076
G1 X149.157 Y107.638 E9.25308
G1 X149.422 Y109.286 E9.28639
G1 X149.493 Y110.713 E9.31491
G1 X149.39 Y112.411 E9.34885
G1 X149.093 Y114.132 E9.38371
G1 X148.868 Y114.945 E9.40054
G1 X148.042 Y117.007 E9.44487
G1 X147.765 Y117.517 E9.45645
G1 X148.239 Y118.413 E9.47668
G1 X148.633 Y119.382 E9.49755
G1 X149.197 Y121.392 E9.53921
G1 X149.432 Y122.9 E9.56967
G1 X149.495 Y124.162 E9.59489
G1 X149.372 Y126.163 E9.63489
G1 X149.237 Y126.983 E9.65148
G1 X148.628 Y129.154 E9.69648
G1 X148.268 Y130.047 E9.71569
G1 X147.349 Y131.778 E9.7548
G1 X146.674 Y132.773 E9.7788
G1 X145.301 Y134.382 E9.82101
G1 X144.5 Y135.134 E9.84293
G1 X143.213 Y136.133 E9.87544
G1 X142.293 Y136.718 E9.8972
G1 X140.703 Y137.515 E9.93269
G1 X138.998 Y138.145 E9.96897
G1 X138.093 Y138.384 E9.98765
G1 X135.836 Y138.734 E10.03323
G1 X134.989 Y138.774 E10.05015
G1 X132.778 Y138.644 E10.09435
G1 X131.269 Y138.384 E10.1249
G1 X130.325 Y138.133 E10.1444
G1 X128.814 Y137.576 E10.17654
G1 X127.068 Y136.71 E10.21543
G1 X126.164 Y136.135 E10.23681
G1 X125.804 Y135.859 E10.24586
G1 X125.093 Y136.427 E10.26402
G1 X124.53 Y136.792 E10.27741
G1 X122.892 Y137.638 E10.3142
G1 X121.603 Y138.125 E10.3417
G1 X120.029 Y138.528 E10.37412
G1 X118.542 Y138.738 E10.40409
G1 X117.82 Y138.774 E10.41852
G1 X115.712 Y138.653 E10.46066
G1 X115.003 Y138.539 E10.47499
G1 X112.966 Y137.988 E10.5171
G1 X112.239 Y137.704 E10.53267
G1 X110.639 Y136.883 E10.56856
G1 X109.49 Y136.126 E10.59602
G1 X109.174 Y135.875 E10.60407
G1 X108.838 Y136.133 E10.61253
G1 X107.918 Y136.718 E10.63429
G1 X106.328 Y137.515 E10.66978
G1 X104.623 Y138.145 E10.70605
G1 X103.718 Y138.384 E10.72473
G1 X101.461 Y138.734 E10.77031
G1 X100.613 Y138.774 E10.78725
G1 X98.371 Y138.647 E10.83207
G1 X97.241 Y138.459 E10.85493
G1 X95.89 Y138.109 E10.88278
G1 X94.34 Y137.535 E10.91576
G1 X92.895 Y136.821 E10.94793
G1 X91.607 Y136.007 E10.97833
G1 X90.723 Y135.324 E11.00063
G1 X89.236 Y133.89 E11.04185
G1 X88.298 Y132.753 E11.07127
G1 X87.687 Y131.852 E11.09299
G1 X86.828 Y130.251 E11.12925
G1 X86.252 Y128.8 E11.1604
G1 X85.761 Y126.949 E11.19862
G1 X85.578 Y125.713 E11.22355
G1 X85.507 Y124.284 E11.25211
G1 X85.628 Y122.364 E11.2905
G1 X85.769 Y121.512 E11.30773
G1 X86.351 Y119.421 E11.35105
G1 X86.792 Y118.336 E11.37442
G1 X87.222 Y117.51 E11.393
G1 X86.958 Y117.011 E11.40427
G1 X86.116 Y114.879 E11.45001
G1 X85.852 Y113.887 E11.4705
G1 X85.573 Y112.149 E11.50563
G1 X85.506 Y110.806 E11.53246
G1 X85.628 Y108.855 E11.57147
G1 X85.76 Y108.046 E11.58783
G1 X86.392 Y105.796 E11.63447
G1 X86.786 Y104.834 E11.65521
G1 X87.617 Y103.266 E11.69063
G1 X88.311 Y102.237 E11.7154
G1 X89.501 Y100.83 E11.75217
G1 X90.779 Y99.627 E11.7872
G0 F2880 X91.025 Y99.943
G1 F1200 X91.678 Y99.435 E11.80371
G1 X93.452 Y98.328 E11.84543
G1 X94.216 Y97.952 E11.86243
G1 X96.246 Y97.202 E11.90561
G1 X97.112 Y96.981 E11.92345
G1 X99.147 Y96.669 E11.96454
G1 X100.014 Y96.626 E11.98186
G1 X102.185 Y96.749 E12.02525
G1 X103.374 Y96.947 E12.04931
G1 X104.544 Y97.25 E12.07343
G1 X106.403 Y97.949 E12.11306
G1 X107.166 Y98.325 E12.13004
G1 X108.947 Y99.435 E12.17192
G1 X109.6 Y99.943 E12.18843
G1 X111.108 Y101.393 E12.23017
G1 X111.516 Y101.884 E12.24291
G1 X123.494 Y101.884 E12.48195
G1 X124.127 Y101.143 E12.5014
G1 X125.4 Y99.943 E12.53631
G1 X126.053 Y99.435 E12.55282
G1 X127.827 Y98.328 E12.59455
G1 X128.591 Y97.952 E12.61154
G1 X130.621 Y97.202 E12.65473
G1 X131.487 Y96.981 E12.67256
G1 X133.522 Y96.669 E12.71365
G1 X134.39 Y96.626 E12.73099
G1 X136.56 Y96.749 E12.77437
G1 X137.749 Y96.947 E12.79842
G1 X138.919 Y97.25 E12.82254
G1 X140.778 Y97.949 E12.86217
G1 X141.541 Y98.325 E12.87915
G1 X143.322 Y99.435 E12.92103
G1 X143.975 Y99.943 E12.93754
G1 X145.571 Y101.485 E12.98183
G1 X146.149 Y102.18 E12.99986
G1 X147.256 Y103.831 E13.03953
G1 X147.687 Y104.647 E13.05795
G1 X148.482 Y106.66 E13.10114
G1 X148.77 Y107.741 E13.12346
G1 X149.022 Y109.306 E13.1551
G1 X149.093 Y110.733 E13.18361
G1 X148.996 Y112.343 E13.2158
G1 X148.707 Y114.025 E13.24986
G1 X148.482 Y114.838 E13.26669
G1 X147.69 Y116.816 E13.30921
G1 X147.311 Y117.514 E13.32506
G1 X147.885 Y118.6 E13.34957
G1 X148.248 Y119.49 E13.36876
G1 X148.812 Y121.5 E13.41042
G1 X149.032 Y122.92 E13.43909
G1 X149.095 Y124.182 E13.46431
G1 X148.977 Y126.098 E13.50262
G1 X148.842 Y126.918 E13.5192
G1 X148.257 Y129.004 E13.56244
G1 X147.897 Y129.897 E13.58165
G1 X147.018 Y131.553 E13.61906
G1 X146.343 Y132.548 E13.64306
G1 X145.027 Y134.09 E13.68351
G1 X144.226 Y134.842 E13.70544
G1 X142.998 Y135.795 E13.73646
G1 X142.078 Y136.38 E13.75822
G1 X140.524 Y137.157 E13.79289
G1 X138.896 Y137.758 E13.82752
G1 X137.991 Y137.997 E13.8462
G1 X135.817 Y138.334 E13.8901
G1 X134.97 Y138.374 E13.90702
G1 X132.846 Y138.25 E13.94948
G1 X131.372 Y137.997 E13.97933
G1 X130.428 Y137.746 E13.99882
G1 X128.953 Y137.201 E14.0302
G1 X127.283 Y136.372 E14.06741
G1 X126.379 Y135.797 E14.08879
G1 X125.799 Y135.35 E14.1034
G1 X124.875 Y136.091 E14.12704
G1 X124.312 Y136.456 E14.14043
G1 X122.709 Y137.282 E14.17641
G1 X121.504 Y137.737 E14.20212
G1 X119.93 Y138.14 E14.23454
G1 X118.522 Y138.338 E14.26292
G1 X117.8 Y138.374 E14.27734
G1 X115.776 Y138.258 E14.3178
G1 X115.067 Y138.144 E14.33213
G1 X113.112 Y137.615 E14.37255
G1 X112.385 Y137.331 E14.38812
G1 X110.859 Y136.549 E14.42234
G1 X109.739 Y135.813 E14.44909
G1 X109.178 Y135.367 E14.46339
G1 X108.623 Y135.795 E14.47738
G1 X107.703 Y136.38 E14.49913
G1 X106.149 Y137.157 E14.53381
G1 X104.521 Y137.758 E14.56844
G1 X103.616 Y137.997 E14.58712
G1 X101.442 Y138.334 E14.63102
G1 X100.594 Y138.374 E14.64796
G1 X98.437 Y138.252 E14.69108
G1 X97.307 Y138.064 E14.71394
G1 X95.991 Y137.722 E14.74107
G1 X94.517 Y137.176 E14.77244
G1 X93.072 Y136.462 E14.8046
G1 X91.852 Y135.69 E14.83341
G1 X90.968 Y135.007 E14.85571
G1 X89.545 Y133.635 E14.89515
G1 X88.607 Y132.498 E14.92457
G1 X88.018 Y131.628 E14.94554
G1 X87.2 Y130.103 E14.98007
G1 X86.624 Y128.652 E15.01123
G1 X86.157 Y126.89 E15.0476
G1 X85.978 Y125.693 E15.07175
G1 X85.907 Y124.264 E15.10031
G1 X86.023 Y122.429 E15.137
G1 X86.164 Y121.577 E15.15423
G1 X86.722 Y119.572 E15.19577
G1 X87.163 Y118.487 E15.21914
G1 X87.674 Y117.509 E15.24116
G1 X87.312 Y116.824 E15.25662
G1 X86.503 Y114.776 E15.30056
G1 X86.239 Y113.784 E15.32105
G1 X85.973 Y112.129 E15.3545
G1 X85.906 Y110.786 E15.38133
G1 X86.023 Y108.919 E15.41867
G1 X86.155 Y108.11 E15.43502
G1 X86.762 Y105.948 E15.47984
G1 X87.156 Y104.986 E15.50058
G1 X87.949 Y103.49 E15.53437
G1 X88.643 Y102.461 E15.55914
G1 X89.806 Y101.089 E15.59503
G1 X91.025 Y99.943 E15.62842
G0 F2880 X91.271 Y100.259
G1 F1200 X91.924 Y99.751 E15.64493
G1 X93.629 Y98.687 E15.68504
