; generated by PrusaSlicer 2.6.0-alpha4+MacOS-x64 on 2023-03-16 at 22:15:33 UTC

; 

; external perimeters extrusion width = 0.40mm
; perimeters extrusion width = 0.40mm
; infill extrusion width = 0.40mm
; solid infill extrusion width = 0.40mm
; top infill extrusion width = 0.40mm
; first layer extrusion width = 0.40mm

;M201 X400 Y400 Z100 E5000 ; sets maximum accelerations, mm/sec^2
;M203 X48 Y48 Z10 E60 ; sets maximum feedrates, mm / sec
M204 P400 R1000 T400 ; sets acceleration (P, T) and retract acceleration (R), mm/sec^2
M205 X8.00 Y8.00 Z0.40 E5.00 ; sets the jerk limits, mm/sec
M205 S0 T0 ; sets the minimum extruding and travel feed rate, mm/sec
M107
;TYPE:Custom
; Ender 3 Custom Start G-code
G92 E0 ; Reset Extruder

M140 S60 ; set bed temp
M190 S60 ; wait for bed temp

G28 ; Home all axes
M104 S210 ; set extruder temp 
BED_MESH_CALIBRATE AREA_START=101.25,101.25 AREA_END=129.75,129.75

G1 Z2.0 F3000 ; Move Z Axis up little to prevent scratching of Heat Bed
M109 S210 ; wait for extruder temp
G1 X0.1 Y20 Z0.3 F5000.0 ; Move to start position

G1 X0.1 Y200.0 Z0.3 F1500.0 E15 ; Draw the first line
G1 X0.4 Y200.0 Z0.3 F5000.0 ; Move to side a little
G1 X0.4 Y20 Z0.3 F1500.0 E30 ; Draw the second line
G92 E0 ; Reset Extruder
G1 Z2.0 F3000 ; Move Z Axis up little to prevent scratching of Heat Bed
G1 X5 Y20 Z0.3 F5000.0 ; Move over to prevent blob squish
G21 ; set units to millimeters
G90 ; use absolute coordinates
M83 ; use relative distances for extrusion
; Filament gcode
M107
;LAYER_CHANGE
;Z:0.2
;HEIGHT:0.2
;BEFORE_LAYER_CHANGE
G92 E0
;0.2


G1 E-5 F3600
G1 Z.2 F4800
;AFTER_LAYER_CHANGE
;0.2
G1 X102.932 Y102.34
G1 E5 F2400
M204 S400
;TYPE:Skirt/Brim
;WIDTH:0.4
G1 F1440
G1 X104.539 Y101.544 E.05325
G1 X105.5 Y101.429 E.02874
G1 X125.5 Y101.429 E.59383
G1 X127.25 Y101.824 E.05327
G1 X128.66 Y102.932 E.05324
G1 X129.456 Y104.539 E.05325
G1 X129.571 Y105.5 E.02874
G1 X129.571 Y125.5 E.59383
G1 X129.176 Y127.25 E.05327
G1 X128.068 Y128.66 E.05324
G1 X126.461 Y129.456 E.05325
G1 X125.5 Y129.571 E.02874
G1 X105.5 Y129.571 E.59383
G1 X103.75 Y129.176 E.05327
G1 X102.34 Y128.068 E.05324
G1 X101.544 Y126.461 E.05325
G1 X101.429 Y125.5 E.02874
G1 X101.429 Y105.5 E.59383
G1 X101.824 Y103.75 E.05327
G1 X102.895 Y102.388 E.05144
G1 X103.188 Y102.633 F4800
G1 F1440
G1 X103.28 Y102.522 E.00428
G1 X105.5 Y101.786 E.06944
G1 X125.5 Y101.786 E.59383
G1 X127.166 Y102.18 E.05083
G1 X128.478 Y103.28 E.05083
G1 X129.214 Y105.5 E.06944
G1 X129.214 Y125.5 E.59383
G1 X128.82 Y127.166 E.05083
G1 X127.72 Y128.478 E.05083
G1 X125.5 Y129.214 E.06944
G1 X105.5 Y129.214 E.59383
G1 X103.834 Y128.82 E.05083
G1 X102.522 Y127.72 E.05083
G1 X101.786 Y125.5 E.06944
G1 X101.786 Y105.5 E.59383
G1 X102.18 Y103.834 E.05083
G1 X103.149 Y102.679 E.04476
G1 X103.43 Y102.932 F4800
G1 F1440
G1 X103.627 Y102.714 E.00872
G1 X105.5 Y102.143 E.05814
G1 X125.5 Y102.143 E.59383
G1 X127.078 Y102.537 E.04829
G1 X128.286 Y103.627 E.04831
G1 X128.857 Y105.5 E.05814
G1 X128.857 Y125.5 E.59383
G1 X128.463 Y127.078 E.04829
G1 X127.373 Y128.286 E.04831
G1 X125.5 Y128.857 E.05814
G1 X105.5 Y128.857 E.59383
G1 X103.922 Y128.463 E.04829
G1 X102.714 Y127.373 E.04831
G1 X102.143 Y125.5 E.05814
G1 X102.143 Y105.5 E.59383
G1 X102.537 Y103.922 E.04829
G1 X103.39 Y102.977 E.0378
; printing object xyzCalibration_cube.stl id:0 copy 0
G1 E-3.5 F3600
;WIPE_START
G1 F3840
G1 X103.627 Y102.714 E-.31531
G1 X104.899 Y102.326 E-1.18469
;WIPE_END
G1 X124.486 Y124.486 F4800
G1 E5 F2400
;TYPE:Perimeter
;WIDTH:0.399999
G1 F1440
G1 X106.514 Y124.486 E.53361
G1 X106.514 Y106.514 E.53361
G1 X124.486 Y106.514 E.53361
G1 X124.486 Y124.426 E.53183
G1 X124.843 Y124.843 F4800
G1 F1440
G1 X106.157 Y124.843 E.55481
G1 X106.157 Y106.157 E.55481
G1 X124.843 Y106.157 E.55481
G1 X124.843 Y124.783 E.55303
G1 X125.2 Y125.2 F4800
;TYPE:External perimeter
G1 F1440
G1 X105.8 Y125.2 E.57601
G1 X105.8 Y105.8 E.57601
G1 X125.2 Y105.8 E.57601
G1 X125.2 Y125.14 E.57423
G1 X124.814 Y125.096 F4800
G1 E-3.5 F3600
;WIPE_START
G1 F3840
G1 X123.516 Y125.145 E-1.5
;WIPE_END
G1 X124.372 Y107.355 F4800
G1 E5 F2400
;TYPE:Solid infill
;WIDTH:0.402107
G1 F1440
G1 X123.806 Y106.789 E.02391
G1 X123.298 Y106.789 E.01517
G1 X124.211 Y107.702 E.03856
G1 X124.211 Y108.21 E.01517
G1 X122.79 Y106.789 E.06002
G1 X122.282 Y106.789 E.01517
G1 X124.211 Y108.718 E.08148
G1 X124.211 Y109.226 E.01517
G1 X121.774 Y106.789 E.10293
G1 X121.266 Y106.789 E.01517
G1 X124.211 Y109.734 E.12439
G1 X124.211 Y110.242 E.01517
G1 X120.758 Y106.789 E.14585
G1 X120.25 Y106.789 E.01517
G1 X124.211 Y110.75 E.1673
G1 X124.211 Y111.258 E.01517
G1 X119.742 Y106.789 E.18876
G1 X119.234 Y106.789 E.01517
G1 X124.211 Y111.766 E.21022
G1 X124.211 Y112.274 E.01517
G1 X118.726 Y106.789 E.23167
G1 X118.218 Y106.789 E.01517
G1 X124.211 Y112.782 E.25313
G1 X124.211 Y113.29 E.01517
G1 X117.71 Y106.789 E.27459
G1 X117.202 Y106.789 E.01517
G1 X124.211 Y113.798 E.29604
G1 X124.211 Y114.306 E.01517
G1 X116.694 Y106.789 E.3175
G1 X116.186 Y106.789 E.01517
G1 X124.211 Y114.814 E.33896
G1 X124.211 Y115.322 E.01517
G1 X115.678 Y106.789 E.36041
G1 X115.171 Y106.789 E.01514
G1 X124.211 Y115.829 E.38183
G1 X124.211 Y116.337 E.01517
G1 X114.663 Y106.789 E.40328
G1 X114.155 Y106.789 E.01517
G1 X124.211 Y116.845 E.42474
G1 X124.211 Y117.353 E.01517
G1 X113.647 Y106.789 E.4462
G1 X113.139 Y106.789 E.01517
G1 X124.211 Y117.861 E.46766
G1 X124.211 Y118.369 E.01517
G1 X112.631 Y106.789 E.48911
G1 X112.123 Y106.789 E.01517
G1 X124.211 Y118.877 E.51057
G1 X124.211 Y119.385 E.01517
G1 X111.615 Y106.789 E.53203
G1 X111.107 Y106.789 E.01517
G1 X124.211 Y119.893 E.55348
G1 X124.211 Y120.401 E.01517
G1 X110.599 Y106.789 E.57494
G1 X110.091 Y106.789 E.01517
G1 X124.211 Y120.909 E.5964
G1 X124.211 Y121.417 E.01517
G1 X109.583 Y106.789 E.61785
G1 X109.075 Y106.789 E.01517
G1 X124.211 Y121.925 E.63931
G1 X124.211 Y122.433 E.01517
G1 X108.567 Y106.789 E.66077
G1 X108.059 Y106.789 E.01517
G1 X124.211 Y122.941 E.68222
G1 X124.211 Y123.449 E.01517
G1 X107.551 Y106.789 E.70368
G1 X107.043 Y106.789 E.01517
G1 X124.211 Y123.957 E.72514
G1 X124.211 Y124.211 E.00759
G1 X123.957 Y124.211 E.00759
G1 X106.789 Y107.043 E.72514
G1 X106.789 Y107.551 E.01517
G1 X123.449 Y124.211 E.70368
G1 X122.941 Y124.211 E.01517
G1 X106.789 Y108.059 E.68222
G1 X106.789 Y108.567 E.01517
G1 X122.433 Y124.211 E.66077
G1 X121.925 Y124.211 E.01517
G1 X106.789 Y109.075 E.63931
G1 X106.789 Y109.583 E.01517
G1 X121.417 Y124.211 E.61785
G1 X120.909 Y124.211 E.01517
G1 X106.789 Y110.091 E.5964
G1 X106.789 Y110.599 E.01517
G1 X120.401 Y124.211 E.57494
G1 X119.893 Y124.211 E.01517
G1 X106.789 Y111.107 E.55348
G1 X106.789 Y111.615 E.01517
G1 X119.385 Y124.211 E.53203
G1 X118.877 Y124.211 E.01517
G1 X106.789 Y112.123 E.51057
G1 X106.789 Y112.631 E.01517
G1 X118.369 Y124.211 E.48911
G1 X117.861 Y124.211 E.01517
G1 X106.789 Y113.139 E.46766
G1 X106.789 Y113.647 E.01517
G1 X117.353 Y124.211 E.4462
G1 X116.845 Y124.211 E.01517
G1 X106.789 Y114.155 E.42474
G1 X106.789 Y114.663 E.01517
G1 X116.337 Y124.211 E.40328
G1 X115.829 Y124.211 E.01517
G1 X106.789 Y115.171 E.38183
G1 X106.789 Y115.679 E.01517
G1 X115.321 Y124.211 E.36037
G1 X114.813 Y124.211 E.01517
G1 X106.789 Y116.187 E.33891
G1 X106.789 Y116.694 E.01514
G1 X114.306 Y124.211 E.3175
G1 X113.798 Y124.211 E.01517
G1 X106.789 Y117.202 E.29604
G1 X106.789 Y117.71 E.01517
G1 X113.29 Y124.211 E.27459
G1 X112.782 Y124.211 E.01517
G1 X106.789 Y118.218 E.25313
G1 X106.789 Y118.726 E.01517
G1 X112.274 Y124.211 E.23167
G1 X111.766 Y124.211 E.01517
G1 X106.789 Y119.234 E.21022
G1 X106.789 Y119.742 E.01517
G1 X111.258 Y124.211 E.18876
G1 X110.75 Y124.211 E.01517
G1 X106.789 Y120.25 E.1673
G1 X106.789 Y120.758 E.01517
G1 X110.242 Y124.211 E.14585
G1 X109.734 Y124.211 E.01517
G1 X106.789 Y121.266 E.12439
G1 X106.789 Y121.774 E.01517
G1 X109.226 Y124.211 E.10293
G1 X108.718 Y124.211 E.01517
G1 X106.789 Y122.282 E.08148
G1 X106.789 Y122.79 E.01517
G1 X108.21 Y124.211 E.06002
G1 X107.702 Y124.211 E.01517
G1 X106.789 Y123.298 E.03856
G1 X106.789 Y123.806 E.01517
G1 X107.355 Y124.372 E.02391
; stop printing object xyzCalibration_cube.stl id:0 copy 0
M106 S255
;LAYER_CHANGE
;Z:0.4
;HEIGHT:0.2
;BEFORE_LAYER_CHANGE
G92 E0
;0.4


G1 E-3.5 F3600
;WIPE_START
G1 F3840
G1 X106.789 Y123.806 E-.7129
G1 X106.789 Y123.298 E-.45244
G1 X107.055 Y123.564 E-.33466
;WIPE_END
G1 Z.4 F4800
;AFTER_LAYER_CHANGE
;0.4
; printing object xyzCalibration_cube.stl id:0 copy 0
G1 X124.586 Y124.586
G1 E5 F2400
;TYPE:Perimeter
;WIDTH:0.399999
G1 X106.414 Y124.586 E.53955
G1 X106.414 Y106.414 E.53955
G1 X124.586 Y106.414 E.53955
G1 X124.586 Y124.526 E.53777
G1 X124.943 Y124.943 F4800
G1 F2400
G1 X106.057 Y124.943 E.56075
G1 X106.057 Y106.057 E.56075
G1 X124.943 Y106.057 E.56075
G1 X124.943 Y124.883 E.55897
G1 X125.3 Y125.3 F4800
;TYPE:External perimeter
G1 F1500
G1 X105.7 Y125.3 E.58195
G1 X105.7 Y105.7 E.58195
G1 X125.3 Y105.7 E.58195
G1 X125.3 Y125.24 E.58017
G1 X124.914 Y125.196 F4800
G1 X124.472 Y123.748
;TYPE:Solid infill
;WIDTH:0.401032
G1 F2400
G1 X123.908 Y124.311 E.02373
G1 X123.402 Y124.311 E.01507
G1 X124.311 Y123.402 E.03828
G1 X124.311 Y122.895 E.0151
G1 X122.895 Y124.311 E.05963
G1 X122.389 Y124.311 E.01507
G1 X124.311 Y122.389 E.08094
G1 X124.311 Y121.882 E.0151
G1 X121.882 Y124.311 E.10229
G1 X121.376 Y124.311 E.01507
G1 X124.311 Y121.376 E.1236
G1 X124.311 Y120.87 E.01507
G1 X120.87 Y124.311 E.1449
G1 X120.363 Y124.311 E.0151
G1 X124.311 Y120.363 E.16626
G1 X124.311 Y119.857 E.01507
G1 X119.857 Y124.311 E.18756
G1 X119.35 Y124.311 E.0151
G1 X124.311 Y119.35 E.20891
G1 X124.311 Y118.844 E.01507
G1 X118.844 Y124.311 E.23022
G1 X118.337 Y124.311 E.0151
G1 X124.311 Y118.337 E.25157
G1 X124.311 Y117.831 E.01507
G1 X117.831 Y124.311 E.27288
G1 X117.324 Y124.311 E.0151
G1 X124.311 Y117.324 E.29423
G1 X124.311 Y116.818 E.01507
G1 X116.818 Y124.311 E.31554
G1 X116.312 Y124.311 E.01507
G1 X124.311 Y116.312 E.33685
G1 X124.311 Y115.805 E.0151
G1 X115.805 Y124.311 E.3582
G1 X115.299 Y124.311 E.01507
G1 X124.311 Y115.299 E.37951
G1 X124.311 Y114.792 E.0151
G1 X114.792 Y124.311 E.40086
G1 X114.286 Y124.311 E.01507
G1 X124.311 Y114.286 E.42217
G1 X124.311 Y113.779 E.0151
G1 X113.779 Y124.311 E.44352
G1 X113.273 Y124.311 E.01507
G1 X124.311 Y113.273 E.46482
G1 X124.311 Y112.766 E.0151
G1 X112.766 Y124.311 E.48617
G1 X112.26 Y124.311 E.01507
G1 X124.311 Y112.26 E.50748
G1 X124.311 Y111.754 E.01507
G1 X111.754 Y124.311 E.52879
G1 X111.247 Y124.311 E.0151
G1 X124.311 Y111.247 E.55014
G1 X124.311 Y110.741 E.01507
G1 X110.741 Y124.311 E.57145
G1 X110.234 Y124.311 E.0151
G1 X124.311 Y110.234 E.5928
G1 X124.311 Y109.728 E.01507
G1 X109.728 Y124.311 E.61411
G1 X109.221 Y124.311 E.0151
G1 X124.311 Y109.221 E.63546
G1 X124.311 Y108.715 E.01507
G1 X108.715 Y124.311 E.65677
G1 X108.208 Y124.311 E.0151
G1 X124.311 Y108.208 E.67812
G1 X124.311 Y107.702 E.01507
G1 X107.702 Y124.311 E.69943
G1 X107.195 Y124.311 E.0151
G1 X124.311 Y107.195 E.72078
G1 X124.311 Y106.689 E.01507
G1 X106.689 Y124.311 E.74208
G1 X106.689 Y123.804 E.0151
G1 X123.804 Y106.689 E.72073
G1 X123.298 Y106.689 E.01507
G1 X106.689 Y123.298 E.69943
G1 X106.689 Y122.791 E.0151
G1 X122.791 Y106.689 E.67807
G1 X122.285 Y106.689 E.01507
G1 X106.689 Y122.285 E.65677
G1 X106.689 Y121.779 E.01507
G1 X121.779 Y106.689 E.63546
G1 X121.272 Y106.689 E.0151
G1 X106.689 Y121.272 E.61411
G1 X106.689 Y120.766 E.01507
G1 X120.766 Y106.689 E.5928
G1 X120.259 Y106.689 E.0151
G1 X106.689 Y120.259 E.57145
G1 X106.689 Y119.753 E.01507
G1 X119.753 Y106.689 E.55014
G1 X119.246 Y106.689 E.0151
G1 X106.689 Y119.246 E.52879
G1 X106.689 Y118.74 E.01507
G1 X118.74 Y106.689 E.50748
G1 X118.233 Y106.689 E.0151
G1 X106.689 Y118.233 E.48613
G1 X106.689 Y117.727 E.01507
G1 X117.727 Y106.689 E.46482
G1 X117.221 Y106.689 E.01507
G1 X106.689 Y117.221 E.44352
G1 X106.689 Y116.714 E.0151
G1 X116.714 Y106.689 E.42217
G1 X116.208 Y106.689 E.01507
G1 X106.689 Y116.208 E.40086
G1 X106.689 Y115.701 E.0151
G1 X115.701 Y106.689 E.37951
G1 X115.195 Y106.689 E.01507
G1 X106.689 Y115.195 E.3582
G1 X106.689 Y114.688 E.0151
G1 X114.688 Y106.689 E.33685
G1 X114.182 Y106.689 E.01507
G1 X106.689 Y114.182 E.31554
G1 X106.689 Y113.675 E.0151
G1 X113.675 Y106.689 E.29419
G1 X113.169 Y106.689 E.01507
G1 X106.689 Y113.169 E.27288
G1 X106.689 Y112.663 E.01507
G1 X112.663 Y106.689 E.25157
G1 X112.156 Y106.689 E.0151
G1 X106.689 Y112.156 E.23022
G1 X106.689 Y111.65 E.01507
G1 X111.65 Y106.689 E.20891
G1 X111.143 Y106.689 E.0151
G1 X106.689 Y111.143 E.18756
G1 X106.689 Y110.637 E.01507
G1 X110.637 Y106.689 E.16626
G1 X110.13 Y106.689 E.0151
G1 X106.689 Y110.13 E.1449
G1 X106.689 Y109.624 E.01507
G1 X109.624 Y106.689 E.1236
G1 X109.117 Y106.689 E.0151
G1 X106.689 Y109.117 E.10225
G1 X106.689 Y108.611 E.01507
G1 X108.611 Y106.689 E.08094
G1 X108.105 Y106.689 E.01507
G1 X106.689 Y108.105 E.05963
G1 X106.689 Y107.598 E.0151
G1 X107.598 Y106.689 E.03828
G1 X107.092 Y106.689 E.01507
G1 X106.528 Y107.252 E.02373
; stop printing object xyzCalibration_cube.stl id:0 copy 0
;LAYER_CHANGE
;Z:0.6
;HEIGHT:0.2
;BEFORE_LAYER_CHANGE
G92 E0
;0.6


G1 E-3.5 F3600
;WIPE_START
G1 F3840
G1 X107.092 Y106.689 E-.70975
G1 X107.598 Y106.689 E-.45066
G1 X107.328 Y106.959 E-.33959
;WIPE_END
G1 Z.6 F4800
;AFTER_LAYER_CHANGE
;0.6
; printing object xyzCalibration_cube.stl id:0 copy 0
G1 X124.586 Y124.586
G1 E5 F2400
;TYPE:Perimeter
;WIDTH:0.399999
G1 X106.414 Y124.586 E.53955
G1 X106.414 Y106.414 E.53955
G1 X124.586 Y106.414 E.53955
G1 X124.586 Y124.526 E.53777
G1 X124.943 Y124.943 F4800
G1 F2400
G1 X106.057 Y124.943 E.56075
G1 X106.057 Y106.057 E.56075
G1 X124.943 Y106.057 E.56075
G1 X124.943 Y124.883 E.55897
G1 X125.3 Y125.3 F4800
;TYPE:External perimeter
G1 F1500
G1 X105.7 Y125.3 E.58195
G1 X105.7 Y105.7 E.58195
G1 X125.3 Y105.7 E.58195
G1 X125.3 Y125.24 E.58017
G1 X124.914 Y125.196 F4800
G1 E-3.5 F3600
;WIPE_START
G1 F3840
G1 X123.616 Y125.245 E-1.5
;WIPE_END
G1 X123.748 Y106.528 F4800
G1 E5 F2400
;TYPE:Solid infill
;WIDTH:0.401032
G1 X124.311 Y107.092 E.02373
G1 X124.311 Y107.598 E.01507
G1 X123.402 Y106.689 E.03828
G1 X122.895 Y106.689 E.0151
G1 X124.311 Y108.105 E.05963
G1 X124.311 Y108.611 E.01507
G1 X122.389 Y106.689 E.08094
G1 X121.882 Y106.689 E.0151
G1 X124.311 Y109.118 E.10229
G1 X124.311 Y109.624 E.01507
G1 X121.376 Y106.689 E.1236
G1 X120.87 Y106.689 E.01507
G1 X124.311 Y110.13 E.1449
G1 X124.311 Y110.637 E.0151
G1 X120.363 Y106.689 E.16626
G1 X119.857 Y106.689 E.01507
G1 X124.311 Y111.143 E.18756
G1 X124.311 Y111.65 E.0151
G1 X119.35 Y106.689 E.20891
G1 X118.844 Y106.689 E.01507
G1 X124.311 Y112.156 E.23022
G1 X124.311 Y112.663 E.0151
G1 X118.337 Y106.689 E.25157
G1 X117.831 Y106.689 E.01507
G1 X124.311 Y113.169 E.27288
G1 X124.311 Y113.676 E.0151
G1 X117.324 Y106.689 E.29423
G1 X116.818 Y106.689 E.01507
G1 X124.311 Y114.182 E.31554
G1 X124.311 Y114.688 E.01507
G1 X116.312 Y106.689 E.33685
G1 X115.805 Y106.689 E.0151
G1 X124.311 Y115.195 E.3582
G1 X124.311 Y115.701 E.01507
G1 X115.299 Y106.689 E.37951
G1 X114.792 Y106.689 E.0151
G1 X124.311 Y116.208 E.40086
G1 X124.311 Y116.714 E.01507
G1 X114.286 Y106.689 E.42217
G1 X113.779 Y106.689 E.0151
G1 X124.311 Y117.221 E.44352
G1 X124.311 Y117.727 E.01507
G1 X113.273 Y106.689 E.46482
G1 X112.766 Y106.689 E.0151
G1 X124.311 Y118.234 E.48617
G1 X124.311 Y118.74 E.01507
G1 X112.26 Y106.689 E.50748
G1 X111.754 Y106.689 E.01507
G1 X124.311 Y119.246 E.52879
G1 X124.311 Y119.753 E.0151
G1 X111.247 Y106.689 E.55014
G1 X110.741 Y106.689 E.01507
G1 X124.311 Y120.259 E.57145
G1 X124.311 Y120.766 E.0151
G1 X110.234 Y106.689 E.5928
G1 X109.728 Y106.689 E.01507
G1 X124.311 Y121.272 E.61411
G1 X124.311 Y121.779 E.0151
G1 X109.221 Y106.689 E.63546
G1 X108.715 Y106.689 E.01507
G1 X124.311 Y122.285 E.65677
G1 X124.311 Y122.792 E.0151
G1 X108.208 Y106.689 E.67812
G1 X107.702 Y106.689 E.01507
G1 X124.311 Y123.298 E.69943
G1 X124.311 Y123.805 E.0151
G1 X107.195 Y106.689 E.72078
G1 X106.689 Y106.689 E.01507
G1 X124.311 Y124.311 E.74208
G1 X123.804 Y124.311 E.0151
G1 X106.689 Y107.196 E.72073
G1 X106.689 Y107.702 E.01507
