; generated by PrusaSlicer 2.6.0-rc2+win64 on 2023-06-17 at 18:08:22 UTC

; 

; external perimeters extrusion width = 0.42mm
; perimeters extrusion width = 0.44mm
; infill extrusion width = 0.44mm
; solid infill extrusion width = 0.44mm
; top infill extrusion width = 0.40mm
; first layer extrusion width = 0.42mm

;TYPE:Custom
; Ender 3 Custom Start G-code
G92 E0 ; Reset Extruder

M140 S40 ; set bed temp
M190 S40 ; wait for bed temp

G28 ; Home all axes
M104 S205 ; set extruder temp 
BED_MESH_CALIBRATE AREA_START=83.7985,88.597 AREA_END=143.733,126.177

G1 Z2.0 F3000 ; Move Z Axis up little to prevent scratching of Heat Bed
M109 S205 ; wait for extruder temp
G1 X0.1 Y20 Z0.3 F5000.0 ; Move to start position

G1 X0.1 Y200.0 Z0.3 F1500.0 E15 ; Draw the first line
G1 X0.4 Y200.0 Z0.3 F5000.0 ; Move to side a little
G1 X0.4 Y20 Z0.3 F1500.0 E30 ; Draw the second line
G92 E0 ; Reset Extruder
G1 Z2.0 F3000 ; Move Z Axis up little to prevent scratching of Heat Bed
G1 X5 Y20 Z0.3 F5000.0 ; Move over to prevent blob squish
G21 ; set units to millimeters
G90 ; use absolute coordinates
M83 ; use relative distances for extrusion
; Filament gcode
M107
;LAYER_CHANGE
;Z:0.24
;HEIGHT:0.24
;BEFORE_LAYER_CHANGE
G92 E0
;0.24


G1 E-1.6 F2400
G1 Z.24 F6000
;AFTER_LAYER_CHANGE
;0.24
G1 X87.872 Y91.722
G1 E1.6 F2400
M204 S500
;TYPE:Skirt/Brim
;WIDTH:0.42
G1 F1200
G1 X88.738 Y91.019 E.04101
G1 X89.683 Y90.397 E.0416
G1 X91.333 Y89.588 E.06757
G1 X93.103 Y89.052 E.068
G1 X94.725 Y88.815 E.06027
G1 X131.691 Y88.781 E1.35919
G1 X132.881 Y88.831 E.04379
G1 X133.838 Y88.964 E.03553
G1 X135.863 Y89.519 E.0772
G1 X137.685 Y90.386 E.07419
G1 X139.123 Y91.395 E.06459
G1 X140.576 Y92.806 E.07447
G1 X141.354 Y93.806 E.04659
G1 X141.869 Y94.627 E.03563
G1 X142.749 Y96.568 E.07836
G1 X143.227 Y98.404 E.06976
G1 X143.399 Y100.341 E.0715
G1 X143.549 Y114.341 E.51479
G1 X143.478 Y115.664 E.04871
G1 X143.271 Y116.882 E.04543
G1 X142.652 Y118.854 E.076
G1 X141.669 Y120.718 E.07748
G1 X140.448 Y122.279 E.07287
G1 X139.671 Y123.044 E.04009
G1 X138.8 Y123.75 E.04122
G1 X137.164 Y124.754 E.07058
G1 X136.054 Y125.24 E.04455
G1 X134.374 Y125.739 E.06444
G1 X132.522 Y125.977 E.06866
G1 X95.08 Y125.984 E1.37669
G1 X93.396 Y125.784 E.06235
G1 X92.207 Y125.492 E.04502
G1 X91.195 Y125.129 E.03953
G1 X89.867 Y124.484 E.05428
G1 X88.83 Y123.825 E.04518
G1 X87.943 Y123.122 E.04161
G1 X86.78 Y121.943 E.06089
G1 X86.176 Y121.176 E.0359
G1 X85.352 Y119.852 E.05734
G1 X84.796 Y118.656 E.04849
G1 X84.344 Y117.268 E.05367
G1 X84.038 Y115.503 E.06586
G1 X83.983 Y114.503 E.03682
G1 X84.012 Y99.578 E.54877
G1 X84.363 Y97.44 E.07966
G1 X84.979 Y95.683 E.06846
G1 X85.393 Y94.842 E.03447
G1 X86.264 Y93.481 E.05941
G1 X86.893 Y92.702 E.03681
G1 X87.83 Y91.764 E.04875
G1 X88.09 Y92.025 F6000
G1 F1200
G1 X88.959 Y91.313 E.04131
G1 X89.859 Y90.72 E.03963
G1 X91.463 Y89.932 E.06571
G1 X93.134 Y89.421 E.06425
G1 X94.743 Y89.183 E.0598
G1 X131.691 Y89.15 E1.35853
G1 X133.763 Y89.324 E.07645
G1 X135.743 Y89.867 E.07549
G1 X137.498 Y90.704 E.07149
G1 X138.853 Y91.649 E.06074
G1 X140.292 Y93.041 E.07361
G1 X141.058 Y94.026 E.04588
G1 X141.549 Y94.809 E.03398
G1 X142.398 Y96.678 E.07548
G1 X142.865 Y98.474 E.06823
G1 X143.031 Y100.345 E.06906
G1 X143.181 Y114.345 E.51479
G1 X143.099 Y115.705 E.0501
G1 X142.871 Y116.999 E.04831
G1 X142.622 Y117.877 E.03356
G1 X142.315 Y118.705 E.03247
G1 X141.722 Y119.927 E.04994
G1 X140.968 Y121.082 E.05072
G1 X140.286 Y121.911 E.03947
G1 X139.582 Y122.631 E.03703
G1 X138.592 Y123.445 E.04713
G1 X136.973 Y124.438 E.06983
G1 X135.389 Y125.082 E.06287
G1 X134.199 Y125.397 E.04526
G1 X132.355 Y125.617 E.06828
G1 X95.106 Y125.616 E1.36959
G1 X93.453 Y125.42 E.0612
G1 X92.311 Y125.138 E.04325
G1 X91.343 Y124.791 E.03781
G1 X90.039 Y124.158 E.0533
G1 X89.027 Y123.513 E.04412
G1 X88.059 Y122.731 E.04576
G1 X87.052 Y121.695 E.05312
G1 X86.465 Y120.946 E.03499
G1 X85.673 Y119.671 E.05519
G1 X85.144 Y118.533 E.04614
G1 X84.701 Y117.176 E.05249
G1 X84.404 Y115.458 E.06411
G1 X84.351 Y114.503 E.03517
G1 X84.38 Y99.603 E.54785
G1 X84.716 Y97.547 E.0766
G1 X85.322 Y95.818 E.06736
G1 X85.721 Y95.012 E.03307
G1 X86.566 Y93.693 E.0576
G1 X87.168 Y92.947 E.03525
G1 X88.047 Y92.067 E.04573
G1 X88.308 Y92.327 F6000
G1 F1200
G1 X89.165 Y91.618 E.0409
G1 X90.739 Y90.663 E.06769
G1 X92.341 Y90.015 E.06354
G1 X93.939 Y89.643 E.06033
G1 X95.374 Y89.521 E.05295
G1 X131.691 Y89.518 E1.33533
G1 X133.688 Y89.685 E.07368
G1 X135.623 Y90.216 E.07378
G1 X137.311 Y91.022 E.06878
G1 X138.616 Y91.931 E.05848
G1 X140.008 Y93.275 E.07115
G1 X140.761 Y94.244 E.04512
G1 X141.228 Y94.991 E.03239
G1 X142.046 Y96.788 E.0726
G1 X142.503 Y98.544 E.06672
G1 X142.662 Y100.349 E.06662
G1 X142.812 Y114.349 E.51479
G1 X142.735 Y115.643 E.04766
G1 X142.513 Y116.913 E.0474
G1 X142.256 Y117.817 E.03456
G1 X141.401 Y119.747 E.07762
G1 X140.667 Y120.87 E.04933
G1 X140.01 Y121.667 E.03798
G1 X139.326 Y122.365 E.03593
G1 X138.385 Y123.141 E.04485
G1 X136.8 Y124.113 E.06836
G1 X135.267 Y124.734 E.06082
G1 X134.138 Y125.034 E.04295
G1 X132.346 Y125.248 E.06636
G1 X95.132 Y125.249 E1.36831
G1 X93.51 Y125.056 E.06006
G1 X92.414 Y124.784 E.04152
G1 X91.491 Y124.454 E.03604
G1 X90.211 Y123.832 E.05233
G1 X89.241 Y123.213 E.04231
G1 X88.312 Y122.464 E.04388
G1 X87.325 Y121.447 E.05211
G1 X86.766 Y120.734 E.03331
G1 X85.994 Y119.489 E.05386
G1 X85.491 Y118.41 E.04377
G1 X85.057 Y117.083 E.05134
G1 X84.77 Y115.414 E.06227
G1 X84.748 Y99.628 E.58043
G1 X85.069 Y97.652 E.07361
G1 X85.665 Y95.953 E.0662
G1 X86.048 Y95.181 E.03169
G1 X86.868 Y93.904 E.0558
G1 X87.443 Y93.192 E.03365
G1 X88.265 Y92.37 E.04274
; printing object Shape-Box id:0 copy 0
G1 E-1.12 F2400
;WIPE_START
G1 F4800
G1 X89.04 Y91.722 E-.48
;WIPE_END
G1 X116.655 Y109.805 F6000
G1 E1.6 F2400
;TYPE:External perimeter
G1 F1200
G1 X116.316 Y109.854 E.01259
G1 X116.066 Y109.83 E.00923
G1 X115.955 Y109.775 E.00455
G1 X115.851 Y109.669 E.00546
G1 X115.825 Y109.515 E.00574
G1 X115.853 Y109.362 E.00572
G1 X115.975 Y109.221 E.00686
G1 X116.09 Y109.174 E.00457
G1 X116.223 Y109.17 E.00489
G1 X116.316 Y109.201 E.0036
G1 X116.39 Y109.262 E.00353
G1 X116.499 Y109.437 E.00758
G1 X116.631 Y109.75 E.01249
G1 X116.325 Y109.712 F6000
G1 X117.501 Y109.399
;WIDTH:0.241617
G1 F1200
G1 X117.972 Y109.361 E.00896
G1 X117.764 Y109.687 F6000
;WIDTH:0.42
G1 F1200
G1 X117.82 Y110.16 E.01751
G1 X117.942 Y110.373 E.00903
G1 X118.065 Y110.533 E.00742
G1 X117.965 Y110.724 E.00793
G1 X117.916 Y110.951 E.00854
G1 X116.722 Y110.776 E.04437
G1 X116.843 Y109.822 E.03536
G1 X117.19 Y109.794 E.0128
G1 X117.705 Y109.698 E.01926
G1 X117.609 Y110.056 F6000
G1 X116.252 Y110.956
G1 F1200
G1 X116.543 Y110.963 E.0107
G1 X116.493 Y111.2 E.00891
G1 X116.468 Y111.248 E.00199
G1 X116.32 Y111.371 E.00708
G1 X116.246 Y111.393 E.00284
G1 X116.099 Y111.384 E.00542
G1 X116.034 Y111.342 E.00285
G1 X115.994 Y111.284 E.00259
G1 X115.99 Y111.201 E.00306
G1 X116.016 Y111.099 E.00387
G1 X116.2 Y110.987 E.00792
G1 X116.452 Y111.168 F6000
G1 E-1.12 F2400
;WIPE_START
G1 F4800
G1 X116.543 Y110.963 E-.16332
G1 X116.493 Y111.2 E-.11505
G1 X116.468 Y111.248 E-.02571
G1 X116.32 Y111.371 E-.09141
G1 X116.246 Y111.393 E-.03667
G1 X116.145 Y111.387 E-.04784
;WIPE_END
G1 X119.196 Y111.201 F6000
G1 E1.6 F2400
G1 F1200
G1 X119.222 Y111.099 E.00387
G1 X119.458 Y110.956 E.01015
G1 X119.749 Y110.963 E.0107
G1 X119.675 Y111.248 E.01083
G1 X119.527 Y111.371 E.00708
G1 X119.452 Y111.393 E.00287
G1 X119.305 Y111.384 E.00542
G1 X119.24 Y111.342 E.00285
G1 X119.199 Y111.261 E.00334
G1 X119.287 Y111.147 F6000
G1 X119.861 Y109.805
G1 F1200
G1 X119.522 Y109.854 E.01259
G1 X119.273 Y109.83 E.0092
G1 X119.162 Y109.775 E.00455
G1 X119.057 Y109.669 E.00549
G1 X119.031 Y109.515 E.00574
G1 X119.059 Y109.362 E.00572
G1 X119.182 Y109.221 E.00688
G1 X119.297 Y109.174 E.00457
G1 X119.43 Y109.17 E.00489
G1 X119.522 Y109.201 E.00357
G1 X119.597 Y109.262 E.00355
G1 X119.705 Y109.437 E.00756
G1 X119.838 Y109.75 E.0125
G1 X119.532 Y109.712 F6000
G1 E-1.12 F2400
;WIPE_START
G1 F4800
G1 X119.522 Y109.854 E-.15802
G1 X119.273 Y109.83 E-.11882
G1 X119.162 Y109.775 E-.05884
G1 X119.057 Y109.669 E-.07087
G1 X119.031 Y109.517 E-.07345
;WIPE_END
G1 X116.351 Y104.979 F6000
G1 E1.6 F2400
G1 F1200
G1 X116.263 Y105.044 E.00402
G1 X116.108 Y105.103 E.0061
G1 X115.988 Y105.099 E.00441
G1 X115.851 Y105.038 E.00551
G1 X115.73 Y104.842 E.00847
G1 X116.18 Y104.838 E.01655
G1 X116.274 Y104.815 E.00356
G1 X116.326 Y104.924 E.00444
G1 X116.244 Y105 F6000
G1 X117.728 Y104.639
;WIDTH:0.484929
G1 F1200
G1 X117.735 Y103.823 E.03529
;WIDTH:0.539785
G1 X117.745 Y103.143 E.03313
G1 X118.834 Y103.36 F6000
;WIDTH:0.196543
G1 F1200
G1 X118.897 Y102.904 E.00666
G1 X119.174 Y102.996 F6000
;WIDTH:0.42
G1 F1200
G1 X119.141 Y102.812 E.00687
G1 X119.379 Y102.726 E.0093
G1 X119.486 Y102.729 E.00394
G1 X119.619 Y102.778 E.00521
G1 X119.771 Y102.988 E.00953
G1 X119.234 Y102.995 E.01975
G1 X119.221 Y102.815 F6000
G1 E-1.12 F2400
;WIPE_START
G1 F4800
G1 X119.141 Y102.812 E-.09751
G1 X119.379 Y102.726 E-.1202
G1 X119.486 Y102.729 E-.05084
G1 X119.619 Y102.778 E-.06733
G1 X119.771 Y102.988 E-.12314
G1 X119.727 Y102.989 E-.02098
;WIPE_END
G1 X109.866 Y103.177 F6000
G1 E1.6 F2400
;WIDTH:0.549244
G1 F1200
G1 X109.591 Y103.431 E.01859
G1 X109.593 Y104.408 E.04852
G1 X109.627 Y104.441 E.00235
;WIDTH:0.491806
G1 X109.866 Y104.661 E.01427
G1 E-1.12 F2400
;WIPE_START
G1 F4800
G1 X109.627 Y104.441 E-.1543
G1 X109.61 Y104.425 E-.01109
G1 X109.593 Y104.408 E-.01142
G1 X109.593 Y104.403 E-.00237
G1 X109.592 Y103.924 E-.22753
G1 X109.592 Y103.922 E-.00095
G1 X109.592 Y103.904 E-.00855
G1 X109.592 Y103.902 E-.00095
G1 X109.592 Y103.77 E-.06284
;WIPE_END
G1 X109.866 Y109.538 F6000
G1 E1.6 F2400
;WIDTH:0.549244
G1 F1200
G1 X109.591 Y109.792 E.01859
G1 X109.593 Y110.769 E.04852
G1 X109.627 Y110.802 E.00235
;WIDTH:0.491806
G1 X109.866 Y111.022 E.01427
G1 E-1.12 F2400
;WIPE_START
G1 F4800
G1 X109.627 Y110.802 E-.1543
G1 X109.61 Y110.786 E-.01109
G1 X109.593 Y110.769 E-.01142
G1 X109.593 Y110.764 E-.00238
G1 X109.592 Y110.285 E-.22753
G1 X109.592 Y110.283 E-.00095
G1 X109.592 Y110.265 E-.00855
G1 X109.592 Y110.263 E-.00095
G1 X109.592 Y110.131 E-.06283
;WIPE_END
G1 X106.66 Y111.022 F6000
G1 E1.6 F2400
;WIDTH:0.49177
G1 F1200
G1 X106.421 Y110.802 E.01427
;WIDTH:0.549223
G1 X106.386 Y110.769 E.00239
G1 X106.385 Y109.792 E.04852
G1 X106.659 Y109.538 E.01855
G1 E-1.12 F2400
;WIPE_START
G1 F4800
G1 X106.39 Y109.787 E-.17411
G1 X106.385 Y109.792 E-.00336
G1 X106.386 Y110.263 E-.22373
G1 X106.386 Y110.265 E-.00095
G1 X106.386 Y110.283 E-.00855
G1 X106.386 Y110.285 E-.00095
G1 X106.386 Y110.429 E-.06835
;WIPE_END
G1 X100.062 Y104.98 F6000
G1 E1.6 F2400
;WIDTH:0.42
G1 F1200
G1 X99.916 Y105.074 E.00638
G1 X99.826 Y105.103 E.00348
G1 X99.7 Y105.099 E.00464
G1 X99.563 Y105.038 E.00551
G1 X99.428 Y104.82 E.00943
G1 X99.721 Y104.848 E.01082
G1 X100.003 Y104.814 E.01044
G1 X100.042 Y104.924 E.00429
G1 X99.894 Y105.024 F6000
G1 E-1.12 F2400
;WIPE_START
G1 F4800
G1 X99.916 Y105.074 E-.09305
G1 X99.826 Y105.103 E-.04491
G1 X99.7 Y105.099 E-.05988
G1 X99.563 Y105.038 E-.07123
G1 X99.428 Y104.82 E-.1218
G1 X99.615 Y104.838 E-.08913
;WIPE_END
G1 X96.188 Y104.659 F6000
G1 E1.6 F2400
;WIDTH:0.563338
G1 F1200
G1 X96.393 Y104.945 E.01797
G1 X96.723 Y104.931 E.01687
G1 X96.754 Y104.908 E.00197
;WIDTH:0.470307
G1 X97.023 Y104.672 E.01495
G1 X97.017 Y103.646 F6000
;WIDTH:0.42
G1 F1200
G1 X96.753 Y103.724 E.01012
G1 X96.581 Y103.702 E.00638
G1 X96.46 Y103.656 E.00476
G1 X96.363 Y103.554 E.00518
G1 X96.308 Y103.399 E.00605
G1 X96.302 Y103.218 E.00666
G1 X96.333 Y103.061 E.00588
G1 X96.416 Y102.919 E.00605
G1 X96.53 Y102.834 E.00523
G1 X96.665 Y102.805 E.00508
G1 X96.777 Y102.824 E.00418
G1 X96.856 Y102.863 E.00324
G1 X97.001 Y103.059 E.00896
G1 X97.15 Y103.48 E.01642
G1 X97.054 Y103.599 E.00562
G1 X96.756 Y103.558 F6000
G1 E-1.12 F2400
;WIPE_START
G1 F4800
G1 X96.753 Y103.724 E-.15481
G1 X96.581 Y103.702 E-.08237
G1 X96.46 Y103.656 E-.06149
G1 X96.363 Y103.554 E-.06686
G1 X96.308 Y103.399 E-.07812
G1 X96.305 Y103.323 E-.03635
;WIPE_END
G1 X117.444 Y110.121 F6000
G1 E1.6 F2400
;TYPE:Perimeter
G1 F1200
G1 X117.463 Y110.277 E.00578
G1 X117.609 Y110.533 E.01084
G1 X117.133 Y110.464 E.01768
G1 X117.17 Y110.173 E.01079
G1 X117.385 Y110.132 E.00805
G1 E-1.12 F2400
;WIPE_START
G1 F4800
G1 X117.463 Y110.277 E-.07821
G1 X117.609 Y110.533 E-.13999
G1 X117.133 Y110.464 E-.22846
G1 X117.142 Y110.394 E-.03334
;WIPE_END
G1 X121.268 Y110.431 F6000
G1 E1.6 F2400
G1 F1200
G1 X121.183 Y110.574 E.00612
G1 X120.34 Y110.46 E.03128
G1 X120.375 Y110.182 E.0103
G1 X121.411 Y110.149 E.03811
G1 X121.299 Y110.38 E.00944
G1 E-1.12 F2400
;WIPE_START
G1 F4800
G1 X121.183 Y110.574 E-.10737
G1 X120.406 Y110.469 E-.37263
;WIPE_END
G1 X123.695 Y110.107 F6000
G1 E1.6 F2400
G1 F1200
G1 X123.599 Y110.399 E.0113
G1 X123.379 Y110.907 E.02035
G1 X124.559 Y110.876 E.0434
G1 X124.565 Y112.961 E.07666
G1 X121.605 Y112.956 E.10884
G1 X120.468 Y112.912 E.04184
G1 X120.483 Y112.691 E.00814
G1 X120.24 Y112.844 E.01056
G1 X119.903 Y112.964 E.01315
G1 X119.556 Y113.02 E.01292
G1 X119.153 Y113.014 E.01482
G1 X118.883 Y112.967 E.01008
G1 X118.439 Y112.803 E.0174
G1 X118.044 Y112.529 E.01768
G1 X117.764 Y112.218 E.01539
G1 X117.597 Y112.443 E.0103
G1 X117.326 Y112.678 E.01319
G1 X117.022 Y112.853 E.0129
G1 X116.693 Y112.966 E.01279
G1 X116.348 Y113.021 E.01285
G1 X115.947 Y113.014 E.01475
G1 X115.677 Y112.967 E.01008
G1 X115.235 Y112.804 E.01732
G1 X114.825 Y112.525 E.01823
G1 X114.512 Y112.143 E.01816
G1 X114.326 Y111.721 E.01696
G1 X114.268 Y111.447 E.0103
G1 X114.268 Y110.991 E.01677
G1 X114.389 Y110.578 E.01582
G1 X114.262 Y110.376 E.00877
G1 X114.151 Y110.1 E.01094
G1 X114.089 Y109.814 E.01076
G1 X114.069 Y109.518 E.01091
G1 X114.106 Y109.126 E.01448
G1 X114.225 Y108.743 E.01475
G1 X114.421 Y108.394 E.01472
G1 X114.684 Y108.089 E.01481
G1 X115.005 Y107.84 E.01494
G1 X115.368 Y107.659 E.01491
G1 X115.749 Y107.557 E.0145
G1 X116.009 Y107.528 E.00962
G1 X116.524 Y107.549 E.01895
G1 X116.899 Y107.646 E.01424
G1 X117.246 Y107.815 E.01419
G1 X117.551 Y108.061 E.01441
G1 X117.745 Y108.304 E.01143
G1 X117.882 Y108.126 E.00826
G1 X118.198 Y107.853 E.01535
G1 X118.57 Y107.662 E.01538
G1 X118.955 Y107.558 E.01466
G1 X119.215 Y107.528 E.00962
G1 X119.729 Y107.548 E.01891
G1 X120.101 Y107.644 E.01413
G1 X120.441 Y107.804 E.01382
G1 X120.744 Y108.028 E.01385
G1 X120.987 Y108.293 E.01322
G1 X121.107 Y108.471 E.00789
G1 X121.263 Y108.797 E.01329
G1 X121.35 Y109.148 E.0133
G1 X121.416 Y109.756 E.02249
G1 X121.589 Y109.778 E.00641
G1 X121.782 Y109.228 E.02143
G1 X121.877 Y108.811 E.01573
G1 X122.012 Y107.591 E.04513
G1 X124.083 Y107.591 E.07615
G1 X124.016 Y108.716 E.04144
G1 X123.974 Y109.034 E.01179
G1 X123.83 Y109.698 E.02498
G1 X123.714 Y110.05 E.01363
G1 E-1.12 F2400
;WIPE_START
G1 F4800
G1 X123.599 Y110.399 E-.17454
G1 X123.379 Y110.907 E-.26296
G1 X123.468 Y110.905 E-.0425
;WIPE_END
G1 X121.05 Y109.792 F6000
G1 E1.6 F2400
;TYPE:External perimeter
G1 F1200
G1 X120.049 Y109.823 E.03682
G1 X119.928 Y110.777 E.03536
G1 X121.004 Y110.922 E.03992
G1 X120.797 Y111.555 E.02449
G1 X120.977 Y111.637 E.00727
G1 X121.627 Y110.549 E.0466
G1 X121.922 Y109.939 E.02491
G1 X122.039 Y109.635 E.01198
G1 X122.137 Y109.326 E.01192
G1 X122.241 Y108.873 E.01709
G1 X122.342 Y107.96 E.03377
G1 X123.692 Y107.96 E.04964
G1 X123.649 Y108.681 E.02656
G1 X123.611 Y108.971 E.01075
G1 X123.474 Y109.601 E.02371
G1 X123.254 Y110.267 E.02579
G1 X123.111 Y110.598 E.01326
G1 X122.943 Y110.916 E.01322
G1 X122.669 Y111.349 E.01884
G1 X123.445 Y111.274 E.02867
G1 X124.192 Y111.254 E.02748
G1 X124.196 Y112.591 E.04916
G1 X121.612 Y112.587 E.09501
G1 X120.862 Y112.559 E.0276
G1 X120.903 Y111.982 E.02127
G1 X120.94 Y111.785 E.00737
G1 X120.739 Y111.733 E.00763
G1 X120.677 Y111.923 E.00735
G1 X120.52 Y112.163 E.01054
G1 X120.318 Y112.36 E.01037
G1 X120.078 Y112.51 E.01041
G1 X119.811 Y112.606 E.01043
G1 X119.529 Y112.651 E.0105
G1 X119.188 Y112.646 E.01254
G1 X118.979 Y112.61 E.0078
G1 X118.61 Y112.473 E.01447
