;FLAVOR:Marlin
;TIME:3300
;Filament used: 1.34517m
;Layer height: 0.12
;MINX:96.5
;MINY:96.5
;MINZ:0.12
;MAXX:138.5
;MAXY:138.5
;MAXZ:20.04
;POSTPROCESSED
;Generated with Cura_SteamEngine 5.3.0
M82 ;absolute extrusion mode
; Ender 3 Custom Start G-code
G92 E0 ; Reset Extruder

M140 S50 ; set bed temp
M190 S50 ; wait for bed temp

G28 ; Home all axes
BED_MESH_CALIBRATE  AREA_START=96.5,96.5 AREA_END=138.5,138.5
M104 S210 ; set extruder temp 

G1 Z2.0 F3000 ; Move Z Axis up little to prevent scratching of Heat Bed
M109 S210 ; wait for extruder temp
G1 X0.1 Y20 Z0.3 F5000.0 ; Move to start position

G1 X0.1 Y200.0 Z0.3 F1500.0 E15 ; Draw the first line
G1 X0.4 Y200.0 Z0.3 F5000.0 ; Move to side a little
G1 X0.4 Y20 Z0.3 F1500.0 E30 ; Draw the second line
G92 E0 ; Reset Extruder
G1 Z2.0 F3000 ; Move Z Axis up little to prevent scratching of Heat Bed
G1 X5 Y20 Z0.3 F5000.0 ; Move over to prevent blob squish
G92 E0
G92 E0
G1 F2700 E-5
;LAYER_COUNT:167
;LAYER:0
M107
G0 F6000 X100.481 Y100.117 Z0.12
;TYPE:SKIRT
G1 F2700 E0
G1 F1200 X101.162 Y99.524 E0.01802
G1 X101.894 Y98.994 E0.03606
G1 X102.669 Y98.531 E0.05407
G1 X103.482 Y98.138 E0.07209
G1 X104.327 Y97.818 E0.09012
G1 X105.196 Y97.575 E0.10813
G1 X106.084 Y97.409 E0.12616
G1 X107.223 Y97.313 E0.14897
G1 X107.83 Y97.3 E0.16108
G1 X126.793 Y97.3 E0.53951
G1 X127.637 Y97.311 E0.55636
G1 X128.539 Y97.364 E0.57439
G1 X129.432 Y97.496 E0.5924
G1 X130.31 Y97.707 E0.61042
G1 X131.166 Y97.995 E0.62845
G1 X131.993 Y98.357 E0.64646
G1 X132.785 Y98.792 E0.66449
G1 X133.536 Y99.294 E0.68252
G1 X134.239 Y99.861 E0.70054
G1 X134.889 Y100.488 E0.71857
G1 X135.481 Y101.17 E0.73659
G1 X136.011 Y101.901 E0.75461
G1 X136.473 Y102.677 E0.77263
G1 X136.866 Y103.49 E0.79065
G1 X137.184 Y104.335 E0.80867
G1 X137.427 Y105.205 E0.82669
G1 X137.592 Y106.093 E0.84472
G1 X137.687 Y107.223 E0.86735
G1 X137.7 Y107.83 E0.87947
G1 X137.699 Y126.89 E1.25983
G1 X137.69 Y127.617 E1.27434
G1 X137.639 Y128.519 E1.29237
G1 X137.508 Y129.413 E1.3104
G1 X137.299 Y130.291 E1.32841
G1 X137.013 Y131.148 E1.34644
G1 X136.652 Y131.976 E1.36446
G1 X136.22 Y132.768 E1.38247
G1 X135.719 Y133.52 E1.4005
G1 X135.153 Y134.224 E1.41853
G1 X134.528 Y134.875 E1.43654
G1 X133.847 Y135.469 E1.45457
G1 X133.116 Y136 E1.4726
G1 X132.342 Y136.464 E1.49061
G1 X131.529 Y136.858 E1.50864
G1 X130.685 Y137.178 E1.52665
G1 X129.815 Y137.423 E1.54469
G1 X128.928 Y137.589 E1.5627
G1 X127.777 Y137.687 E1.58575
G1 X127.17 Y137.7 E1.59786
G1 X108.075 Y137.699 E1.97893
G1 X107.377 Y137.69 E1.99286
G1 X106.476 Y137.639 E2.01087
G1 X105.582 Y137.507 E2.0289
G1 X104.704 Y137.298 E2.04691
G1 X103.847 Y137.011 E2.06495
G1 X103.02 Y136.65 E2.08295
G1 X102.227 Y136.217 E2.10099
G1 X101.476 Y135.716 E2.119
G1 X100.772 Y135.15 E2.13703
G1 X100.121 Y134.524 E2.15505
G1 X99.528 Y133.843 E2.17307
G1 X98.998 Y133.112 E2.19109
G1 X98.534 Y132.337 E2.20912
G1 X98.14 Y131.524 E2.22715
G1 X97.82 Y130.68 E2.24516
G1 X97.576 Y129.81 E2.26319
G1 X97.41 Y128.922 E2.28122
G1 X97.313 Y127.767 E2.30435
G1 X97.3 Y127.158 E2.3165
G1 X97.301 Y108.036 E2.6981
G1 X97.31 Y107.371 E2.71138
G1 X97.362 Y106.469 E2.72941
G1 X97.494 Y105.576 E2.74742
G1 X97.704 Y104.698 E2.76544
G1 X97.991 Y103.841 E2.78347
G1 X98.353 Y103.014 E2.80149
G1 X98.786 Y102.222 E2.8195
G1 X99.288 Y101.471 E2.83753
G1 X99.855 Y100.767 E2.85557
G1 X100.481 Y100.117 E2.87358
G0 F6000 X100.218 Y99.815
G1 F1200 X100.899 Y99.222 E2.8916
G1 X101.659 Y98.67 E2.91034
G1 X102.495 Y98.171 E2.92977
G1 X103.34 Y97.764 E2.94849
G1 X104.185 Y97.444 E2.96652
G1 X105.122 Y97.182 E2.98594
G1 X106.05 Y97.01 E3.00477
G1 X107.189 Y96.914 E3.02758
G1 X107.821 Y96.9 E3.0402
G1 X126.798 Y96.9 E3.4189
G1 X127.66 Y96.912 E3.43611
G1 X128.597 Y96.968 E3.45484
G1 X129.49 Y97.1 E3.47285
G1 X130.438 Y97.328 E3.49231
G1 X131.294 Y97.616 E3.51033
G1 X132.186 Y98.006 E3.52976
G1 X132.978 Y98.441 E3.54779
G1 X133.758 Y98.961 E3.5665
G1 X134.517 Y99.573 E3.58596
G1 X135.167 Y100.2 E3.60398
G1 X135.805 Y100.935 E3.6234
G1 X136.355 Y101.696 E3.64214
G1 X136.817 Y102.472 E3.66016
G1 X137.24 Y103.349 E3.6796
G1 X137.569 Y104.227 E3.69831
G1 X137.82 Y105.132 E3.71705
G1 X137.991 Y106.059 E3.73586
G1 X138.086 Y107.189 E3.75849
G1 X138.1 Y107.83 E3.77129
G1 X138.099 Y126.895 E4.15175
G1 X138.089 Y127.64 E4.16662
G1 X138.035 Y128.577 E4.18535
G1 X137.904 Y129.471 E4.20338
G1 X137.688 Y130.384 E4.2221
G1 X137.38 Y131.308 E4.24154
G1 X137.019 Y132.136 E4.25956
G1 X136.553 Y132.99 E4.27898
G1 X136.031 Y133.771 E4.29772
G1 X135.465 Y134.475 E4.31575
G1 X134.817 Y135.152 E4.33445
G1 X134.082 Y135.793 E4.35391
G1 X133.351 Y136.324 E4.37194
G1 X132.548 Y136.807 E4.39065
G1 X131.671 Y137.232 E4.41009
G1 X130.827 Y137.552 E4.42811
G1 X129.889 Y137.816 E4.44755
G1 X128.962 Y137.988 E4.46637
G1 X127.811 Y138.086 E4.48942
G1 X127.179 Y138.1 E4.50204
G1 X108.07 Y138.099 E4.88338
G1 X107.354 Y138.089 E4.89767
G1 X106.418 Y138.035 E4.91638
G1 X105.524 Y137.903 E4.93441
G1 X104.611 Y137.687 E4.95313
G1 X103.687 Y137.378 E4.97258
G1 X102.86 Y137.017 E4.99058
G1 X102.005 Y136.55 E5.01003
G1 X101.225 Y136.028 E5.02876
G1 X100.521 Y135.462 E5.04678
G1 X99.819 Y134.787 E5.06622
G1 X99.226 Y134.106 E5.08424
G1 X98.674 Y133.347 E5.10297
G1 X98.174 Y132.511 E5.12241
G1 X97.766 Y131.666 E5.14113
G1 X97.446 Y130.822 E5.15914
G1 X97.183 Y129.884 E5.17858
G1 X97.011 Y128.955 E5.19744
G1 X96.913 Y127.776 E5.22105
G1 X96.9 Y127.158 E5.23338
G1 X96.901 Y108.031 E5.61508
G1 X96.911 Y107.348 E5.62872
G1 X96.966 Y106.411 E5.64745
G1 X97.098 Y105.518 E5.66546
G1 X97.315 Y104.605 E5.68419
G1 X97.612 Y103.714 E5.70293
G1 X98.002 Y102.822 E5.72236
G1 X98.453 Y102 E5.74107
G1 X98.976 Y101.22 E5.75981
G1 X99.543 Y100.516 E5.77785
G1 X100.218 Y99.815 E5.79727
G0 F6000 X99.955 Y99.513
G1 F1200 X100.636 Y98.92 E5.81529
G1 X101.424 Y98.346 E5.83475
G1 X102.321 Y97.811 E5.85559
G1 X103.198 Y97.39 E5.875
G1 X104.043 Y97.07 E5.89303
G1 X105.049 Y96.789 E5.91388
G1 X106.016 Y96.611 E5.9335
G1 X107.155 Y96.515 E5.95631
G1 X107.812 Y96.5 E5.96942
G1 X126.804 Y96.5 E6.34843
G1 X127.684 Y96.513 E6.36599
G1 X128.655 Y96.572 E6.38541
G1 X129.584 Y96.711 E6.40415
G1 X130.532 Y96.939 E6.42361
G1 X131.454 Y97.249 E6.44302
G1 X132.379 Y97.655 E6.46318
G1 X133.171 Y98.09 E6.48121
G1 X133.98 Y98.628 E6.5006
G1 X134.795 Y99.285 E6.52149
G1 X135.445 Y99.912 E6.53951
G1 X136.107 Y100.673 E6.55964
G1 X136.699 Y101.491 E6.57979
G1 X137.161 Y102.267 E6.59782
G1 X137.615 Y103.209 E6.61868
G1 X137.944 Y104.087 E6.6374
G1 X138.213 Y105.059 E6.65752
G1 X138.39 Y106.025 E6.67712
G1 X138.485 Y107.155 E6.69975
G1 X138.5 Y107.83 E6.71322
G1 X138.499 Y126.9 E7.09379
G1 X138.488 Y127.663 E7.10902
G1 X138.431 Y128.635 E7.12845
G1 X138.3 Y129.529 E7.14648
G1 X138.077 Y130.476 E7.16589
G1 X137.747 Y131.468 E7.18676
G1 X137.386 Y132.296 E7.20478
G1 X136.886 Y133.212 E7.22561
G1 X136.343 Y134.022 E7.24507
G1 X135.777 Y134.726 E7.26309
G1 X135.106 Y135.429 E7.28249
G1 X134.317 Y136.117 E7.30338
G1 X133.586 Y136.648 E7.32141
G1 X132.754 Y137.15 E7.3408
G1 X131.813 Y137.606 E7.36167
G1 X130.969 Y137.926 E7.37968
G1 X129.997 Y138.201 E7.39984
G1 X128.996 Y138.387 E7.42016
G1 X127.845 Y138.485 E7.44321
G1 X127.188 Y138.5 E7.45632
G1 X108.064 Y138.499 E7.83796
G1 X107.331 Y138.488 E7.85259
G1 X106.36 Y138.431 E7.872
G1 X105.466 Y138.299 E7.89004
G1 X104.484 Y138.066 E7.91018
G1 X103.527 Y137.745 E7.93032
G1 X102.7 Y137.384 E7.94833
G1 X101.813 Y136.901 E7.96849
G1 X100.974 Y136.34 E7.98863
G1 X100.27 Y135.774 E8.00665
G1 X99.517 Y135.05 E8.0275
G1 X98.924 Y134.369 E8.04552
G1 X98.331 Y133.552 E8.06567
G1 X97.814 Y132.685 E8.08581
G1 X97.392 Y131.808 E8.10523
G1 X97.072 Y130.964 E8.12325
G1 X96.798 Y129.992 E8.1434
G1 X96.612 Y128.988 E8.16378
G1 X96.514 Y127.809 E8.18739
G1 X96.5 Y127.158 E8.20038
G1 X96.501 Y108.025 E8.5822
G1 X96.512 Y107.325 E8.59617
G1 X96.57 Y106.353 E8.6156
G1 X96.702 Y105.46 E8.63362
G1 X96.926 Y104.513 E8.65304
G1 X97.245 Y103.554 E8.67321
G1 X97.635 Y102.662 E8.69263
G1 X98.102 Y101.808 E8.71206
G1 X98.664 Y100.969 E8.73221
G1 X99.231 Y100.265 E8.75025
G1 X99.955 Y99.513 E8.77108
G1 F2700 E3.77108
;MESH:xyzCalibration_cube.stl
G0 F6000 X107.914 Y106.835
G0 X107.914 Y107.914
G0 X126.328 Y108.672
G0 X126.5 Y126.5
;TYPE:WALL-INNER
G1 F2700 E8.77108
G1 F1200 X126.5 Y108.5 E9.13029
G1 X108.5 Y108.5 E9.4895
G1 X108.5 Y126.5 E9.84871
G1 X126.5 Y126.5 E10.20792
G0 F6000 X126.9 Y126.9
G1 F1200 X126.9 Y108.1 E10.58309
G1 X108.1 Y108.1 E10.95827
G1 X108.1 Y126.9 E11.33344
G1 X126.9 Y126.9 E11.70862
G0 F6000 X127.3 Y127.3
;TYPE:WALL-OUTER
G1 F1200 X127.3 Y107.7 E12.09976
G1 X107.7 Y107.7 E12.49089
G1 X107.7 Y127.3 E12.88203
G1 X127.3 Y127.3 E13.27317
G0 F6000 X127.03 Y127.03
G0 X126.4 Y126.14
G0 X126.14 Y126.14
;TYPE:SKIN
G1 F1200 X108.86 Y126.14 E13.61801
G1 X108.86 Y108.86 E13.96286
G1 X126.14 Y108.86 E14.3077
G1 X126.14 Y126.14 E14.65254
G0 F6000 X126.4 Y126.14
G0 X126.328 Y108.672
G0 X125.465 Y108.6
G0 X125.465 Y109.06
G1 F1200 X125.939 Y109.535 E14.66593
G0 F6000 X125.939 Y110.1
G1 F1200 X124.899 Y109.06 E14.69528
G0 F6000 X124.334 Y109.06
G1 F1200 X125.939 Y110.666 E14.74059
G0 F6000 X125.939 Y111.232
G1 F1200 X123.768 Y109.06 E14.80188
G0 F6000 X123.202 Y109.06
G1 F1200 X125.939 Y111.797 E14.87912
G0 F6000 X125.939 Y112.363
G1 F1200 X122.637 Y109.06 E14.97232
G0 F6000 X122.071 Y109.06
G1 F1200 X125.939 Y112.929 E15.0815
G0 F6000 X125.939 Y113.494
G1 F1200 X121.505 Y109.06 E15.20664
G0 F6000 X120.94 Y109.06
G1 F1200 X125.939 Y114.06 E15.34773
G0 F6000 X125.939 Y114.626
G1 F1200 X120.374 Y109.06 E15.5048
G0 F6000 X119.808 Y109.06
G1 F1200 X125.939 Y115.191 E15.67783
G0 F6000 X125.939 Y115.757
G1 F1200 X119.242 Y109.06 E15.86684
G0 F6000 X118.677 Y109.06
G1 F1200 X125.939 Y116.323 E16.0718
G0 F6000 X125.939 Y116.888
G1 F1200 X118.111 Y109.06 E16.29272
G0 F6000 X117.545 Y109.06
G1 F1200 X125.939 Y117.454 E16.52962
G0 F6000 X125.939 Y118.02
G1 F1200 X116.98 Y109.06 E16.78248
G0 F6000 X116.414 Y109.06
G1 F1200 X125.939 Y118.586 E17.05131
G0 F6000 X125.939 Y119.151
G1 F1200 X115.848 Y109.06 E17.3361
G0 F6000 X115.283 Y109.06
G1 F1200 X125.939 Y119.717 E17.63685
G0 F6000 X125.939 Y120.283
G1 F1200 X114.717 Y109.06 E17.95357
G0 F6000 X114.151 Y109.06
G1 F1200 X125.939 Y120.848 E18.28625
G0 F6000 X125.939 Y121.414
G1 F1200 X113.586 Y109.06 E18.6349
G0 F6000 X113.02 Y109.06
G1 F1200 X125.939 Y121.98 E18.99951
G0 F6000 X125.939 Y122.545
G1 F1200 X112.454 Y109.06 E19.38009
G0 F6000 X111.889 Y109.06
G1 F1200 X125.939 Y123.111 E19.77662
G0 F6000 X125.939 Y123.677
G1 F1200 X111.323 Y109.06 E20.18913
G0 F6000 X110.757 Y109.06
G1 F1200 X125.939 Y124.242 E20.6176
G0 F6000 X125.939 Y124.808
G1 F1200 X110.191 Y109.06 E21.06204
G0 F6000 X109.626 Y109.06
G1 F1200 X125.939 Y125.374 E21.52245
G0 F6000 X125.939 Y125.939
G1 F1200 X109.059 Y109.059 E21.99884
G0 F6000 X109.059 Y109.625
G1 F1200 X125.373 Y125.939 E22.45925
G0 F6000 X124.807 Y125.939
G1 F1200 X109.059 Y110.191 E22.9037
G0 F6000 X109.059 Y110.756
G1 F1200 X124.242 Y125.939 E23.33219
G0 F6000 X123.676 Y125.939
G1 F1200 X109.059 Y111.322 E23.74472
G0 F6000 X109.059 Y111.888
G1 F1200 X123.11 Y125.939 E24.14127
G0 F6000 X122.545 Y125.939
G1 F1200 X109.059 Y112.454 E24.52186
G0 F6000 X109.059 Y113.019
G1 F1200 X121.979 Y125.939 E24.88649
G0 F6000 X121.413 Y125.939
G1 F1200 X109.059 Y113.585 E25.23514
G0 F6000 X109.059 Y114.151
G1 F1200 X120.848 Y125.939 E25.56784
G0 F6000 X120.282 Y125.939
G1 F1200 X109.059 Y114.716 E25.88458
G0 F6000 X109.059 Y115.282
G1 F1200 X119.716 Y125.939 E26.18534
G0 F6000 X119.151 Y125.939
G1 F1200 X109.059 Y115.848 E26.47014
G0 F6000 X109.059 Y116.413
G1 F1200 X118.585 Y125.939 E26.73899
G0 F6000 X118.019 Y125.939
G1 F1200 X109.059 Y116.979 E26.99186
G0 F6000 X109.059 Y117.545
G1 F1200 X117.453 Y125.939 E27.22876
G0 F6000 X116.888 Y125.939
G1 F1200 X109.059 Y118.11 E27.44971
G0 F6000 X109.059 Y118.676
G1 F1200 X116.322 Y125.939 E27.65468
G0 F6000 X115.756 Y125.939
G1 F1200 X109.059 Y119.242 E27.84369
G0 F6000 X109.059 Y119.807
G1 F1200 X115.191 Y125.939 E28.01675
G0 F6000 X114.625 Y125.939
G1 F1200 X109.059 Y120.373 E28.17383
G0 F6000 X109.059 Y120.939
G1 F1200 X114.059 Y125.939 E28.31494
G0 F6000 X113.494 Y125.939
G1 F1200 X109.059 Y121.504 E28.44011
G0 F6000 X109.059 Y122.07
G1 F1200 X112.928 Y125.939 E28.5493
G0 F6000 X112.362 Y125.939
G1 F1200 X109.059 Y122.636 E28.64252
G0 F6000 X109.059 Y123.202
G1 F1200 X111.797 Y125.939 E28.71977
G0 F6000 X111.231 Y125.939
G1 F1200 X109.059 Y123.767 E28.78107
G0 F6000 X109.059 Y124.333
G1 F1200 X110.665 Y125.939 E28.8264
G0 F6000 X110.1 Y125.939
G1 F1200 X109.059 Y124.899 E28.85576
G0 F6000 X109.059 Y125.464
M104 S210
G1 F1200 X109.534 Y125.939 E28.86917
;MESH:NOMESH
G0 F300 X109.534 Y125.939 Z0.24
G0 F6000 X109.534 Y126.4
G0 X126.5 Y126.5
;TIME_ELAPSED:83.788578
;LAYER:1
M106 S85
;TYPE:WALL-INNER
;MESH:xyzCalibration_cube.stl
G1 F1350 X126.5 Y108.5 E29.22838
G1 X108.5 Y108.5 E29.58759
G1 X108.5 Y126.5 E29.9468
G1 X126.5 Y126.5 E30.30601
G0 F7500 X126.9 Y126.9
G1 F1350 X126.9 Y108.1 E30.68118
G1 X108.1 Y108.1 E31.05636
G1 X108.1 Y126.9 E31.43153
G1 X126.9 Y126.9 E31.8067
G0 F7500 X127.3 Y127.3
;TYPE:WALL-OUTER
G1 F1350 X127.3 Y107.7 E32.19784
G1 X107.7 Y107.7 E32.58898
G1 X107.7 Y127.3 E32.98012
G1 X127.3 Y127.3 E33.37126
G0 F7500 X127.03 Y127.03
G0 X126.4 Y126.14
G0 X126.14 Y126.14
;TYPE:SKIN
G1 F1350 X108.86 Y126.14 E33.7161
G1 X108.86 Y108.86 E34.06094
G1 X126.14 Y108.86 E34.40578
G1 X126.14 Y126.14 E34.75062
G0 F7500 X125.79 Y125.939
G1 F1350 X125.939 Y125.79 E34.75483
G0 F7500 X125.939 Y125.225
G1 F1350 X125.224 Y125.939 E34.77499
G0 F7500 X124.658 Y125.939
G1 F1350 X125.939 Y124.659 E34.81113
G0 F7500 X125.939 Y124.093
G1 F1350 X124.092 Y125.939 E34.86325
G0 F7500 X123.527 Y125.939
G1 F1350 X125.939 Y123.528 E34.9313
G0 F7500 X125.939 Y122.962
G1 F1350 X122.961 Y125.939 E35.01533
G0 F7500 X122.395 Y125.939
G1 F1350 X125.939 Y122.396 E35.11534
G0 F7500 X125.939 Y121.83
G1 F1350 X121.83 Y125.939 E35.2313
G0 F7500 X121.264 Y125.939
G1 F1350 X125.939 Y121.265 E35.36323
G0 F7500 X125.939 Y120.699
G1 F1350 X120.698 Y125.939 E35.51113
G0 F7500 X120.133 Y125.939
G1 F1350 X125.939 Y120.133 E35.67499
G0 F7500 X125.939 Y119.568
G1 F1350 X119.567 Y125.939 E35.8548
G0 F7500 X119.001 Y125.939
G1 F1350 X125.939 Y119.002 E36.05059
G0 F7500 X125.939 Y118.436
G1 F1350 X118.436 Y125.939 E36.26234
G0 F7500 X117.87 Y125.939
G1 F1350 X125.939 Y117.871 E36.49006
G0 F7500 X125.939 Y117.305
G1 F1350 X117.304 Y125.939 E36.73374
G0 F7500 X116.739 Y125.939
G1 F1350 X125.939 Y116.739 E36.99338
G0 F7500 X125.939 Y116.174
G1 F1350 X116.173 Y125.939 E37.26899
G0 F7500 X115.607 Y125.939
G1 F1350 X125.939 Y115.608 E37.56056
G0 F7500 X125.939 Y115.042
G1 F1350 X115.042 Y125.939 E37.8681
G0 F7500 X114.476 Y125.939
G1 F1350 X125.939 Y114.477 E38.1916
G0 F7500 X125.939 Y113.911
G1 F1350 X113.91 Y125.939 E38.53107
G0 F7500 X113.344 Y125.939
G1 F1350 X125.939 Y113.345 E38.88651
G0 F7500 X125.939 Y112.779
G1 F1350 X112.779 Y125.939 E39.25792
G0 F7500 X112.213 Y125.939
G1 F1350 X125.939 Y112.214 E39.64528
G0 F7500 X125.939 Y111.648
G1 F1350 X111.647 Y125.939 E40.04862
G0 F7500 X111.082 Y125.939
G1 F1350 X125.939 Y111.082 E40.46791
G0 F7500 X125.939 Y110.517
G1 F1350 X110.516 Y125.939 E40.90317
G0 F7500 X109.95 Y125.939
G1 F1350 X125.939 Y109.951 E41.3544
G0 F7500 X125.939 Y109.385
G1 F1350 X109.385 Y125.939 E41.82159
G0 F7500 X109.06 Y125.698
G1 F1350 X125.699 Y109.059 E42.29118
G0 F7500 X125.133 Y109.059
G1 F1350 X109.06 Y125.133 E42.74481
G0 F7500 X109.06 Y124.567
G1 F1350 X124.568 Y109.059 E43.18248
G0 F7500 X124.002 Y109.059
G1 F1350 X109.06 Y124.001 E43.60417
G0 F7500 X109.06 Y123.436
G1 F1350 X123.436 Y109.059 E44.00991
G0 F7500 X122.871 Y109.059
G1 F1350 X109.06 Y122.87 E44.39968
G0 F7500 X109.06 Y122.304
G1 F1350 X122.305 Y109.059 E44.77349
G0 F7500 X121.739 Y109.059
G1 F1350 X109.06 Y121.739 E45.13133
G0 F7500 X109.06 Y121.173
G1 F1350 X121.174 Y109.059 E45.47321
G0 F7500 X120.608 Y109.059
G1 F1350 X109.06 Y120.607 E45.79912
G0 F7500 X109.06 Y120.041
G1 F1350 X120.042 Y109.059 E46.10906
