;FLAVOR:Marlin
;TIME:2138
;Filament used: 1.37249m
;Layer height: 0.12
;MINX:88.202
;MINY:98.208
;MINZ:0.12
;MAXX:146.797
;MAXY:136.796
;MAXZ:3.96
;POSTPROCESSED
;Generated with Cura_SteamEngine 5.3.1
M82 ;absolute extrusion mode
; Ender 3 Custom Start G-code
G92 E0 ; Reset Extruder

M140 S50 ; set bed temp
M190 S50 ; wait for bed temp

G28 ; Home all axes
BED_MESH_CALIBRATE  AREA_START=88.202,98.208 AREA_END=146.797,136.796
M104 S205 ; set extruder temp 

G1 Z2.0 F3000 ; Move Z Axis up little to prevent scratching of Heat Bed
M109 S205 ; wait for extruder temp
G1 X0.1 Y20 Z0.3 F5000.0 ; Move to start position

G1 X0.1 Y200.0 Z0.3 F1500.0 E15 ; Draw the first line
G1 X0.4 Y200.0 Z0.3 F5000.0 ; Move to side a little
G1 X0.4 Y20 Z0.3 F1500.0 E30 ; Draw the second line
G92 E0 ; Reset Extruder
G1 Z2.0 F3000 ; Move Z Axis up little to prevent scratching of Heat Bed
G1 X5 Y20 Z0.3 F5000.0 ; Move over to prevent blob squish
G92 E0
G92 E0
G1 F2400 E-1.6
;LAYER_COUNT:33
;LAYER:0
M107
G0 X92.837 Y102.182 Z0.12
;TYPE:SKIRT
G1 F2400 E0
G1 F1800 X93.278 Y101.798 E0.01348
G1 X93.922 Y101.285 E0.03247
G1 X94.631 Y100.834 E0.05185
G1 X95.11 Y100.562 E0.06455
G1 X95.78 Y100.227 E0.08183
G1 X96.263 Y100.027 E0.09388
G1 X96.762 Y99.841 E0.10616
G1 X97.247 Y99.69 E0.11788
G1 X97.902 Y99.521 E0.13348
G1 X98.518 Y99.402 E0.14794
G1 X99.343 Y99.288 E0.16715
G1 X100.19 Y99.253 E0.1867
G1 X100.874 Y99.268 E0.20248
G1 X101.608 Y99.329 E0.21946
G1 X104.885 Y99.805 E0.29582
G1 X107.627 Y100.126 E0.35949
G1 X110.327 Y100.365 E0.42199
G1 X113.077 Y100.531 E0.48553
G1 X115.79 Y100.617 E0.54812
G1 X118.538 Y100.626 E0.61149
G1 X121.288 Y100.558 E0.67493
G1 X123.998 Y100.414 E0.73751
G1 X126.739 Y100.19 E0.80093
G1 X129.45 Y99.891 E0.86383
G1 X133.709 Y99.289 E0.96302
G1 X134.693 Y99.248 E0.98573
G1 X135.261 Y99.269 E0.99884
G1 X136.078 Y99.333 E1.01774
G1 X136.988 Y99.49 E1.03903
G1 X137.82 Y99.702 E1.05883
G1 X138.595 Y99.972 E1.07776
G1 X139.28 Y100.248 E1.09479
G1 X140.124 Y100.691 E1.11677
G1 X140.664 Y101.02 E1.13135
G1 X141.404 Y101.531 E1.15209
G1 X142.197 Y102.203 E1.17606
G1 X143.009 Y103.039 E1.20294
G1 X143.724 Y103.951 E1.22966
G1 X144.394 Y105.033 E1.25901
G1 X144.751 Y105.769 E1.27787
G1 X144.991 Y106.344 E1.29224
G1 X145.287 Y107.176 E1.3126
G1 X145.568 Y108.346 E1.34035
G1 X145.716 Y109.457 E1.3662
G1 X145.748 Y110.28 E1.38519
G1 X145.741 Y110.803 E1.39725
G1 X145.585 Y113.732 E1.46489
G1 X145.518 Y116.478 E1.52824
G1 X145.529 Y119.226 E1.59161
G1 X145.617 Y121.944 E1.65432
G1 X145.727 Y123.917 E1.69989
G1 X145.759 Y124.757 E1.71928
G1 X145.669 Y125.994 E1.74788
G1 X145.535 Y126.79 E1.76649
G1 X145.4 Y127.377 E1.78038
G1 X145.144 Y128.263 E1.80165
G1 X144.803 Y129.125 E1.82303
G1 X144.561 Y129.623 E1.83579
G1 X144.16 Y130.372 E1.85539
G1 X143.702 Y131.064 E1.87452
G1 X143.343 Y131.54 E1.88827
G1 X142.745 Y132.254 E1.90975
G1 X141.934 Y133.035 E1.93571
G1 X141.22 Y133.602 E1.95674
G1 X140.769 Y133.912 E1.96936
G1 X140.115 Y134.327 E1.98722
G1 X139.323 Y134.723 E2.00764
G1 X138.739 Y134.973 E2.02229
G1 X138.241 Y135.159 E2.03455
G1 X137.75 Y135.312 E2.04641
G1 X137.098 Y135.48 E2.06194
G1 X136.482 Y135.599 E2.0764
G1 X135.869 Y135.688 E2.09069
G1 X135.309 Y135.729 E2.10364
G1 X134.432 Y135.753 E2.12387
G1 X132.634 Y135.63 E2.16543
G1 X129.916 Y135.485 E2.2282
G1 X127.165 Y135.415 E2.29166
G1 X124.414 Y135.424 E2.3551
G1 X121.702 Y135.508 E2.41767
G1 X119.632 Y135.632 E2.46549
G1 X119.555 Y135.631 E2.46726
G1 X117.732 Y135.751 E2.50939
G1 X117.017 Y135.734 E2.52589
G1 X115.749 Y135.645 E2.5552
G1 X113.004 Y135.491 E2.6186
G1 X110.253 Y135.414 E2.68207
G1 X107.538 Y135.416 E2.74468
G1 X104.792 Y135.495 E2.80803
G1 X102.035 Y135.653 E2.87171
G1 X100.974 Y135.727 E2.89624
G1 X100.171 Y135.758 E2.91477
G1 X98.918 Y135.668 E2.94374
G1 X98.133 Y135.531 E2.96211
G1 X97.239 Y135.319 E2.9833
G1 X96.522 Y135.073 E3.00078
G1 X95.614 Y134.703 E3.02339
G1 X94.874 Y134.31 E3.04271
G1 X94.333 Y133.979 E3.05734
G1 X93.904 Y133.689 E3.06928
G1 X93.39 Y133.296 E3.0842
G1 X92.7 Y132.702 E3.1052
G1 X91.926 Y131.884 E3.13117
G1 X91.255 Y131.021 E3.15638
G1 X90.663 Y130.071 E3.18219
G1 X90.249 Y129.234 E3.20372
G1 X90.018 Y128.679 E3.21759
G1 X89.709 Y127.811 E3.23883
G1 X89.435 Y126.671 E3.26587
G1 X89.282 Y125.526 E3.29251
G1 X89.252 Y124.723 E3.31104
G1 X89.26 Y124.172 E3.32375
G1 X89.418 Y121.2 E3.39238
G1 X89.482 Y118.462 E3.45554
G1 X89.469 Y115.719 E3.5188
G1 X89.307 Y111.636 E3.61303
G1 X89.274 Y111.084 E3.62578
G1 X89.242 Y110.269 E3.64459
G1 X89.318 Y109.098 E3.67165
G1 X89.507 Y107.978 E3.69784
G1 X89.754 Y107.076 E3.71941
G1 X89.924 Y106.571 E3.7317
G1 X90.292 Y105.658 E3.7544
G1 X90.669 Y104.937 E3.77316
G1 X90.983 Y104.412 E3.78727
G1 X91.422 Y103.75 E3.80558
G1 X91.987 Y103.059 E3.82617
G1 X92.45 Y102.561 E3.84185
G1 X92.837 Y102.182 E3.85434
G0 F2400 X92.473 Y101.81
G1 F1800 X92.954 Y101.391 E3.86905
G1 X93.643 Y100.846 E3.88931
G1 X94.374 Y100.382 E3.90928
G1 X94.877 Y100.097 E3.92261
G1 X95.547 Y99.762 E3.93988
G1 X96.081 Y99.54 E3.95322
G1 X96.607 Y99.345 E3.96615
G1 X97.117 Y99.186 E3.97847
G1 X97.803 Y99.01 E3.99481
G1 X98.419 Y98.891 E4.00927
G1 X99.322 Y98.768 E4.03029
G1 X100.169 Y98.733 E4.04984
G1 X100.885 Y98.748 E4.06635
G1 X101.683 Y98.814 E4.08482
G1 X104.96 Y99.291 E4.16118
G1 X107.673 Y99.608 E4.22417
G1 X110.37 Y99.847 E4.28661
G1 X113.093 Y100.011 E4.34952
G1 X115.806 Y100.097 E4.41212
G1 X118.527 Y100.106 E4.47486
G1 X121.275 Y100.038 E4.53825
G1 X123.965 Y99.895 E4.60037
G1 X126.682 Y99.673 E4.66324
G1 X129.385 Y99.375 E4.72595
G1 X133.687 Y98.769 E4.82614
G1 X134.671 Y98.728 E4.84885
G1 X135.28 Y98.749 E4.8629
G1 X136.166 Y98.821 E4.8834
G1 X137.116 Y98.986 E4.90563
G1 X137.991 Y99.211 E4.92647
G1 X138.789 Y99.49 E4.94596
G1 X139.522 Y99.788 E4.96421
G1 X140.395 Y100.247 E4.98696
G1 X140.935 Y100.576 E5.00154
G1 X141.74 Y101.134 E5.02412
G1 X142.533 Y101.806 E5.0481
G1 X143.418 Y102.718 E5.0774
G1 X144.166 Y103.677 E5.10545
G1 X144.862 Y104.806 E5.13603
G1 X145.231 Y105.569 E5.15558
G1 X145.481 Y106.17 E5.17059
G1 X145.793 Y107.055 E5.19223
G1 X146.074 Y108.225 E5.21998
G1 X146.236 Y109.437 E5.24817
G1 X146.268 Y110.26 E5.26717
G1 X146.26 Y110.831 E5.28034
G1 X146.105 Y113.745 E5.34763
G1 X146.038 Y116.491 E5.41097
G1 X146.049 Y119.209 E5.47365
G1 X146.137 Y121.927 E5.53636
G1 X146.247 Y123.897 E5.58187
G1 X146.278 Y124.795 E5.60259
G1 X146.188 Y126.032 E5.63119
G1 X146.042 Y126.907 E5.65164
G1 X145.9 Y127.521 E5.66618
G1 X145.628 Y128.454 E5.68859
G1 X145.287 Y129.316 E5.70997
G1 X145.029 Y129.85 E5.72364
G1 X144.594 Y130.659 E5.74482
G1 X144.136 Y131.351 E5.76396
G1 X143.742 Y131.874 E5.77906
G1 X143.106 Y132.629 E5.80183
G1 X142.295 Y133.41 E5.82779
G1 X141.515 Y134.031 E5.85078
G1 X141.048 Y134.351 E5.86384
G1 X140.348 Y134.792 E5.88292
G1 X139.528 Y135.201 E5.90405
G1 X138.921 Y135.46 E5.91927
G1 X138.396 Y135.655 E5.93218
G1 X137.88 Y135.816 E5.94465
G1 X137.197 Y135.991 E5.96091
G1 X136.557 Y136.114 E5.97593
G1 X135.907 Y136.207 E5.99108
G1 X135.323 Y136.249 E6.00458
G1 X134.397 Y136.272 E6.02594
G1 X132.599 Y136.149 E6.0675
G1 X129.903 Y136.005 E6.12976
G1 X127.154 Y135.935 E6.19317
G1 X124.43 Y135.944 E6.25599
G1 X121.718 Y136.028 E6.31856
G1 X119.663 Y136.151 E6.36604
G1 X119.57 Y136.151 E6.36818
G1 X117.72 Y136.271 E6.41093
G1 X116.981 Y136.253 E6.42798
G1 X115.713 Y136.164 E6.45729
G1 X112.989 Y136.011 E6.52021
G1 X110.238 Y135.934 E6.58367
G1 X107.553 Y135.936 E6.64559
G1 X104.807 Y136.015 E6.70894
G1 X102.071 Y136.172 E6.77214
G1 X100.994 Y136.247 E6.79704
G1 X100.134 Y136.277 E6.81688
G1 X98.881 Y136.187 E6.84585
G1 X98.013 Y136.037 E6.86616
G1 X97.07 Y135.811 E6.88852
G1 X96.326 Y135.555 E6.90667
G1 X95.418 Y135.185 E6.92928
G1 X94.603 Y134.754 E6.95054
G1 X94.042 Y134.41 E6.96572
G1 X93.588 Y134.102 E6.97837
G1 X93.074 Y133.709 E6.99329
G1 X92.322 Y133.059 E7.01621
G1 X91.515 Y132.203 E7.04334
G1 X90.844 Y131.34 E7.06855
G1 X90.197 Y130.302 E7.09676
G1 X89.783 Y129.465 E7.11829
G1 X89.528 Y128.853 E7.13358
G1 X89.203 Y127.933 E7.15608
G1 X88.929 Y126.793 E7.18312
G1 X88.762 Y125.545 E7.21215
G1 X88.732 Y124.715 E7.23131
G1 X88.741 Y124.144 E7.24447
G1 X88.898 Y121.188 E7.31274
G1 X88.962 Y118.45 E7.3759
G1 X88.949 Y115.74 E7.43839
G1 X88.787 Y111.657 E7.53262
G1 X88.754 Y111.104 E7.5454
G1 X88.722 Y110.289 E7.56421
G1 X88.805 Y109.011 E7.59374
G1 X89.005 Y107.841 E7.62111
G1 X89.261 Y106.91 E7.64338
G1 X89.431 Y106.405 E7.65567
G1 X89.831 Y105.417 E7.68025
G1 X90.208 Y104.696 E7.69901
G1 X90.55 Y104.125 E7.71436
G1 X91.019 Y103.421 E7.73386
G1 X91.584 Y102.73 E7.75445
G1 X92.086 Y102.189 E7.77147
G1 X92.473 Y101.81 E7.78396
G0 F2400 X92.109 Y101.438
G1 F1800 X92.631 Y100.983 E7.79993
G1 X93.32 Y100.438 E7.82019
G1 X94.095 Y99.943 E7.84139
G1 X94.644 Y99.632 E7.85594
G1 X95.347 Y99.282 E7.87405
G1 X95.9 Y99.052 E7.88786
G1 X96.426 Y98.857 E7.9008
G1 X96.988 Y98.682 E7.91437
G1 X97.704 Y98.499 E7.93142
G1 X98.32 Y98.38 E7.94589
G1 X99.301 Y98.248 E7.96871
G1 X100.148 Y98.213 E7.98826
G1 X100.896 Y98.228 E8.00551
G1 X101.758 Y98.299 E8.02546
G1 X105.035 Y98.777 E8.10183
G1 X107.719 Y99.09 E8.16414
G1 X110.413 Y99.329 E8.22651
G1 X113.109 Y99.491 E8.2888
G1 X115.822 Y99.577 E8.35139
G1 X118.516 Y99.586 E8.41352
G1 X121.262 Y99.518 E8.47686
G1 X123.932 Y99.376 E8.53852
G1 X126.625 Y99.156 E8.60083
G1 X129.32 Y98.859 E8.66335
G1 X133.665 Y98.249 E8.76453
G1 X134.649 Y98.208 E8.78725
G1 X135.298 Y98.229 E8.80222
G1 X136.255 Y98.309 E8.82437
G1 X137.246 Y98.482 E8.84756
G1 X138.121 Y98.707 E8.8684
G1 X138.985 Y99.008 E8.8895
G1 X139.718 Y99.306 E8.90775
G1 X140.666 Y99.803 E8.93243
G1 X141.206 Y100.132 E8.94701
G1 X142.076 Y100.737 E8.97145
G1 X142.869 Y101.409 E8.99542
G1 X143.828 Y102.398 E9.02719
G1 X144.609 Y103.404 E9.05656
G1 X145.305 Y104.533 E9.08714
G1 X145.711 Y105.369 E9.10857
G1 X145.961 Y105.97 E9.12358
G1 X146.299 Y106.934 E9.14714
G1 X146.58 Y108.104 E9.17489
G1 X146.756 Y109.417 E9.20544
G1 X146.788 Y110.24 E9.22443
G1 X146.779 Y110.859 E9.23871
G1 X146.625 Y113.758 E9.30565
G1 X146.558 Y116.504 E9.369
G1 X146.569 Y119.192 E9.43099
G1 X146.657 Y121.91 E9.4937
G1 X146.767 Y123.879 E9.53917
G1 X146.797 Y124.833 E9.56119
G1 X146.707 Y126.07 E9.58979
G1 X146.549 Y127.024 E9.61209
G1 X146.407 Y127.638 E9.62662
G1 X146.112 Y128.645 E9.65082
G1 X145.771 Y129.507 E9.67219
G1 X145.487 Y130.096 E9.68727
G1 X145.028 Y130.946 E9.70955
G1 X144.57 Y131.638 E9.72869
G1 X144.14 Y132.209 E9.74517
G1 X143.467 Y133.004 E9.76919
G1 X142.656 Y133.785 E9.79516
G1 X141.839 Y134.438 E9.81927
G1 X141.325 Y134.791 E9.83365
G1 X140.625 Y135.232 E9.85273
G1 X139.732 Y135.679 E9.87576
G1 X139.102 Y135.947 E9.89155
G1 X138.551 Y136.151 E9.9051
G1 X138.009 Y136.32 E9.91819
G1 X137.295 Y136.502 E9.93518
G1 X136.631 Y136.629 E9.95077
G1 X135.944 Y136.726 E9.96677
G1 X135.336 Y136.769 E9.98083
G1 X134.362 Y136.791 E10.0033
G1 X132.564 Y136.668 E10.04486
G1 X129.89 Y136.525 E10.10661
G1 X127.143 Y136.455 E10.16998
G1 X124.446 Y136.464 E10.23217
G1 X121.734 Y136.548 E10.29474
G1 X119.694 Y136.67 E10.34187
G1 X119.589 Y136.671 E10.34429
G1 X117.707 Y136.791 E10.38778
G1 X116.945 Y136.772 E10.40536
G1 X115.677 Y136.683 E10.43467
G1 X112.974 Y136.531 E10.4971
G1 X110.223 Y136.454 E10.56057
G1 X107.568 Y136.456 E10.62179
G1 X104.822 Y136.535 E10.68514
G1 X102.107 Y136.691 E10.74786
G1 X101.012 Y136.767 E10.77317
G1 X100.097 Y136.796 E10.79428
G1 X98.844 Y136.706 E10.82325
G1 X97.892 Y136.543 E10.84552
G1 X96.901 Y136.303 E10.86903
G1 X96.13 Y136.037 E10.88784
G1 X95.222 Y135.667 E10.91045
G1 X94.36 Y135.214 E10.93291
G1 X93.75 Y134.84 E10.94941
G1 X93.272 Y134.515 E10.96274
G1 X92.758 Y134.122 E10.97766
G1 X91.944 Y133.416 E11.00251
G1 X91.104 Y132.522 E11.0308
G1 X90.433 Y131.659 E11.05601
G1 X89.731 Y130.533 E11.08661
G1 X89.317 Y129.696 E11.10814
G1 X89.048 Y129.053 E11.12421
G1 X88.697 Y128.055 E11.14861
G1 X88.423 Y126.915 E11.17565
G1 X88.242 Y125.564 E11.20708
G1 X88.212 Y124.707 E11.22686
G1 X88.222 Y124.116 E11.24049
G1 X88.378 Y121.176 E11.30838
G1 X88.442 Y118.438 E11.37154
G1 X88.429 Y115.761 E11.43327
G1 X88.267 Y111.678 E11.5275
G1 X88.234 Y111.124 E11.5403
G1 X88.202 Y110.309 E11.55911
G1 X88.292 Y108.923 E11.59114
G1 X88.492 Y107.753 E11.61851
G1 X88.768 Y106.744 E11.64263
G1 X88.938 Y106.239 E11.65492
G1 X89.37 Y105.176 E11.68138
G1 X89.747 Y104.455 E11.70015
G1 X90.117 Y103.837 E11.71676
G1 X90.616 Y103.092 E11.73743
G1 X91.181 Y102.401 E11.75802
G1 X91.722 Y101.817 E11.77638
G1 X92.109 Y101.438 E11.78887
G1 F2400 E10.18887
;MESH:NO_TXT_Kostka (7).stl
G0 X91.834 Y110.395
G0 X91.882 Y111.289
G0 X92.02 Y112.173
G0 X92.248 Y113.038
G0 X92.566 Y113.875
G0 X92.97 Y114.672
G0 X94.35 Y116.463
G0 X99.049 Y111.815
;TYPE:WALL-OUTER
G1 F2400 E11.78887
G1 F2250 X99.102 Y111.852 E11.79006
G1 X99.169 Y112.047 E11.79386
G1 X99.169 Y113.139 E11.81401
G1 X99.097 Y113.35 E11.81812
G1 X98.967 Y113.389 E11.82063
G1 X98.83 Y113.345 E11.82328
G1 X98.754 Y113.15 E11.82714
G1 X98.754 Y111.95 E11.84928
G1 X98.865 Y111.815 E11.8525
G1 X99.049 Y111.815 E11.8559
G0 F2400 X98.865 Y111.815
G0 X98.855 Y111.827
G1 F2400 E10.2559
G0 X104.91 Y113.071
G1 F2400 E11.8559
G1 F690.3 X104.803 Y112.917 E11.85966
G1 X104.802 Y112.101 E11.87601
G1 X104.869 Y111.878 E11.88068
G1 X104.978 Y111.817 E11.88319
G1 X105.078 Y111.818 E11.88519
G1 X105.187 Y111.878 E11.88768
G1 X105.254 Y112.102 E11.89237
G1 X105.254 Y112.809 E11.90654
G1 X105.206 Y112.996 E11.91041
G1 X105.133 Y113.075 E11.91257
G1 X104.91 Y113.071 E11.91704
G0 F2400 X105.11 Y113.074
G1 F2400 E10.31704
G0 X105.12 Y114.331
G1 F2400 E11.91704
G1 F737.6 X105.194 Y114.394 E11.91886
G1 X105.24 Y114.567 E11.92222
G1 X105.24 Y115.14 E11.93297
G1 X105.167 Y115.352 E11.93718
G1 X105.017 Y115.396 E11.94011
G1 X104.863 Y115.32 E11.94333
G1 X104.817 Y115.142 E11.94678
G1 X104.816 Y114.566 E11.95758
G1 X104.861 Y114.404 E11.96074
G1 X104.928 Y114.335 E11.96254
G1 X105.12 Y114.331 E11.96614
G0 F2400 X104.928 Y114.335
G0 X104.923 Y114.34
G1 F2400 E10.36614
G0 X109.533 Y112.976
G1 F2400 E11.96614
G1 F472.7 X109.491 Y113.047 E11.96856
G1 X109.41 Y113.047 E11.97093
G1 X109.369 Y112.976 E11.97333
G1 X109.411 Y112.905 E11.97574
G1 X109.491 Y112.905 E11.97808
G1 F2400 E10.37808
G0 X115.58 Y112.978
G1 F2400 E11.97808
G1 F471.3 X115.538 Y113.049 E11.98051
G1 X115.457 Y113.049 E11.98288
G1 X115.416 Y112.978 E11.98529
G1 X115.458 Y112.907 E11.98771
G1 X115.538 Y112.907 E11.99006
G1 F2400 E10.39006
G0 X119.529 Y113.832
G1 F2400 E11.99006
G1 F2260.9 X119.759 Y113.822 E11.99429
G1 F2255.4 X119.861 Y113.957 E11.9974
G1 F2244.6 X119.861 Y115.077 E12.01811
G1 F2239.2 X119.831 Y115.284 E12.02199
G1 X119.769 Y115.369 E12.02394
G1 X119.636 Y115.399 E12.02647
G1 X119.527 Y115.365 E12.02859
G1 F2244.6 X119.445 Y115.243 E12.0313
G1 F2255.4 X119.441 Y114.057 E12.05313
G1 F2260.9 X119.529 Y113.832 E12.05757
G0 F2400 X119.456 Y114.018
G1 F2400 E10.45757
G0 X119.514 Y121.647
G1 F2400 E12.05757
G1 F2255.4 X119.649 Y121.607 E12.06016
G1 X119.773 Y121.635 E12.0625
G1 X119.861 Y121.762 E12.06534
G1 X119.861 Y123.049 E12.08903
G1 F2266.3 X119.771 Y123.175 E12.09186
G1 F2271.8 X119.636 Y123.205 E12.09439
G1 X119.526 Y123.171 E12.0965
G1 X119.441 Y123.038 E12.09938
G1 F2260.9 X119.441 Y121.861 E12.12099
G1 F2255.4 X119.514 Y121.647 E12.12515
G0 F2400 X119.45 Y121.836
G1 F2400 E10.52515
G0 X115.538 Y120.71
G1 F2400 E12.12515
G1 F471.3 X115.458 Y120.71 E12.1275
G1 X115.416 Y120.781 E12.12992
G1 X115.457 Y120.852 E12.13233
G1 X115.538 Y120.852 E12.13471
G1 X115.58 Y120.781 E12.13713
G1 F2400 E10.53713
G0 X109.491 Y120.708
G1 F2400 E12.13713
G1 F472.7 X109.411 Y120.708 E12.13947
G1 X109.369 Y120.779 E12.14188
G1 X109.41 Y120.85 E12.14428
G1 X109.491 Y120.85 E12.14665
G1 X109.533 Y120.779 E12.14907
G1 F2400 E10.54907
G0 X105.126 Y123.181
G1 F2400 E12.14907
G1 F737.6 X104.926 Y123.18 E12.15282
G1 X104.862 Y123.121 E12.15445
G1 X104.816 Y122.945 E12.15787
G1 X104.816 Y122.369 E12.16867
G1 X104.86 Y122.208 E12.1718
G1 X104.919 Y122.146 E12.17341
G1 X105.113 Y122.13 E12.17706
G1 X105.195 Y122.196 E12.17903
