; generated by PrusaSlicer 2.6.0-alpha4+MacOS-x64 on 2023-03-19 at 10:27:59 UTC

; 

; external perimeters extrusion width = 0.40mm
; perimeters extrusion width = 0.40mm
; infill extrusion width = 0.40mm
; solid infill extrusion width = 0.40mm
; top infill extrusion width = 0.40mm
; support material extrusion width = 0.36mm
; first layer extrusion width = 0.40mm

M107
;TYPE:Custom
; Ender 3 Custom Start G-code
G92 E0 ; Reset Extruder

M140 S50 ; set bed temp
M190 S50 ; wait for bed temp

G28 ; Home all axes
M104 S205 ; set extruder temp 
BED_MESH_CALIBRATE AREA_START=84.9702,96.2318 AREA_END=146.03,134.768

G1 Z2.0 F3000 ; Move Z Axis up little to prevent scratching of Heat Bed
M109 S205 ; wait for extruder temp
G1 X0.1 Y20 Z0.3 F5000.0 ; Move to start position

G1 X0.1 Y200.0 Z0.3 F1500.0 E15 ; Draw the first line
G1 X0.4 Y200.0 Z0.3 F5000.0 ; Move to side a little
G1 X0.4 Y20 Z0.3 F1500.0 E30 ; Draw the second line
G92 E0 ; Reset Extruder
G1 Z2.0 F3000 ; Move Z Axis up little to prevent scratching of Heat Bed
G1 X5 Y20 Z0.3 F5000.0 ; Move over to prevent blob squish
G21 ; set units to millimeters
G90 ; use absolute coordinates
M83 ; use relative distances for extrusion
; Filament gcode
M107
;LAYER_CHANGE
;Z:0.16
;HEIGHT:0.16
;BEFORE_LAYER_CHANGE
G92 E0
;0.16


G1 E-5 F3600
G1 Z.16 F9000
;AFTER_LAYER_CHANGE
;0.16
G1 X89.126 Y99.583
G1 E5 F2400
M204 S500
;TYPE:Skirt/Brim
;WIDTH:0.4
G1 F1440
G1 X90.115 Y98.786 E.0309
G1 X91.18 Y98.094 E.03089
G1 X92.697 Y97.351 E.04109
G1 X94.724 Y96.717 E.05166
G1 X96.388 Y96.463 E.04094
G1 X133.755 Y96.42 E.90892
G1 X135.02 Y96.505 E.03084
G1 X136.276 Y96.717 E.03098
G1 X138.303 Y97.351 E.05166
G1 X139.82 Y98.094 E.04109
G1 X141.553 Y99.306 E.05144
G1 X142.481 Y100.167 E.03079
G1 X143.319 Y101.126 E.03098
G1 X144.273 Y102.54 E.04149
G1 X145.153 Y104.442 E.05098
G1 X145.613 Y106.095 E.04174
G1 X145.796 Y107.353 E.03092
G1 X145.847 Y108.4 E.0255
G1 X145.847 Y122.6 E.3454
G1 X145.796 Y123.647 E.0255
G1 X145.613 Y124.905 E.03092
G1 X145.153 Y126.558 E.04174
G1 X144.662 Y127.724 E.03077
G1 X144.045 Y128.839 E.031
G1 X143.319 Y129.874 E.03075
G1 X142.481 Y130.833 E.03098
G1 X140.885 Y132.214 E.05134
G1 X139.82 Y132.906 E.03089
G1 X138.3 Y133.651 E.04117
G1 X136.276 Y134.283 E.05158
G1 X134.612 Y134.537 E.04094
G1 X97.245 Y134.58 E.90892
G1 X95.131 Y134.366 E.05168
G1 X93.895 Y134.069 E.03092
G1 X92.7 Y133.651 E.03079
G1 X91.548 Y133.11 E.03096
G1 X90.115 Y132.214 E.04111
G1 X89.126 Y131.417 E.0309
G1 X88.221 Y130.516 E.03106
G1 X87.423 Y129.531 E.03084
G1 X86.727 Y128.46 E.03107
G1 X85.847 Y126.558 E.05098
G1 X85.482 Y125.339 E.03095
G1 X85.204 Y123.647 E.04171
G1 X85.153 Y122.6 E.0255
G1 X85.204 Y107.353 E.37087
G1 X85.387 Y106.095 E.03092
G1 X85.704 Y104.864 E.03092
G1 X86.155 Y103.671 E.03102
G1 X86.727 Y102.54 E.03083
G1 X87.423 Y101.469 E.03107
G1 X88.221 Y100.484 E.03084
G1 X89.084 Y99.626 E.0296
G1 X89.341 Y99.885 F9000
G1 F1440
G1 X90.339 Y99.074 E.03128
G1 X91.374 Y98.404 E.02999
G1 X92.823 Y97.694 E.03925
G1 X94.815 Y97.071 E.05077
G1 X96.406 Y96.829 E.03914
G1 X133.736 Y96.785 E.90802
G1 X134.965 Y96.866 E.02996
G1 X136.185 Y97.071 E.03009
G1 X138.177 Y97.694 E.05077
G1 X139.626 Y98.404 E.03925
G1 X141.328 Y99.594 E.05052
G1 X142.228 Y100.431 E.0299
G1 X143.039 Y101.362 E.03003
G1 X143.949 Y102.711 E.03958
G1 X144.813 Y104.577 E.05002
G1 X145.252 Y106.154 E.03982
G1 X145.431 Y107.372 E.02994
G1 X145.481 Y108.4 E.02503
G1 X145.481 Y122.6 E.3454
G1 X145.431 Y123.628 E.02503
G1 X145.253 Y124.846 E.02994
G1 X144.813 Y126.422 E.0398
G1 X144.339 Y127.553 E.02983
G1 X143.742 Y128.634 E.03004
G1 X143.039 Y129.638 E.02981
G1 X142.228 Y130.569 E.03003
G1 X140.661 Y131.926 E.05042
G1 X139.626 Y132.596 E.02999
G1 X138.174 Y133.308 E.03934
G1 X136.185 Y133.929 E.05068
G1 X134.594 Y134.171 E.03914
G1 X97.264 Y134.215 E.90802
G1 X95.186 Y134.005 E.0508
G1 X93.987 Y133.715 E.03001
G1 X92.826 Y133.308 E.02993
G1 X91.709 Y132.782 E.03003
G1 X90.339 Y131.926 E.03929
G1 X89.38 Y131.153 E.02996
G1 X88.501 Y130.28 E.03013
G1 X87.726 Y129.326 E.0299
G1 X87.051 Y128.289 E.0301
G1 X86.187 Y126.422 E.05004
G1 X85.835 Y125.241 E.02998
G1 X85.569 Y123.628 E.03976
G1 X85.519 Y122.6 E.02503
G1 X85.569 Y107.372 E.37041
G1 X85.748 Y106.154 E.02994
G1 X86.057 Y104.962 E.02995
G1 X86.495 Y103.806 E.03007
G1 X87.051 Y102.711 E.02987
G1 X87.726 Y101.674 E.0301
G1 X88.501 Y100.72 E.0299
G1 X89.299 Y99.927 E.02736
G1 X89.556 Y100.187 F9000
G1 F1440
G1 X90.564 Y99.363 E.03167
G1 X91.568 Y98.714 E.02908
G1 X92.95 Y98.037 E.03743
G1 X94.907 Y97.425 E.04988
G1 X96.425 Y97.194 E.03735
G1 X133.718 Y97.15 E.90712
G1 X134.911 Y97.228 E.02908
G1 X136.093 Y97.425 E.02915
G1 X138.05 Y98.037 E.04988
G1 X139.432 Y98.714 E.03743
G1 X141.104 Y99.883 E.04962
G1 X141.975 Y100.694 E.02895
G1 X142.759 Y101.597 E.02909
G1 X143.626 Y102.882 E.03771
G1 X144.474 Y104.713 E.04908
G1 X144.892 Y106.214 E.0379
G1 X145.066 Y107.392 E.02896
G1 X145.116 Y108.4 E.02455
G1 X145.116 Y122.6 E.3454
G1 X145.066 Y123.608 E.02455
G1 X144.892 Y124.786 E.02896
G1 X144.474 Y126.287 E.0379
G1 X144.015 Y127.382 E.02888
G1 X143.44 Y128.429 E.02906
G1 X142.759 Y129.403 E.02891
G1 X141.975 Y130.306 E.02909
G1 X140.436 Y131.637 E.04949
G1 X139.432 Y132.286 E.02908
G1 X138.047 Y132.965 E.03752
G1 X136.093 Y133.575 E.04979
G1 X134.575 Y133.806 E.03735
G1 X97.282 Y133.85 E.90712
G1 X95.241 Y133.643 E.0499
G1 X94.078 Y133.361 E.02911
G1 X92.953 Y132.965 E.02901
G1 X91.87 Y132.454 E.02913
G1 X90.564 Y131.637 E.03747
G1 X89.633 Y130.889 E.02905
G1 X88.781 Y130.045 E.02917
G1 X88.028 Y129.121 E.02899
G1 X87.374 Y128.118 E.02913
G1 X86.526 Y126.287 E.04908
G1 X86.187 Y125.143 E.02902
G1 X85.934 Y123.608 E.03784
G1 X85.884 Y122.6 E.02455
G1 X85.934 Y107.392 E.36992
G1 X86.108 Y106.214 E.02896
G1 X86.409 Y105.06 E.02901
G1 X86.834 Y103.942 E.02909
G1 X87.374 Y102.882 E.02894
G1 X88.029 Y101.879 E.02914
G1 X88.781 Y100.955 E.02898
G1 X89.513 Y100.229 E.02508
; printing object NO_TXT_Kostka.stl id:0 copy 0
G1 E-3.5 F3600
;WIPE_START
G1 F7200
G1 X90.564 Y99.363 E-.64687
G1 X91.568 Y98.714 E-.56786
G1 X92.107 Y98.45 E-.28527
;WIPE_END
G1 X107.932 Y120.76 F9000
G1 E5 F2400
;TYPE:Perimeter
;WIDTH:0.399999
G1 F1440
G1 X107.832 Y121.295 E.01324
G1 X107.759 Y121.476 E.00475
G1 X107.455 Y121.904 E.01277
G1 X107.044 Y122.234 E.01282
G1 X106.541 Y122.45 E.01332
G1 X106.016 Y122.524 E.0129
G1 X105.501 Y122.482 E.01257
G1 X105.019 Y122.321 E.01236
G1 X104.604 Y122.053 E.01202
G1 X104.169 Y121.507 E.01698
G1 X104.052 Y121.139 E.00939
G1 X104.061 Y121.901 E.01854
G1 X103.982 Y122.185 E.00717
G1 X103.813 Y122.36 E.00592
G1 X103.659 Y122.429 E.0041
G1 X103.152 Y122.449 E.01234
G1 X100.386 Y122.449 E.06728
G1 X100.151 Y122.397 E.00585
G1 X99.937 Y122.215 E.00683
G1 X99.837 Y121.901 E.00802
G1 X99.84 Y121.228 E.01637
;WIDTH:0.394978
G1 X99.913 Y120.971 E.00641
;WIDTH:0.399999
G1 X100.308 Y120.432 E.01625
G1 X100.604 Y119.943 E.0139
G1 X100.82 Y119.466 E.01274
G1 X100.985 Y118.985 E.01237
G1 X101.11 Y118.475 E.01277
G1 X101.226 Y117.601 E.02145
G1 X101.246 Y117.094 E.01234
G1 X101.322 Y116.837 E.00652
G1 X101.516 Y116.644 E.00666
G1 X101.794 Y116.568 E.00701
G1 X102.606 Y116.568 E.01975
G1 X102.895 Y116.65 E.00731
G1 X103.045 Y116.788 E.00496
G1 X103.153 Y117.072 E.00739
G1 X103.14 Y117.624 E.01343
;WIDTH:0.442495
G1 X103.15 Y117.735 E.00303
;WIDTH:0.48499
G1 X103.161 Y117.846 E.00334
;WIDTH:0.527486
G1 X103.172 Y117.956 E.00363
;WIDTH:0.569981
G1 X103.183 Y118.067 E.00397
G1 X103.138 Y118.449 E.01371
;WIDTH:0.562966
G1 X103.091 Y118.578 E.00483
;WIDTH:0.522225
G1 X103.045 Y118.707 E.00444
;WIDTH:0.481483
G1 X102.998 Y118.836 E.00408
;WIDTH:0.440741
G1 X102.951 Y118.964 E.00369
;WIDTH:0.399999
G1 X102.773 Y119.582 E.01564
G1 X102.652 Y119.931 E.00898
G1 X102.281 Y120.634 E.01933
G1 X103.517 Y120.591 E.03008
G1 X103.783 Y120.663 E.0067
G1 X103.939 Y120.804 E.00511
;WIDTH:0.389335
G1 X104.035 Y121.032 E.00584
;WIDTH:0.399999
G1 X103.968 Y120.577 E.01119
G1 X104.064 Y120.084 E.01222
G1 X104.222 Y119.793 E.00805
G1 X103.973 Y119.446 E.01039
G1 X103.796 Y118.923 E.01343
;WIDTH:0.442487
G1 X103.768 Y118.795 E.00356
;WIDTH:0.484974
G1 X103.74 Y118.668 E.0039
;WIDTH:0.527462
G1 X103.713 Y118.54 E.00429
;WIDTH:0.569949
G1 X103.685 Y118.413 E.00463
;WIDTH:0.572766
G1 X103.715 Y118.132 E.01012
G1 X103.776 Y118.013 E.00479
;WIDTH:0.529575
G1 X103.836 Y117.894 E.00439
;WIDTH:0.486383
G1 X103.897 Y117.775 E.00402
;WIDTH:0.443191
G1 X103.958 Y117.655 E.00366
;WIDTH:0.399999
G1 X104.265 Y117.2 E.01335
G1 X104.67 Y116.853 E.01297
G1 X105.194 Y116.607 E.01408
G1 X105.841 Y116.499 E.01596
G1 X106.421 Y116.536 E.01414
G1 X106.901 Y116.682 E.0122
G1 X107.13 Y116.789 E.00615
G1 X107.558 Y117.112 E.01304
G1 X107.892 Y117.547 E.01334
G1 X108.092 Y118.062 E.01344
G1 X108.145 Y118.617 E.01356
G1 X108.064 Y119.136 E.01278
G1 X107.804 Y119.66 E.01423
G1 X107.686 Y119.794 E.00434
G1 X107.864 Y120.159 E.00988
G1 X107.943 Y120.701 E.01332
G1 X107.544 Y120.881 F9000
;TYPE:External perimeter
G1 F1440
G1 X107.474 Y121.221 E.00844
G1 X107.226 Y121.619 E.01141
G1 X106.815 Y121.949 E.01282
G1 X106.37 Y122.118 E.01158
G1 X105.937 Y122.161 E.01058
G1 X105.497 Y122.108 E.01078
G1 X105.105 Y121.956 E.01023
G1 X104.769 Y121.71 E.01013
G1 X104.464 Y121.292 E.01259
G1 X104.328 Y120.714 E.01444
G1 X104.407 Y120.215 E.01229
G1 X104.684 Y119.754 E.01308
G1 X104.317 Y119.309 E.01403
G1 X104.145 Y118.815 E.01272
G1 X104.136 Y118.314 E.01219
G1 X104.269 Y117.848 E.01179
G1 X104.511 Y117.47 E.01092
G1 X104.896 Y117.148 E.01221
G1 X105.269 Y116.965 E.01011
G1 X105.902 Y116.859 E.01561
G1 X106.423 Y116.904 E.01272
G1 X106.908 Y117.08 E.01255
G1 X107.277 Y117.345 E.01105
G1 X107.557 Y117.693 E.01086
G1 X107.73 Y118.109 E.01096
G1 X107.782 Y118.566 E.01119
G1 X107.705 Y119.052 E.01197
G1 X107.491 Y119.466 E.01134
G1 X107.223 Y119.755 E.00959
G1 X107.494 Y120.185 E.01236
G1 X107.579 Y120.709 E.01291
G1 X107.556 Y120.822 E.0028
G1 X107.823 Y121.087 F9000
G1 E-3.5 F3600
;WIPE_START
G1 F7200
G1 X107.474 Y121.221 E-.19349
G1 X107.226 Y121.619 E-.22275
G1 X106.815 Y121.949 E-.25037
G1 X106.37 Y122.118 E-.2261
G1 X105.937 Y122.161 E-.20669
G1 X105.497 Y122.108 E-.21051
G1 X105.124 Y121.963 E-.19009
;WIPE_END
G1 X102.029 Y122.084 F9000
G1 E5 F2400
G1 F1440
G1 X100.386 Y122.084 E.03996
G1 X100.252 Y122.026 E.00355
G1 X100.203 Y121.901 E.00327
G1 X100.203 Y121.228 E.01637
G1 X100.241 Y121.117 E.00285
G1 X100.644 Y120.595 E.01604
G1 X100.937 Y120.097 E.01405
G1 X101.168 Y119.584 E.01368
G1 X101.343 Y119.07 E.01321
G1 X101.466 Y118.571 E.0125
G1 X101.591 Y117.632 E.02304
G1 X101.612 Y117.109 E.01273
G1 X101.684 Y116.971 E.00379
G1 X101.794 Y116.934 E.00282
G1 X102.606 Y116.934 E.01975
G1 X102.753 Y117.007 E.00399
G1 X102.789 Y117.122 E.00293
G1 X102.774 Y117.619 E.01209
G1 X102.719 Y118.174 E.01357
G1 X102.593 Y118.892 E.01773
G1 X102.327 Y119.764 E.02218
G1 X101.995 Y120.407 E.0176
G1 X101.534 Y121.053 E.0193
G1 X103.084 Y120.969 E.03776
G1 X103.603 Y120.981 E.01263
G1 X103.691 Y121.103 E.00366
G1 X103.696 Y121.901 E.01941
G1 X103.633 Y122.038 E.00367
G1 X103.513 Y122.084 E.00313
G1 X102.089 Y122.084 E.03464
G1 X101.832 Y122.432 F9000
G1 E-3.5 F3600
;WIPE_START
G1 F7200
G1 X100.386 Y122.084 E-.80893
G1 X100.252 Y122.026 E-.06936
G1 X100.203 Y121.901 E-.06377
G1 X100.203 Y121.228 E-.31967
G1 X100.241 Y121.117 E-.05573
G1 X100.476 Y120.813 E-.18254
;WIPE_END
G1 X104.035 Y121.032 F9000
G1 E5 F2400
;TYPE:Perimeter
;WIDTH:0.378882
G1 F1440
G1 X104.05 Y121.124 E.00214
G1 E-3.5 F3600
;WIPE_START
G1 F7200
G1 X104.035 Y121.032 E-.04428
;WIPE_END
G1 E-1.45572 F3600
G1 X112.368 Y117.699 F9000
G1 E5 F2400
;WIDTH:0.399999
G1 F1440
G1 X114.147 Y117.699 E.04327
G1 X114.447 Y117.788 E.00761
G1 X114.461 Y117.812 E.00068
G1 X114.751 Y117.299 E.01433
G1 X115.15 Y116.92 E.01339
G1 X115.647 Y116.652 E.01373
G1 X116.136 Y116.548 E.01216
G1 X116.623 Y116.498 E.01191
G1 X117.181 Y116.565 E.01367
G1 X117.706 Y116.779 E.01379
G1 X117.968 Y116.934 E.0074
G1 X118.338 Y117.293 E.01254
G1 X118.681 Y117.883 E.0166
G1 X118.873 Y117.717 E.00617
G1 X119.11 Y117.699 E.00578
G1 X119.11 Y117.116 E.01418
G1 X119.205 Y116.808 E.00784
G1 X119.329 Y116.678 E.00437
G1 X119.611 Y116.57 E.00735
G1 X120.366 Y116.568 E.01836
G1 X120.737 Y116.644 E.00921
G1 X120.898 Y116.789 E.00527
G1 X121.007 Y117.116 E.00838
G1 X121.007 Y117.699 E.01418
G1 X122.785 Y117.699 E.04325
G1 X123.066 Y117.776 E.00709
G1 X123.277 Y118.005 E.00757
G1 X123.334 Y118.247 E.00605
G1 X123.323 Y118.848 E.01462
G1 X123.204 Y119.098 E.00673
G1 X120.802 Y122.234 E.09608
G1 X120.593 Y122.4 E.00649
G1 X120.366 Y122.449 E.00565
G1 X119.658 Y122.449 E.01722
G1 X119.384 Y122.376 E.0069
G1 X119.224 Y122.236 E.00517
G1 X119.132 Y122.054 E.00496
;WIDTH:0.413714
G1 X119.103 Y121.245 E.02043
;WIDTH:0.455599
G1 X119.082 Y120.596 E.0182
G1 X119.096 Y120.271 E.00912
;WIDTH:0.427799
G1 X119.11 Y119.947 E.00849
;WIDTH:0.399999
G1 X119.11 Y119.537 E.00997
G1 X118.808 Y119.497 E.00741
G1 X118.566 Y119.304 E.00753
G1 X118.466 Y118.989 E.00804
G1 X118.466 Y118.789 E.00486
G1 X117.733 Y119.088 E.01926
G1 X117.488 Y119.11 E.00598
G1 X117.516 Y119.636 E.01281
G1 X117.499 Y120.048 E.01003
G1 X118.324 Y120.342 E.0213
;WIDTH:0.427799
G1 X118.498 Y120.504 E.00622
;WIDTH:0.455599
G1 X118.673 Y120.665 E.00666
G1 X118.688 Y120.953 E.00808
;WIDTH:0.439507
G1 X118.319 Y121.651 E.02128
;WIDTH:0.399999
G1 X117.853 Y122.115 E.016
G1 X117.284 Y122.404 E.01552
;WIDTH:0.437111
G1 X116.614 Y122.541 E.01832
;WIDTH:0.478662
G1 X116.539 Y122.559 E.00228
;WIDTH:0.520212
G1 X116.465 Y122.578 E.00247
;WIDTH:0.561762
G1 X116.39 Y122.596 E.00271
G1 X115.927 Y122.521 E.01646
;WIDTH:0.546464
G1 X115.776 Y122.435 E.00592
;WIDTH:0.497643
G1 X115.626 Y122.349 E.00533
;WIDTH:0.448821
G1 X115.476 Y122.263 E.00477
;WIDTH:0.399999
G1 X115.039 Y121.934 E.01331
G1 X114.722 Y121.51 E.01288
G1 X114.555 Y121.088 E.01104
G1 X114.512 Y120.543 E.0133
;WIDTH:0.44142
G1 X114.591 Y120.049 E.01355
;WIDTH:0.472245
G1 X114.629 Y119.925 E.00378
;WIDTH:0.503069
G1 X114.705 Y119.74 E.00624
G1 X114.486 Y119.426 E.01194
G1 X114.447 Y119.337 E.00303
G1 X114.249 Y119.57 E.00953
;WIDTH:0.472245
G1 X114.051 Y119.803 E.00891
;WIDTH:0.44142
G1 X113.731 Y120.188 E.01356
;WIDTH:0.399999
G1 X112.163 Y122.234 E.0627
G1 X112.033 Y122.357 E.00435
G1 X111.804 Y122.444 E.00596
G1 X111.02 Y122.449 E.01907
G1 X110.747 Y122.377 E.00687
G1 X110.576 Y122.223 E.0056
G1 X110.48 Y121.999 E.00593
G1 X110.471 Y119.537 E.05989
G1 X110.376 Y119.537 E.00231
G1 X110.017 Y119.403 E.00932
G1 X109.882 Y119.226 E.00541
G1 X109.828 Y118.989 E.00591
G1 X109.828 Y118.247 E.01805
G1 X109.893 Y117.988 E.0065
G1 X110.096 Y117.776 E.00714
G1 X110.471 Y117.699 E.00931
G1 X110.471 Y117.116 E.01418
G1 X110.543 Y116.846 E.0068
G1 X110.721 Y116.657 E.00632
G1 X110.972 Y116.57 E.00646
G1 X111.728 Y116.568 E.01839
G1 X112.096 Y116.643 E.00914
G1 X112.306 Y116.862 E.00738
G1 X112.368 Y117.116 E.00636
G1 X112.368 Y117.639 E.01272
G1 X112.003 Y118.034 F9000
;TYPE:External perimeter
G1 F1440
G1 X112.003 Y118.065 E.00075
G1 X114.147 Y118.065 E.05215
G1 X114.247 Y118.094 E.00253
;WIDTH:0.408155
G1 X114.334 Y118.247 E.00438
G1 X114.332 Y118.757 E.01268
;WIDTH:0.406415
G1 X113.933 Y119.322 E.01712
;WIDTH:0.399999
G1 X111.873 Y122.012 E.08241
G1 X111.728 Y122.084 E.00394
G1 X111.02 Y122.084 E.01722
G1 X110.903 Y122.041 E.00303
G1 X110.837 Y121.901 E.00376
G1 X110.837 Y119.172 E.06638
G1 X110.376 Y119.172 E.01121
G1 X110.222 Y119.086 E.00429
G1 X110.194 Y118.247 E.02042
G1 X110.267 Y118.101 E.00397
G1 X110.376 Y118.065 E.00279
G1 X110.837 Y118.065 E.01121
G1 X110.837 Y117.116 E.02308
G1 X110.892 Y116.986 E.00343
G1 X111.02 Y116.934 E.00336
G1 X111.82 Y116.934 E.01946
G1 X111.974 Y117.018 E.00427
G1 X112.003 Y117.116 E.00249
G1 X112.003 Y117.974 E.02087
G1 X112.03 Y118.049 F9000
G1 E-3.5 F3600
;WIPE_START
G1 F7200
G1 X112.003 Y118.065 E-.04322
G1 X114.147 Y118.065 E-1.0184
G1 X114.247 Y118.094 E-.04946
G1 X114.334 Y118.247 E-.0836
G1 X114.332 Y118.757 E-.24225
G1 X114.255 Y118.865 E-.06307
;WIPE_END
G1 X116.998 Y118.693 F9000
