;FLAVOR:Marlin
;TIME:3605
;Filament used: 3.31028m
;Layer height: 0.2
;MINX:78.508
;MINY:73.753
;MINZ:0.2
;MAXX:156.487
;MAXY:161.253
;MAXZ:6.8
;POSTPROCESSED
;Generated with Cura_SteamEngine 5.3.1
M82 ;absolute extrusion mode
; Ender 3 Custom Start G-code
G92 E0 ; Reset Extruder

M140 S55 ; set bed temp
M190 S55 ; wait for bed temp

G28 ; Home all axes
BED_MESH_CALIBRATE  AREA_START=78.508,73.753 AREA_END=156.487,161.253
M104 S200 ; set extruder temp 

G1 Z2.0 F3000 ; Move Z Axis up little to prevent scratching of Heat Bed
M109 S200 ; wait for extruder temp
G1 X0.1 Y20 Z0.3 F5000.0 ; Move to start position

G1 X0.1 Y200.0 Z0.3 F1500.0 E15 ; Draw the first line
G1 X0.4 Y200.0 Z0.3 F5000.0 ; Move to side a little
G1 X0.4 Y20 Z0.3 F1500.0 E30 ; Draw the second line
G92 E0 ; Reset Extruder
G1 Z2.0 F3000 ; Move Z Axis up little to prevent scratching of Heat Bed
G1 X5 Y20 Z0.3 F5000.0 ; Move over to prevent blob squish
G92 E0
G92 E0
G1 F1500 E-1
;LAYER_COUNT:35
;LAYER:0
M107
G0 F3600 X82.912 Y79.117 Z0.2
;TYPE:SKIRT
G1 F1500 E0
G1 X83.407 Y78.612 E0.02352
G1 X84.007 Y78.05 E0.05086
G1 X84.542 Y77.616 E0.07378
G1 X85.072 Y77.215 E0.09588
G1 X85.592 Y76.864 E0.11675
G1 X86.412 Y76.364 E0.14869
G1 X87.018 Y76.053 E0.17135
G1 X87.93 Y75.63 E0.20478
G1 X89.084 Y75.217 E0.24555
G1 X89.758 Y75.029 E0.26882
G1 X90.638 Y74.817 E0.29893
G1 X91.856 Y74.64 E0.33986
G1 X92.501 Y74.584 E0.3614
G1 X93.326 Y74.553 E0.38886
G1 X93.917 Y74.562 E0.40852
G1 X94.785 Y74.616 E0.43744
G1 X95.46 Y74.696 E0.46005
G1 X96.368 Y74.849 E0.49068
G1 X98.897 Y75.378 E0.57661
G1 X101.599 Y75.868 E0.66795
G1 X104.311 Y76.279 E0.75918
G1 X107.021 Y76.613 E0.84999
G1 X109.76 Y76.872 E0.9415
G1 X112.469 Y77.05 E1.0318
G1 X115.222 Y77.153 E1.12342
G1 X117.976 Y77.18 E1.21503
G1 X120.694 Y77.128 E1.30545
G1 X123.405 Y77 E1.39571
G1 X126.153 Y76.792 E1.48737
G1 X128.897 Y76.506 E1.57913
G1 X131.586 Y76.149 E1.66936
G1 X134.298 Y75.71 E1.76073
G1 X137.652 Y75.058 E1.87437
G1 X138.854 Y74.802 E1.91525
G1 X140.342 Y74.595 E1.96522
G1 X141.457 Y74.553 E2.00233
G1 X142.06 Y74.563 E2.02239
G1 X143.269 Y74.646 E2.06269
G1 X144.458 Y74.84 E2.10276
G1 X145.12 Y74.998 E2.1254
G1 X146.135 Y75.283 E2.16046
G1 X147.257 Y75.712 E2.20042
G1 X147.835 Y75.981 E2.22162
G1 X148.575 Y76.355 E2.2492
G1 X149.115 Y76.679 E2.27014
G1 X149.828 Y77.138 E2.29835
G1 X150.337 Y77.522 E2.31955
G1 X151.174 Y78.202 E2.35542
G1 X152.016 Y79.034 E2.39479
G1 X152.461 Y79.544 E2.4173
G1 X152.882 Y80.059 E2.43943
G1 X153.275 Y80.602 E2.46172
G1 X153.788 Y81.384 E2.49283
G1 X154.116 Y81.981 E2.51549
G1 X154.445 Y82.628 E2.53963
G1 X154.721 Y83.287 E2.56339
G1 X154.984 Y83.972 E2.58779
G1 X155.198 Y84.696 E2.6129
G1 X155.375 Y85.371 E2.63611
G1 X155.503 Y86.077 E2.65998
G1 X155.613 Y86.808 E2.68457
G1 X155.659 Y87.448 E2.70591
G1 X155.687 Y88.121 E2.72831
G1 X155.67 Y88.858 E2.75283
G1 X155.499 Y91.331 E2.83528
G1 X155.355 Y94.125 E2.92833
G1 X155.29 Y96.844 E3.01879
G1 X155.304 Y99.598 E3.11039
G1 X155.393 Y102.311 E3.20067
G1 X155.565 Y105.099 E3.29358
G1 X155.657 Y106.347 E3.3352
G1 X155.687 Y107.061 E3.35897
G1 X155.671 Y107.771 E3.38259
G1 X155.612 Y108.647 E3.41179
G1 X155.514 Y109.308 E3.43402
G1 X155.378 Y110.075 E3.45993
G1 X155.196 Y110.764 E3.48363
G1 X154.999 Y111.437 E3.50695
G1 X154.733 Y112.138 E3.53189
G1 X154.5 Y112.697 E3.55203
G1 X154.184 Y113.4 E3.57767
G1 X153.072 Y115.965 E3.67065
G1 X152.062 Y118.49 E3.7611
G1 X151.12 Y121.053 E3.85192
G1 X150.24 Y123.676 E3.94394
G1 X149.446 Y126.284 E4.03462
G1 X148.726 Y128.911 E4.12521
G1 X148.07 Y131.607 E4.2175
G1 X147.506 Y134.246 E4.30726
G1 X147.007 Y136.948 E4.39864
G1 X146.588 Y139.645 E4.48942
G1 X146.242 Y142.375 E4.58095
G1 X145.977 Y145.083 E4.67145
G1 X145.723 Y149.112 E4.80572
G1 X145.673 Y150.271 E4.8443
G1 X145.615 Y150.973 E4.86773
G1 X145.472 Y151.861 E4.89765
G1 X145.313 Y152.508 E4.91981
G1 X145.115 Y153.159 E4.94244
G1 X144.775 Y154.016 E4.9731
G1 X144.492 Y154.596 E4.99457
G1 X144.072 Y155.347 E5.02319
G1 X143.485 Y156.186 E5.05724
G1 X142.683 Y157.109 E5.09791
G1 X141.92 Y157.826 E5.13274
G1 X140.938 Y158.562 E5.17355
G1 X140.046 Y159.102 E5.20824
G1 X139.23 Y159.493 E5.23833
G1 X138.681 Y159.718 E5.25806
G1 X137.937 Y159.981 E5.28431
G1 X137.058 Y160.197 E5.31442
G1 X136.505 Y160.3 E5.33312
G1 X135.6 Y160.418 E5.36348
G1 X134.805 Y160.447 E5.38994
G1 X134.217 Y160.437 E5.4095
G1 X132.068 Y160.298 E5.48112
G1 X129.31 Y160.165 E5.57296
G1 X126.594 Y160.111 E5.66332
G1 X123.841 Y160.134 E5.75488
G1 X121.091 Y160.235 E5.84641
G1 X117.79 Y160.45 E5.95643
G1 X117.082 Y160.438 E5.97999
G1 X115.341 Y160.323 E6.03802
G1 X112.545 Y160.177 E6.13114
G1 X109.829 Y160.112 E6.2215
G1 X107.078 Y160.124 E6.313
G1 X104.349 Y160.214 E6.40382
G1 X101.012 Y160.426 E6.51503
G1 X100.075 Y160.453 E6.54621
G1 X98.936 Y160.372 E6.58419
G1 X97.824 Y160.179 E6.62172
G1 X96.826 Y159.905 E6.65615
G1 X95.998 Y159.591 E6.6856
G1 X95.462 Y159.35 E6.70515
G1 X94.639 Y158.926 E6.73594
G1 X93.698 Y158.307 E6.7734
G1 X92.807 Y157.582 E6.81161
G1 X92.02 Y156.79 E6.84874
G1 X91.339 Y155.959 E6.88448
G1 X90.688 Y154.947 E6.9245
G1 X90.282 Y154.151 E6.95422
G1 X89.956 Y153.38 E6.98206
G1 X89.737 Y152.687 E7.00623
G1 X89.581 Y152.094 E7.02663
G1 X89.408 Y151.224 E7.05613
G1 X89.338 Y150.45 E7.08198
G1 X89.29 Y149.303 E7.12016
G1 X89.141 Y146.575 E7.21103
G1 X88.914 Y143.832 E7.30257
G1 X88.614 Y141.136 E7.3928
G1 X88.229 Y138.395 E7.48486
G1 X87.779 Y135.727 E7.57485
G1 X87.244 Y133.034 E7.66617
G1 X86.63 Y130.332 E7.75833
G1 X85.958 Y127.729 E7.84774
G1 X85.179 Y125.028 E7.94124
G1 X84.368 Y122.49 E8.02986
G1 X83.455 Y119.885 E8.12167
G1 X82.474 Y117.322 E8.21295
G1 X81.418 Y114.782 E8.30444
G1 X81.113 Y114.101 E8.32926
G1 X81.083 Y114.016 E8.33225
G1 X80.373 Y112.407 E8.39075
G1 X80.013 Y111.472 E8.42407
G1 X79.807 Y110.773 E8.44831
G1 X79.616 Y110.043 E8.47341
G1 X79.494 Y109.357 E8.49658
G1 X79.402 Y108.741 E8.5173
G1 X79.341 Y107.996 E8.54216
G1 X79.308 Y107.192 E8.56892
G1 X79.33 Y106.591 E8.58893
G1 X79.501 Y104.12 E8.67131
G1 X79.645 Y101.326 E8.76436
G1 X79.71 Y98.607 E8.85482
G1 X79.696 Y95.853 E8.94642
G1 X79.607 Y93.14 E9.0367
G1 X79.435 Y90.351 E9.12964
G1 X79.336 Y88.994 E9.1749
G1 X79.312 Y88.386 E9.19513
G1 X79.329 Y87.679 E9.21866
G1 X79.38 Y86.926 E9.24376
G1 X79.476 Y86.205 E9.26795
G1 X79.595 Y85.526 E9.29088
G1 X79.772 Y84.804 E9.3156
G1 X80.011 Y83.988 E9.34388
G1 X80.274 Y83.296 E9.36851
G1 X80.506 Y82.743 E9.38845
G1 X80.798 Y82.146 E9.41056
G1 X81.174 Y81.457 E9.43666
G1 X81.551 Y80.86 E9.46015
G1 X82.034 Y80.166 E9.48827
G1 X82.452 Y79.648 E9.51041
G1 X82.912 Y79.117 E9.53377
G0 F3600 X82.626 Y78.837
G1 F1500 X83.134 Y78.32 E9.55788
G1 X83.755 Y77.739 E9.58617
G1 X84.301 Y77.297 E9.60953
G1 X84.848 Y76.883 E9.63235
G1 X85.384 Y76.522 E9.65384
G1 X86.204 Y76.022 E9.68578
G1 X86.85 Y75.69 E9.70994
G1 X87.795 Y75.253 E9.74457
G1 X88.949 Y74.84 E9.78534
G1 X89.664 Y74.64 E9.81003
G1 X90.58 Y74.421 E9.84136
G1 X91.821 Y74.241 E9.88306
G1 X92.486 Y74.184 E9.90526
G1 X93.332 Y74.153 E9.93342
G1 X93.942 Y74.163 E9.95371
G1 X94.832 Y74.219 E9.98337
G1 X95.526 Y74.302 E10.00662
G1 X96.45 Y74.457 E10.03778
G1 X98.979 Y74.986 E10.12371
G1 X101.67 Y75.475 E10.21468
G1 X104.36 Y75.882 E10.30517
G1 X107.071 Y76.216 E10.39602
G1 X109.791 Y76.473 E10.48689
G1 X112.484 Y76.65 E10.57665
G1 X115.237 Y76.753 E10.66828
G1 X117.972 Y76.78 E10.75926
G1 X120.675 Y76.728 E10.84917
G1 X123.386 Y76.6 E10.93944
G1 X126.118 Y76.393 E11.03057
G1 X128.844 Y76.109 E11.12173
G1 X131.533 Y75.752 E11.21195
G1 X134.224 Y75.317 E11.30261
G1 X137.576 Y74.665 E11.41619
G1 X138.799 Y74.406 E11.45777
G1 X140.327 Y74.195 E11.50907
G1 X141.464 Y74.153 E11.54692
G1 X142.087 Y74.164 E11.56764
G1 X143.333 Y74.251 E11.60918
G1 X144.522 Y74.445 E11.64925
G1 X145.228 Y74.613 E11.67339
G1 X146.278 Y74.909 E11.70967
G1 X147.426 Y75.349 E11.75057
G1 X148.015 Y75.624 E11.77219
G1 X148.781 Y76.012 E11.80075
G1 X149.332 Y76.343 E11.82212
G1 X150.045 Y76.802 E11.85033
G1 X150.589 Y77.212 E11.87298
G1 X151.455 Y77.917 E11.91013
G1 X152.297 Y78.749 E11.9495
G1 X152.771 Y79.291 E11.97344
G1 X153.206 Y79.824 E11.99633
G1 X153.599 Y80.367 E12.01862
G1 X154.139 Y81.191 E12.05139
G1 X154.473 Y81.8 E12.07449
G1 X154.802 Y82.447 E12.09863
G1 X155.094 Y83.144 E12.12377
G1 X155.368 Y83.859 E12.14923
G1 X155.585 Y84.595 E12.17475
G1 X155.769 Y85.3 E12.19899
G1 X155.899 Y86.017 E12.22322
G1 X156.009 Y86.748 E12.24781
G1 X156.059 Y87.431 E12.27059
G1 X156.087 Y88.104 E12.29299
G1 X156.069 Y88.886 E12.31901
G1 X155.898 Y91.359 E12.40146
G1 X155.755 Y94.135 E12.49391
G1 X155.69 Y96.854 E12.58437
G1 X155.704 Y99.585 E12.6752
G1 X155.793 Y102.298 E12.76549
G1 X155.964 Y105.07 E12.85786
G1 X156.057 Y106.33 E12.89988
G1 X156.087 Y107.044 E12.92365
G1 X156.07 Y107.798 E12.94874
G1 X156.008 Y108.706 E12.97901
G1 X155.908 Y109.378 E13.0016
G1 X155.765 Y110.177 E13.0286
G1 X155.58 Y110.876 E13.05265
G1 X155.373 Y111.579 E13.07702
G1 X155.102 Y112.292 E13.10239
G1 X154.865 Y112.861 E13.12289
G1 X154.549 Y113.564 E13.14853
G1 X153.439 Y116.124 E13.24134
G1 X152.433 Y118.639 E13.33143
G1 X151.495 Y121.191 E13.42186
G1 X150.623 Y123.792 E13.5131
G1 X149.829 Y126.4 E13.60378
G1 X149.112 Y129.017 E13.69402
G1 X148.459 Y131.702 E13.78593
G1 X147.897 Y134.33 E13.87532
G1 X147.4 Y137.021 E13.96633
G1 X146.985 Y139.695 E14.05633
G1 X146.639 Y142.425 E14.14786
G1 X146.375 Y145.122 E14.23799
G1 X146.123 Y149.129 E14.37153
G1 X146.072 Y150.304 E14.41065
G1 X146.014 Y151.006 E14.43407
G1 X145.867 Y151.925 E14.46503
G1 X145.696 Y152.624 E14.48896
G1 X145.487 Y153.307 E14.51272
G1 X145.147 Y154.164 E14.54339
G1 X144.841 Y154.791 E14.56659
G1 X144.4 Y155.576 E14.59654
G1 X143.813 Y156.415 E14.63059
G1 X142.985 Y157.371 E14.67266
G1 X142.16 Y158.146 E14.71031
G1 X141.178 Y158.882 E14.75112
G1 X140.219 Y159.463 E14.78842
G1 X139.382 Y159.863 E14.81927
G1 X138.814 Y160.095 E14.83968
G1 X138.07 Y160.358 E14.86592
G1 X137.131 Y160.59 E14.8981
G1 X136.557 Y160.697 E14.91752
G1 X135.652 Y160.815 E14.94787
G1 X134.798 Y160.847 E14.97629
G1 X134.191 Y160.836 E14.99649
G1 X132.049 Y160.698 E15.06788
G1 X129.291 Y160.565 E15.15972
G1 X126.589 Y160.511 E15.2496
G1 X123.856 Y160.534 E15.34051
G1 X121.106 Y160.635 E15.43203
G1 X117.783 Y160.85 E15.54279
G1 X117.056 Y160.837 E15.56697
G1 X115.315 Y160.722 E15.625
G1 X112.535 Y160.577 E15.71759
G1 X109.821 Y160.512 E15.80789
G1 X107.091 Y160.524 E15.89869
G1 X104.362 Y160.614 E15.9895
G1 X101.024 Y160.826 E16.10075
G1 X100.087 Y160.853 E16.13193
G1 X98.908 Y160.771 E16.17124
G1 X97.718 Y160.565 E16.2114
G1 X96.72 Y160.291 E16.24583
G1 X95.834 Y159.956 E16.27733
G1 X95.279 Y159.706 E16.29758
G1 X94.456 Y159.282 E16.32837
G1 X93.478 Y158.641 E16.36726
G1 X92.523 Y157.864 E16.40821
G1 X91.736 Y157.072 E16.44535
G1 X91.03 Y156.213 E16.48233
G1 X90.332 Y155.129 E16.52521
G1 X89.926 Y154.333 E16.55493
G1 X89.575 Y153.501 E16.58496
G1 X89.35 Y152.789 E16.6098
G1 X89.194 Y152.196 E16.63019
G1 X89.01 Y151.26 E16.66192
G1 X88.938 Y150.467 E16.6884
G1 X88.891 Y149.32 E16.72659
G1 X88.742 Y146.608 E16.81692
G1 X88.515 Y143.865 E16.90847
G1 X88.216 Y141.18 E16.99832
G1 X87.833 Y138.451 E17.08998
G1 X87.385 Y135.794 E17.1796
G1 X86.852 Y133.112 E17.27055
G1 X86.24 Y130.421 E17.36234
G1 X85.571 Y127.829 E17.45137
G1 X84.798 Y125.15 E17.54411
G1 X83.987 Y122.612 E17.63273
G1 X83.081 Y120.028 E17.7238
G1 X82.1 Y117.465 E17.81508
G1 X81.049 Y114.936 E17.90617
G1 X80.748 Y114.264 E17.93066
G1 X80.711 Y114.164 E17.93421
G1 X80 Y112.551 E17.99284
G1 X79.629 Y111.585 E18.02725
G1 X79.42 Y110.874 E18.0519
G1 X79.222 Y110.113 E18.07805
G1 X79.098 Y109.416 E18.1016
G1 X79.003 Y108.774 E18.12319
G1 X78.941 Y108.012 E18.14861
G1 X78.908 Y107.177 E18.17641
G1 X78.931 Y106.563 E18.19684
G1 X79.102 Y104.092 E18.27923
G1 X79.245 Y101.316 E18.37168
G1 X79.31 Y98.597 E18.46214
G1 X79.296 Y95.855 E18.55334
G1 X79.207 Y93.153 E18.64326
G1 X79.036 Y90.376 E18.7358
G1 X78.936 Y89.01 E18.78135
G1 X78.912 Y88.376 E18.80245
G1 X78.93 Y87.652 E18.82654
G1 X78.983 Y86.873 E18.85251
G1 X79.082 Y86.136 E18.87724
G1 X79.201 Y85.457 E18.90017
G1 X79.388 Y84.692 E18.92636
G1 X79.637 Y83.846 E18.9557
G1 X79.905 Y83.141 E18.98078
G1 X80.137 Y82.588 E19.00073
G1 X80.447 Y81.954 E19.0242
G1 X80.836 Y81.243 E19.05116
G1 X81.223 Y80.632 E19.07521
G1 X81.723 Y79.915 E19.10428
G1 X82.15 Y79.386 E19.1269
G1 X82.626 Y78.837 E19.15106
G0 F3600 X82.324 Y78.575
G1 F1500 X82.861 Y78.028 E19.17656
G1 X83.503 Y77.428 E19.20579
G1 X84.06 Y76.978 E19.2296
G1 X84.625 Y76.551 E19.25316
G1 X85.176 Y76.18 E19.27525
G1 X85.996 Y75.68 E19.30719
G1 X86.682 Y75.327 E19.33285
G1 X87.66 Y74.876 E19.36867
G1 X88.814 Y74.463 E19.40944
G1 X89.571 Y74.251 E19.43559
G1 X90.523 Y74.025 E19.46813
G1 X91.787 Y73.842 E19.51061
G1 X92.471 Y73.784 E19.53344
G1 X93.339 Y73.753 E19.56233
G1 X93.967 Y73.764 E19.58322
G1 X94.88 Y73.822 E19.61365
G1 X95.592 Y73.908 E19.6375
G1 X96.532 Y74.065 E19.6692
G1 X99.051 Y74.592 E19.75479
G1 X101.742 Y75.082 E19.84577
G1 X104.409 Y75.485 E19.93548
G1 X107.121 Y75.819 E20.02636
G1 X109.822 Y76.074 E20.1166
G1 X112.499 Y76.25 E20.20583
G1 X115.252 Y76.353 E20.29746
G1 X117.968 Y76.38 E20.3878
G1 X120.656 Y76.328 E20.47722
G1 X123.367 Y76.2 E20.56749
G1 X126.083 Y75.994 E20.65808
G1 X128.791 Y75.712 E20.74864
G1 X131.48 Y75.355 E20.83886
G1 X134.15 Y74.924 E20.92881
G1 X137.5 Y74.272 E21.04232
G1 X138.744 Y74.01 E21.08461
G1 X140.312 Y73.795 E21.13725
G1 X141.471 Y73.753 E21.17582
G1 X142.115 Y73.765 E21.19724
G1 X143.397 Y73.856 E21.23999
G1 X144.586 Y74.05 E21.28006
G1 X145.337 Y74.228 E21.30573
G1 X146.421 Y74.535 E21.3432
G1 X147.569 Y74.975 E21.38409
G1 X148.196 Y75.267 E21.4071
G1 X148.962 Y75.655 E21.43566
G1 X149.549 Y76.007 E21.45842
G1 X150.262 Y76.466 E21.48662
G1 X150.842 Y76.902 E21.51076
G1 X151.736 Y77.632 E21.54915
G1 X152.578 Y78.464 E21.58852
G1 X153.081 Y79.038 E21.6139
G1 X153.53 Y79.589 E21.63754
G1 X153.934 Y80.148 E21.66048
G1 X154.49 Y80.999 E21.69429
G1 X154.83 Y81.619 E21.71781
G1 X155.159 Y82.266 E21.74195
G1 X155.468 Y83.001 E21.76847
G1 X155.752 Y83.746 E21.79499
G1 X155.972 Y84.494 E21.82092
G1 X156.163 Y85.229 E21.84618
G1 X156.295 Y85.957 E21.87079
G1 X156.405 Y86.688 E21.89537
G1 X156.459 Y87.414 E21.91959
G1 X156.487 Y88.087 E21.94199
G1 X156.468 Y88.914 E21.9695
G1 X156.297 Y91.387 E22.05195
G1 X156.155 Y94.145 E22.14381
G1 X156.09 Y96.864 E22.23427
G1 X156.104 Y99.572 E22.32434
G1 X156.193 Y102.285 E22.41462
G1 X156.363 Y105.041 E22.50646
G1 X156.457 Y106.313 E22.54888
G1 X156.487 Y107.027 E22.57265
G1 X156.469 Y107.825 E22.5992
G1 X156.404 Y108.765 E22.63054
G1 X156.302 Y109.448 E22.65351
G1 X156.152 Y110.279 E22.68159
G1 X155.964 Y110.989 E22.70602
G1 X155.757 Y111.692 E22.73039
G1 X155.471 Y112.446 E22.75722
G1 X155.23 Y113.025 E22.77808
G1 X154.914 Y113.728 E22.80371
G1 X153.806 Y116.283 E22.89634
G1 X152.804 Y118.788 E22.98607
G1 X151.87 Y121.329 E23.07611
G1 X151.006 Y123.908 E23.16658
G1 X150.212 Y126.516 E23.25725
G1 X149.498 Y129.123 E23.34715
G1 X148.848 Y131.797 E23.43868
G1 X148.288 Y134.414 E23.52769
G1 X147.793 Y137.094 E23.61834
G1 X147.382 Y139.745 E23.70756
G1 X147.036 Y142.475 E23.79909
G1 X146.773 Y145.161 E23.88885
G1 X146.523 Y149.146 E24.02166
G1 X146.471 Y150.337 E24.06131
G1 X146.413 Y151.039 E24.08474
G1 X146.256 Y152.02 E24.11778
G1 X146.085 Y152.719 E24.14171
G1 X145.859 Y153.455 E24.16732
G1 X145.519 Y154.312 E24.19799
G1 X145.19 Y154.987 E24.22296
G1 X144.749 Y155.772 E24.25291
G1 X144.141 Y156.644 E24.28827
G1 X143.259 Y157.663 E24.33309
G1 X142.434 Y158.438 E24.37074
G1 X141.418 Y159.202 E24.41302
G1 X140.391 Y159.824 E24.45295
G1 X139.533 Y160.233 E24.48457
G1 X138.947 Y160.472 E24.50562
G1 X138.166 Y160.746 E24.53314
G1 X137.204 Y160.983 E24.5661
G1 X136.609 Y161.094 E24.58623
G1 X135.704 Y161.212 E24.61658
G1 X134.791 Y161.247 E24.64697
G1 X134.165 Y161.235 E24.6678
G1 X132.03 Y161.098 E24.73895
G1 X129.272 Y160.965 E24.83079
G1 X126.584 Y160.911 E24.92021
G1 X123.871 Y160.934 E25.01045
G1 X121.121 Y161.035 E25.10198
G1 X117.776 Y161.25 E25.21346
