; generated by PrusaSlicer 2.6.0-rc2+win64 on 2023-06-17 at 17:01:39 UTC

; 

; external perimeters extrusion width = 0.42mm
; perimeters extrusion width = 0.44mm
; infill extrusion width = 0.44mm
; solid infill extrusion width = 0.44mm
; top infill extrusion width = 0.40mm
; first layer extrusion width = 0.42mm

;TYPE:Custom
; Ender 3 Custom Start G-code
G92 E0 ; Reset Extruder

M140 S50 ; set bed temp
M190 S50 ; wait for bed temp

G28 ; Home all axes
M104 S205 ; set extruder temp 
BED_MESH_CALIBRATE AREA_START=83.7684,88.5669 AREA_END=143.763,126.207

G1 Z2.0 F3000 ; Move Z Axis up little to prevent scratching of Heat Bed
M109 S205 ; wait for extruder temp
G1 X0.1 Y20 Z0.3 F5000.0 ; Move to start position

G1 X0.1 Y200.0 Z0.3 F1500.0 E15 ; Draw the first line
G1 X0.4 Y200.0 Z0.3 F5000.0 ; Move to side a little
G1 X0.4 Y20 Z0.3 F1500.0 E30 ; Draw the second line
G92 E0 ; Reset Extruder
G1 Z2.0 F3000 ; Move Z Axis up little to prevent scratching of Heat Bed
G1 X5 Y20 Z0.3 F5000.0 ; Move over to prevent blob squish
G21 ; set units to millimeters
G90 ; use absolute coordinates
M83 ; use relative distances for extrusion
; Filament gcode
M107
;LAYER_CHANGE
;Z:0.2
;HEIGHT:0.2
;BEFORE_LAYER_CHANGE
G92 E0
;0.2


G1 E-1.6 F2400
G1 Z.2 F6000
;AFTER_LAYER_CHANGE
;0.2
G1 X87.855 Y91.702
G1 E1.6 F2400
M204 S500
;TYPE:Skirt/Brim
;WIDTH:0.42
G1 F1200
G1 X88.724 Y90.997 E.03123
G1 X89.655 Y90.383 E.03112
G1 X91.323 Y89.564 E.05185
G1 X93.098 Y89.026 E.05176
G1 X94.723 Y88.79 E.04582
G1 X131.691 Y88.755 E1.0316
G1 X132.884 Y88.805 E.03332
G1 X133.843 Y88.938 E.02702
G1 X135.868 Y89.494 E.0586
G1 X137.699 Y90.365 E.05658
G1 X139.14 Y91.376 E.04912
G1 X140.596 Y92.789 E.05662
G1 X141.374 Y93.79 E.03538
G1 X141.892 Y94.615 E.02718
G1 X142.774 Y96.56 E.0596
G1 X143.252 Y98.4 E.05305
G1 X143.425 Y100.341 E.05438
G1 X143.575 Y114.341 E.3907
G1 X143.503 Y115.668 E.03708
G1 X143.296 Y116.887 E.0345
G1 X142.676 Y118.864 E.05782
G1 X141.69 Y120.732 E.05894
G1 X140.466 Y122.296 E.05542
G1 X139.688 Y123.064 E.03051
G1 X138.814 Y123.771 E.03137
G1 X137.175 Y124.777 E.05367
G1 X136.082 Y125.256 E.0333
G1 X134.281 Y125.782 E.05236
G1 X132.524 Y126.003 E.04942
G1 X95.078 Y126.009 E1.04494
G1 X93.391 Y125.81 E.0474
G1 X92.2 Y125.516 E.03423
G1 X91.185 Y125.152 E.03009
G1 X89.855 Y124.507 E.04125
G1 X88.799 Y123.834 E.03494
G1 X87.85 Y123.075 E.03391
G1 X86.76 Y121.96 E.04351
G1 X86.154 Y121.19 E.02734
G1 X85.329 Y119.864 E.04358
G1 X84.772 Y118.664 E.03692
G1 X84.319 Y117.275 E.04077
G1 X84.013 Y115.506 E.0501
G1 X83.957 Y114.504 E.028
G1 X83.987 Y99.576 E.41657
G1 X84.339 Y97.433 E.0606
G1 X84.956 Y95.674 E.05202
G1 X85.371 Y94.831 E.02622
G1 X86.243 Y93.466 E.0452
G1 X86.874 Y92.684 E.02804
G1 X87.813 Y91.745 E.03706
G1 X88.079 Y92.011 F6000
G1 F1200
G1 X88.936 Y91.309 E.03091
G1 X89.85 Y90.706 E.03056
G1 X91.456 Y89.917 E.04993
G1 X93.131 Y89.404 E.04888
G1 X94.741 Y89.166 E.04542
G1 X131.691 Y89.133 E1.0311
G1 X133.766 Y89.308 E.05811
G1 X135.75 Y89.852 E.05741
G1 X137.508 Y90.69 E.05435
G1 X138.893 Y91.661 E.0472
G1 X140.305 Y93.029 E.05486
G1 X141.07 Y94.014 E.0348
G1 X141.564 Y94.801 E.02593
G1 X142.414 Y96.673 E.05737
G1 X142.882 Y98.472 E.05187
G1 X143.048 Y100.345 E.05247
G1 X143.198 Y114.345 E.3907
G1 X143.13 Y115.614 E.03546
G1 X142.925 Y116.823 E.03422
G1 X142.331 Y118.712 E.05526
G1 X141.37 Y120.533 E.05746
G1 X140.198 Y122.032 E.0531
G1 X139.594 Y122.643 E.02397
G1 X138.602 Y123.459 E.03584
G1 X136.981 Y124.453 E.05306
G1 X135.395 Y125.098 E.04778
G1 X134.202 Y125.414 E.03444
G1 X132.355 Y125.634 E.05191
G1 X95.105 Y125.633 E1.03947
G1 X93.45 Y125.437 E.04651
G1 X92.305 Y125.154 E.03291
G1 X91.336 Y124.807 E.02872
G1 X90.031 Y124.173 E.04049
G1 X89.033 Y123.538 E.03301
G1 X88.169 Y122.853 E.03077
G1 X87.039 Y121.707 E.04491
G1 X86.451 Y120.957 E.02659
G1 X85.658 Y119.678 E.04199
G1 X85.127 Y118.539 E.03507
G1 X84.684 Y117.181 E.03986
G1 X84.387 Y115.46 E.04873
G1 X84.334 Y114.504 E.02672
G1 X84.363 Y99.602 E.41585
G1 X84.7 Y97.541 E.05828
G1 X85.307 Y95.811 E.05116
G1 X85.705 Y95.004 E.02511
G1 X86.552 Y93.682 E.04381
G1 X87.156 Y92.935 E.02681
G1 X88.037 Y92.053 E.03479
G1 X88.303 Y92.319 F6000
G1 F1200
G1 X89.16 Y91.611 E.03102
G1 X90.736 Y90.655 E.05144
G1 X92.339 Y90.007 E.04825
G1 X93.938 Y89.635 E.04581
G1 X95.374 Y89.513 E.04022
G1 X131.691 Y89.51 E1.01344
G1 X133.69 Y89.677 E.05598
G1 X135.627 Y90.208 E.05605
G1 X137.316 Y91.015 E.05224
G1 X138.621 Y91.925 E.0444
G1 X140.014 Y93.269 E.05402
G1 X140.767 Y94.238 E.03424
G1 X141.236 Y94.987 E.02466
G1 X142.054 Y96.786 E.05515
G1 X142.512 Y98.544 E.0507
G1 X142.671 Y100.349 E.05056
G1 X142.821 Y114.349 E.3907
G1 X142.744 Y115.643 E.03617
G1 X142.521 Y116.916 E.03606
G1 X142.264 Y117.82 E.02623
G1 X141.409 Y119.751 E.05893
G1 X140.674 Y120.874 E.03745
G1 X140.017 Y121.673 E.02887
G1 X139.333 Y122.371 E.02727
G1 X138.39 Y123.148 E.0341
G1 X136.804 Y124.12 E.05191
G1 X135.27 Y124.742 E.04619
G1 X134.14 Y125.042 E.03263
G1 X132.346 Y125.257 E.05042
G1 X95.131 Y125.257 E1.0385
G1 X93.509 Y125.065 E.04558
G1 X92.411 Y124.792 E.03157
G1 X91.487 Y124.462 E.02738
G1 X90.207 Y123.84 E.03971
G1 X89.237 Y123.22 E.03213
G1 X88.306 Y122.47 E.03336
G1 X87.318 Y121.453 E.03957
G1 X86.759 Y120.74 E.02528
G1 X85.986 Y119.492 E.04097
G1 X85.483 Y118.413 E.03322
G1 X85.049 Y117.086 E.03896
G1 X84.761 Y115.415 E.04732
G1 X84.739 Y99.628 E.44054
G1 X85.061 Y97.65 E.05592
G1 X85.658 Y95.949 E.05031
G1 X86.04 Y95.177 E.02404
G1 X86.861 Y93.898 E.04241
G1 X87.437 Y93.186 E.02556
G1 X88.261 Y92.362 E.03252
; printing object Shape-Box id:0 copy 0
G1 E-1.12 F2400
;WIPE_START
G1 F4800
G1 X89.037 Y91.714 E-.48
;WIPE_END
G1 X115.871 Y109.703 F6000
G1 E1.6 F2400
;TYPE:External perimeter
G1 F1200
G1 X115.829 Y109.59 E.00336
G1 X115.831 Y109.427 E.00455
G1 X115.924 Y109.264 E.00524
G1 X116.04 Y109.184 E.00393
G1 X116.239 Y109.164 E.00558
G1 X116.324 Y109.187 E.00246
G1 X116.489 Y109.331 E.00611
G1 X116.531 Y109.403 E.00233
G1 X116.634 Y109.804 E.01155
G1 X116.199 Y109.895 E.0124
G1 X115.943 Y109.79 E.00772
G1 X115.909 Y109.749 E.00149
G1 X115.925 Y109.595 F6000
G1 X116.329 Y110.948
G1 F1200
G1 X116.542 Y110.966 E.00597
G1 X116.453 Y111.31 E.00992
G1 X116.411 Y111.374 E.00214
G1 X116.316 Y111.405 E.00279
G1 X116.193 Y111.416 E.00345
G1 X116.09 Y111.39 E.00296
G1 X116.014 Y111.334 E.00263
G1 X115.985 Y111.265 E.00209
G1 X115.977 Y111.153 E.00313
G1 X115.991 Y111.112 E.00121
G1 X116.095 Y110.99 E.00447
G1 X116.27 Y110.956 E.00497
G1 X116.453 Y111.121 F6000
G1 E-1.12 F2400
;WIPE_START
G1 F4800
G1 X116.542 Y110.966 E-.12929
G1 X116.453 Y111.31 E-.16878
G1 X116.411 Y111.374 E-.03636
G1 X116.316 Y111.405 E-.04747
G1 X116.193 Y111.416 E-.05866
G1 X116.112 Y111.396 E-.03944
;WIPE_END
G1 X119.399 Y111.416 F6000
G1 E1.6 F2400
G1 F1200
G1 X119.297 Y111.39 E.00294
G1 X119.221 Y111.334 E.00263
G1 X119.192 Y111.265 E.00209
G1 X119.183 Y111.153 E.00314
G1 X119.198 Y111.112 E.00122
G1 X119.302 Y110.99 E.00447
G1 X119.339 Y110.974 E.00112
G1 X119.536 Y110.948 E.00555
G1 X119.748 Y110.966 E.00594
G1 X119.659 Y111.31 E.00992
G1 X119.632 Y111.359 E.00156
G1 X119.522 Y111.405 E.00333
G1 X119.459 Y111.411 E.00177
G1 X119.354 Y111.32 F6000
G1 X119.84 Y109.804
G1 F1200
G1 X119.406 Y109.895 E.01237
G1 X119.15 Y109.79 E.00772
G1 X119.077 Y109.703 E.00317
G1 X119.035 Y109.59 E.00336
G1 X119.051 Y109.382 E.00582
G1 X119.13 Y109.264 E.00396
G1 X119.246 Y109.184 E.00393
G1 X119.445 Y109.164 E.00558
G1 X119.53 Y109.187 E.00246
G1 X119.696 Y109.331 E.00613
G1 X119.738 Y109.403 E.00233
G1 X119.825 Y109.746 E.00987
G1 X119.456 Y109.691 F6000
G1 E-1.12 F2400
;WIPE_START
G1 F4800
G1 X119.406 Y109.895 E-.21123
G1 X119.15 Y109.79 E-.13143
G1 X119.077 Y109.703 E-.05395
G1 X119.035 Y109.59 E-.05726
G1 X119.039 Y109.535 E-.02613
;WIPE_END
G1 X115.985 Y105.115 F6000
G1 E1.6 F2400
G1 F1200
G1 X115.847 Y105.031 E.00451
G1 X115.807 Y104.966 E.00213
G1 X115.764 Y104.824 E.00414
G1 X116.01 Y104.848 E.0069
G1 X116.35 Y104.807 E.00956
G1 X116.465 Y104.762 E.00345
G1 X116.374 Y104.935 E.00545
G1 X116.244 Y105.065 E.00513
G1 X116.154 Y105.111 E.00282
G1 X116.045 Y105.116 E.00304
G1 X115.949 Y104.958 F6000
G1 E-1.12 F2400
;WIPE_START
G1 F4800
G1 X115.847 Y105.031 E-.10235
G1 X115.807 Y104.966 E-.03625
G1 X115.764 Y104.824 E-.07047
G1 X116.01 Y104.848 E-.1174
G1 X116.331 Y104.809 E-.15353
;WIPE_END
G1 X119.013 Y103.062 F6000
G1 E1.6 F2400
G1 F1200
G1 X119.08 Y102.907 E.00471
G1 X119.188 Y102.787 E.00451
G1 X119.318 Y102.722 E.00406
G1 X119.509 Y102.713 E.00534
G1 X119.608 Y102.761 E.00307
G1 X119.664 Y102.839 E.00268
G1 X119.711 Y103.008 E.00489
G1 X119.449 Y102.984 E.00734
G1 X119.068 Y103.039 E.01074
G1 X119.131 Y102.941 F6000
G1 E-1.12 F2400
;WIPE_START
G1 F4800
G1 X119.08 Y102.907 E-.06296
G1 X119.188 Y102.787 E-.07669
G1 X119.318 Y102.722 E-.06904
G1 X119.509 Y102.713 E-.09083
G1 X119.608 Y102.761 E-.05226
G1 X119.664 Y102.839 E-.04561
G1 X119.711 Y103.007 E-.08261
;WIPE_END
G1 X117.612 Y110.549 F6000
G1 E1.6 F2400
;TYPE:Perimeter
G1 F1200
G1 X117.141 Y110.466 E.01335
G1 X117.18 Y110.156 E.00872
G1 X117.463 Y110.119 E.00796
G1 X117.589 Y110.494 E.01104
G1 E-1.12 F2400
;WIPE_START
G1 F4800
G1 X117.141 Y110.466 E-.21322
G1 X117.18 Y110.156 E-.14841
G1 X117.427 Y110.124 E-.11837
;WIPE_END
G1 X121.209 Y110.549 F6000
G1 E1.6 F2400
G1 F1200
G1 X121.176 Y110.613 E.00201
G1 X120.348 Y110.466 E.02347
G1 X120.387 Y110.156 E.00872
G1 X121.397 Y110.177 E.02819
G1 X121.236 Y110.495 E.00995
G1 E-1.12 F2400
;WIPE_START
G1 F4800
G1 X121.176 Y110.613 E-.06288
G1 X120.348 Y110.466 E-.39945
G1 X120.353 Y110.429 E-.01767
;WIPE_END
G1 X132.836 Y109.336 F6000
G1 E1.6 F2400
G1 F1200
G1 X132.914 Y108.905 E.01222
G1 X132.917 Y109.325 E.01172
G1 X132.895 Y109.329 E.00062
G1 E-1.12 F2400
;WIPE_START
G1 F4800
G1 X132.914 Y108.905 E-.2016
G1 X132.917 Y109.325 E-.19951
G1 X132.895 Y109.329 E-.01062
;WIPE_END
G1 E-.06827 F2400
G1 X132.836 Y102.975 F6000
G1 E1.6 F2400
G1 F1200
G1 X132.914 Y102.544 E.01222
G1 X132.917 Y102.964 E.01172
G1 X132.895 Y102.968 E.00062
G1 E-1.12 F2400
;WIPE_START
G1 F4800
G1 X132.914 Y102.544 E-.2016
G1 X132.917 Y102.964 E-.19951
G1 X132.895 Y102.968 E-.01062
;WIPE_END
G1 E-.06827 F2400
G1 X117.777 Y112.161 F6000
G1 E1.6 F2400
G1 F1200
G1 X117.718 Y112.271 E.00348
G1 X117.484 Y112.551 E.01018
G1 X117.19 Y112.772 E.01026
G1 X116.866 Y112.923 E.00998
G1 X116.526 Y113.008 E.00978
G1 X116.167 Y113.036 E.01005
G1 X115.691 Y112.982 E.01337
G1 X115.231 Y112.812 E.01368
G1 X114.819 Y112.532 E.0139
G1 X114.505 Y112.147 E.01386
G1 X114.318 Y111.723 E.01293
G1 X114.26 Y111.448 E.00784
G1 X114.259 Y110.989 E.01281
G1 X114.38 Y110.579 E.01193
G1 X114.254 Y110.38 E.00657
G1 X114.143 Y110.102 E.00835
G1 X114.08 Y109.815 E.0082
G1 X114.061 Y109.518 E.0083
G1 X114.098 Y109.124 E.01104
G1 X114.217 Y108.739 E.01125
G1 X114.414 Y108.389 E.01121
G1 X114.679 Y108.083 E.0113
G1 X115 Y107.832 E.01137
G1 X115.365 Y107.651 E.01137
G1 X115.754 Y107.547 E.01124
G1 X116.086 Y107.516 E.0093
G1 X116.533 Y107.542 E.01249
G1 X116.908 Y107.644 E.01084
G1 X117.261 Y107.823 E.01104
G1 X117.536 Y108.063 E.01019
G1 X117.709 Y108.249 E.00709
G1 X117.741 Y108.319 E.00215
G1 X117.881 Y108.135 E.00645
G1 X118.189 Y107.859 E.01154
G1 X118.56 Y107.661 E.01174
G1 X118.955 Y107.548 E.01146
G1 X119.291 Y107.517 E.00942
G1 X119.735 Y107.541 E.01241
G1 X120.104 Y107.636 E.01063
G1 X120.445 Y107.797 E.01052
G1 X120.75 Y108.022 E.01058
G1 X120.994 Y108.289 E.01009
G1 X121.116 Y108.469 E.00607
G1 X121.273 Y108.802 E.01027
G1 X121.353 Y109.161 E.01026
G1 X121.434 Y110.103 E.02638
G1 X121.685 Y109.502 E.01817
G1 X121.773 Y109.226 E.00808
G1 X121.869 Y108.81 E.01191
G1 X122.004 Y107.583 E.03445
G1 X124.092 Y107.583 E.05827
G1 X124.025 Y108.716 E.03167
G1 X123.983 Y109.036 E.00901
G1 X123.838 Y109.7 E.01897
G1 X123.607 Y110.402 E.02062
G1 X123.368 Y110.92 E.01592
G1 X124.563 Y110.853 E.0334
G1 X124.576 Y112.969 E.05905
G1 X122.051 Y112.965 E.07046
G1 X120.469 Y112.865 E.04423
G1 X120.493 Y112.666 E.00559
G1 X120.41 Y112.733 E.00298
G1 X120.095 Y112.908 E.01006
G1 X119.741 Y113.003 E.01023
G1 X119.377 Y113.035 E.0102
G1 X118.895 Y112.981 E.01353
G1 X118.449 Y112.811 E.01332
G1 X118.211 Y112.664 E.00781
G1 X117.998 Y112.473 E.00798
G1 X117.812 Y112.21 E.00899
G1 E-1.12 F2400
;WIPE_START
G1 F4800
G1 X117.718 Y112.271 E-.05323
G1 X117.484 Y112.551 E-.17333
G1 X117.19 Y112.772 E-.17471
G1 X117.04 Y112.842 E-.07873
;WIPE_END
G1 X117.755 Y109.699 F6000
G1 E1.6 F2400
;TYPE:External perimeter
G1 F1200
G1 X116.843 Y109.821 E.02568
G1 X116.722 Y110.774 E.02681
G1 X117.735 Y110.954 E.02871
G1 X117.54 Y111.805 E.02436
G1 X117.404 Y112.058 E.00802
G1 X117.222 Y112.276 E.00792
G1 X116.995 Y112.447 E.00793
G1 X116.739 Y112.566 E.00788
G1 X116.466 Y112.635 E.00786
G1 X116.174 Y112.657 E.00817
G1 X115.779 Y112.612 E.01109
G1 X115.405 Y112.474 E.01112
G1 X115.077 Y112.251 E.01107
G1 X114.829 Y111.948 E.01093
G1 X114.679 Y111.607 E.0104
G1 X114.637 Y111.409 E.00565
G1 X114.636 Y111.043 E.01021
G1 X114.737 Y110.702 E.00992
G1 X114.832 Y110.532 E.00543
G1 X114.716 Y110.404 E.00482
G1 X114.592 Y110.208 E.00647
G1 X114.505 Y109.991 E.00652
G1 X114.455 Y109.762 E.00654
G1 X114.439 Y109.523 E.00668
G1 X114.47 Y109.198 E.00911
G1 X114.565 Y108.889 E.00902
G1 X114.724 Y108.607 E.00903
G1 X114.939 Y108.358 E.00918
G1 X115.202 Y108.153 E.00931
G1 X115.499 Y108.006 E.00925
G1 X115.82 Y107.92 E.00927
G1 X116.093 Y107.895 E.00765
G1 X116.472 Y107.916 E.01059
G1 X116.772 Y107.998 E.00868
G1 X117.048 Y108.138 E.00864
G1 X117.391 Y108.461 E.01315
G1 X117.616 Y108.956 E.01517
G1 X117.689 Y109.223 E.00772
G1 X117.747 Y109.64 E.01175
G1 X117.815 Y110.095 F6000
G1 E-1.12 F2400
;WIPE_START
G1 F4800
G1 X116.843 Y109.821 E-.43792
G1 X116.832 Y109.909 E-.04208
;WIPE_END
G1 X121.029 Y109.791 F6000
G1 E1.6 F2400
G1 F1200
G1 X120.378 Y109.777 E.01817
G1 X120.049 Y109.821 E.00926
G1 X119.929 Y110.774 E.0268
G1 X120.939 Y110.954 E.02863
G1 X120.835 Y111.432 E.01365
G1 X120.747 Y111.692 E.00766
G1 X120.423 Y112.237 E.01769
G1 X120.198 Y112.419 E.00808
G1 X119.952 Y112.556 E.00786
G1 X119.675 Y112.631 E.00801
G1 X119.381 Y112.656 E.00823
G1 X118.985 Y112.611 E.01112
G1 X118.616 Y112.472 E.011
G1 X118.438 Y112.361 E.00585
G1 X118.282 Y112.221 E.00585
G1 X118.056 Y111.903 E.01089
G1 X117.942 Y111.396 E.0145
G1 X117.942 Y111.061 E.00935
G1 X118.063 Y110.587 E.01365
G1 X118.098 Y110.54 E.00164
G1 X117.94 Y110.354 E.00681
G1 X117.806 Y109.956 E.01172
G1 X117.76 Y109.748 E.00594
G1 X117.746 Y109.522 E.00632
G1 X117.774 Y109.223 E.00838
G1 X117.812 Y109.071 E.00437
G1 X117.866 Y108.925 E.00434
G1 X117.989 Y108.699 E.00718
G1 X118.04 Y108.549 E.00442
G1 X118.159 Y108.392 E.0055
G1 X118.407 Y108.17 E.00929
G1 X118.702 Y108.012 E.00934
G1 X119.025 Y107.92 E.00937
G1 X119.299 Y107.895 E.00768
G1 X119.677 Y107.916 E.01056
G1 X119.976 Y107.992 E.00861
G1 X120.251 Y108.122 E.00849
G1 X120.496 Y108.303 E.0085
G1 X120.697 Y108.522 E.0083
G1 X120.787 Y108.656 E.0045
G1 X120.914 Y108.925 E.0083
G1 X120.98 Y109.218 E.00838
G1 X121.024 Y109.732 E.0144
G1 X121.041 Y110.191 F6000
G1 E-1.12 F2400
;WIPE_START
G1 F4800
G1 X120.378 Y109.777 E-.30759
G1 X120.049 Y109.821 E-.15767
G1 X120.045 Y109.852 E-.01474
;WIPE_END
G1 X122.342 Y107.96 F6000
G1 E1.6 F2400
G1 F1200
G1 X123.692 Y107.96 E.03767
G1 X123.649 Y108.681 E.02016
G1 X123.611 Y108.971 E.00816
G1 X123.474 Y109.601 E.01799
G1 X123.254 Y110.267 E.01957
G1 X123.111 Y110.598 E.01006
G1 X122.943 Y110.916 E.01004
G1 X122.745 Y111.228 E.01031
G1 X122.615 Y111.357 E.00511
G1 X123.014 Y111.357 E.01113
G1 X123.436 Y111.291 E.01192
G1 X124.189 Y111.251 E.02104
G1 X124.196 Y112.591 E.03739
G1 X122.063 Y112.588 E.05952
G1 X120.891 Y112.514 E.03277
G1 X120.953 Y111.996 E.01456
G1 X120.953 Y111.658 E.00943
G1 X121.201 Y111.371 E.01058
G1 X121.332 Y111.14 E.00741
G1 X121.782 Y110.251 E.0278
G1 X122.04 Y109.632 E.01871
G1 X122.137 Y109.326 E.00896
G1 X122.241 Y108.873 E.01297
G1 X122.335 Y108.02 E.02395
G1 X122.362 Y107.56 F6000
G1 E-1.12 F2400
;WIPE_START
G1 F4800
G1 X123.345 Y107.975 E-.48
;WIPE_END
G1 X114.252 Y104.266 F6000
