; generated by PrusaSlicer 2.6.0+win64 on 2023-06-27 at 17:02:13 UTC

; 

; external perimeters extrusion width = 0.42mm
; perimeters extrusion width = 0.44mm
; infill extrusion width = 0.44mm
; solid infill extrusion width = 0.44mm
; top infill extrusion width = 0.40mm
; first layer extrusion width = 0.42mm

; external perimeters extrusion width = 0.42mm
; perimeters extrusion width = 0.44mm
; infill extrusion width = 0.44mm
; solid infill extrusion width = 0.44mm
; top infill extrusion width = 0.40mm
; first layer extrusion width = 0.42mm

; external perimeters extrusion width = 0.42mm
; perimeters extrusion width = 0.44mm
; infill extrusion width = 0.44mm
; solid infill extrusion width = 0.44mm
; top infill extrusion width = 0.40mm
; first layer extrusion width = 0.42mm

; external perimeters extrusion width = 0.42mm
; perimeters extrusion width = 0.44mm
; infill extrusion width = 0.44mm
; solid infill extrusion width = 0.44mm
; top infill extrusion width = 0.40mm
; first layer extrusion width = 0.42mm

;TYPE:Custom
; Ender 3 Custom Start G-code
G92 E0 ; Reset Extruder

M140 S50 ; set bed temp
M190 S50 ; wait for bed temp

G28 ; Home all axes
M104 S205 ; set extruder temp 
BED_MESH_CALIBRATE AREA_START=93.9127,105.136 AREA_END=153.908,142.776

G1 Z2.0 F3000 ; Move Z Axis up little to prevent scratching of Heat Bed
M109 S205 ; wait for extruder temp
G1 X0.1 Y20 Z0.3 F5000.0 ; Move to start position

G1 X0.1 Y200.0 Z0.3 F1500.0 E15 ; Draw the first line
G1 X0.4 Y200.0 Z0.3 F5000.0 ; Move to side a little
G1 X0.4 Y20 Z0.3 F1500.0 E30 ; Draw the second line
G92 E0 ; Reset Extruder
G1 Z2.0 F3000 ; Move Z Axis up little to prevent scratching of Heat Bed
G1 X5 Y20 Z0.3 F5000.0 ; Move over to prevent blob squish
G21 ; set units to millimeters
G90 ; use absolute coordinates
M83 ; use relative distances for extrusion
; Filament gcode
M107
;LAYER_CHANGE
;Z:0.2
;HEIGHT:0.2
;BEFORE_LAYER_CHANGE
G92 E0
;0.2


G1 E-1.6 F2400
G1 Z.2 F6000
;AFTER_LAYER_CHANGE
;0.2
G1 X98.001 Y108.27
G1 E1.6 F2400
M204 S500
;TYPE:Skirt/Brim
;WIDTH:0.42
G1 F1200
G1 X98.87 Y107.565 E.03123
G1 X99.8 Y106.952 E.03108
G1 X101.466 Y106.133 E.0518
G1 X103.243 Y105.595 E.05181
G1 X104.865 Y105.359 E.04574
G1 X141.836 Y105.325 E1.03169
G1 X143.028 Y105.374 E.03329
G1 X143.987 Y105.507 E.02702
G1 X146.014 Y106.063 E.05865
G1 X147.844 Y106.934 E.05656
G1 X149.284 Y107.945 E.0491
G1 X150.727 Y109.344 E.05609
G1 X151.518 Y110.359 E.03591
G1 X151.98 Y111.088 E.02408
G1 X152.825 Y112.873 E.05511
G1 X153.384 Y114.91 E.05894
G1 X153.569 Y116.91 E.05605
G1 X153.719 Y130.91 E.3907
G1 X153.647 Y132.237 E.03708
G1 X153.44 Y133.457 E.03453
G1 X152.82 Y135.433 E.05779
G1 X151.834 Y137.302 E.05897
G1 X150.611 Y138.865 E.05538
G1 X149.833 Y139.633 E.03051
G1 X148.959 Y140.34 E.03137
G1 X147.317 Y141.347 E.05375
G1 X146.224 Y141.826 E.0333
G1 X144.425 Y142.352 E.0523
G1 X142.667 Y142.572 E.04944
G1 X105.222 Y142.578 E1.04491
G1 X103.535 Y142.379 E.0474
G1 X102.439 Y142.111 E.03149
G1 X101.33 Y141.722 E.0328
G1 X99.999 Y141.075 E.0413
G1 X98.944 Y140.404 E.03489
G1 X97.996 Y139.645 E.03389
G1 X96.904 Y138.529 E.04357
G1 X96.298 Y137.759 E.02734
G1 X95.473 Y136.431 E.04363
G1 X94.916 Y135.234 E.03684
G1 X94.464 Y133.845 E.04076
G1 X94.157 Y132.075 E.05013
G1 X94.101 Y131.074 E.02798
G1 X94.131 Y116.147 E.41654
G1 X94.483 Y114.002 E.06066
G1 X95.1 Y112.242 E.05204
G1 X95.503 Y111.423 E.02547
G1 X96.386 Y110.037 E.04586
G1 X97.019 Y109.253 E.02812
G1 X97.958 Y108.313 E.03708
G1 X98.225 Y108.579 F6000
G1 F1200
G1 X99.082 Y107.877 E.03091
G1 X99.981 Y107.283 E.03007
G1 X101.599 Y106.486 E.05033
G1 X103.137 Y106.006 E.04496
G1 X104.884 Y105.735 E.04933
G1 X141.836 Y105.702 E1.03116
G1 X143.911 Y105.877 E.05811
G1 X145.892 Y106.42 E.05732
G1 X147.653 Y107.259 E.05443
G1 X149.037 Y108.23 E.04718
G1 X150.449 Y109.598 E.05486
G1 X151.214 Y110.582 E.03478
G1 X151.709 Y111.371 E.02599
G1 X152.558 Y113.242 E.05733
G1 X153.027 Y115.042 E.05191
G1 X153.192 Y116.914 E.05244
G1 X153.342 Y130.914 E.3907
G1 X153.274 Y132.183 E.03546
G1 X153.069 Y133.393 E.03425
G1 X152.475 Y135.281 E.05523
G1 X151.513 Y137.103 E.0575
G1 X150.342 Y138.6 E.05304
G1 X149.739 Y139.211 E.02396
G1 X148.747 Y140.028 E.03586
G1 X147.125 Y141.022 E.05309
G1 X145.539 Y141.667 E.04778
G1 X144.362 Y141.98 E.03399
G1 X142.499 Y142.203 E.05236
G1 X105.249 Y142.202 E1.03947
G1 X103.594 Y142.006 E.04651
G1 X102.448 Y141.723 E.03294
G1 X101.481 Y141.376 E.02867
G1 X100.174 Y140.742 E.04054
G1 X99.163 Y140.097 E.03346
G1 X98.246 Y139.363 E.03278
G1 X97.183 Y138.275 E.04245
G1 X96.596 Y137.527 E.02653
G1 X95.801 Y136.245 E.04209
G1 X95.272 Y135.108 E.03499
G1 X94.829 Y133.751 E.03983
G1 X94.531 Y132.029 E.04877
G1 X94.478 Y131.074 E.02669
G1 X94.507 Y116.172 E.41585
G1 X94.844 Y114.11 E.0583
G1 X95.451 Y112.38 E.05116
G1 X95.849 Y111.573 E.02511
G1 X96.697 Y110.25 E.04385
G1 X97.301 Y109.503 E.02681
G1 X98.182 Y108.621 E.03479
G1 X98.449 Y108.888 F6000
G1 F1200
G1 X99.293 Y108.189 E.03058
G1 X100.174 Y107.606 E.02948
G1 X101.732 Y106.839 E.04846
G1 X103.352 Y106.343 E.04728
G1 X104.903 Y106.112 E.04376
G1 X141.836 Y106.079 E1.03063
G1 X143.834 Y106.246 E.05595
G1 X145.772 Y106.777 E.05607
G1 X147.462 Y107.584 E.05226
G1 X148.791 Y108.516 E.0453
G1 X150.158 Y109.838 E.05307
G1 X150.91 Y110.805 E.03418
G1 X151.381 Y111.557 E.02476
G1 X152.198 Y113.354 E.05509
G1 X152.656 Y115.114 E.05075
G1 X152.815 Y116.918 E.05054
G1 X152.965 Y130.918 E.3907
G1 X152.889 Y132.21 E.03612
G1 X152.665 Y133.486 E.03615
G1 X152.42 Y134.349 E.02503
G1 X151.553 Y136.319 E.06006
G1 X150.819 Y137.443 E.03746
G1 X150.162 Y138.241 E.02884
G1 X149.477 Y138.939 E.02729
G1 X148.535 Y139.716 E.03408
G1 X146.949 Y140.689 E.05192
G1 X145.415 Y141.311 E.04619
G1 X144.286 Y141.611 E.0326
G1 X142.489 Y141.826 E.0505
G1 X105.276 Y141.826 E1.03844
G1 X103.653 Y141.634 E.04561
G1 X102.554 Y141.361 E.0316
G1 X101.632 Y141.031 E.02733
G1 X100.35 Y140.408 E.03978
G1 X99.382 Y139.79 E.03205
G1 X98.451 Y139.039 E.03338
G1 X97.462 Y138.022 E.03959
G1 X96.905 Y137.31 E.02523
G1 X96.129 Y136.06 E.04106
G1 X95.627 Y134.982 E.03318
G1 X95.194 Y133.656 E.03893
G1 X94.905 Y131.984 E.04735
G1 X94.883 Y116.198 E.44051
G1 X95.205 Y114.22 E.05592
G1 X95.802 Y112.518 E.05033
G1 X96.184 Y111.747 E.02401
G1 X97.006 Y110.466 E.04247
G1 X97.582 Y109.754 E.02556
G1 X98.406 Y108.93 E.03252
; printing object Shape-Box id:3 copy 0
G1 E-1.12 F2400
;WIPE_START
G1 F4800
G1 X99.182 Y108.282 E-.48
;WIPE_END
G1 X103.875 Y121.176 F6000
G1 E1.6 F2400
;TYPE:External perimeter
G1 F1200
G1 X104.455 Y121.176 E.01619
G1 X104.455 Y121.756 E.01619
G1 X103.875 Y121.756 E.01619
G1 X103.875 Y121.236 E.01451
G1 X104.262 Y121.28 F6000
; stop printing object Shape-Box id:3 copy 0
; printing object Shape-Box id:2 copy 0
G1 E-1.12 F2400
;WIPE_START
G1 F4800
G1 X104.455 Y121.176 E-.27697
G1 X104.455 Y121.603 E-.20303
;WIPE_END
G1 X112.408 Y121.063 F6000
G1 E1.6 F2400
G1 F1200
G1 X112.988 Y121.063 E.01619
G1 X112.988 Y121.643 E.01619
G1 X112.408 Y121.643 E.01619
G1 X112.408 Y121.123 E.01451
G1 X112.795 Y121.166 F6000
; stop printing object Shape-Box id:2 copy 0
; printing object Shape-Box id:0 copy 0
G1 E-1.12 F2400
;WIPE_START
G1 F4800
G1 X112.988 Y121.063 E-.27697
G1 X112.988 Y121.49 E-.20303
;WIPE_END
G1 X134.545 Y123.269 F6000
G1 E1.6 F2400
;TYPE:Perimeter
G1 F1200
G1 X134.431 Y123.166 E.00429
G1 X134.354 Y122.993 E.00528
G1 X134.333 Y122.677 E.00884
G1 X134.355 Y122.524 E.00431
G1 X134.392 Y122.411 E.00332
G1 X134.501 Y122.258 E.00524
G1 X134.614 Y122.187 E.00372
G1 X134.791 Y122.184 E.00494
G1 X134.901 Y122.234 E.00337
G1 X135.007 Y122.326 E.00392
G1 X135.067 Y122.422 E.00316
G1 X135.147 Y122.694 E.00791
G1 X135.15 Y122.878 E.00514
G1 X135.131 Y122.993 E.00325
G1 X135.052 Y123.153 E.00498
G1 X134.922 Y123.266 E.00481
G1 X134.777 Y123.31 E.00423
G1 X134.6 Y123.292 E.00496
G1 X134.358 Y123.599 F6000
;TYPE:External perimeter
G1 F1200
G1 X134.235 Y123.51 E.00424
G1 X134.126 Y123.392 E.00448
G1 X134.043 Y123.251 E.00457
G1 X133.986 Y123.082 E.00498
G1 X133.956 Y122.881 E.00567
G1 X133.956 Y122.65 E.00645
G1 X133.987 Y122.437 E.00601
G1 X134.046 Y122.258 E.00526
G1 X134.131 Y122.107 E.00484
G1 X134.243 Y121.981 E.0047
G1 X134.365 Y121.887 E.0043
G1 X134.492 Y121.827 E.00392
G1 X134.63 Y121.798 E.00394
G1 X134.906 Y121.822 E.00773
G1 X135.107 Y121.913 E.00616
G1 X135.286 Y122.069 E.00663
G1 X135.414 Y122.27 E.00665
G1 X135.504 Y122.538 E.00789
G1 X135.524 Y122.661 E.00348
G1 X135.527 Y122.907 E.00687
G1 X135.497 Y123.091 E.0052
G1 X135.438 Y123.25 E.00473
G1 X135.35 Y123.388 E.00457
G1 X135.235 Y123.508 E.00464
G1 X135.106 Y123.598 E.00439
G1 X134.967 Y123.657 E.00421
G1 X134.813 Y123.687 E.00438
G1 X134.646 Y123.687 E.00466
G1 X134.413 Y123.622 E.00675
G1 X134.351 Y123.447 F6000
G1 X135.023 Y122.777
;TYPE:Solid infill
;WIDTH:0.438891
G1 F1200
G1 X134.723 Y122.477 E.01243
G1 X134.683 Y122.496 E.0013
G1 X134.637 Y122.603 E.00341
G1 X134.624 Y122.698 E.00281
G1 X134.623 Y122.82 E.00358
G1 X134.658 Y122.969 E.00449
G1 X134.847 Y123.161 E.00789
G1 E-1.12 F2400
;WIPE_START
G1 F4800
G1 X134.658 Y122.969 E-.12797
G1 X134.623 Y122.82 E-.0727
G1 X134.624 Y122.698 E-.05795
G1 X134.637 Y122.603 E-.04555
G1 X134.683 Y122.496 E-.05532
G1 X134.723 Y122.477 E-.02103
G1 X134.871 Y122.625 E-.09948
;WIPE_END
G1 X113.102 Y123.266 F6000
G1 E1.6 F2400
;TYPE:Perimeter
;WIDTH:0.42
G1 F1200
G1 X112.957 Y123.31 E.00423
G1 X112.862 Y123.31 E.00265
G1 X112.725 Y123.269 E.00399
G1 X112.611 Y123.166 E.00429
G1 X112.534 Y122.993 E.00528
G1 X112.513 Y122.677 E.00884
G1 X112.535 Y122.524 E.00431
G1 X112.62 Y122.327 E.00599
G1 X112.681 Y122.258 E.00257
G1 X112.794 Y122.187 E.00372
G1 X112.943 Y122.177 E.00417
G1 X113.081 Y122.234 E.00417
G1 X113.187 Y122.326 E.00392
G1 X113.247 Y122.422 E.00316
G1 X113.316 Y122.629 E.00609
G1 X113.33 Y122.878 E.00696
G1 X113.278 Y123.081 E.00585
G1 X113.151 Y123.232 E.00551
G1 X113.286 Y123.598 F6000
;TYPE:External perimeter
G1 F1200
G1 X113.147 Y123.657 E.00421
G1 X112.993 Y123.687 E.00438
G1 X112.826 Y123.687 E.00466
G1 X112.673 Y123.657 E.00435
G1 X112.538 Y123.599 E.0041
G1 X112.415 Y123.51 E.00424
G1 X112.306 Y123.392 E.00448
G1 X112.223 Y123.251 E.00457
G1 X112.166 Y123.082 E.00498
G1 X112.136 Y122.881 E.00567
G1 X112.136 Y122.65 E.00645
G1 X112.167 Y122.437 E.00601
G1 X112.226 Y122.258 E.00526
G1 X112.311 Y122.107 E.00484
G1 X112.423 Y121.981 E.0047
G1 X112.544 Y121.887 E.00428
G1 X112.672 Y121.827 E.00394
G1 X112.809 Y121.798 E.00391
G1 X112.986 Y121.801 E.00494
G1 X113.084 Y121.821 E.00279
G1 X113.287 Y121.913 E.00622
G1 X113.466 Y122.069 E.00663
G1 X113.594 Y122.27 E.00665
G1 X113.684 Y122.538 E.00789
G1 X113.704 Y122.661 E.00348
G1 X113.707 Y122.907 E.00687
G1 X113.677 Y123.091 E.0052
G1 X113.618 Y123.25 E.00473
G1 X113.53 Y123.388 E.00457
G1 X113.335 Y123.563 E.00731
G1 X113.154 Y123.524 F6000
G1 X113.203 Y122.777
;TYPE:Solid infill
;WIDTH:0.438892
G1 F1200
G1 X112.9 Y122.473 E.01258
G1 X112.868 Y122.484 E.00099
G1 X112.817 Y122.603 E.00379
G1 X112.803 Y122.698 E.00281
G1 X112.803 Y122.82 E.00358
G1 X112.838 Y122.969 E.00449
G1 X113.027 Y123.161 E.00789
G1 E-1.12 F2400
;WIPE_START
G1 F4800
G1 X112.838 Y122.969 E-.12797
G1 X112.803 Y122.82 E-.0727
G1 X112.803 Y122.698 E-.05795
G1 X112.817 Y122.603 E-.04561
G1 X112.868 Y122.484 E-.0615
G1 X112.9 Y122.473 E-.01607
G1 X113.046 Y122.619 E-.0982
;WIPE_END
G1 X104.151 Y122.211 F6000
G1 E1.6 F2400
;TYPE:Perimeter
;WIDTH:0.42
G1 F1200
G1 X104.256 Y122.175 E.0031
G1 X104.353 Y122.177 E.00271
G1 X104.491 Y122.234 E.00417
G1 X104.624 Y122.364 E.00519
G1 X104.726 Y122.629 E.00792
G1 X104.739 Y122.878 E.00696
G1 X104.687 Y123.081 E.00585
G1 X104.578 Y123.219 E.00491
G1 X104.445 Y123.294 E.00426
G1 X104.271 Y123.31 E.00488
G1 X104.134 Y123.269 E.00399
G1 X104.02 Y123.166 E.00429
G1 X103.943 Y122.993 E.00528
G1 X103.922 Y122.677 E.00884
G1 X103.945 Y122.524 E.00432
G1 X104.029 Y122.327 E.00598
G1 X104.103 Y122.248 E.00302
G1 X103.72 Y122.107 F6000
;TYPE:External perimeter
G1 F1200
G1 X103.832 Y121.981 E.0047
G1 X103.954 Y121.887 E.0043
G1 X104.082 Y121.827 E.00394
G1 X104.218 Y121.798 E.00388
G1 X104.493 Y121.821 E.0077
G1 X104.697 Y121.913 E.00624
G1 X104.875 Y122.069 E.0066
G1 X105.003 Y122.27 E.00665
G1 X105.093 Y122.538 E.00789
G1 X105.116 Y122.907 E.01032
G1 X105.086 Y123.091 E.0052
G1 X105.027 Y123.25 E.00473
G1 X104.94 Y123.388 E.00455
G1 X104.824 Y123.508 E.00466
G1 X104.695 Y123.598 E.00439
G1 X104.556 Y123.657 E.00421
G1 X104.402 Y123.687 E.00438
G1 X104.235 Y123.687 E.00466
G1 X104.082 Y123.657 E.00435
G1 X103.947 Y123.599 E.0041
G1 X103.824 Y123.51 E.00424
G1 X103.716 Y123.392 E.00446
G1 X103.633 Y123.251 E.00457
G1 X103.575 Y123.082 E.00499
G1 X103.545 Y122.881 E.00567
G1 X103.545 Y122.65 E.00645
G1 X103.576 Y122.437 E.00601
G1 X103.635 Y122.258 E.00526
G1 X103.691 Y122.159 E.00317
G1 X103.888 Y122.123 F6000
G1 X104.613 Y122.777
;TYPE:Solid infill
;WIDTH:0.43889
G1 F1200
G1 X104.309 Y122.473 E.0126
G1 X104.278 Y122.484 E.00096
G1 X104.226 Y122.603 E.00381
G1 X104.213 Y122.698 E.00281
G1 X104.213 Y122.82 E.00358
G1 X104.247 Y122.969 E.00448
G1 X104.437 Y123.161 E.00792
G1 E-1.12 F2400
;WIPE_START
G1 F4800
G1 X104.247 Y122.969 E-.12831
G1 X104.213 Y122.82 E-.07259
G1 X104.213 Y122.698 E-.05795
G1 X104.226 Y122.603 E-.04555
G1 X104.278 Y122.484 E-.06169
G1 X104.309 Y122.473 E-.01562
G1 X104.455 Y122.619 E-.09829
;WIPE_END
G1 X123.584 Y124.865 F6000
G1 E1.6 F2400
;TYPE:Perimeter
;WIDTH:0.42
G1 F1200
G1 X123.597 Y124.782 E.00234
G1 X123.729 Y124.529 E.00796
G1 X124.088 Y124.136 E.01485
G1 X124.216 Y124.023 E.00476
G1 X124.129 Y124.895 E.02445
G1 X124.092 Y124.97 E.00233
G1 X123.982 Y125.038 E.00361
G1 X123.748 Y125.043 E.00653
G1 X123.669 Y125.015 E.00234
G1 X123.594 Y124.923 E.00331
G1 E-1.12 F2400
;WIPE_START
G1 F4800
G1 X123.597 Y124.782 E-.06699
G1 X123.729 Y124.529 E-.13555
G1 X124.088 Y124.136 E-.25284
G1 X124.127 Y124.102 E-.02462
;WIPE_END
G1 X122.359 Y122.435 F6000
G1 E1.6 F2400
G1 F1200
G1 X123.085 Y122.418 E.02026
G1 X122.365 Y123.072 E.02714
G1 X121.977 Y123.551 E.0172
G1 X121.836 Y123.781 E.00753
G1 X121.678 Y124.149 E.01118
G1 X119.969 Y123.973 E.04794
G1 X120.95 Y123.123 E.03622
G1 X121.345 Y122.715 E.01585
G1 X121.556 Y122.432 E.00985
G1 X122.299 Y122.435 E.02073
G1 E-1.12 F2400
;WIPE_START
G1 F4800
G1 X123.085 Y122.418 E-.37344
G1 X122.919 Y122.569 E-.10656
;WIPE_END
G1 X119.922 Y124.014 F6000
G1 E1.6 F2400
G1 F1200
G1 X119.819 Y124.935 E.02586
G1 X119.739 Y125.017 E.0032
G1 X119.651 Y125.046 E.00259
G1 X119.464 Y125.047 E.00522
G1 X119.385 Y125.021 E.00232
G1 X119.302 Y124.942 E.0032
G1 X119.287 Y124.85 E.0026
G1 X119.36 Y124.642 E.00615
G1 X119.572 Y124.359 E.00987
G1 X119.879 Y124.056 E.01204
G1 E-1.12 F2400
;WIPE_START
G1 F4800
G1 X119.819 Y124.935 E-.4185
G1 X119.739 Y125.017 E-.05442
G1 X119.725 Y125.022 E-.00708
;WIPE_END
G1 X111.159 Y124.333 F6000
G1 E1.6 F2400
G1 F1200
G1 X110.762 Y124.298 E.01112
G1 X110.838 Y123.897 E.01139
G1 X110.992 Y124.147 E.00819
G1 X111.119 Y124.288 E.0053
G1 E-1.12 F2400
;WIPE_START
G1 F4800
G1 X110.762 Y124.298 E-.16964
G1 X110.838 Y123.897 E-.19387
G1 X110.967 Y124.106 E-.11649
;WIPE_END
G1 X109.121 Y123.041 F6000
G1 E1.6 F2400
G1 F1200
G1 X108.952 Y123.208 E.00663
G1 X108.813 Y123.273 E.00428
G1 X108.645 Y123.282 E.00469
G1 X108.496 Y123.248 E.00426
G1 X108.419 Y123.196 E.00259
G1 X108.343 Y123.088 E.00369
G1 X108.302 Y122.911 E.00507
G1 X108.311 Y122.667 E.00681
G1 X108.36 Y122.501 E.00483
G1 X108.435 Y122.388 E.00378
G1 X108.523 Y122.316 E.00317
G1 X108.623 Y122.278 E.00299
G1 X108.746 Y122.277 E.00343
G1 X108.86 Y122.331 E.00352
G1 X108.92 Y122.413 E.00284
G1 X109.103 Y122.983 E.01671
G1 E-1.12 F2400
;WIPE_START
G1 F4800
G1 X108.952 Y123.208 E-.12871
G1 X108.813 Y123.273 E-.07289
G1 X108.645 Y123.282 E-.07991
G1 X108.496 Y123.248 E-.07259
G1 X108.419 Y123.196 E-.04413
G1 X108.343 Y123.088 E-.06273
G1 X108.334 Y123.049 E-.01904
;WIPE_END
G1 X107.351 Y124.886 F6000
G1 E1.6 F2400
G1 F1200
G1 X106.59 Y124.884 E.02124
G1 X106.65 Y124.645 E.00688
G1 X106.688 Y124.263 E.01071
