; generated by PrusaSlicer 2.6.1+win64 on 2023-09-29 at 07:47:02 UTC

; 

; external perimeters extrusion width = 0.42mm
; perimeters extrusion width = 0.44mm
; infill extrusion width = 0.44mm
; solid infill extrusion width = 0.44mm
; top infill extrusion width = 0.40mm
; first layer extrusion width = 0.42mm

;TYPE:Custom
; Ender 3 Custom Start G-code
G92 E0 ; Reset Extruder

M140 S65 ; set bed temp
M104 S225 ; set extruder temp
M109 S225 ; wait for extruder temp
M190 S65 ; wait for bed temp

G28 ; Home all axes
M104 S235 ; set extruder temp 
BED_MESH_CALIBRATE AREA_START=8.86221,60.4426 AREA_END=226.502,163.082

G1 Z2.0 F3000 ; Move Z Axis up little to prevent scratching of Heat Bed
M109 S235 ; wait for extruder temp
G1 X0.1 Y20 Z0.3 F5000.0 ; Move to start position

G1 X0.1 Y200.0 Z0.3 F1500.0 E15 ; Draw the first line
G1 X0.4 Y200.0 Z0.3 F5000.0 ; Move to side a little
G1 X0.4 Y20 Z0.3 F1500.0 E30 ; Draw the second line
G92 E0 ; Reset Extruder
G1 Z2.0 F3000 ; Move Z Axis up little to prevent scratching of Heat Bed
G1 X5 Y20 Z0.3 F5000.0 ; Move over to prevent blob squish
G21 ; set units to millimeters
G90 ; use absolute coordinates
M83 ; use relative distances for extrusion
; Filament gcode
M107
;LAYER_CHANGE
;Z:0.2
;HEIGHT:0.2
;BEFORE_LAYER_CHANGE
G92 E0
;0.2


G1 E-1.6 F2400
G1 Z.2 F6000
;AFTER_LAYER_CHANGE
;0.2
G1 X12.182 Y60.631
G1 E1.6 F2400
M204 S500
;TYPE:Skirt/Brim
;WIDTH:0.42
G1 F1080
G1 X223.182 Y60.631 E6.21881
G1 X224.702 Y61.025 E.04628
G1 X225.84 Y62.107 E.04628
G1 X226.313 Y63.762 E.05073
G1 X226.313 Y154.762 E2.68205
G1 X226.242 Y155.788 E.03031
G1 X225.981 Y157.035 E.03755
G1 X225.531 Y158.223 E.03744
G1 X224.904 Y159.327 E.03742
G1 X223.75 Y160.679 E.05239
G1 X222.758 Y161.475 E.03749
G1 X221.648 Y162.11 E.03769
G1 X220.459 Y162.561 E.03748
G1 X219.695 Y162.745 E.02316
G1 X218.18 Y162.894 E.04487
G1 X17.182 Y162.894 E5.92402
G1 X16.153 Y162.822 E.0304
G1 X14.903 Y162.561 E.03764
G1 X13.714 Y162.11 E.03748
G1 X12.604 Y161.475 E.03769
G1 X11.612 Y160.679 E.03749
G1 X10.755 Y159.736 E.03756
G1 X9.833 Y158.229 E.05207
G1 X9.382 Y157.041 E.03745
G1 X9.198 Y156.279 E.0231
G1 X9.051 Y154.762 E.04492
G1 X9.051 Y63.762 E2.68205
G1 X9.444 Y62.242 E.04627
G1 X10.526 Y61.105 E.04626
G1 X12.124 Y60.648 E.04899
G1 X12.182 Y61.008 F6000
G1 F1080
G1 X223.182 Y61.008 E6.21881
G1 X224.599 Y61.401 E.04334
G1 X225.613 Y62.467 E.04336
G1 X225.936 Y63.762 E.03934
G1 X225.936 Y154.762 E2.68205
G1 X225.866 Y155.758 E.02943
G1 X225.615 Y156.947 E.03582
G1 X225.183 Y158.079 E.03571
G1 X224.581 Y159.131 E.03572
G1 X223.505 Y160.392 E.04886
G1 X222.561 Y161.154 E.03576
G1 X221.504 Y161.762 E.03594
G1 X220.371 Y162.194 E.03574
G1 X219.607 Y162.378 E.02316
G1 X218.18 Y162.517 E.04226
G1 X17.182 Y162.517 E5.92402
G1 X16.182 Y162.446 E.02955
G1 X14.991 Y162.194 E.03588
G1 X13.858 Y161.762 E.03574
G1 X12.801 Y161.154 E.03594
G1 X11.857 Y160.392 E.03576
G1 X11.041 Y159.491 E.03583
G1 X10.182 Y158.085 E.04856
G1 X9.749 Y156.953 E.03572
G1 X9.565 Y156.191 E.0231
G1 X9.428 Y154.762 E.04231
G1 X9.428 Y63.762 E2.68205
G1 X9.821 Y62.345 E.04334
G1 X10.887 Y61.332 E.04334
G1 X12.124 Y61.023 E.03758
G1 X12.182 Y61.385 F6000
G1 F1080
G1 X223.182 Y61.385 E6.21881
G1 X224.489 Y61.777 E.04022
G1 X225.365 Y62.823 E.04021
G1 X225.559 Y63.762 E.02826
G1 X225.559 Y154.762 E2.68205
G1 X225.49 Y155.728 E.02854
G1 X225.248 Y156.859 E.03409
G1 X224.834 Y157.935 E.03398
G1 X224.259 Y158.935 E.034
G1 X223.26 Y160.105 E.04534
G1 X222.363 Y160.832 E.03403
G1 X221.36 Y161.413 E.03416
G1 X220.283 Y161.827 E.03401
G1 X219.519 Y162.011 E.02316
G1 X218.18 Y162.139 E.03964
G1 X17.182 Y162.139 E5.92402
G1 X16.212 Y162.07 E.02866
G1 X15.079 Y161.827 E.03415
G1 X14.002 Y161.413 E.03401
G1 X12.999 Y160.832 E.03416
G1 X12.101 Y160.105 E.03405
G1 X11.328 Y159.246 E.03406
G1 X10.53 Y157.94 E.04511
G1 X10.115 Y156.864 E.03399
G1 X9.931 Y156.102 E.0231
G1 X9.805 Y154.762 E.03967
G1 X9.805 Y63.762 E2.68205
G1 X10.196 Y62.455 E.04021
G1 X11.242 Y61.579 E.04021
G1 X12.123 Y61.397 E.02651
; printing object Stand.STL id:0 copy 0
G1 E-1.12 F2400
;WIPE_START
G1 F4800
G1 X13.134 Y61.397 E-.48
;WIPE_END
G1 X106.779 Y120.308 F6000
G1 E1.6 F2400
;TYPE:Perimeter
G1 F1080
G1 X106.896 Y119.253 E.03128
G1 X107.152 Y118.199 E.03197
G1 X107.535 Y117.189 E.03184
G1 X108.04 Y116.232 E.03189
G1 X108.66 Y115.343 E.03194
G1 X109.39 Y114.539 E.03201
G1 X110.206 Y113.836 E.03174
G1 X111.092 Y113.248 E.03134
G1 X178.675 Y74.231 E2.29999
G1 X179.47 Y73.824 E.02632
G1 X180.32 Y73.498 E.02683
G1 X181.2 Y73.263 E.02685
G1 X182.096 Y73.122 E.02673
G1 X182.984 Y73.075 E.02621
G1 X205.203 Y73.075 E.65486
G1 X206.227 Y73.137 E.03024
G1 X207.26 Y73.326 E.03095
G1 X208.262 Y73.637 E.03092
G1 X209.22 Y74.069 E.03097
G1 X210.117 Y74.61 E.03087
G1 X210.943 Y75.26 E.03098
G1 X211.683 Y76 E.03084
G1 X212.33 Y76.825 E.0309
G1 X212.873 Y77.722 E.0309
G1 X213.306 Y78.68 E.03099
G1 X213.616 Y79.682 E.03091
G1 X213.805 Y80.716 E.03098
G1 X213.867 Y81.74 E.03024
G1 X213.867 Y120.783 E1.15072
G1 X213.805 Y121.807 E.03024
G1 X213.616 Y122.841 E.03098
G1 X213.306 Y123.842 E.03088
G1 X212.873 Y124.801 E.03101
G1 X212.33 Y125.698 E.0309
G1 X211.683 Y126.523 E.0309
G1 X210.943 Y127.263 E.03084
G1 X210.117 Y127.911 E.03094
G1 X209.22 Y128.454 E.0309
G1 X208.262 Y128.886 E.03097
G1 X207.26 Y129.197 E.03092
G1 X206.227 Y129.386 E.03095
G1 X205.203 Y129.447 E.03023
G1 X115.433 Y129.447 E2.64579
G1 X114.375 Y129.381 E.03124
G1 X113.31 Y129.182 E.03193
G1 X112.278 Y128.847 E.03198
G1 X111.3 Y128.391 E.0318
G1 X110.382 Y127.817 E.03191
G1 X109.546 Y127.129 E.03191
G1 X108.799 Y126.347 E.03187
G1 X108.155 Y125.473 E.032
G1 X107.628 Y124.532 E.03179
G1 X107.218 Y123.53 E.03191
G1 X106.937 Y122.482 E.03198
G1 X106.792 Y121.412 E.03182
G1 X106.777 Y120.368 E.03077
G1 X107.154 Y120.347 F6000
;TYPE:External perimeter
G1 F1080
G1 X107.268 Y119.318 E.03051
G1 X107.513 Y118.311 E.03055
G1 X107.879 Y117.345 E.03045
G1 X108.363 Y116.429 E.03053
G1 X108.955 Y115.579 E.03053
G1 X109.653 Y114.81 E.03061
G1 X110.434 Y114.137 E.03039
G1 X111.291 Y113.569 E.0303
G1 X178.856 Y74.562 E2.29938
G1 X179.623 Y74.169 E.0254
G1 X180.436 Y73.857 E.02567
G1 X181.278 Y73.633 E.02568
G1 X182.136 Y73.498 E.0256
G1 X182.994 Y73.452 E.02532
G1 X205.191 Y73.452 E.65421
G1 X206.181 Y73.512 E.02923
G1 X207.17 Y73.693 E.02963
G1 X208.128 Y73.99 E.02956
G1 X209.044 Y74.403 E.02961
G1 X209.903 Y74.921 E.02956
G1 X210.692 Y75.542 E.02959
G1 X211.4 Y76.25 E.02951
G1 X212.019 Y77.04 E.02958
G1 X212.539 Y77.898 E.02957
G1 X212.952 Y78.814 E.02961
G1 X213.25 Y79.772 E.02957
G1 X213.43 Y80.761 E.02963
G1 X213.49 Y81.751 E.02923
G1 X213.49 Y120.772 E1.15007
G1 X213.43 Y121.762 E.02923
G1 X213.25 Y122.75 E.0296
G1 X212.952 Y123.708 E.02957
G1 X212.539 Y124.625 E.02964
G1 X212.019 Y125.483 E.02957
G1 X211.4 Y126.272 E.02956
G1 X210.692 Y126.981 E.02953
G1 X209.903 Y127.6 E.02956
G1 X209.045 Y128.119 E.02955
G1 X208.128 Y128.533 E.02965
G1 X207.17 Y128.83 E.02956
G1 X206.181 Y129.011 E.02963
G1 X205.191 Y129.07 E.02923
G1 X115.444 Y129.07 E2.64512
G1 X114.422 Y129.007 E.03018
G1 X113.403 Y128.815 E.03056
G1 X112.416 Y128.495 E.03058
G1 X111.48 Y128.059 E.03043
G1 X110.602 Y127.51 E.03052
G1 X109.803 Y126.852 E.03051
G1 X109.088 Y126.104 E.0305
G1 X108.473 Y125.269 E.03056
G1 X107.968 Y124.367 E.03047
G1 X107.576 Y123.41 E.03048
G1 X107.307 Y122.408 E.03058
G1 X107.168 Y121.383 E.03049
G1 X107.155 Y120.407 E.02877
G1 X106.818 Y120.131 F6000
G1 E-1.12 F2400
;WIPE_START
G1 F4800
G1 X107.259 Y119.402 E-.48
;WIPE_END
G1 X90.174 Y114.227 F6000
G1 E1.6 F2400
;TYPE:Perimeter
G1 F1080
G1 X89.573 Y115.061 E.0303
G1 X88.861 Y115.835 E.031
G1 X88.061 Y116.515 E.03095
G1 X87.205 Y117.079 E.03021
G1 X67.783 Y128.292 E.66098
G1 X66.988 Y128.699 E.02632
G1 X66.138 Y129.025 E.02683
G1 X65.258 Y129.259 E.02684
G1 X64.362 Y129.401 E.02674
G1 X63.47 Y129.447 E.02632
G1 X30.159 Y129.447 E.98178
G1 X29.135 Y129.386 E.03023
G1 X28.102 Y129.197 E.03095
G1 X27.1 Y128.886 E.03092
G1 X26.142 Y128.454 E.03097
G1 X25.245 Y127.911 E.0309
G1 X24.419 Y127.263 E.03094
G1 X23.679 Y126.523 E.03084
G1 X23.032 Y125.698 E.0309
G1 X22.489 Y124.801 E.0309
G1 X22.056 Y123.842 E.03101
G1 X21.746 Y122.84 E.03091
G1 X21.557 Y121.807 E.03095
G1 X21.495 Y120.783 E.03024
G1 X21.495 Y81.74 E1.15072
G1 X21.557 Y80.716 E.03024
G1 X21.746 Y79.682 E.03098
G1 X22.056 Y78.68 E.03091
G1 X22.489 Y77.722 E.03099
G1 X23.032 Y76.825 E.0309
G1 X23.679 Y76 E.0309
G1 X24.419 Y75.26 E.03084
G1 X25.245 Y74.61 E.03098
G1 X26.142 Y74.069 E.03087
G1 X27.1 Y73.637 E.03097
G1 X28.102 Y73.326 E.03092
G1 X29.135 Y73.137 E.03095
G1 X30.159 Y73.075 E.03024
G1 X66.809 Y73.075 E1.08019
G1 X67.798 Y73.131 E.0292
G1 X68.793 Y73.309 E.02979
G1 X69.761 Y73.595 E.02975
G1 X70.69 Y73.998 E.02985
G1 X71.562 Y74.503 E.0297
G1 X72.374 Y75.105 E.02979
G1 X73.109 Y75.8 E.02981
G1 X73.758 Y76.573 E.02975
G1 X74.301 Y77.4 E.02916
G1 X90.375 Y105.242 E.94753
G1 X90.837 Y106.162 E.03034
G1 X91.187 Y107.15 E.03089
G1 X91.417 Y108.174 E.03093
G1 X91.524 Y109.216 E.03087
G1 X91.504 Y110.268 E.03101
G1 X91.354 Y111.306 E.03091
G1 X91.085 Y112.32 E.03092
G1 X90.692 Y113.294 E.03096
G1 X90.205 Y114.176 E.02969
G1 X89.866 Y114.008 F6000
;TYPE:External perimeter
G1 F1080
G1 X89.281 Y114.823 E.02957
G1 X88.599 Y115.562 E.02964
G1 X87.834 Y116.213 E.02961
G1 X87.007 Y116.758 E.02919
G1 X67.602 Y127.961 E.66039
G1 X66.835 Y128.354 E.0254
G1 X66.022 Y128.666 E.02567
G1 X65.18 Y128.89 E.02568
G1 X64.322 Y129.025 E.0256
G1 X63.46 Y129.07 E.02544
G1 X30.171 Y129.07 E.98113
G1 X29.181 Y129.011 E.02923
G1 X28.192 Y128.83 E.02963
G1 X27.234 Y128.533 E.02956
G1 X26.317 Y128.119 E.02965
G1 X25.459 Y127.6 E.02955
G1 X24.67 Y126.981 E.02956
G1 X23.962 Y126.272 E.02953
G1 X23.342 Y125.483 E.02957
G1 X22.823 Y124.625 E.02955
G1 X22.41 Y123.708 E.02964
G1 X22.112 Y122.75 E.02957
G1 X21.932 Y121.762 E.0296
G1 X21.872 Y120.772 E.02923
G1 X21.872 Y81.751 E1.15007
G1 X21.932 Y80.761 E.02923
G1 X22.112 Y79.772 E.02963
G1 X22.41 Y78.814 E.02957
G1 X22.823 Y77.898 E.02961
G1 X23.342 Y77.04 E.02955
G1 X23.962 Y76.25 E.0296
G1 X24.67 Y75.542 E.02951
G1 X25.459 Y74.921 E.02959
G1 X26.318 Y74.403 E.02956
G1 X27.234 Y73.99 E.02961
G1 X28.192 Y73.693 E.02956
G1 X29.181 Y73.512 E.02963
G1 X30.171 Y73.452 E.02923
G1 X66.799 Y73.452 E1.07954
G1 X67.754 Y73.506 E.02819
G1 X68.706 Y73.676 E.0285
G1 X69.632 Y73.95 E.02846
G1 X70.52 Y74.335 E.02853
G1 X71.354 Y74.819 E.02842
G1 X72.132 Y75.394 E.02851
G1 X72.834 Y76.059 E.0285
G1 X73.455 Y76.799 E.02847
G1 X73.98 Y77.598 E.02818
G1 X90.043 Y105.421 E.94688
G1 X90.49 Y106.311 E.02935
G1 X90.824 Y107.254 E.02948
G1 X91.045 Y108.234 E.02961
G1 X91.146 Y109.231 E.02954
G1 X91.128 Y110.237 E.02965
G1 X90.984 Y111.23 E.02957
G1 X90.727 Y112.201 E.0296
G1 X90.35 Y113.132 E.0296
G1 X89.895 Y113.956 E.02774
G1 X90.052 Y114.363 F6000
G1 E-1.12 F2400
;WIPE_START
G1 F4800
G1 X89.311 Y114.781 E-.48
;WIPE_END
G1 X16.495 Y138.452 F6000
G1 E1.6 F2400
;TYPE:Perimeter
G1 F1080
G1 X16.495 Y138.075 E.01111
G1 X218.867 Y138.075 E5.96452
G1 X218.867 Y155.449 E.51206
G1 X16.495 Y155.449 E5.96452
G1 X16.495 Y138.512 E.49918
G1 X16.872 Y138.452 F6000
;TYPE:External perimeter
G1 F1080
G1 X218.49 Y138.452 E5.9423
G1 X218.49 Y155.072 E.48984
G1 X16.872 Y155.072 E5.9423
G1 X16.872 Y138.512 E.48807
G1 X16.682 Y138.101 F6000
G1 E-1.12 F2400
;WIPE_START
G1 F4800
G1 X17.883 Y138.512 E-.48
;WIPE_END
G1 X12.869 Y64.449 F6000
G1 E1.6 F2400
;TYPE:Perimeter
G1 F1080
G1 X76.783 Y64.449 E1.88374
G1 X97.846 Y100.931 E1.24158
G1 X98.414 Y101.786 E.03025
G1 X99.093 Y102.585 E.0309
G1 X99.864 Y103.297 E.03093
G1 X100.716 Y103.912 E.03097
G1 X101.635 Y104.416 E.03089
G1 X102.608 Y104.809 E.03093
G1 X103.62 Y105.079 E.03087
G1 X104.66 Y105.229 E.03097
G1 X105.708 Y105.248 E.03089
G1 X106.753 Y105.142 E.03096
G1 X107.775 Y104.912 E.03087
G1 X108.764 Y104.562 E.03092
G1 X109.686 Y104.1 E.03039
G1 X178.366 Y64.449 E2.33733
G1 X222.495 Y64.449 E1.30062
G1 X222.495 Y154.735 E2.661
G1 X222.439 Y155.436 E.02073
G1 X222.281 Y156.093 E.01992
G1 X222.022 Y156.718 E.01994
G1 X221.67 Y157.296 E.01995
G1 X221.231 Y157.809 E.0199
G1 X220.715 Y158.249 E.01999
G1 X220.139 Y158.602 E.01991
G1 X219.513 Y158.861 E.01997
G1 X218.854 Y159.02 E.01998
G1 X218.153 Y159.075 E.02072
G1 X17.209 Y159.075 E5.92243
G1 X16.508 Y159.02 E.02072
G1 X15.849 Y158.861 E.01998
G1 X15.223 Y158.602 E.01997
G1 X14.647 Y158.249 E.01991
G1 X14.131 Y157.809 E.01999
G1 X13.692 Y157.296 E.0199
G1 X13.34 Y156.718 E.01995
G1 X13.081 Y156.093 E.01994
G1 X12.923 Y155.437 E.01989
G1 X12.869 Y154.736 E.02072
G1 X12.869 Y64.509 E2.65926
G1 X12.492 Y64.072 F6000
;TYPE:External perimeter
G1 F1080
G1 X77.001 Y64.072 E1.90128
G1 X98.166 Y100.732 E1.24762
G1 X98.716 Y101.559 E.02927
G1 X99.366 Y102.323 E.02956
G1 X100.103 Y103.005 E.02959
G1 X100.918 Y103.593 E.02962
G1 X101.797 Y104.075 E.02955
G1 X102.728 Y104.451 E.02959
G1 X103.696 Y104.709 E.02953
G1 X104.691 Y104.852 E.02963
G1 X105.693 Y104.871 E.02954
G1 X106.692 Y104.769 E.0296
G1 X107.67 Y104.549 E.02954
G1 X108.616 Y104.214 E.02958
G1 X109.507 Y103.767 E.02938
G1 X178.265 Y64.072 E2.33997
G1 X222.872 Y64.072 E1.3147
G1 X222.872 Y154.75 E2.67256
G1 X222.813 Y155.495 E.02203
G1 X222.64 Y156.21 E.02168
G1 X222.359 Y156.89 E.02169
G1 X221.976 Y157.518 E.02168
G1 X221.498 Y158.076 E.02166
G1 X220.937 Y158.555 E.02174
G1 X220.311 Y158.939 E.02164
G1 X219.63 Y159.221 E.02172
G1 X218.913 Y159.393 E.02173
G1 X218.168 Y159.452 E.02203
G1 X17.194 Y159.452 E5.92331
G1 X16.449 Y159.393 E.02203
G1 X15.732 Y159.221 E.02173
G1 X15.051 Y158.939 E.02172
G1 X14.425 Y158.555 E.02164
G1 X13.864 Y158.076 E.02174
G1 X13.386 Y157.518 E.02166
G1 X13.003 Y156.89 E.02168
G1 X12.722 Y156.21 E.02169
G1 X12.549 Y155.496 E.02165
G1 X12.492 Y154.75 E.02205
G1 X12.492 Y64.132 E2.67079
G1 X12.838 Y64.272 F6000
G1 E-1.12 F2400
;WIPE_START
G1 F4800
G1 X13.503 Y64.131 E-.48
;WIPE_END
G1 X221.612 Y64.57 F6000
G1 E1.6 F2400
;TYPE:Solid infill
;WIDTH:0.420095
G1 F1080
G1 X222.205 Y65.163 E.02472
G1 X222.205 Y65.696 E.01571
G1 X221.248 Y64.74 E.03988
G1 X220.715 Y64.74 E.01571
G1 X222.205 Y66.23 E.06212
G1 X222.205 Y66.763 E.01571
G1 X220.181 Y64.74 E.08436
G1 X219.648 Y64.74 E.01571
G1 X222.205 Y67.297 E.10661
G1 X222.205 Y67.83 E.01571
G1 X219.114 Y64.74 E.12885
G1 X218.581 Y64.74 E.01571
G1 X222.205 Y68.363 E.15107
G1 X222.205 Y68.897 E.01574
G1 X218.048 Y64.74 E.17331
G1 X217.514 Y64.74 E.01574
G1 X222.205 Y69.43 E.19556
G1 X222.205 Y69.964 E.01574
G1 X216.981 Y64.74 E.2178
G1 X216.447 Y64.74 E.01574
G1 X222.205 Y70.497 E.24004
G1 X222.205 Y71.03 E.01571
G1 X215.914 Y64.74 E.26226
G1 X215.381 Y64.74 E.01571
G1 X222.205 Y71.564 E.2845
G1 X222.205 Y72.097 E.01571
G1 X214.847 Y64.74 E.30675
G1 X214.314 Y64.74 E.01571
G1 X222.205 Y72.631 E.32899
G1 X222.205 Y73.164 E.01571
G1 X213.78 Y64.74 E.35123
G1 X213.247 Y64.74 E.01571
G1 X222.205 Y73.697 E.37345
G1 X222.205 Y74.231 E.01574
G1 X212.714 Y64.74 E.3957
G1 X212.18 Y64.74 E.01574
G1 X222.205 Y74.764 E.41794
G1 X222.205 Y75.298 E.01574
G1 X211.647 Y64.74 E.44018
G1 X211.113 Y64.74 E.01574
G1 X222.205 Y75.831 E.46242
G1 X222.205 Y76.364 E.01571
G1 X210.58 Y64.74 E.48465
G1 X210.047 Y64.74 E.01571
G1 X222.205 Y76.898 E.50689
G1 X222.205 Y77.431 E.01571
G1 X209.513 Y64.74 E.52913
G1 X208.98 Y64.74 E.01571
G1 X222.205 Y77.965 E.55137
G1 X222.205 Y78.498 E.01571
G1 X208.446 Y64.74 E.57362
G1 X207.913 Y64.74 E.01571
G1 X222.205 Y79.031 E.59584
G1 X222.205 Y79.565 E.01574
G1 X207.379 Y64.74 E.6181
G1 X206.846 Y64.74 E.01571
G1 X222.205 Y80.098 E.64032
G1 X222.205 Y80.632 E.01574
G1 X206.313 Y64.74 E.66256
G1 X205.779 Y64.74 E.01574
G1 X222.205 Y81.165 E.68481
G1 X222.205 Y81.698 E.01571
G1 X205.246 Y64.74 E.70703
G1 X204.712 Y64.74 E.01574
G1 X222.205 Y82.232 E.72929
G1 X222.205 Y82.765 E.01571
G1 X204.179 Y64.74 E.75151
G1 X203.646 Y64.74 E.01571
G1 X222.205 Y83.299 E.77376
G1 X222.205 Y83.832 E.01571
G1 X203.112 Y64.74 E.796
G1 X202.579 Y64.74 E.01571
G1 X222.205 Y84.366 E.81824
G1 X222.205 Y84.899 E.01571
G1 X202.045 Y64.74 E.84048
G1 X201.512 Y64.74 E.01571
