; generated by PrusaSlicer 2.6.1+win64 on 2023-09-27 at 14:27:08 UTC

; 

; external perimeters extrusion width = 0.42mm
; perimeters extrusion width = 0.44mm
; infill extrusion width = 0.44mm
; solid infill extrusion width = 0.44mm
; top infill extrusion width = 0.40mm
; first layer extrusion width = 0.42mm

; external perimeters extrusion width = 0.42mm
; perimeters extrusion width = 0.44mm
; infill extrusion width = 0.44mm
; solid infill extrusion width = 0.44mm
; top infill extrusion width = 0.40mm
; first layer extrusion width = 0.42mm

; external perimeters extrusion width = 0.42mm
; perimeters extrusion width = 0.44mm
; infill extrusion width = 0.44mm
; solid infill extrusion width = 0.44mm
; top infill extrusion width = 0.40mm
; first layer extrusion width = 0.42mm

; external perimeters extrusion width = 0.42mm
; perimeters extrusion width = 0.44mm
; infill extrusion width = 0.44mm
; solid infill extrusion width = 0.44mm
; top infill extrusion width = 0.40mm
; first layer extrusion width = 0.42mm

; external perimeters extrusion width = 0.42mm
; perimeters extrusion width = 0.44mm
; infill extrusion width = 0.44mm
; solid infill extrusion width = 0.44mm
; top infill extrusion width = 0.40mm
; first layer extrusion width = 0.42mm

; external perimeters extrusion width = 0.42mm
; perimeters extrusion width = 0.44mm
; infill extrusion width = 0.44mm
; solid infill extrusion width = 0.44mm
; top infill extrusion width = 0.40mm
; first layer extrusion width = 0.42mm

; external perimeters extrusion width = 0.42mm
; perimeters extrusion width = 0.44mm
; infill extrusion width = 0.44mm
; solid infill extrusion width = 0.44mm
; top infill extrusion width = 0.40mm
; first layer extrusion width = 0.42mm

; external perimeters extrusion width = 0.42mm
; perimeters extrusion width = 0.44mm
; infill extrusion width = 0.44mm
; solid infill extrusion width = 0.44mm
; top infill extrusion width = 0.40mm
; first layer extrusion width = 0.42mm

; external perimeters extrusion width = 0.42mm
; perimeters extrusion width = 0.44mm
; infill extrusion width = 0.44mm
; solid infill extrusion width = 0.44mm
; top infill extrusion width = 0.40mm
; first layer extrusion width = 0.42mm

; external perimeters extrusion width = 0.42mm
; perimeters extrusion width = 0.44mm
; infill extrusion width = 0.44mm
; solid infill extrusion width = 0.44mm
; top infill extrusion width = 0.40mm
; first layer extrusion width = 0.42mm

; external perimeters extrusion width = 0.42mm
; perimeters extrusion width = 0.44mm
; infill extrusion width = 0.44mm
; solid infill extrusion width = 0.44mm
; top infill extrusion width = 0.40mm
; first layer extrusion width = 0.42mm

; external perimeters extrusion width = 0.42mm
; perimeters extrusion width = 0.44mm
; infill extrusion width = 0.44mm
; solid infill extrusion width = 0.44mm
; top infill extrusion width = 0.40mm
; first layer extrusion width = 0.42mm

; external perimeters extrusion width = 0.42mm
; perimeters extrusion width = 0.44mm
; infill extrusion width = 0.44mm
; solid infill extrusion width = 0.44mm
; top infill extrusion width = 0.40mm
; first layer extrusion width = 0.42mm

; external perimeters extrusion width = 0.42mm
; perimeters extrusion width = 0.44mm
; infill extrusion width = 0.44mm
; solid infill extrusion width = 0.44mm
; top infill extrusion width = 0.40mm
; first layer extrusion width = 0.42mm

; external perimeters extrusion width = 0.42mm
; perimeters extrusion width = 0.44mm
; infill extrusion width = 0.44mm
; solid infill extrusion width = 0.44mm
; top infill extrusion width = 0.40mm
; first layer extrusion width = 0.42mm

; external perimeters extrusion width = 0.42mm
; perimeters extrusion width = 0.44mm
; infill extrusion width = 0.44mm
; solid infill extrusion width = 0.44mm
; top infill extrusion width = 0.40mm
; first layer extrusion width = 0.42mm

;TYPE:Custom
; Ender 3 Custom Start G-code
G92 E0 ; Reset Extruder

M140 S55 ; set bed temp
M104 S160 ; set extruder temp
M109 S160 ; wait for extruder temp
M190 S55 ; wait for bed temp

G28 ; Home all axes
M104 S210 ; set extruder temp 
BED_MESH_CALIBRATE AREA_START=83.7684,88.5669 AREA_END=143.763,126.207

G1 Z2.0 F3000 ; Move Z Axis up little to prevent scratching of Heat Bed
M109 S210 ; wait for extruder temp
G1 X0.1 Y20 Z0.3 F5000.0 ; Move to start position

G1 X0.1 Y200.0 Z0.3 F1500.0 E15 ; Draw the first line
G1 X0.4 Y200.0 Z0.3 F5000.0 ; Move to side a little
G1 X0.4 Y20 Z0.3 F1500.0 E30 ; Draw the second line
G92 E0 ; Reset Extruder
G1 Z2.0 F3000 ; Move Z Axis up little to prevent scratching of Heat Bed
G1 X5 Y20 Z0.3 F5000.0 ; Move over to prevent blob squish
G21 ; set units to millimeters
G90 ; use absolute coordinates
M83 ; use relative distances for extrusion
; Filament gcode
M107
;LAYER_CHANGE
;Z:0.2
;HEIGHT:0.2
;BEFORE_LAYER_CHANGE
G92 E0
;0.2


G1 E-1.6 F2400
G1 Z.2 F6000
;AFTER_LAYER_CHANGE
;0.2
G1 X87.857 Y91.701
G1 E1.6 F2400
M204 S500
;TYPE:Skirt/Brim
;WIDTH:0.42
G1 F1080
G1 X88.725 Y90.996 E.03296
G1 X89.656 Y90.382 E.03287
G1 X91.322 Y89.564 E.0547
G1 X93.099 Y89.026 E.05472
G1 X94.721 Y88.79 E.04831
G1 X131.692 Y88.755 E1.08965
G1 X132.884 Y88.805 E.03516
G1 X133.843 Y88.938 E.02854
G1 X135.87 Y89.494 E.06195
G1 X137.7 Y90.365 E.05973
G1 X139.14 Y91.376 E.05186
G1 X140.583 Y92.775 E.05924
G1 X141.374 Y93.79 E.03793
G1 X141.835 Y94.519 E.02542
G1 X142.681 Y96.304 E.05822
G1 X143.24 Y98.341 E.06226
G1 X143.425 Y100.341 E.0592
G1 X143.575 Y114.341 E.41265
G1 X143.503 Y115.668 E.03917
G1 X143.296 Y116.888 E.03647
G1 X142.676 Y118.864 E.06104
G1 X141.69 Y120.733 E.06228
G1 X140.467 Y122.296 E.05849
G1 X139.688 Y123.064 E.03224
G1 X138.815 Y123.771 E.03311
G1 X137.173 Y124.778 E.05677
G1 X136.08 Y125.257 E.03517
G1 X134.281 Y125.783 E.05524
G1 X132.523 Y126.003 E.05222
G1 X95.078 Y126.009 E1.10362
G1 X93.39 Y125.81 E.0501
G1 X92.295 Y125.542 E.03323
G1 X91.185 Y125.153 E.03467
G1 X89.854 Y124.506 E.04362
G1 X88.8 Y123.835 E.03683
G1 X87.851 Y123.075 E.03583
G1 X86.76 Y121.96 E.04598
G1 X86.154 Y121.19 E.02888
G1 X85.328 Y119.862 E.04609
G1 X84.772 Y118.665 E.0389
G1 X84.319 Y117.276 E.04306
G1 X84.013 Y115.506 E.05294
G1 X83.957 Y114.505 E.02955
G1 X83.987 Y99.578 E.43994
G1 X84.339 Y97.433 E.06407
G1 X84.956 Y95.673 E.05497
G1 X85.359 Y94.854 E.0269
G1 X86.242 Y93.468 E.04844
G1 X86.875 Y92.684 E.0297
G1 X87.814 Y91.744 E.03916
G1 X88.08 Y92.01 F6000
G1 F1080
G1 X88.937 Y91.308 E.03265
G1 X89.836 Y90.714 E.03176
G1 X91.455 Y89.917 E.05319
G1 X92.992 Y89.437 E.04746
G1 X94.74 Y89.166 E.05213
G1 X131.692 Y89.133 E1.08909
G1 X133.767 Y89.308 E.06137
G1 X135.748 Y89.851 E.06054
G1 X137.509 Y90.69 E.05749
G1 X138.893 Y91.661 E.04983
G1 X140.304 Y93.029 E.05792
G1 X141.07 Y94.013 E.03675
G1 X141.565 Y94.802 E.02745
G1 X142.414 Y96.673 E.06056
G1 X142.882 Y98.473 E.05482
G1 X143.048 Y100.345 E.05539
G1 X143.198 Y114.345 E.41265
G1 X143.13 Y115.614 E.03745
G1 X142.924 Y116.824 E.03618
G1 X142.331 Y118.712 E.05833
G1 X141.369 Y120.534 E.06073
G1 X140.198 Y122.031 E.05602
G1 X139.594 Y122.642 E.02532
G1 X138.603 Y123.459 E.03785
G1 X136.981 Y124.453 E.05607
G1 X135.395 Y125.098 E.05046
G1 X134.218 Y125.411 E.0359
G1 X132.355 Y125.634 E.0553
G1 X95.105 Y125.633 E1.09787
G1 X93.449 Y125.437 E.04915
G1 X92.304 Y125.154 E.03476
G1 X91.337 Y124.807 E.03028
G1 X90.03 Y124.173 E.04281
G1 X89.019 Y123.528 E.03534
G1 X88.102 Y122.794 E.03462
G1 X87.039 Y121.706 E.04483
G1 X86.452 Y120.958 E.02802
G1 X85.657 Y119.676 E.04446
G1 X85.128 Y118.539 E.03696
G1 X84.684 Y117.182 E.04208
G1 X84.387 Y115.46 E.0515
G1 X84.334 Y114.505 E.02819
G1 X84.363 Y99.603 E.43921
G1 X84.7 Y97.541 E.06158
G1 X85.307 Y95.811 E.05404
G1 X85.705 Y95.004 E.02652
G1 X86.553 Y93.681 E.04632
G1 X87.156 Y92.934 E.02829
G1 X88.038 Y92.052 E.03676
G1 X88.304 Y92.318 F6000
G1 F1080
G1 X89.149 Y91.62 E.0323
G1 X90.029 Y91.037 E.03111
G1 X91.588 Y90.27 E.05121
G1 X93.208 Y89.774 E.04993
G1 X94.758 Y89.543 E.04619
G1 X131.692 Y89.51 E1.08856
G1 X133.69 Y89.677 E.05909
G1 X135.628 Y90.208 E.05922
G1 X137.318 Y91.015 E.0552
G1 X138.647 Y91.947 E.04784
G1 X140.013 Y93.269 E.05603
G1 X140.766 Y94.236 E.03612
G1 X141.237 Y94.988 E.02615
G1 X142.054 Y96.785 E.05818
G1 X142.512 Y98.545 E.0536
G1 X142.671 Y100.349 E.05338
G1 X142.821 Y114.349 E.41265
G1 X142.744 Y115.641 E.03815
G1 X142.521 Y116.917 E.03818
G1 X142.276 Y117.78 E.02644
G1 X141.409 Y119.75 E.06344
G1 X140.675 Y120.874 E.03957
G1 X140.018 Y121.672 E.03047
G1 X139.333 Y122.37 E.02882
G1 X138.39 Y123.147 E.03601
G1 X136.804 Y124.12 E.05484
G1 X135.27 Y124.742 E.04879
G1 X134.141 Y125.042 E.03443
G1 X132.345 Y125.257 E.05331
G1 X95.131 Y125.257 E1.09681
G1 X93.508 Y125.065 E.04817
G1 X92.409 Y124.792 E.03338
G1 X91.488 Y124.462 E.02883
G1 X90.206 Y123.839 E.04201
G1 X89.238 Y123.221 E.03385
G1 X88.306 Y122.47 E.03528
G1 X87.318 Y121.453 E.04179
G1 X86.76 Y120.741 E.02666
G1 X85.985 Y119.491 E.04335
G1 X85.483 Y118.413 E.03505
G1 X85.05 Y117.087 E.04111
G1 X84.761 Y115.415 E.05001
G1 X84.739 Y99.629 E.46526
G1 X85.061 Y97.651 E.05907
G1 X85.658 Y95.948 E.05319
G1 X86.04 Y95.178 E.02533
G1 X86.862 Y93.897 E.04486
G1 X87.438 Y93.185 E.02699
G1 X88.262 Y92.361 E.03435
; printing object Kształt-Sześcian id:15 copy 0
G1 E-1.12 F2400
;WIPE_START
G1 F4800
G1 X89.038 Y91.713 E-.48
;WIPE_END
G1 X93.75 Y100.371 F6000
G1 E1.6 F2400
;TYPE:External perimeter
G1 F1080
G1 X94.03 Y100.371 E.00825
G1 X94.03 Y100.951 E.01709
G1 X93.75 Y100.951 E.00825
G1 X93.75 Y100.431 E.01533
G1 X94.01 Y100.473 F6000
; stop printing object Kształt-Sześcian id:15 copy 0
; printing object Kształt-Sześcian id:14 copy 0
G1 E-1.12 F2400
;WIPE_START
G1 F4800
G1 X94.03 Y100.371 E-.13602
G1 X94.03 Y100.951 E-.2755
G1 X93.886 Y100.951 E-.06848
;WIPE_END
G1 X98.237 Y100.251 F6000
G1 E1.6 F2400
G1 F1080
G1 X98.517 Y100.251 E.00825
G1 X98.517 Y100.831 E.01709
G1 X98.237 Y100.831 E.00825
G1 X98.237 Y100.311 E.01533
G1 X98.498 Y100.353 F6000
; stop printing object Kształt-Sześcian id:14 copy 0
; printing object Kształt-Sześcian id:11 copy 0
G1 E-1.12 F2400
;WIPE_START
G1 F4800
G1 X98.517 Y100.251 E-.13602
G1 X98.517 Y100.831 E-.2755
G1 X98.373 Y100.831 E-.06848
;WIPE_END
G1 X102.398 Y109.2 F6000
G1 E1.6 F2400
G1 F1080
G1 X102.678 Y109.2 E.00825
G1 X102.678 Y109.78 E.01709
G1 X102.398 Y109.78 E.00825
G1 X102.398 Y109.26 E.01533
G1 X102.659 Y109.302 F6000
; stop printing object Kształt-Sześcian id:11 copy 0
; printing object Kształt-Sześcian id:13 copy 0
G1 E-1.12 F2400
;WIPE_START
G1 F4800
G1 X102.678 Y109.2 E-.13602
G1 X102.678 Y109.78 E-.2755
G1 X102.534 Y109.78 E-.06848
;WIPE_END
G1 X94.11 Y109.162 F6000
G1 E1.6 F2400
G1 F1080
G1 X94.11 Y109.742 E.01709
G1 X93.83 Y109.742 E.00825
G1 X93.83 Y109.162 E.01709
G1 X94.05 Y109.162 E.00648
G1 X94.051 Y109.558 F6000
; stop printing object Kształt-Sześcian id:13 copy 0
; printing object Kształt-Sześcian id:12 copy 0
G1 E-1.12 F2400
;WIPE_START
G1 F4800
G1 X94.11 Y109.742 E-.27697
G1 X93.83 Y109.742 E-.133
G1 X93.83 Y109.595 E-.07003
;WIPE_END
G1 X94.179 Y114.078 F6000
G1 E1.6 F2400
G1 F1080
G1 X94.179 Y114.658 E.01709
G1 X93.899 Y114.658 E.00825
G1 X93.899 Y114.078 E.01709
G1 X94.119 Y114.078 E.00648
G1 X94.12 Y114.473 F6000
; stop printing object Kształt-Sześcian id:12 copy 0
; printing object Kształt-Sześcian id:8 copy 0
G1 E-1.12 F2400
;WIPE_START
G1 F4800
G1 X94.179 Y114.658 E-.27697
G1 X93.899 Y114.658 E-.133
G1 X93.899 Y114.511 E-.07003
;WIPE_END
G1 X113.392 Y114.159 F6000
G1 E1.6 F2400
G1 F1080
G1 X113.672 Y114.159 E.00825
G1 X113.672 Y114.739 E.01709
G1 X113.392 Y114.739 E.00825
G1 X113.392 Y114.219 E.01533
G1 X113.653 Y114.261 F6000
; stop printing object Kształt-Sześcian id:8 copy 0
; printing object Kształt-Sześcian id:10 copy 0
G1 E-1.12 F2400
;WIPE_START
G1 F4800
G1 X113.672 Y114.159 E-.13602
G1 X113.672 Y114.739 E-.2755
G1 X113.528 Y114.739 E-.06848
;WIPE_END
G1 X109.292 Y114.05 F6000
G1 E1.6 F2400
G1 F1080
G1 X109.292 Y114.63 E.01709
G1 X109.012 Y114.63 E.00825
G1 X109.012 Y114.05 E.01709
G1 X109.232 Y114.05 E.00648
G1 X109.232 Y114.446 F6000
; stop printing object Kształt-Sześcian id:10 copy 0
; printing object Kształt-Sześcian id:9 copy 0
G1 E-1.12 F2400
;WIPE_START
G1 F4800
G1 X109.292 Y114.63 E-.27697
G1 X109.012 Y114.63 E-.133
G1 X109.012 Y114.483 E-.07003
;WIPE_END
G1 X109.283 Y109.788 F6000
G1 E1.6 F2400
G1 F1080
G1 X109.003 Y109.788 E.00825
G1 X109.003 Y109.208 E.01709
G1 X109.283 Y109.208 E.00825
G1 X109.283 Y109.728 E.01533
G1 X109.022 Y109.685 F6000
; stop printing object Kształt-Sześcian id:9 copy 0
; printing object Kształt-Sześcian id:7 copy 0
G1 E-1.12 F2400
;WIPE_START
G1 F4800
G1 X109.003 Y109.788 E-.13602
G1 X109.003 Y109.208 E-.2755
G1 X109.147 Y109.208 E-.06848
;WIPE_END
G1 X113.363 Y109.758 F6000
G1 E1.6 F2400
G1 F1080
G1 X113.363 Y109.178 E.01709
G1 X113.643 Y109.178 E.00825
G1 X113.643 Y109.758 E.01709
G1 X113.423 Y109.758 E.00648
G1 X113.423 Y109.363 F6000
; stop printing object Kształt-Sześcian id:7 copy 0
; printing object Shape-Box id:0 copy 0
G1 E-1.12 F2400
;WIPE_START
G1 F4800
G1 X113.363 Y109.178 E-.27697
G1 X113.643 Y109.178 E-.133
G1 X113.643 Y109.325 E-.07003
;WIPE_END
G1 X118.14 Y102.577 F6000
G1 E1.6 F2400
;TYPE:Perimeter
G1 F1080
G1 X117.973 Y102.627 E.00514
G1 X117.867 Y102.627 E.00312
G1 X117.709 Y102.579 E.00487
G1 X117.578 Y102.462 E.00518
G1 X117.491 Y102.267 E.00629
G1 X117.469 Y102.113 E.00458
G1 X117.469 Y101.923 E.0056
G1 X117.493 Y101.756 E.00497
G1 X117.534 Y101.631 E.00388
G1 X117.657 Y101.458 E.00626
G1 X117.788 Y101.376 E.00455
G1 X117.961 Y101.364 E.00511
G1 X118.12 Y101.429 E.00506
G1 X118.238 Y101.532 E.00462
G1 X118.307 Y101.643 E.00385
G1 X118.382 Y101.866 E.00693
G1 X118.397 Y102.14 E.00809
G1 X118.339 Y102.367 E.00691
G1 X118.288 Y102.449 E.00285
G1 X118.189 Y102.542 E.004
G1 X118.324 Y102.908 F6000
;TYPE:External perimeter
G1 F1080
G1 X118.175 Y102.971 E.00477
G1 X118.01 Y103.004 E.00496
G1 X117.831 Y103.004 E.00528
G1 X117.667 Y102.972 E.00492
G1 X117.522 Y102.909 E.00466
G1 X117.39 Y102.814 E.00479
G1 X117.274 Y102.687 E.00507
G1 X117.185 Y102.536 E.00517
G1 X117.123 Y102.356 E.00561
G1 X117.091 Y102.141 E.00641
G1 X117.092 Y101.895 E.00725
G1 X117.124 Y101.669 E.00673
G1 X117.187 Y101.478 E.00593
G1 X117.279 Y101.316 E.00549
G1 X117.398 Y101.181 E.0053
G1 X117.529 Y101.081 E.00486
G1 X117.666 Y101.016 E.00447
G1 X117.813 Y100.984 E.00443
G1 X118.003 Y100.988 E.0056
G1 X118.108 Y101.01 E.00316
G1 X118.326 Y101.108 E.00704
G1 X118.517 Y101.275 E.00748
G1 X118.654 Y101.491 E.00754
G1 X118.75 Y101.775 E.00884
G1 X118.771 Y101.908 E.00397
G1 X118.775 Y102.169 E.00769
G1 X118.742 Y102.365 E.00586
G1 X118.679 Y102.535 E.00534
G1 X118.586 Y102.683 E.00515
G1 X118.462 Y102.812 E.00527
G1 X118.373 Y102.874 E.0032
G1 X118.185 Y102.825 F6000
G1 X118.271 Y102.041
;TYPE:Solid infill
;WIDTH:0.495415
G1 F1080
G1 X117.89 Y101.66 E.01906
G1 X117.836 Y101.694 E.00226
G1 X117.775 Y101.835 E.00543
G1 X117.759 Y101.944 E.0039
G1 X117.759 Y102.08 E.00481
G1 X117.785 Y102.195 E.00417
G1 X118.062 Y102.472 E.01385
G1 E-1.12 F2400
;WIPE_START
G1 F4800
G1 X117.785 Y102.195 E-.18608
G1 X117.759 Y102.08 E-.056
G1 X117.759 Y101.944 E-.0646
G1 X117.775 Y101.835 E-.05233
G1 X117.836 Y101.694 E-.07297
G1 X117.89 Y101.66 E-.03031
G1 X117.916 Y101.686 E-.01771
;WIPE_END
G1 X133.669 Y102.367 F6000
G1 E1.6 F2400
;TYPE:Perimeter
;WIDTH:0.42
G1 F1080
G1 X133.545 Y102.524 E.0059
G1 X133.469 Y102.577 E.00273
G1 X133.303 Y102.627 E.00511
G1 X133.109 Y102.609 E.00574
G1 X132.971 Y102.531 E.00467
G1 X132.908 Y102.462 E.00275
G1 X132.821 Y102.267 E.00629
G1 X132.798 Y102.113 E.00459
G1 X132.798 Y101.923 E.0056
G1 X132.822 Y101.756 E.00497
G1 X132.863 Y101.631 E.00388
G1 X132.917 Y101.536 E.00322
G1 X133.055 Y101.405 E.00561
G1 X133.18 Y101.362 E.0039
G1 X133.32 Y101.37 E.00413
G1 X133.489 Y101.453 E.00555
G1 X133.611 Y101.595 E.00552
G1 X133.724 Y101.941 E.01073
G1 X133.727 Y102.14 E.00587
G1 X133.69 Y102.311 E.00516
G1 X134.009 Y102.535 F6000
;TYPE:External perimeter
G1 F1080
G1 X133.915 Y102.683 E.00517
G1 X133.791 Y102.812 E.00527
