; generated by PrusaSlicer 2.7.4+win64 on 2024-04-10 at 14:26:44 UTC

; 

; external perimeters extrusion width = 0.42mm
; perimeters extrusion width = 0.44mm
; infill extrusion width = 0.44mm
; solid infill extrusion width = 0.44mm
; top infill extrusion width = 0.40mm
; first layer extrusion width = 0.42mm


; printing object Shape-Box id:0 copy 0
; stop printing object Shape-Box id:0 copy 0

;TYPE:Custom
; Ender 3 Custom Start G-code
G92 E0 ; Reset Extruder

M140 S55 ; set bed temp
M104 S160 ; set extruder temp
M109 S160 ; wait for extruder temp
M190 S55 ; wait for bed temp

G28 ; Home all axes
M104 S210 ; set extruder temp 
BED_MESH_CALIBRATE AREA_START=93.5058,101.329 AREA_END=137.494,129.669

G1 Z2.0 F3000 ; Move Z Axis up little to prevent scratching of Heat Bed
M109 S210 ; wait for extruder temp
G1 X0.1 Y20 Z0.3 F5000.0 ; Move to start position

G1 X0.1 Y200.0 Z0.3 F1500.0 E15 ; Draw the first line
G1 X0.4 Y200.0 Z0.3 F5000.0 ; Move to side a little
G1 X0.4 Y20 Z0.3 F1500.0 E30 ; Draw the second line
G92 E0 ; Reset Extruder
G1 Z2.0 F3000 ; Move Z Axis up little to prevent scratching of Heat Bed
G1 X5 Y20 Z0.3 F5000.0 ; Move over to prevent blob squish
G21 ; set units to millimeters
G90 ; use absolute coordinates
M83 ; use relative distances for extrusion
; Filament gcode
M107
;LAYER_CHANGE
;Z:0.2
;HEIGHT:0.2
G1 E-1.6 F2400
G1 Z.2 F6000
G1 X96.733 Y103.823
G1 Z.2
G1 E1.6 F2400
M204 S500
;TYPE:Skirt/Brim
;WIDTH:0.42
G1 F1200
G1 X97.441 Y103.251 E.02854
G1 X98.172 Y102.772 E.0274
G1 X99.461 Y102.143 E.04497
G1 X100.853 Y101.725 E.04557
G1 X102.126 Y101.543 E.04032
G1 X128.047 Y101.518 E.81274
G1 X129.51 Y101.626 E.046
G1 X130.887 Y101.952 E.04437
G1 X132.157 Y102.467 E.04297
G1 X133.703 Y103.442 E.05731
G1 X134.847 Y104.505 E.04896
G1 X135.726 Y105.638 E.04496
G1 X136.403 Y106.883 E.04443
G1 X136.932 Y108.419 E.05094
G1 X137.096 Y109.246 E.02643
G1 X137.2 Y110.557 E.04123
G1 X137.305 Y120.357 E.30729
G1 X137.23 Y121.53 E.03685
G1 X136.869 Y123.172 E.05271
G1 X136.129 Y124.873 E.05816
G1 X135.535 Y125.785 E.03413
G1 X134.986 Y126.459 E.02726
G1 X133.761 Y127.598 E.05245
G1 X132.388 Y128.469 E.05098
G1 X131.438 Y128.892 E.03261
G1 X130.018 Y129.302 E.04634
G1 X128.704 Y129.467 E.04152
G1 X102.352 Y129.472 E.82625
G1 X101.092 Y129.323 E.03978
G1 X100.241 Y129.119 E.02744
G1 X99.315 Y128.795 E.03076
G1 X98.325 Y128.315 E.0345
G1 X97.49 Y127.786 E.03099
G1 X96.752 Y127.197 E.02961
G1 X95.492 Y125.822 E.05848
G1 X94.778 Y124.698 E.04175
G1 X94.319 Y123.707 E.03424
G1 X93.977 Y122.654 E.03471
G1 X93.74 Y121.296 E.04322
G1 X93.717 Y109.966 E.35524
G1 X93.835 Y109.029 E.02961
G1 X94.139 Y107.8 E.0397
G1 X94.873 Y106.127 E.05728
G1 X95.987 Y104.569 E.06005
G1 X96.69 Y103.866 E.03117
G1 X96.69 Y103.866 F6000
G1 X96.975 Y104.179
G1 F1200
G1 X97.653 Y103.563 E.02872
G1 X98.353 Y103.103 E.02626
G1 X99.594 Y102.496 E.04332
G1 X100.925 Y102.095 E.04359
G1 X102.144 Y101.919 E.03862
G1 X128.047 Y101.895 E.81217
G1 X129.668 Y102.035 E.05101
G1 X131.156 Y102.443 E.04838
G1 X132.536 Y103.098 E.0479
G1 X133.629 Y103.866 E.04188
G1 X134.715 Y104.924 E.04754
G1 X135.676 Y106.28 E.05211
G1 X136.26 Y107.526 E.04315
G1 X136.681 Y109.045 E.04942
G1 X136.823 Y110.561 E.04774
G1 X136.928 Y120.361 E.30729
G1 X136.873 Y121.376 E.03187
G1 X136.726 Y122.242 E.02754
G1 X136.252 Y123.76 E.04986
G1 X135.526 Y125.136 E.04878
G1 X134.59 Y126.331 E.04759
G1 X133.35 Y127.433 E.05201
G1 X132.153 Y128.167 E.04403
G1 X131.293 Y128.544 E.02944
G1 X129.955 Y128.93 E.04366
G1 X128.675 Y129.091 E.04045
G1 X102.379 Y129.096 E.82449
G1 X101.151 Y128.951 E.03877
G1 X100.248 Y128.73 E.02915
G1 X99.467 Y128.45 E.02601
G1 X98.501 Y127.981 E.03367
G1 X97.709 Y127.479 E.0294
G1 X96.983 Y126.899 E.02914
G1 X95.713 Y125.486 E.05957
G1 X95.107 Y124.513 E.03594
G1 X94.674 Y123.581 E.03222
G1 X94.342 Y122.559 E.03369
G1 X94.114 Y121.25 E.04166
G1 X94.094 Y109.992 E.35299
G1 X94.362 Y108.37 E.05155
G1 X94.809 Y107.096 E.04233
G1 X95.124 Y106.451 E.02251
G1 X95.516 Y105.8 E.02383
G1 X96.254 Y104.835 E.03809
G1 X96.931 Y104.219 E.0287
G1 X96.931 Y104.219 F6000
G1 X97.183 Y104.496
G1 F1200
G1 X97.865 Y103.875 E.02892
G1 X98.546 Y103.427 E.02556
G1 X99.727 Y102.849 E.04123
G1 X100.963 Y102.472 E.04052
G1 X102.163 Y102.296 E.03803
G1 X128.047 Y102.272 E.81157
G1 X129.591 Y102.404 E.04859
G1 X131.033 Y102.799 E.04688
G1 X132.345 Y103.423 E.04555
G1 X133.382 Y104.151 E.03973
G1 X134.424 Y105.164 E.04557
G1 X135.349 Y106.466 E.05008
G1 X135.912 Y107.67 E.04167
G1 X136.312 Y109.124 E.04728
G1 X136.446 Y110.565 E.04538
G1 X136.551 Y120.365 E.30729
G1 X136.499 Y121.322 E.03005
G1 X136.354 Y122.179 E.02725
G1 X135.906 Y123.608 E.04696
G1 X135.175 Y124.985 E.04888
G1 X134.321 Y126.067 E.04322
G1 X133.138 Y127.122 E.0497
G1 X131.976 Y127.834 E.04273
G1 X131.169 Y128.188 E.02763
G1 X129.966 Y128.545 E.03935
G1 X128.646 Y128.715 E.04173
G1 X102.406 Y128.72 E.82274
G1 X101.21 Y128.578 E.03776
G1 X100.354 Y128.368 E.02764
G1 X98.677 Y127.648 E.05722
G1 X97.914 Y127.162 E.02836
G1 X97.188 Y126.575 E.02927
G1 X96.021 Y125.269 E.05492
G1 X95.435 Y124.327 E.03478
G1 X95.03 Y123.455 E.03015
G1 X94.707 Y122.465 E.03265
G1 X94.489 Y121.205 E.04009
G1 X94.47 Y110.017 E.35079
G1 X94.723 Y108.48 E.04884
G1 X95.16 Y107.233 E.04143
G1 X95.459 Y106.624 E.02127
G1 X96.536 Y105.086 E.05887
G1 X97.139 Y104.536 E.02559
G1 E-1.12 F2400
;WIPE_START
G1 F4800
G1 X97.183 Y104.496 E-.02825
G1 X97.865 Y103.875 E-.43813
G1 X97.889 Y103.859 E-.01362
;WIPE_END
; printing object Shape-Box id:0 copy 0
G1 X126.12 Y113.423 F6000
G1 E1.6 F2400
;TYPE:Perimeter
G1 F1200
G1 X126.056 Y113.285 E.00477
G1 X126.018 Y113.071 E.00681
G1 X125.996 Y112.379 E.02171
G1 X126.018 Y112.065 E.00987
G1 X126.054 Y111.86 E.00653
G1 X126.106 Y111.727 E.00448
G1 X126.124 Y111.719 E.00062
G1 X126.154 Y111.774 E.00196
G1 X126.216 Y112.074 E.00961
G1 X126.237 Y112.748 E.02114
G1 X126.193 Y113.188 E.01386
G1 X126.138 Y113.366 E.00584
G1 X126.138 Y113.366 F6000
G1 X126.035 Y113.801
;TYPE:External perimeter
G1 F1200
G1 X125.9 Y113.736 E.0047
G1 X125.826 Y113.665 E.00322
G1 X125.753 Y113.558 E.00406
G1 X125.69 Y113.381 E.00589
G1 X125.643 Y113.117 E.00841
G1 X125.619 Y112.77 E.01091
G1 X125.619 Y112.365 E.0127
G1 X125.643 Y112.019 E.01087
G1 X125.686 Y111.776 E.00774
G1 X125.718 Y111.66 E.00377
G1 X125.789 Y111.519 E.00495
G1 X125.865 Y111.428 E.00372
G1 X126.021 Y111.336 E.00568
G1 X126.159 Y111.327 E.00434
G1 X126.244 Y111.347 E.00274
G1 X126.375 Y111.433 E.00491
G1 X126.447 Y111.517 E.00347
G1 X126.513 Y111.651 E.00468
G1 X126.591 Y112.022 E.01189
G1 X126.615 Y112.365 E.01078
G1 X126.614 Y112.767 E.0126
G1 X126.565 Y113.263 E.01563
G1 X126.464 Y113.587 E.01064
G1 X126.334 Y113.746 E.00644
G1 X126.208 Y113.802 E.00432
G1 X126.123 Y113.812 E.00268
G1 X126.095 Y113.808 E.00089
G1 E-1.12 F2400
;WIPE_START
G1 F4800
G1 X126.035 Y113.801 E-.02869
G1 X125.9 Y113.736 E-.07117
G1 X125.826 Y113.665 E-.04871
G1 X125.753 Y113.558 E-.06153
G1 X125.69 Y113.381 E-.08924
G1 X125.643 Y113.117 E-.12737
G1 X125.635 Y113.005 E-.05329
;WIPE_END
G1 X126.11 Y117.686 F6000
G1 E1.6 F2400
;TYPE:Perimeter
G1 F1200
G1 X126.114 Y117.684 E.00014
G1 X126.144 Y117.739 E.00196
G1 X126.207 Y118.039 E.00961
G1 X126.228 Y118.713 E.02114
G1 X126.183 Y119.153 E.01387
G1 X126.109 Y119.389 E.00775
G1 X126.046 Y119.25 E.00478
G1 X126.008 Y119.036 E.00681
G1 X125.986 Y118.344 E.02171
G1 X126.009 Y118.03 E.00987
G1 X126.044 Y117.825 E.00652
G1 X126.08 Y117.734 E.00307
G1 X126.08 Y117.734 F6000
G1 X126.149 Y117.292
;TYPE:External perimeter
G1 F1200
G1 X126.235 Y117.312 E.00277
G1 X126.365 Y117.398 E.00489
G1 X126.438 Y117.482 E.00349
G1 X126.503 Y117.616 E.00467
G1 X126.581 Y117.986 E.01186
G1 X126.605 Y118.33 E.01081
G1 X126.605 Y118.732 E.0126
G1 X126.555 Y119.228 E.01563
G1 X126.454 Y119.552 E.01064
G1 X126.324 Y119.711 E.00644
G1 X126.199 Y119.767 E.00429
G1 X126.12 Y119.776 E.00249
G1 X125.97 Y119.748 E.00478
G1 X125.816 Y119.63 E.00608
G1 X125.743 Y119.523 E.00406
G1 X125.68 Y119.346 E.00589
G1 X125.634 Y119.082 E.0084
G1 X125.609 Y118.735 E.01091
G1 X125.609 Y118.33 E.0127
G1 X125.634 Y117.984 E.01088
G1 X125.676 Y117.741 E.00773
G1 X125.709 Y117.625 E.00378
G1 X125.779 Y117.484 E.00494
G1 X125.856 Y117.393 E.00374
G1 X126.011 Y117.301 E.00565
G1 X126.089 Y117.296 E.00245
G1 E-1.12 F2400
;WIPE_START
G1 F4800
G1 X126.149 Y117.292 E-.02856
G1 X126.235 Y117.312 E-.04194
G1 X126.365 Y117.398 E-.07404
G1 X126.438 Y117.482 E-.05286
G1 X126.503 Y117.616 E-.07074
G1 X126.581 Y117.986 E-.17961
G1 X126.586 Y118.054 E-.03225
;WIPE_END
G1 X118.477 Y117.684 F6000
G1 E1.6 F2400
;TYPE:Perimeter
G1 F1200
G1 X118.507 Y117.739 E.00196
G1 X118.57 Y118.039 E.00961
G1 X118.591 Y118.713 E.02114
G1 X118.546 Y119.153 E.01387
G1 X118.472 Y119.389 E.00775
G1 X118.409 Y119.25 E.00478
G1 X118.371 Y119.036 E.00681
G1 X118.349 Y118.35 E.02152
G1 X118.391 Y117.904 E.01405
G1 X118.429 Y117.754 E.00485
G1 X118.443 Y117.734 E.00077
G1 X118.443 Y117.734 F6000
G1 X118.374 Y117.301
;TYPE:External perimeter
G1 F1200
G1 X118.512 Y117.292 E.00434
G1 X118.598 Y117.312 E.00277
G1 X118.728 Y117.398 E.00489
G1 X118.801 Y117.482 E.00349
G1 X118.866 Y117.616 E.00467
G1 X118.944 Y117.986 E.01186
G1 X118.968 Y118.33 E.01081
G1 X118.968 Y118.732 E.0126
G1 X118.918 Y119.228 E.01563
G1 X118.817 Y119.552 E.01064
G1 X118.687 Y119.711 E.00644
G1 X118.562 Y119.767 E.00429
G1 X118.483 Y119.776 E.00249
G1 X118.333 Y119.748 E.00478
G1 X118.179 Y119.63 E.00608
G1 X118.106 Y119.523 E.00406
G1 X118.043 Y119.346 E.00589
G1 X117.997 Y119.082 E.0084
G1 X117.972 Y118.735 E.01091
G1 X117.972 Y118.333 E.0126
G1 X118.018 Y117.84 E.01552
G1 X118.073 Y117.623 E.00702
G1 X118.142 Y117.484 E.00487
G1 X118.219 Y117.393 E.00374
G1 X118.323 Y117.332 E.00378
G1 E-1.12 F2400
;WIPE_START
G1 F4800
G1 X118.374 Y117.301 E-.02835
G1 X118.512 Y117.292 E-.06569
G1 X118.598 Y117.312 E-.04194
G1 X118.728 Y117.398 E-.07404
G1 X118.801 Y117.482 E-.05286
G1 X118.866 Y117.616 E-.07074
G1 X118.93 Y117.918 E-.14638
;WIPE_END
G1 X115.443 Y119.398 F6000
G1 E1.6 F2400
;TYPE:Perimeter
G1 F1200
G1 X115.401 Y119.362 E.00173
G1 X115.371 Y119.292 E.00239
G1 X115.37 Y119.048 E.00765
G1 X115.416 Y118.967 E.00292
G1 X115.51 Y118.966 E.00295
G1 X115.553 Y118.999 E.0017
G1 X115.576 Y119.048 E.0017
G1 X115.584 Y119.18 E.00415
G1 X115.534 Y119.339 E.00523
G1 X115.496 Y119.375 E.00164
G1 X115.496 Y119.375 F6000
G1 X115.405 Y119.765
;TYPE:External perimeter
G1 F1200
G1 X115.318 Y119.757 E.00274
G1 X115.164 Y119.664 E.00564
G1 X115.04 Y119.493 E.00662
G1 X114.982 Y119.246 E.00796
G1 X115.002 Y118.96 E.00899
G1 X115.09 Y118.762 E.00679
G1 X115.23 Y118.636 E.00591
G1 X115.41 Y118.583 E.00588
G1 X115.616 Y118.602 E.00649
G1 X115.781 Y118.692 E.00589
G1 X115.905 Y118.851 E.00632
G1 X115.961 Y119.068 E.00703
G1 X115.939 Y119.347 E.00878
G1 X115.839 Y119.564 E.00749
G1 X115.676 Y119.715 E.00697
G1 X115.5 Y119.775 E.00583
G1 X115.465 Y119.771 E.0011
G1 E-1.12 F2400
;WIPE_START
G1 F4800
G1 X115.405 Y119.765 E-.02864
G1 X115.318 Y119.757 E-.0415
G1 X115.164 Y119.664 E-.08545
G1 X115.04 Y119.493 E-.10033
G1 X114.982 Y119.246 E-.12052
G1 X114.997 Y119.028 E-.10356
;WIPE_END
G1 X112.469 Y113.423 F6000
G1 E1.6 F2400
;TYPE:Perimeter
G1 F1200
G1 X112.405 Y113.285 E.00477
G1 X112.368 Y113.071 E.00681
G1 X112.346 Y112.385 E.02152
G1 X112.387 Y111.939 E.01404
G1 X112.425 Y111.789 E.00485
G1 X112.474 Y111.719 E.00268
G1 X112.503 Y111.774 E.00195
G1 X112.566 Y112.074 E.00961
G1 X112.587 Y112.748 E.02114
G1 X112.543 Y113.188 E.01386
G1 X112.487 Y113.366 E.00585
G1 X112.487 Y113.366 F6000
G1 X112.558 Y113.802
;TYPE:External perimeter
G1 F1200
G1 X112.472 Y113.812 E.00271
G1 X112.385 Y113.801 E.00275
G1 X112.249 Y113.736 E.00473
G1 X112.175 Y113.665 E.00322
G1 X112.102 Y113.558 E.00406
G1 X112.04 Y113.381 E.00588
G1 X111.993 Y113.117 E.00841
G1 X111.968 Y112.77 E.01091
G1 X111.968 Y112.368 E.0126
G1 X112.014 Y111.875 E.01552
G1 X112.069 Y111.658 E.00702
G1 X112.138 Y111.519 E.00487
G1 X112.215 Y111.428 E.00374
G1 X112.371 Y111.336 E.00568
G1 X112.508 Y111.327 E.0043
G1 X112.594 Y111.347 E.00277
G1 X112.725 Y111.433 E.00491
G1 X112.797 Y111.517 E.00347
G1 X112.862 Y111.651 E.00467
G1 X112.94 Y112.022 E.01189
G1 X112.964 Y112.365 E.01078
G1 X112.964 Y112.767 E.0126
G1 X112.914 Y113.263 E.01563
G1 X112.813 Y113.587 E.01064
G1 X112.683 Y113.746 E.00644
G1 X112.613 Y113.778 E.00241
G1 E-1.12 F2400
;WIPE_START
G1 F4800
G1 X112.558 Y113.802 E-.0285
G1 X112.472 Y113.812 E-.04113
G1 X112.385 Y113.801 E-.04165
G1 X112.249 Y113.736 E-.0716
G1 X112.175 Y113.665 E-.04871
G1 X112.102 Y113.558 E-.06153
G1 X112.04 Y113.381 E-.08908
G1 X112.004 Y113.179 E-.0978
;WIPE_END
G1 X104.823 Y117.686 F6000
G1 E1.6 F2400
;TYPE:Perimeter
G1 F1200
G1 X104.827 Y117.684 E.00014
G1 X104.856 Y117.739 E.00195
G1 X104.919 Y118.039 E.00961
G1 X104.94 Y118.713 E.02114
G1 X104.896 Y119.153 E.01386
G1 X104.823 Y119.388 E.00772
G1 X104.759 Y119.25 E.00477
G1 X104.721 Y119.036 E.00681
G1 X104.699 Y118.344 E.02171
G1 X104.721 Y118.03 E.00987
G1 X104.757 Y117.825 E.00653
G1 X104.792 Y117.734 E.00306
G1 E-1.12 F2400
;WIPE_START
G1 F4800
G1 X104.823 Y117.686 E-.02714
G1 X104.827 Y117.684 E-.00212
G1 X104.856 Y117.739 E-.02953
G1 X104.919 Y118.039 E-.14561
G1 X104.937 Y118.619 E-.2756
;WIPE_END
G1 X104.738 Y119.766 F6000
G1 E1.6 F2400
;TYPE:External perimeter
G1 F1200
G1 X104.603 Y119.7 E.00471
G1 X104.528 Y119.63 E.00322
G1 X104.455 Y119.523 E.00406
G1 X104.393 Y119.346 E.00588
G1 X104.346 Y119.082 E.00841
G1 X104.322 Y118.735 E.01091
G1 X104.322 Y118.33 E.0127
G1 X104.346 Y117.984 E.01087
G1 X104.388 Y117.741 E.00773
G1 X104.421 Y117.625 E.00378
G1 X104.492 Y117.484 E.00495
G1 X104.568 Y117.393 E.00372
G1 X104.724 Y117.301 E.00568
G1 X104.861 Y117.292 E.0043
G1 X104.947 Y117.312 E.00277
G1 X105.078 Y117.398 E.00491
G1 X105.15 Y117.482 E.00347
G1 X105.216 Y117.616 E.00468
G1 X105.293 Y117.986 E.01185
G1 X105.317 Y118.33 E.01081
G1 X105.317 Y118.732 E.0126
G1 X105.267 Y119.228 E.01563
G1 X105.166 Y119.552 E.01064
G1 X105.036 Y119.711 E.00644
G1 X104.911 Y119.767 E.00429
G1 X104.826 Y119.777 E.00268
G1 X104.798 Y119.773 E.00089
G1 E-1.12 F2400
;WIPE_START
G1 F4800
G1 X104.738 Y119.766 E-.02869
G1 X104.603 Y119.7 E-.07138
G1 X104.528 Y119.63 E-.04873
G1 X104.455 Y119.523 E-.06153
G1 X104.393 Y119.346 E-.08908
G1 X104.346 Y119.082 E-.12737
G1 X104.338 Y118.97 E-.05322
;WIPE_END
G1 X101.816 Y119.388 F6000
G1 E1.6 F2400
;TYPE:Perimeter
G1 F1200
G1 X101.752 Y119.25 E.00477
G1 X101.714 Y119.036 E.00681
G1 X101.692 Y118.344 E.02171
G1 X101.714 Y118.03 E.00987
G1 X101.75 Y117.825 E.00653
G1 X101.802 Y117.692 E.00448
G1 X101.82 Y117.684 E.00062
G1 X101.85 Y117.739 E.00196
G1 X101.912 Y118.039 E.00961
G1 X101.933 Y118.713 E.02114
G1 X101.889 Y119.153 E.01386
G1 X101.834 Y119.331 E.00584
G1 X101.834 Y119.331 F6000
G1 X101.731 Y119.766
;TYPE:External perimeter
G1 F1200
G1 X101.596 Y119.7 E.00471
G1 X101.522 Y119.63 E.00319
G1 X101.449 Y119.523 E.00406
G1 X101.386 Y119.346 E.00589
G1 X101.339 Y119.082 E.00841
G1 X101.315 Y118.735 E.01091
G1 X101.315 Y118.33 E.0127
G1 X101.339 Y117.984 E.01087
G1 X101.382 Y117.741 E.00774
G1 X101.415 Y117.625 E.00378
G1 X101.485 Y117.484 E.00494
G1 X101.561 Y117.393 E.00372
G1 X101.717 Y117.301 E.00568
G1 X101.855 Y117.292 E.00434
G1 X101.94 Y117.312 E.00274
G1 X102.071 Y117.398 E.00491
G1 X102.143 Y117.482 E.00347
G1 X102.209 Y117.616 E.00468
G1 X102.287 Y117.986 E.01186
G1 X102.311 Y118.33 E.01081
G1 X102.31 Y118.732 E.0126
G1 X102.261 Y119.228 E.01563
G1 X102.16 Y119.552 E.01064
G1 X102.03 Y119.711 E.00644
G1 X101.904 Y119.767 E.00432
G1 X101.819 Y119.777 E.00268
G1 X101.791 Y119.773 E.00089
G1 E-1.12 F2400
;WIPE_START
G1 F4800
G1 X101.731 Y119.766 E-.02869
G1 X101.596 Y119.7 E-.07138
G1 X101.522 Y119.63 E-.04838
G1 X101.449 Y119.523 E-.06153
G1 X101.386 Y119.346 E-.08924
G1 X101.339 Y119.082 E-.12737
G1 X101.331 Y118.97 E-.05341
;WIPE_END
G1 X101.76 Y113.397 F6000
G1 E1.6 F2400
;TYPE:Perimeter
G1 F1200
G1 X101.73 Y113.327 E.00239
G1 X101.729 Y113.083 E.00765
G1 X101.775 Y113.002 E.00292
