; generated by PrusaSlicer 2.6.0+win64 on 2023-07-04 at 09:21:11 UTC

; 

; external perimeters extrusion width = 0.42mm
; perimeters extrusion width = 0.44mm
; infill extrusion width = 0.44mm
; solid infill extrusion width = 0.44mm
; top infill extrusion width = 0.40mm
; support material extrusion width = 0.36mm
; first layer extrusion width = 0.42mm

; external perimeters extrusion width = 0.42mm
; perimeters extrusion width = 0.44mm
; infill extrusion width = 0.44mm
; solid infill extrusion width = 0.44mm
; top infill extrusion width = 0.40mm
; support material extrusion width = 0.36mm
; first layer extrusion width = 0.42mm

; external perimeters extrusion width = 0.42mm
; perimeters extrusion width = 0.44mm
; infill extrusion width = 0.44mm
; solid infill extrusion width = 0.44mm
; top infill extrusion width = 0.40mm
; support material extrusion width = 0.36mm
; first layer extrusion width = 0.42mm

; external perimeters extrusion width = 0.42mm
; perimeters extrusion width = 0.44mm
; infill extrusion width = 0.44mm
; solid infill extrusion width = 0.44mm
; top infill extrusion width = 0.40mm
; support material extrusion width = 0.36mm
; first layer extrusion width = 0.42mm

; external perimeters extrusion width = 0.42mm
; perimeters extrusion width = 0.44mm
; infill extrusion width = 0.44mm
; solid infill extrusion width = 0.44mm
; top infill extrusion width = 0.40mm
; support material extrusion width = 0.36mm
; first layer extrusion width = 0.42mm

; external perimeters extrusion width = 0.42mm
; perimeters extrusion width = 0.44mm
; infill extrusion width = 0.44mm
; solid infill extrusion width = 0.44mm
; top infill extrusion width = 0.40mm
; support material extrusion width = 0.36mm
; first layer extrusion width = 0.42mm

; external perimeters extrusion width = 0.42mm
; perimeters extrusion width = 0.44mm
; infill extrusion width = 0.44mm
; solid infill extrusion width = 0.44mm
; top infill extrusion width = 0.40mm
; support material extrusion width = 0.36mm
; first layer extrusion width = 0.42mm

; external perimeters extrusion width = 0.42mm
; perimeters extrusion width = 0.44mm
; infill extrusion width = 0.44mm
; solid infill extrusion width = 0.44mm
; top infill extrusion width = 0.40mm
; support material extrusion width = 0.36mm
; first layer extrusion width = 0.42mm

; external perimeters extrusion width = 0.42mm
; perimeters extrusion width = 0.44mm
; infill extrusion width = 0.44mm
; solid infill extrusion width = 0.44mm
; top infill extrusion width = 0.40mm
; support material extrusion width = 0.36mm
; first layer extrusion width = 0.42mm

; external perimeters extrusion width = 0.42mm
; perimeters extrusion width = 0.44mm
; infill extrusion width = 0.44mm
; solid infill extrusion width = 0.44mm
; top infill extrusion width = 0.40mm
; support material extrusion width = 0.36mm
; first layer extrusion width = 0.42mm

; external perimeters extrusion width = 0.42mm
; perimeters extrusion width = 0.44mm
; infill extrusion width = 0.44mm
; solid infill extrusion width = 0.44mm
; top infill extrusion width = 0.40mm
; support material extrusion width = 0.36mm
; first layer extrusion width = 0.42mm

; external perimeters extrusion width = 0.42mm
; perimeters extrusion width = 0.44mm
; infill extrusion width = 0.44mm
; solid infill extrusion width = 0.44mm
; top infill extrusion width = 0.40mm
; support material extrusion width = 0.36mm
; first layer extrusion width = 0.42mm

; external perimeters extrusion width = 0.42mm
; perimeters extrusion width = 0.44mm
; infill extrusion width = 0.44mm
; solid infill extrusion width = 0.44mm
; top infill extrusion width = 0.40mm
; support material extrusion width = 0.36mm
; first layer extrusion width = 0.42mm

;TYPE:Custom
; Ender 3 Custom Start G-code
G92 E0 ; Reset Extruder

M140 S50 ; set bed temp
M190 S50 ; wait for bed temp

G28 ; Home all axes
M104 S210 ; set extruder temp 
BED_MESH_CALIBRATE AREA_START=83.7684,88.5669 AREA_END=143.763,126.207

G1 Z2.0 F3000 ; Move Z Axis up little to prevent scratching of Heat Bed
M109 S210 ; wait for extruder temp
G1 X0.1 Y20 Z0.3 F5000.0 ; Move to start position

G1 X0.1 Y200.0 Z0.3 F1500.0 E15 ; Draw the first line
G1 X0.4 Y200.0 Z0.3 F5000.0 ; Move to side a little
G1 X0.4 Y20 Z0.3 F1500.0 E30 ; Draw the second line
G92 E0 ; Reset Extruder
G1 Z2.0 F3000 ; Move Z Axis up little to prevent scratching of Heat Bed
G1 X5 Y20 Z0.3 F5000.0 ; Move over to prevent blob squish
G21 ; set units to millimeters
G90 ; use absolute coordinates
M83 ; use relative distances for extrusion
; Filament gcode
M107
;LAYER_CHANGE
;Z:0.2
;HEIGHT:0.2
;BEFORE_LAYER_CHANGE
G92 E0
;0.2


G1 E-1.6 F2400
G1 Z.2 F6000
;AFTER_LAYER_CHANGE
;0.2
G1 X87.857 Y91.701
G1 E1.6 F2400
M204 S500
;TYPE:Skirt/Brim
;WIDTH:0.42
G1 F1200
G1 X88.725 Y90.996 E.03191
G1 X89.656 Y90.382 E.03182
G1 X91.322 Y89.564 E.05296
G1 X93.099 Y89.026 E.05297
G1 X94.721 Y88.79 E.04677
G1 X131.692 Y88.755 E1.05487
G1 X132.884 Y88.805 E.03404
G1 X133.843 Y88.938 E.02762
G1 X135.87 Y89.494 E.05997
G1 X137.7 Y90.365 E.05783
G1 X139.14 Y91.376 E.0502
G1 X140.583 Y92.775 E.05735
G1 X141.374 Y93.79 E.03672
G1 X141.835 Y94.519 E.02461
G1 X142.681 Y96.304 E.05636
G1 X143.24 Y98.341 E.06027
G1 X143.425 Y100.341 E.05731
G1 X143.575 Y114.341 E.39948
G1 X143.503 Y115.668 E.03792
G1 X143.296 Y116.888 E.03531
G1 X142.676 Y118.864 E.05909
G1 X141.69 Y120.733 E.06029
G1 X140.467 Y122.296 E.05663
G1 X139.688 Y123.064 E.03121
G1 X138.815 Y123.771 E.03205
G1 X137.173 Y124.778 E.05496
G1 X136.08 Y125.257 E.03405
G1 X134.281 Y125.783 E.05348
G1 X132.523 Y126.003 E.05055
G1 X95.078 Y126.009 E1.0684
G1 X93.39 Y125.81 E.0485
G1 X92.295 Y125.542 E.03217
G1 X91.185 Y125.153 E.03356
G1 X89.854 Y124.506 E.04223
G1 X88.8 Y123.835 E.03565
G1 X87.851 Y123.075 E.03469
G1 X86.76 Y121.96 E.04451
G1 X86.154 Y121.19 E.02796
G1 X85.328 Y119.862 E.04462
G1 X84.772 Y118.665 E.03766
G1 X84.319 Y117.276 E.04169
G1 X84.013 Y115.506 E.05125
G1 X83.957 Y114.505 E.02861
G1 X83.987 Y99.578 E.4259
G1 X84.339 Y97.433 E.06202
G1 X84.956 Y95.673 E.05321
G1 X85.359 Y94.854 E.02604
G1 X86.242 Y93.468 E.04689
G1 X86.875 Y92.684 E.02875
G1 X87.814 Y91.744 E.03791
G1 X88.08 Y92.01 F6000
G1 F1200
G1 X88.937 Y91.308 E.03161
G1 X89.836 Y90.714 E.03074
G1 X91.455 Y89.917 E.05149
G1 X92.992 Y89.437 E.04594
G1 X94.74 Y89.166 E.05047
G1 X131.692 Y89.133 E1.05433
G1 X133.767 Y89.308 E.05941
G1 X135.748 Y89.851 E.05861
G1 X137.509 Y90.69 E.05566
G1 X138.893 Y91.661 E.04824
G1 X140.304 Y93.029 E.05607
G1 X141.07 Y94.013 E.03558
G1 X141.565 Y94.802 E.02658
G1 X142.414 Y96.673 E.05862
G1 X142.882 Y98.473 E.05307
G1 X143.048 Y100.345 E.05362
G1 X143.198 Y114.345 E.39948
G1 X143.13 Y115.614 E.03626
G1 X142.924 Y116.824 E.03502
G1 X142.331 Y118.712 E.05646
G1 X141.369 Y120.534 E.05879
G1 X140.198 Y122.031 E.05423
G1 X139.594 Y122.642 E.02451
G1 X138.603 Y123.459 E.03665
G1 X136.981 Y124.453 E.05428
G1 X135.395 Y125.098 E.04885
G1 X134.218 Y125.411 E.03475
G1 X132.355 Y125.634 E.05354
G1 X95.105 Y125.633 E1.06283
G1 X93.449 Y125.437 E.04758
G1 X92.304 Y125.154 E.03365
G1 X91.337 Y124.807 E.02931
G1 X90.03 Y124.173 E.04145
G1 X89.019 Y123.528 E.03422
G1 X88.102 Y122.794 E.03351
G1 X87.039 Y121.706 E.0434
G1 X86.452 Y120.958 E.02713
G1 X85.657 Y119.676 E.04304
G1 X85.128 Y118.539 E.03578
G1 X84.684 Y117.182 E.04074
G1 X84.387 Y115.46 E.04986
G1 X84.334 Y114.505 E.02729
G1 X84.363 Y99.603 E.42519
G1 X84.7 Y97.541 E.05961
G1 X85.307 Y95.811 E.05231
G1 X85.705 Y95.004 E.02567
G1 X86.553 Y93.681 E.04484
G1 X87.156 Y92.934 E.02739
G1 X88.038 Y92.052 E.03559
G1 X88.304 Y92.318 F6000
G1 F1200
G1 X89.149 Y91.62 E.03127
G1 X90.029 Y91.037 E.03012
G1 X91.588 Y90.27 E.04957
G1 X93.208 Y89.774 E.04834
G1 X94.758 Y89.543 E.04471
G1 X131.692 Y89.51 E1.05382
G1 X133.69 Y89.677 E.05721
G1 X135.628 Y90.208 E.05733
G1 X137.318 Y91.015 E.05344
G1 X138.647 Y91.947 E.04631
G1 X140.013 Y93.269 E.05424
G1 X140.766 Y94.236 E.03497
G1 X141.237 Y94.988 E.02532
G1 X142.054 Y96.785 E.05632
G1 X142.512 Y98.545 E.05189
G1 X142.671 Y100.349 E.05167
G1 X142.821 Y114.349 E.39948
G1 X142.744 Y115.641 E.03693
G1 X142.521 Y116.917 E.03696
G1 X142.276 Y117.78 E.0256
G1 X141.409 Y119.75 E.06141
G1 X140.675 Y120.874 E.0383
G1 X140.018 Y121.672 E.02949
G1 X139.333 Y122.37 E.0279
G1 X138.39 Y123.147 E.03486
G1 X136.804 Y124.12 E.05309
G1 X135.27 Y124.742 E.04723
G1 X134.141 Y125.042 E.03333
G1 X132.345 Y125.257 E.05161
G1 X95.131 Y125.257 E1.06181
G1 X93.508 Y125.065 E.04663
G1 X92.409 Y124.792 E.03231
G1 X91.488 Y124.462 E.02791
G1 X90.206 Y123.839 E.04067
G1 X89.238 Y123.221 E.03277
G1 X88.306 Y122.47 E.03415
G1 X87.318 Y121.453 E.04046
G1 X86.76 Y120.741 E.02581
G1 X85.985 Y119.491 E.04196
G1 X85.483 Y118.413 E.03393
G1 X85.05 Y117.087 E.0398
G1 X84.761 Y115.415 E.04841
G1 X84.739 Y99.629 E.45041
G1 X85.061 Y97.651 E.05718
G1 X85.658 Y95.948 E.05149
G1 X86.04 Y95.178 E.02452
G1 X86.862 Y93.897 E.04343
G1 X87.438 Y93.185 E.02613
G1 X88.262 Y92.361 E.03325
; printing object Shape-Box10 id:11 copy 0
G1 E-1.12 F2400
;WIPE_START
G1 F4800
G1 X89.038 Y91.713 E-.48
;WIPE_END
G1 X94.309 Y113.278 F6000
G1 E1.6 F2400
;TYPE:External perimeter
G1 F1200
G1 X94.389 Y113.278 E.00228
G1 X94.389 Y113.858 E.01655
G1 X94.309 Y113.858 E.00228
G1 X94.309 Y113.338 E.01484
G1 X94.38 Y113.315 F6000
; stop printing object Shape-Box10 id:11 copy 0
; printing object Shape-Box9 id:9 copy 0
G1 E-1.12 F2400
;WIPE_START
G1 F4800
G1 X94.389 Y113.278 E-.0475
G1 X94.389 Y113.858 E-.2755
G1 X94.309 Y113.858 E-.038
G1 X94.309 Y113.607 E-.119
;WIPE_END
G1 X98.485 Y113.204 F6000
G1 E1.6 F2400
G1 F1200
G1 X98.565 Y113.204 E.00228
G1 X98.565 Y113.784 E.01655
G1 X98.485 Y113.784 E.00228
G1 X98.485 Y113.264 E.01484
G1 X98.556 Y113.241 F6000
; stop printing object Shape-Box9 id:9 copy 0
; printing object Shape-Box10 id:10 copy 0
G1 E-1.12 F2400
;WIPE_START
G1 F4800
G1 X98.565 Y113.204 E-.0475
G1 X98.565 Y113.784 E-.2755
G1 X98.485 Y113.784 E-.038
G1 X98.485 Y113.533 E-.119
;WIPE_END
G1 X98.42 Y109.402 F6000
G1 E1.6 F2400
G1 F1200
G1 X98.34 Y109.402 E.00228
G1 X98.34 Y108.822 E.01655
G1 X98.42 Y108.822 E.00228
G1 X98.42 Y109.342 E.01484
G1 X98.349 Y109.366 F6000
; stop printing object Shape-Box10 id:10 copy 0
; printing object Shape-Box10 id:12 copy 0
G1 E-1.12 F2400
;WIPE_START
G1 F4800
G1 X98.34 Y109.402 E-.0475
G1 X98.34 Y108.822 E-.2755
G1 X98.42 Y108.822 E-.038
G1 X98.42 Y109.073 E-.119
;WIPE_END
G1 X94.192 Y109.219 F6000
G1 E1.6 F2400
G1 F1200
G1 X94.112 Y109.219 E.00228
G1 X94.112 Y108.639 E.01655
G1 X94.192 Y108.639 E.00228
G1 X94.192 Y109.159 E.01484
G1 X94.121 Y109.182 F6000
; stop printing object Shape-Box10 id:12 copy 0
; printing object Shape-Box6 id:6 copy 0
G1 E-1.12 F2400
;WIPE_START
G1 F4800
G1 X94.112 Y109.219 E-.0475
G1 X94.112 Y108.639 E-.2755
G1 X94.192 Y108.639 E-.038
G1 X94.192 Y108.89 E-.119
;WIPE_END
G1 X109.382 Y100.861 F6000
G1 E1.6 F2400
G1 F1200
G1 X109.382 Y100.281 E.01655
G1 X109.462 Y100.281 E.00228
G1 X109.462 Y100.861 E.01655
G1 X109.442 Y100.861 E.00057
G1 X109.4 Y100.461 F6000
; stop printing object Shape-Box6 id:6 copy 0
; printing object Shape-Box5 id:5 copy 0
G1 E-1.12 F2400
;WIPE_START
G1 F4800
G1 X109.382 Y100.281 E-.27697
G1 X109.462 Y100.281 E-.038
G1 X109.462 Y100.628 E-.16503
;WIPE_END
G1 X109.466 Y104.82 F6000
G1 E1.6 F2400
G1 F1200
G1 X109.466 Y105.4 E.01655
G1 X109.386 Y105.4 E.00228
G1 X109.386 Y104.82 E.01655
G1 X109.406 Y104.82 E.00057
G1 X109.448 Y105.219 F6000
; stop printing object Shape-Box5 id:5 copy 0
; printing object Shape-Box id:0 copy 0
G1 E-1.12 F2400
;WIPE_START
G1 F4800
G1 X109.466 Y105.4 E-.27697
G1 X109.386 Y105.4 E-.038
G1 X109.386 Y105.053 E-.16503
;WIPE_END
G1 X115.709 Y110.722 F6000
G1 E1.6 F2400
;TYPE:Perimeter
G1 F1200
G1 X115.69 Y110.896 E.00499
G1 X115.505 Y110.682 E.00807
G1 X115.676 Y110.695 E.00489
G1 E-1.12 F2400
;WIPE_START
G1 F4800
G1 X115.69 Y110.896 E-.09571
G1 X115.505 Y110.682 E-.13437
G1 X115.676 Y110.695 E-.08146
;WIPE_END
G1 E-.16846 F2400
G1 X109.79 Y110.436 F6000
G1 E1.6 F2400
G1 F1200
G1 X109.824 Y110.56 E.00367
G1 X109.523 Y110.624 E.00878
G1 X109.371 Y110.631 E.00434
G1 X109.275 Y110.609 E.00281
G1 X109.156 Y110.512 E.00438
G1 X109.12 Y110.433 E.00248
G1 X109.111 Y110.304 E.00369
G1 X109.14 Y110.183 E.00355
G1 X109.243 Y110.04 E.00503
G1 X109.399 Y109.971 E.00487
G1 X109.529 Y109.97 E.00371
G1 X109.604 Y109.997 E.00227
G1 X109.647 Y110.036 E.00166
G1 X109.717 Y110.17 E.00431
G1 X109.774 Y110.379 E.00618
G1 X110.798 Y110.922 F6000
G1 F1200
G1 X111.384 Y110.844 E.01687
G1 X111.355 Y111.495 E.01859
G1 X111.379 Y111.999 E.0144
G1 X110.454 Y111.861 E.02668
G1 X110.5 Y111.634 E.00661
G1 X110.58 Y110.951 E.01962
G1 X110.739 Y110.93 E.00458
G1 X109.712 Y112.48 F6000
G1 F1200
G1 X109.666 Y112.632 E.00453
G1 X109.58 Y112.732 E.00376
G1 X109.422 Y112.745 E.00452
G1 X109.35 Y112.705 E.00235
G1 X109.354 Y112.582 E.00351
G1 X109.416 Y112.543 E.00209
G1 X109.652 Y112.483 E.00695
G1 E-1.12 F2400
;WIPE_START
G1 F4800
G1 X109.666 Y112.632 E-.07109
G1 X109.58 Y112.732 E-.06265
G1 X109.422 Y112.745 E-.0753
G1 X109.35 Y112.705 E-.03912
G1 X109.354 Y112.582 E-.05846
G1 X109.416 Y112.543 E-.03479
G1 X109.652 Y112.483 E-.11567
;WIPE_END
G1 E-.02292 F2400
G1 X103.11 Y102.38 F6000
G1 E1.6 F2400
G1 F1200
G1 X102.971 Y102.445 E.00438
G1 X102.803 Y102.454 E.0048
G1 X102.614 Y102.399 E.00562
G1 X102.501 Y102.26 E.00511
G1 X102.46 Y102.083 E.00518
G1 X102.469 Y101.839 E.00697
G1 X102.518 Y101.673 E.00494
G1 X102.593 Y101.56 E.00387
G1 X102.681 Y101.488 E.00324
G1 X102.781 Y101.45 E.00305
G1 X102.904 Y101.449 E.00351
G1 X103.018 Y101.503 E.0036
G1 X103.078 Y101.585 E.0029
G1 X103.279 Y102.213 E.01881
G1 X103.152 Y102.338 E.00508
G1 E-1.12 F2400
;WIPE_START
G1 F4800
G1 X102.971 Y102.445 E-.09987
G1 X102.803 Y102.454 E-.07991
G1 X102.614 Y102.399 E-.0935
G1 X102.501 Y102.26 E-.08509
G1 X102.46 Y102.083 E-.0863
G1 X102.463 Y102.009 E-.03533
;WIPE_END
G1 X118.381 Y101.915 F6000
G1 E1.6 F2400
G1 F1200
G1 X118.414 Y102.038 E.00363
G1 X118.114 Y102.103 E.00876
G1 X117.962 Y102.109 E.00434
G1 X117.866 Y102.087 E.00281
G1 X117.747 Y101.99 E.00438
G1 X117.711 Y101.912 E.00245
G1 X117.702 Y101.782 E.00372
G1 X117.73 Y101.661 E.00354
G1 X117.834 Y101.518 E.00505
G1 X117.99 Y101.45 E.00486
G1 X118.119 Y101.449 E.00368
G1 X118.195 Y101.476 E.0023
G1 X118.238 Y101.514 E.00164
G1 X118.308 Y101.649 E.00434
G1 X118.365 Y101.857 E.00615
G1 E-1.12 F2400
;WIPE_START
G1 F4800
G1 X118.414 Y102.038 E-.08907
G1 X118.114 Y102.103 E-.14581
G1 X117.962 Y102.109 E-.07226
G1 X117.866 Y102.087 E-.04678
G1 X117.747 Y101.99 E-.07292
G1 X117.711 Y101.912 E-.04081
G1 X117.709 Y101.886 E-.01235
;WIPE_END
G1 X118.303 Y103.958 F6000
G1 E1.6 F2400
G1 F1200
G1 X118.257 Y104.11 E.00453
G1 X118.17 Y104.21 E.00378
G1 X118.013 Y104.224 E.0045
G1 X117.941 Y104.183 E.00236
G1 X117.945 Y104.06 E.00351
G1 X118.007 Y104.022 E.00207
G1 X118.243 Y103.962 E.00695
G1 E-1.12 F2400
;WIPE_START
G1 F4800
G1 X118.257 Y104.11 E-.07061
G1 X118.17 Y104.21 E-.06296
G1 X118.013 Y104.224 E-.07487
G1 X117.941 Y104.183 E-.03936
G1 X117.945 Y104.06 E-.05846
G1 X118.007 Y104.022 E-.03454
G1 X118.243 Y103.962 E-.11567
;WIPE_END
G1 E-.02353 F2400
G1 X124.355 Y104.022 F6000
G1 E1.6 F2400
G1 F1200
G1 X124.379 Y103.916 E.0031
G1 X124.509 Y103.69 E.00744
G1 X124.64 Y103.531 E.00588
G1 X124.99 Y103.186 E.01402
G1 X124.901 Y104.067 E.02526
G1 X124.873 Y104.129 E.00194
G1 X124.807 Y104.189 E.00254
G1 X124.719 Y104.218 E.00264
G1 X124.532 Y104.219 E.00534
G1 X124.453 Y104.193 E.00237
G1 X124.381 Y104.13 E.00273
G1 X124.363 Y104.081 E.00149
G1 E-1.12 F2400
;WIPE_START
G1 F4800
G1 X124.379 Y103.916 E-.07874
G1 X124.509 Y103.69 E-.12384
G1 X124.64 Y103.531 E-.09786
G1 X124.909 Y103.266 E-.17956
;WIPE_END
G1 X126.604 Y103.306 F6000
G1 E1.6 F2400
G1 F1200
G1 X125.037 Y103.145 E.04495
G1 X126.018 Y102.296 E.03702
G1 X126.412 Y101.888 E.01618
G1 X126.588 Y101.663 E.00815
G1 X126.752 Y101.393 E.00901
G1 X126.669 Y101.732 E.00996
G1 X126.6 Y102.37 E.01831
G1 X126.598 Y103.246 E.02499
G1 E-1.12 F2400
;WIPE_START
G1 F4800
