; generated by PrusaSlicer 2.6.0+win64 on 2023-07-07 at 12:03:59 UTC

; 

; external perimeters extrusion width = 0.42mm
; perimeters extrusion width = 0.44mm
; infill extrusion width = 0.44mm
; solid infill extrusion width = 0.44mm
; top infill extrusion width = 0.40mm
; first layer extrusion width = 0.42mm

;TYPE:Custom
; Ender 3 Custom Start G-code
G92 E0 ; Reset Extruder

M140 S50 ; set bed temp
M190 S50 ; wait for bed temp

G28 ; Home all axes
M104 S205 ; set extruder temp 
BED_MESH_CALIBRATE AREA_START=83.7684,88.5669 AREA_END=143.763,126.207

G1 Z2.0 F3000 ; Move Z Axis up little to prevent scratching of Heat Bed
M109 S205 ; wait for extruder temp
G1 X0.1 Y20 Z0.3 F5000.0 ; Move to start position

G1 X0.1 Y200.0 Z0.3 F1500.0 E15 ; Draw the first line
G1 X0.4 Y200.0 Z0.3 F5000.0 ; Move to side a little
G1 X0.4 Y20 Z0.3 F1500.0 E30 ; Draw the second line
G92 E0 ; Reset Extruder
G1 Z2.0 F3000 ; Move Z Axis up little to prevent scratching of Heat Bed
G1 X5 Y20 Z0.3 F5000.0 ; Move over to prevent blob squish
G21 ; set units to millimeters
G90 ; use absolute coordinates
M83 ; use relative distances for extrusion
; Filament gcode
M107
;LAYER_CHANGE
;Z:0.2
;HEIGHT:0.2
;BEFORE_LAYER_CHANGE
G92 E0
;0.2


G1 E-1.6 F2400
G1 Z.2 F6000
;AFTER_LAYER_CHANGE
;0.2
G1 X87.857 Y91.701
G1 E1.6 F2400
M204 S500
;TYPE:Skirt/Brim
;WIDTH:0.42
G1 F1200
G1 X88.725 Y90.996 E.03296
G1 X89.656 Y90.382 E.03287
G1 X91.322 Y89.564 E.0547
G1 X93.099 Y89.026 E.05472
G1 X94.721 Y88.79 E.04831
G1 X131.692 Y88.755 E1.08965
G1 X132.884 Y88.805 E.03516
G1 X133.843 Y88.938 E.02854
G1 X135.87 Y89.494 E.06195
G1 X137.7 Y90.365 E.05973
G1 X139.14 Y91.376 E.05186
G1 X140.583 Y92.775 E.05924
G1 X141.374 Y93.79 E.03793
G1 X141.835 Y94.519 E.02542
G1 X142.681 Y96.304 E.05822
G1 X143.24 Y98.341 E.06226
G1 X143.425 Y100.341 E.0592
G1 X143.575 Y114.341 E.41265
G1 X143.503 Y115.668 E.03917
G1 X143.296 Y116.888 E.03647
G1 X142.676 Y118.864 E.06104
G1 X141.69 Y120.733 E.06228
G1 X140.467 Y122.296 E.05849
G1 X139.688 Y123.064 E.03224
G1 X138.815 Y123.771 E.03311
G1 X137.173 Y124.778 E.05677
G1 X136.08 Y125.257 E.03517
G1 X134.281 Y125.783 E.05524
G1 X132.523 Y126.003 E.05222
G1 X95.078 Y126.009 E1.10362
G1 X93.39 Y125.81 E.0501
G1 X92.295 Y125.542 E.03323
G1 X91.185 Y125.153 E.03467
G1 X89.854 Y124.506 E.04362
G1 X88.8 Y123.835 E.03683
G1 X87.851 Y123.075 E.03583
G1 X86.76 Y121.96 E.04598
G1 X86.154 Y121.19 E.02888
G1 X85.328 Y119.862 E.04609
G1 X84.772 Y118.665 E.0389
G1 X84.319 Y117.276 E.04306
G1 X84.013 Y115.506 E.05294
G1 X83.957 Y114.505 E.02955
G1 X83.987 Y99.578 E.43994
G1 X84.339 Y97.433 E.06407
G1 X84.956 Y95.673 E.05497
G1 X85.359 Y94.854 E.0269
G1 X86.242 Y93.468 E.04844
G1 X86.875 Y92.684 E.0297
G1 X87.814 Y91.744 E.03916
G1 X88.08 Y92.01 F6000
G1 F1200
G1 X88.937 Y91.308 E.03265
G1 X89.836 Y90.714 E.03176
G1 X91.455 Y89.917 E.05319
G1 X92.992 Y89.437 E.04746
G1 X94.74 Y89.166 E.05213
G1 X131.692 Y89.133 E1.08909
G1 X133.767 Y89.308 E.06137
G1 X135.748 Y89.851 E.06054
G1 X137.509 Y90.69 E.05749
G1 X138.893 Y91.661 E.04983
G1 X140.304 Y93.029 E.05792
G1 X141.07 Y94.013 E.03675
G1 X141.565 Y94.802 E.02745
G1 X142.414 Y96.673 E.06056
G1 X142.882 Y98.473 E.05482
G1 X143.048 Y100.345 E.05539
G1 X143.198 Y114.345 E.41265
G1 X143.13 Y115.614 E.03745
G1 X142.924 Y116.824 E.03618
G1 X142.331 Y118.712 E.05833
G1 X141.369 Y120.534 E.06073
G1 X140.198 Y122.031 E.05602
G1 X139.594 Y122.642 E.02532
G1 X138.603 Y123.459 E.03785
G1 X136.981 Y124.453 E.05607
G1 X135.395 Y125.098 E.05046
G1 X134.218 Y125.411 E.0359
G1 X132.355 Y125.634 E.0553
G1 X95.105 Y125.633 E1.09787
G1 X93.449 Y125.437 E.04915
G1 X92.304 Y125.154 E.03476
G1 X91.337 Y124.807 E.03028
G1 X90.03 Y124.173 E.04281
G1 X89.019 Y123.528 E.03534
G1 X88.102 Y122.794 E.03462
G1 X87.039 Y121.706 E.04483
G1 X86.452 Y120.958 E.02802
G1 X85.657 Y119.676 E.04446
G1 X85.128 Y118.539 E.03696
G1 X84.684 Y117.182 E.04208
G1 X84.387 Y115.46 E.0515
G1 X84.334 Y114.505 E.02819
G1 X84.363 Y99.603 E.43921
G1 X84.7 Y97.541 E.06158
G1 X85.307 Y95.811 E.05404
G1 X85.705 Y95.004 E.02652
G1 X86.553 Y93.681 E.04632
G1 X87.156 Y92.934 E.02829
G1 X88.038 Y92.052 E.03676
G1 X88.304 Y92.318 F6000
G1 F1200
G1 X89.149 Y91.62 E.0323
G1 X90.029 Y91.037 E.03111
G1 X91.588 Y90.27 E.05121
G1 X93.208 Y89.774 E.04993
G1 X94.758 Y89.543 E.04619
G1 X131.692 Y89.51 E1.08856
G1 X133.69 Y89.677 E.05909
G1 X135.628 Y90.208 E.05922
G1 X137.318 Y91.015 E.0552
G1 X138.647 Y91.947 E.04784
G1 X140.013 Y93.269 E.05603
G1 X140.766 Y94.236 E.03612
G1 X141.237 Y94.988 E.02615
G1 X142.054 Y96.785 E.05818
G1 X142.512 Y98.545 E.0536
G1 X142.671 Y100.349 E.05338
G1 X142.821 Y114.349 E.41265
G1 X142.744 Y115.641 E.03815
G1 X142.521 Y116.917 E.03818
G1 X142.276 Y117.78 E.02644
G1 X141.409 Y119.75 E.06344
G1 X140.675 Y120.874 E.03957
G1 X140.018 Y121.672 E.03047
G1 X139.333 Y122.37 E.02882
G1 X138.39 Y123.147 E.03601
G1 X136.804 Y124.12 E.05484
G1 X135.27 Y124.742 E.04879
G1 X134.141 Y125.042 E.03443
G1 X132.345 Y125.257 E.05331
G1 X95.131 Y125.257 E1.09681
G1 X93.508 Y125.065 E.04817
G1 X92.409 Y124.792 E.03338
G1 X91.488 Y124.462 E.02883
G1 X90.206 Y123.839 E.04201
G1 X89.238 Y123.221 E.03385
G1 X88.306 Y122.47 E.03528
G1 X87.318 Y121.453 E.04179
G1 X86.76 Y120.741 E.02666
G1 X85.985 Y119.491 E.04335
G1 X85.483 Y118.413 E.03505
G1 X85.05 Y117.087 E.04111
G1 X84.761 Y115.415 E.05001
G1 X84.739 Y99.629 E.46526
G1 X85.061 Y97.651 E.05907
G1 X85.658 Y95.949 E.05316
G1 X86.04 Y95.178 E.02536
G1 X86.862 Y93.897 E.04486
G1 X87.438 Y93.185 E.02699
G1 X88.262 Y92.361 E.03435
; printing object Shape-Box id:0 copy 0
G1 E-1.12 F2400
;WIPE_START
G1 F4800
G1 X89.038 Y91.713 E-.48
;WIPE_END
G1 X116.181 Y111.675 F6000
G1 E1.6 F2400
;TYPE:Perimeter
G1 F1200
G1 X116.088 Y111.746 E.00345
G1 X116.041 Y111.863 E.00372
G1 X114.108 Y111.665 E.05727
G1 X115.089 Y110.815 E.03826
G1 X115.483 Y110.408 E.0167
G1 X115.638 Y110.21 E.00741
G1 X115.657 Y110.63 E.01239
G1 X115.736 Y110.982 E.01063
G1 X116.025 Y111.483 E.01705
G1 X116.143 Y111.628 E.00551
G1 E-1.12 F2400
;WIPE_START
G1 F4800
G1 X116.088 Y111.746 E-.06184
G1 X116.041 Y111.863 E-.05989
G1 X115.291 Y111.786 E-.35827
;WIPE_END
G1 X114.061 Y111.706 F6000
G1 E1.6 F2400
G1 F1200
G1 X113.958 Y112.627 E.02731
G1 X113.878 Y112.708 E.00336
G1 X113.79 Y112.737 E.00273
G1 X113.603 Y112.738 E.00551
G1 X113.524 Y112.712 E.00245
G1 X113.441 Y112.634 E.00336
G1 X113.426 Y112.542 E.00275
G1 X113.499 Y112.334 E.0065
G1 X113.711 Y112.051 E.01042
G1 X114.018 Y111.748 E.01271
G1 E-1.12 F2400
;WIPE_START
G1 F4800
G1 X113.958 Y112.627 E-.4185
G1 X113.878 Y112.708 E-.05408
G1 X113.863 Y112.713 E-.00742
;WIPE_END
G1 X103.26 Y110.732 F6000
G1 E1.6 F2400
G1 F1200
G1 X103.091 Y110.899 E.007
G1 X102.952 Y110.965 E.00454
G1 X102.784 Y110.973 E.00496
G1 X102.635 Y110.94 E.0045
G1 X102.558 Y110.888 E.00274
G1 X102.482 Y110.779 E.00392
G1 X102.441 Y110.602 E.00535
G1 X102.45 Y110.358 E.0072
G1 X102.499 Y110.192 E.0051
G1 X102.574 Y110.08 E.00397
G1 X102.662 Y110.008 E.00335
G1 X102.762 Y109.97 E.00315
G1 X102.885 Y109.968 E.00363
G1 X102.999 Y110.023 E.00373
G1 X103.059 Y110.105 E.00299
G1 X103.242 Y110.675 E.01764
G1 E-1.12 F2400
;WIPE_START
G1 F4800
G1 X103.091 Y110.899 E-.12832
G1 X102.952 Y110.965 E-.07309
G1 X102.784 Y110.973 E-.07989
G1 X102.635 Y110.94 E-.07249
G1 X102.558 Y110.888 E-.04413
G1 X102.482 Y110.779 E-.06312
G1 X102.473 Y110.74 E-.01896
;WIPE_END
G1 X100.416 Y110.8 F6000
G1 E1.6 F2400
G1 F1200
G1 X100.419 Y110.836 E.00106
G1 X100.281 Y110.681 E.00612
G1 X100.406 Y110.69 E.00369
G1 X100.411 Y110.74 E.00148
G1 E-1.12 F2400
;WIPE_START
G1 F4800
G1 X100.419 Y110.836 E-.04576
G1 X100.281 Y110.681 E-.09858
G1 X100.406 Y110.69 E-.05953
G1 X100.411 Y110.74 E-.02387
;WIPE_END
G1 E-.25226 F2400
G1 X101.49 Y112.578 F6000
G1 E1.6 F2400
G1 F1200
G1 X100.823 Y112.576 E.01966
G1 X100.849 Y112.234 E.01011
G1 X100.828 Y111.961 E.00807
G1 X101.064 Y112.25 E.011
G1 X101.437 Y112.55 E.01411
G1 E-1.12 F2400
;WIPE_START
G1 F4800
G1 X100.823 Y112.576 E-.29191
G1 X100.849 Y112.234 E-.16292
G1 X100.845 Y112.181 E-.02517
;WIPE_END
G1 X127.084 Y111.681 F6000
G1 E1.6 F2400
G1 F1200
G1 X126.998 Y111.746 E.00318
G1 X126.866 Y112.076 E.01048
G1 X126.793 Y112.312 E.00728
G1 X126.756 Y112.573 E.00777
G1 X126.722 Y112.315 E.00767
G1 X126.529 Y111.761 E.01729
G1 X126.431 Y111.686 E.00364
G1 X126.459 Y111.676 E.00088
G1 X126.65 Y111.399 E.00992
G1 X126.762 Y111.187 E.00707
G1 X127.05 Y111.631 E.0156
G1 E-1.12 F2400
;WIPE_START
G1 F4800
G1 X126.998 Y111.746 E-.05995
G1 X126.866 Y112.076 E-.16882
G1 X126.793 Y112.312 E-.11734
G1 X126.756 Y112.573 E-.12521
G1 X126.754 Y112.555 E-.00868
;WIPE_END
G1 X131.379 Y111.681 F6000
G1 E1.6 F2400
G1 F1200
G1 X131.294 Y111.746 E.00315
G1 X131.161 Y112.076 E.01049
G1 X131.088 Y112.312 E.00728
G1 X131.051 Y112.573 E.00777
G1 X131.018 Y112.315 E.00767
G1 X130.824 Y111.761 E.0173
G1 X130.726 Y111.686 E.00364
G1 X130.755 Y111.676 E.0009
G1 X130.946 Y111.399 E.00992
G1 X131.057 Y111.187 E.00705
G1 X131.346 Y111.631 E.01561
G1 E-1.12 F2400
;WIPE_START
G1 F4800
G1 X131.294 Y111.746 E-.05995
G1 X131.161 Y112.076 E-.169
G1 X131.088 Y112.312 E-.11734
G1 X131.051 Y112.573 E-.12521
G1 X131.049 Y112.555 E-.0085
;WIPE_END
G1 X119.818 Y111.687 F6000
G1 E1.6 F2400
G1 F1200
G1 X119.914 Y111.761 E.00357
G1 X120.108 Y112.315 E.0173
G1 X120.148 Y112.625 E.00921
G1 X120.115 Y113.035 E.01212
G1 X120.004 Y113.405 E.01139
G1 X119.901 Y113.614 E.00687
G1 X119.679 Y113.928 E.01133
G1 X119.391 Y114.199 E.01166
G1 X119.195 Y114.334 E.00701
G1 X118.846 Y114.5 E.01139
G1 X118.619 Y114.568 E.00698
G1 X118.219 Y114.632 E.01194
G1 X117.799 Y114.631 E.01238
G1 X117.563 Y114.604 E.007
G1 X117.181 Y114.506 E.01162
G1 X116.974 Y114.419 E.00662
G1 X116.776 Y114.31 E.00666
G1 X116.459 Y114.064 E.01183
G1 X116.202 Y113.77 E.01151
G1 X116.078 Y113.574 E.00684
G1 X115.923 Y113.216 E.0115
G1 X115.902 Y113.098 E.00353
G1 X115.803 Y113.385 E.00895
G1 X115.69 Y113.605 E.00729
G1 X115.442 Y113.941 E.01231
G1 X115.13 Y114.215 E.01224
G1 X114.923 Y114.345 E.0072
G1 X114.544 Y114.511 E.01219
G1 X114.122 Y114.609 E.01277
G1 X113.687 Y114.638 E.01285
G1 X113.436 Y114.63 E.0074
G1 X113.004 Y114.563 E.01288
G1 X112.588 Y114.417 E.01299
G1 X112.212 Y114.19 E.01294
G1 X111.898 Y113.892 E.01276
G1 X111.665 Y113.562 E.01191
G1 X111.559 Y113.346 E.00709
G1 X111.442 Y112.96 E.01189
G1 X111.404 Y112.551 E.01211
G1 X111.416 Y112.317 E.00691
G1 X111.453 Y112.083 E.00698
G1 X111.583 Y111.669 E.01279
G1 X111.812 Y111.253 E.014
G1 X112.207 Y110.766 E.01848
G1 X112.695 Y110.301 E.01987
G1 X112.94 Y110.11 E.00916
G1 X111.399 Y110.139 E.04543
G1 X111.399 Y108.16 E.05833
G1 X116.166 Y108.16 E.1405
G1 X116.126 Y108.912 E.0222
G1 X116.303 Y108.705 E.00803
G1 X116.663 Y108.425 E.01344
G1 X117.075 Y108.224 E.01351
G1 X117.512 Y108.111 E.0133
G1 X117.788 Y108.08 E.00819
G1 X118.233 Y108.081 E.01312
G1 X118.691 Y108.156 E.01368
G1 X119.123 Y108.314 E.01356
G1 X119.511 Y108.556 E.01348
G1 X119.841 Y108.873 E.01349
G1 X120.094 Y109.241 E.01316
G1 X120.265 Y109.652 E.01312
G1 X120.347 Y110.09 E.01313
G1 X120.348 Y110.488 E.01173
G1 X120.301 Y110.803 E.00939
G1 X120.246 Y111.018 E.00654
G1 X120.033 Y111.405 E.01302
G1 X119.863 Y111.651 E.00881
G1 E-1.12 F2400
;WIPE_START
G1 F4800
G1 X119.914 Y111.761 E-.05759
G1 X120.108 Y112.315 E-.27882
G1 X120.147 Y112.615 E-.14359
;WIPE_END
G1 X115.768 Y108.538 F6000
G1 E1.6 F2400
;TYPE:External perimeter
G1 F1200
G1 X115.738 Y109.119 E.01715
G1 X115.665 Y109.386 E.00816
G1 X115.576 Y109.592 E.00661
G1 X115.348 Y109.968 E.01296
G1 X115.198 Y110.16 E.00718
G1 X114.83 Y110.541 E.01561
G1 X113.809 Y111.424 E.03978
G1 X113.433 Y111.795 E.01557
G1 X113.275 Y111.985 E.00728
G1 X113.169 Y112.15 E.00578
G1 X113.097 Y112.3 E.0049
G1 X113.046 Y112.549 E.00749
G1 X113.071 Y112.729 E.00536
G1 X113.11 Y112.819 E.00289
G1 X113.171 Y112.905 E.00311
G1 X113.314 Y113.029 E.00558
G1 X113.54 Y113.111 E.00709
G1 X113.853 Y113.111 E.00923
G1 X113.987 Y113.075 E.00409
G1 X114.092 Y113.023 E.00345
G1 X114.235 Y112.894 E.00568
G1 X114.298 Y112.794 E.00348
G1 X114.343 Y112.672 E.00383
G1 X114.403 Y112.074 E.01771
G1 X115.681 Y112.205 E.03786
G1 X115.573 Y112.893 E.02053
G1 X115.455 Y113.237 E.01072
G1 X115.368 Y113.405 E.00558
G1 X115.163 Y113.685 E.01023
G1 X114.904 Y113.912 E.01015
G1 X114.746 Y114.011 E.0055
G1 X114.425 Y114.152 E.01033
G1 X114.066 Y114.234 E.01085
G1 X113.681 Y114.261 E.01137
G1 X113.472 Y114.254 E.00616
G1 X113.096 Y114.195 E.01122
G1 X112.749 Y114.074 E.01083
G1 X112.442 Y113.888 E.01058
G1 X112.184 Y113.644 E.01047
G1 X111.991 Y113.369 E.0099
G1 X111.911 Y113.207 E.00533
G1 X111.814 Y112.887 E.00986
G1 X111.782 Y112.544 E.01015
G1 X111.821 Y112.169 E.01111
G1 X111.931 Y111.818 E.01084
G1 X112.126 Y111.464 E.01191
G1 X112.484 Y111.023 E.01674
G1 X112.942 Y110.587 E.01864
G1 X113.436 Y110.202 E.01846
G1 X113.726 Y110.037 E.00983
G1 X114.133 Y109.661 E.01633
G1 X113.595 Y109.657 E.01586
G1 X113.103 Y109.723 E.01463
G1 X112.591 Y109.752 E.01511
G1 X111.776 Y109.759 E.02402
G1 X111.776 Y108.538 E.03599
G1 X115.708 Y108.538 E.11589
G1 X116.167 Y108.512 F6000
G1 E-1.12 F2400
;WIPE_START
G1 F4800
G1 X115.738 Y109.119 E-.27634
G1 X115.665 Y109.386 E-.13148
G1 X115.605 Y109.525 E-.07218
;WIPE_END
G1 X119.187 Y111.627 F6000
G1 E1.6 F2400
G1 F1200
G1 X119.318 Y111.735 E.005
G1 X119.422 Y111.857 E.00472
G1 X119.595 Y111.991 E.00645
G1 X119.739 Y112.403 E.01286
G1 X119.769 Y112.634 E.00687
G1 X119.742 Y112.964 E.00976
G1 X119.652 Y113.267 E.00932
G1 X119.576 Y113.421 E.00506
G1 X119.393 Y113.68 E.00935
G1 X119.154 Y113.905 E.00967
G1 X119.006 Y114.006 E.00528
G1 X118.71 Y114.147 E.00966
G1 X118.535 Y114.2 E.00539
G1 X118.189 Y114.255 E.01033
G1 X117.821 Y114.254 E.01085
G1 X117.633 Y114.232 E.00558
G1 X117.302 Y114.147 E.01007
G1 X117.138 Y114.079 E.00523
G1 X116.983 Y113.994 E.00521
G1 X116.719 Y113.789 E.00985
G1 X116.505 Y113.543 E.00961
G1 X116.412 Y113.398 E.00508
G1 X116.286 Y113.106 E.00937
G1 X116.228 Y112.791 E.00944
G1 X116.222 Y112.611 E.00531
G1 X116.252 Y112.394 E.00646
G1 X116.4 Y111.983 E.01287
G1 X116.568 Y111.853 E.00626
G1 X116.669 Y111.734 E.0046
G1 X116.811 Y111.615 E.00546
G1 X116.601 Y111.459 E.00771
G1 X116.459 Y111.419 E.00435
G1 X116.337 Y111.269 E.0057
G1 X116.092 Y110.844 E.01446
G1 X116.031 Y110.573 E.00819
G1 X116.008 Y110.3 E.00807
G1 X116.042 Y109.928 E.01101
G1 X116.147 Y109.58 E.01071
G1 X116.323 Y109.262 E.01071
G1 X116.565 Y108.98 E.01095
G1 X116.864 Y108.746 E.01119
G1 X117.206 Y108.58 E.0112
G1 X117.581 Y108.483 E.01142
G1 X117.808 Y108.457 E.00673
G1 X118.202 Y108.458 E.01161
G1 X118.595 Y108.522 E.01174
G1 X118.956 Y108.654 E.01133
G1 X119.278 Y108.855 E.01119
G1 X119.552 Y109.118 E.01119
G1 X119.761 Y109.422 E.01087
G1 X119.901 Y109.76 E.01078
G1 X119.97 Y110.125 E.01095
G1 X119.971 Y110.46 E.00987
G1 X119.893 Y110.878 E.01253
G1 X119.712 Y111.206 E.01104
G1 X119.604 Y111.362 E.00559
G1 X119.457 Y111.413 E.00459
G1 X119.239 Y111.596 E.00839
G1 X119.351 Y111.672 F6000
G1 E-1.12 F2400
;WIPE_START
G1 F4800
G1 X119.318 Y111.735 E-.07594
G1 X119.422 Y111.857 E-.07615
G1 X119.595 Y111.991 E-.10394
G1 X119.739 Y112.403 E-.20731
G1 X119.744 Y112.438 E-.01666
;WIPE_END
G1 X120.89 Y99.639 F6000
G1 E1.6 F2400
;TYPE:Perimeter
G1 F1200
G1 X122.068 Y99.639 E.03472
G1 X123.197 Y101.394 E.0615
G1 X123.454 Y101.733 E.01254
G1 X123.61 Y101.868 E.00608
G1 X123.665 Y101.884 E.00169
G1 X123.966 Y101.888 E.00887
G1 X123.966 Y99.639 E.06628
G1 X126.013 Y99.639 E.06033
G1 X126.013 Y106.096 E.19031
G1 X123.054 Y106.096 E.08721
G1 X122.383 Y106.056 E.01981
G1 X121.924 Y105.96 E.01382
G1 X121.53 Y105.789 E.01266
G1 X121.274 Y105.607 E.00926
G1 X121.062 Y105.393 E.00888
G1 X120.887 Y105.148 E.00887
G1 X120.75 Y104.884 E.00877
G1 X120.651 Y104.606 E.0087
G1 X120.591 Y104.305 E.00905
G1 X120.581 Y103.847 E.0135
G1 X120.611 Y103.622 E.00669
G1 X120.718 Y103.258 E.01118
G1 X120.911 Y102.921 E.01145
G1 X121.169 Y102.625 E.01157
G1 X121.41 Y102.455 E.00869
G1 X121.497 Y102.427 E.00269
G1 X121.406 Y102.352 E.00348
G1 X121.205 Y102.108 E.00932
