; generated by PrusaSlicer 2.6.0+win64 on 2023-07-04 at 12:41:10 UTC

; 

; external perimeters extrusion width = 0.42mm
; perimeters extrusion width = 0.44mm
; infill extrusion width = 0.44mm
; solid infill extrusion width = 0.44mm
; top infill extrusion width = 0.40mm
; first layer extrusion width = 0.42mm

; external perimeters extrusion width = 0.42mm
; perimeters extrusion width = 0.44mm
; infill extrusion width = 0.44mm
; solid infill extrusion width = 0.44mm
; top infill extrusion width = 0.40mm
; first layer extrusion width = 0.42mm

; external perimeters extrusion width = 0.42mm
; perimeters extrusion width = 0.44mm
; infill extrusion width = 0.44mm
; solid infill extrusion width = 0.44mm
; top infill extrusion width = 0.40mm
; first layer extrusion width = 0.42mm

; external perimeters extrusion width = 0.42mm
; perimeters extrusion width = 0.44mm
; infill extrusion width = 0.44mm
; solid infill extrusion width = 0.44mm
; top infill extrusion width = 0.40mm
; first layer extrusion width = 0.42mm

; external perimeters extrusion width = 0.42mm
; perimeters extrusion width = 0.44mm
; infill extrusion width = 0.44mm
; solid infill extrusion width = 0.44mm
; top infill extrusion width = 0.40mm
; first layer extrusion width = 0.42mm

; external perimeters extrusion width = 0.42mm
; perimeters extrusion width = 0.44mm
; infill extrusion width = 0.44mm
; solid infill extrusion width = 0.44mm
; top infill extrusion width = 0.40mm
; first layer extrusion width = 0.42mm

; external perimeters extrusion width = 0.42mm
; perimeters extrusion width = 0.44mm
; infill extrusion width = 0.44mm
; solid infill extrusion width = 0.44mm
; top infill extrusion width = 0.40mm
; first layer extrusion width = 0.42mm

; external perimeters extrusion width = 0.42mm
; perimeters extrusion width = 0.44mm
; infill extrusion width = 0.44mm
; solid infill extrusion width = 0.44mm
; top infill extrusion width = 0.40mm
; first layer extrusion width = 0.42mm

; external perimeters extrusion width = 0.42mm
; perimeters extrusion width = 0.44mm
; infill extrusion width = 0.44mm
; solid infill extrusion width = 0.44mm
; top infill extrusion width = 0.40mm
; first layer extrusion width = 0.42mm

; external perimeters extrusion width = 0.42mm
; perimeters extrusion width = 0.44mm
; infill extrusion width = 0.44mm
; solid infill extrusion width = 0.44mm
; top infill extrusion width = 0.40mm
; first layer extrusion width = 0.42mm

; external perimeters extrusion width = 0.42mm
; perimeters extrusion width = 0.44mm
; infill extrusion width = 0.44mm
; solid infill extrusion width = 0.44mm
; top infill extrusion width = 0.40mm
; first layer extrusion width = 0.42mm

; external perimeters extrusion width = 0.42mm
; perimeters extrusion width = 0.44mm
; infill extrusion width = 0.44mm
; solid infill extrusion width = 0.44mm
; top infill extrusion width = 0.40mm
; first layer extrusion width = 0.42mm

; external perimeters extrusion width = 0.42mm
; perimeters extrusion width = 0.44mm
; infill extrusion width = 0.44mm
; solid infill extrusion width = 0.44mm
; top infill extrusion width = 0.40mm
; first layer extrusion width = 0.42mm

;TYPE:Custom
; Ender 3 Custom Start G-code
G92 E0 ; Reset Extruder

M140 S50 ; set bed temp
M190 S50 ; wait for bed temp

G28 ; Home all axes
M104 S205 ; set extruder temp 
BED_MESH_CALIBRATE AREA_START=83.7985,88.597 AREA_END=143.733,126.177

G1 Z2.0 F3000 ; Move Z Axis up little to prevent scratching of Heat Bed
M109 S205 ; wait for extruder temp
G1 X0.1 Y20 Z0.3 F5000.0 ; Move to start position

G1 X0.1 Y200.0 Z0.3 F1500.0 E15 ; Draw the first line
G1 X0.4 Y200.0 Z0.3 F5000.0 ; Move to side a little
G1 X0.4 Y20 Z0.3 F1500.0 E30 ; Draw the second line
G92 E0 ; Reset Extruder
G1 Z2.0 F3000 ; Move Z Axis up little to prevent scratching of Heat Bed
G1 X5 Y20 Z0.3 F5000.0 ; Move over to prevent blob squish
G21 ; set units to millimeters
G90 ; use absolute coordinates
M83 ; use relative distances for extrusion
; Filament gcode
M107
;LAYER_CHANGE
;Z:0.24
;HEIGHT:0.24
;BEFORE_LAYER_CHANGE
G92 E0
;0.24


G1 E-1.6 F2400
G1 Z.24 F6000
;AFTER_LAYER_CHANGE
;0.24
G1 X87.872 Y91.722
G1 E1.6 F2400
M204 S500
;TYPE:Skirt/Brim
;WIDTH:0.42
G1 F1200
G1 X88.738 Y91.019 E.04511
G1 X89.683 Y90.397 E.04576
G1 X91.333 Y89.588 E.07432
G1 X93.103 Y89.052 E.0748
G1 X94.725 Y88.815 E.0663
G1 X131.691 Y88.781 E1.49511
G1 X132.881 Y88.831 E.04817
G1 X133.838 Y88.964 E.03908
G1 X135.863 Y89.519 E.08492
G1 X137.685 Y90.386 E.08161
G1 X139.123 Y91.395 E.07105
G1 X140.576 Y92.806 E.08192
G1 X141.354 Y93.806 E.05124
G1 X141.869 Y94.627 E.0392
G1 X142.749 Y96.568 E.0862
G1 X143.227 Y98.404 E.07673
G1 X143.399 Y100.341 E.07865
G1 X143.549 Y114.341 E.56627
G1 X143.478 Y115.665 E.05363
G1 X143.271 Y116.882 E.04993
G1 X142.652 Y118.854 E.0836
G1 X141.669 Y120.718 E.08523
G1 X140.448 Y122.279 E.08016
G1 X139.671 Y123.044 E.0441
G1 X138.8 Y123.75 E.04535
G1 X137.164 Y124.754 E.07764
G1 X136.054 Y125.24 E.04901
G1 X134.374 Y125.739 E.07088
G1 X132.522 Y125.977 E.07552
G1 X95.08 Y125.984 E1.51436
G1 X93.396 Y125.784 E.06859
G1 X92.207 Y125.492 E.04952
G1 X91.195 Y125.129 E.04348
G1 X89.867 Y124.484 E.05971
G1 X88.83 Y123.825 E.04969
G1 X87.943 Y123.122 E.04578
G1 X86.78 Y121.943 E.06698
G1 X86.176 Y121.176 E.03949
G1 X85.352 Y119.852 E.06307
G1 X84.796 Y118.656 E.05334
G1 X84.344 Y117.268 E.05904
G1 X84.038 Y115.503 E.07245
G1 X83.983 Y114.503 E.04051
G1 X84.012 Y99.578 E.60365
G1 X84.363 Y97.44 E.08763
G1 X84.98 Y95.683 E.07532
G1 X85.393 Y94.842 E.03789
G1 X86.264 Y93.481 E.06535
G1 X86.893 Y92.702 E.0405
G1 X87.83 Y91.764 E.05362
G1 X88.09 Y92.025 F6000
G1 F1200
G1 X88.959 Y91.313 E.04544
G1 X89.859 Y90.72 E.04359
G1 X91.463 Y89.932 E.07228
G1 X93.134 Y89.421 E.07067
G1 X94.743 Y89.183 E.06578
G1 X131.691 Y89.15 E1.49438
G1 X133.763 Y89.324 E.0841
G1 X135.743 Y89.867 E.08304
G1 X137.498 Y90.704 E.07864
G1 X138.853 Y91.649 E.06682
G1 X140.292 Y93.041 E.08098
G1 X141.058 Y94.026 E.05047
G1 X141.549 Y94.809 E.03738
G1 X142.398 Y96.678 E.08303
G1 X142.865 Y98.474 E.07506
G1 X143.031 Y100.345 E.07597
G1 X143.181 Y114.345 E.56627
G1 X143.099 Y115.705 E.05511
G1 X142.871 Y116.999 E.05314
G1 X142.622 Y117.877 E.03691
G1 X142.315 Y118.705 E.03572
G1 X141.722 Y119.927 E.05494
G1 X140.968 Y121.082 E.05579
G1 X140.286 Y121.911 E.04342
G1 X139.582 Y122.631 E.04073
G1 X138.592 Y123.445 E.05184
G1 X136.973 Y124.438 E.07682
G1 X135.389 Y125.082 E.06916
G1 X134.199 Y125.397 E.04979
G1 X132.355 Y125.617 E.07511
G1 X95.106 Y125.616 E1.50655
G1 X93.453 Y125.42 E.06732
G1 X92.311 Y125.138 E.04758
G1 X91.343 Y124.791 E.04159
G1 X90.039 Y124.158 E.05863
G1 X89.027 Y123.513 E.04854
G1 X88.059 Y122.731 E.05033
G1 X87.052 Y121.695 E.05843
G1 X86.465 Y120.946 E.03849
G1 X85.673 Y119.671 E.06071
G1 X85.144 Y118.533 E.05076
G1 X84.701 Y117.176 E.05774
G1 X84.404 Y115.458 E.07052
G1 X84.351 Y114.503 E.03868
G1 X84.38 Y99.603 E.60264
G1 X84.716 Y97.547 E.08426
G1 X85.322 Y95.818 E.0741
G1 X85.721 Y95.012 E.03637
G1 X86.566 Y93.693 E.06336
G1 X87.168 Y92.947 E.03877
G1 X88.047 Y92.067 E.05031
G1 X88.308 Y92.327 F6000
G1 F1200
G1 X89.165 Y91.618 E.04499
G1 X90.739 Y90.663 E.07446
G1 X92.341 Y90.015 E.06989
G1 X93.939 Y89.643 E.06636
G1 X95.374 Y89.521 E.05825
G1 X131.691 Y89.518 E1.46886
G1 X133.688 Y89.685 E.08105
G1 X135.623 Y90.216 E.08116
G1 X137.311 Y91.022 E.07566
G1 X138.616 Y91.931 E.06432
G1 X140.008 Y93.275 E.07826
G1 X140.761 Y94.244 E.04963
G1 X141.228 Y94.991 E.03563
G1 X142.046 Y96.788 E.07986
G1 X142.503 Y98.544 E.07339
G1 X142.662 Y100.349 E.07329
G1 X142.812 Y114.349 E.56627
G1 X142.735 Y115.643 E.05243
G1 X142.513 Y116.913 E.05214
G1 X142.256 Y117.817 E.03801
G1 X141.401 Y119.747 E.08538
G1 X140.667 Y120.87 E.05426
G1 X140.01 Y121.667 E.04178
G1 X139.326 Y122.365 E.03953
G1 X138.385 Y123.141 E.04933
G1 X136.8 Y124.113 E.0752
G1 X135.267 Y124.734 E.0669
G1 X134.138 Y125.034 E.04725
G1 X132.346 Y125.248 E.07299
G1 X95.132 Y125.249 E1.50514
G1 X93.51 Y125.056 E.06607
G1 X92.414 Y124.784 E.04567
G1 X91.491 Y124.454 E.03965
G1 X90.211 Y123.832 E.05756
G1 X89.241 Y123.213 E.04654
G1 X88.312 Y122.464 E.04826
G1 X87.325 Y121.447 E.05732
G1 X86.766 Y120.734 E.03664
G1 X85.994 Y119.489 E.05925
G1 X85.491 Y118.41 E.04815
G1 X85.057 Y117.083 E.05647
G1 X84.77 Y115.414 E.06849
G1 X84.748 Y99.628 E.63847
G1 X85.069 Y97.652 E.08097
G1 X85.665 Y95.953 E.07282
G1 X86.048 Y95.181 E.03486
G1 X86.868 Y93.904 E.06138
G1 X87.443 Y93.192 E.03702
G1 X88.265 Y92.37 E.04702
; printing object Shape-Box10 id:11 copy 0
G1 E-1.12 F2400
;WIPE_START
G1 F4800
G1 X89.04 Y91.722 E-.48
;WIPE_END
G1 X94.309 Y113.278 F6000
G1 E1.6 F2400
;TYPE:External perimeter
G1 F1200
G1 X94.389 Y113.278 E.00324
G1 X94.389 Y113.858 E.02346
G1 X94.309 Y113.858 E.00324
G1 X94.309 Y113.338 E.02103
G1 X94.38 Y113.315 F6000
; stop printing object Shape-Box10 id:11 copy 0
; printing object Shape-Box9 id:9 copy 0
G1 E-1.12 F2400
;WIPE_START
G1 F4800
G1 X94.389 Y113.278 E-.0475
G1 X94.389 Y113.858 E-.2755
G1 X94.309 Y113.858 E-.038
G1 X94.309 Y113.607 E-.119
;WIPE_END
G1 X98.485 Y113.204 F6000
G1 E1.6 F2400
G1 F1200
G1 X98.565 Y113.204 E.00324
G1 X98.565 Y113.784 E.02346
G1 X98.485 Y113.784 E.00324
G1 X98.485 Y113.264 E.02103
G1 X98.556 Y113.241 F6000
; stop printing object Shape-Box9 id:9 copy 0
; printing object Shape-Box10 id:10 copy 0
G1 E-1.12 F2400
;WIPE_START
G1 F4800
G1 X98.565 Y113.204 E-.0475
G1 X98.565 Y113.784 E-.2755
G1 X98.485 Y113.784 E-.038
G1 X98.485 Y113.533 E-.119
;WIPE_END
G1 X98.42 Y109.402 F6000
G1 E1.6 F2400
G1 F1200
G1 X98.34 Y109.402 E.00324
G1 X98.34 Y108.822 E.02346
G1 X98.42 Y108.822 E.00324
G1 X98.42 Y109.342 E.02103
G1 X98.349 Y109.366 F6000
; stop printing object Shape-Box10 id:10 copy 0
; printing object Shape-Box10 id:12 copy 0
G1 E-1.12 F2400
;WIPE_START
G1 F4800
G1 X98.34 Y109.402 E-.0475
G1 X98.34 Y108.822 E-.2755
G1 X98.42 Y108.822 E-.038
G1 X98.42 Y109.073 E-.119
;WIPE_END
G1 X94.192 Y109.219 F6000
G1 E1.6 F2400
G1 F1200
G1 X94.112 Y109.219 E.00324
G1 X94.112 Y108.639 E.02346
G1 X94.192 Y108.639 E.00324
G1 X94.192 Y109.159 E.02103
G1 X94.121 Y109.182 F6000
; stop printing object Shape-Box10 id:12 copy 0
; printing object Shape-Box6 id:6 copy 0
G1 E-1.12 F2400
;WIPE_START
G1 F4800
G1 X94.112 Y109.219 E-.0475
G1 X94.112 Y108.639 E-.2755
G1 X94.192 Y108.639 E-.038
G1 X94.192 Y108.89 E-.119
;WIPE_END
G1 X109.382 Y100.861 F6000
G1 E1.6 F2400
G1 F1200
G1 X109.382 Y100.281 E.02346
G1 X109.462 Y100.281 E.00324
G1 X109.462 Y100.861 E.02346
G1 X109.442 Y100.861 E.00081
G1 X109.4 Y100.461 F6000
; stop printing object Shape-Box6 id:6 copy 0
; printing object Shape-Box5 id:5 copy 0
G1 E-1.12 F2400
;WIPE_START
G1 F4800
G1 X109.382 Y100.281 E-.27697
G1 X109.462 Y100.281 E-.038
G1 X109.462 Y100.628 E-.16503
;WIPE_END
G1 X109.466 Y104.82 F6000
G1 E1.6 F2400
G1 F1200
G1 X109.466 Y105.4 E.02346
G1 X109.386 Y105.4 E.00324
G1 X109.386 Y104.82 E.02346
G1 X109.406 Y104.82 E.00081
G1 X109.448 Y105.219 F6000
; stop printing object Shape-Box5 id:5 copy 0
; printing object Shape-Box id:0 copy 0
G1 E-1.12 F2400
;WIPE_START
G1 F4800
G1 X109.466 Y105.4 E-.27697
G1 X109.386 Y105.4 E-.038
G1 X109.386 Y105.053 E-.16503
;WIPE_END
G1 X113.884 Y109.964 F6000
G1 E1.6 F2400
;TYPE:Perimeter
G1 F1200
G1 X113.764 Y109.969 E.00486
G1 X113.824 Y109.956 E.00248
G1 E-1.12 F2400
;WIPE_START
G1 F4800
G1 X113.764 Y109.969 E-.02916
G1 X113.824 Y109.956 E-.02916
;WIPE_END
G1 E-.42168 F2400
G1 X115.721 Y110.689 F6000
G1 E1.6 F2400
G1 F1200
G1 X115.699 Y110.923 E.00951
G1 X115.488 Y110.674 E.0132
G1 X115.661 Y110.685 E.00701
G1 E-1.12 F2400
;WIPE_START
G1 F4800
G1 X115.699 Y110.923 E-.11448
G1 X115.488 Y110.674 E-.15503
G1 X115.661 Y110.685 E-.08234
;WIPE_END
G1 E-.12815 F2400
G1 X109.801 Y110.444 F6000
G1 E1.6 F2400
G1 F1200
G1 X109.834 Y110.566 E.00511
G1 X109.524 Y110.633 E.01283
G1 X109.37 Y110.639 E.00623
G1 X109.272 Y110.617 E.00406
G1 X109.149 Y110.516 E.00644
G1 X109.112 Y110.436 E.00356
G1 X109.103 Y110.303 E.00539
G1 X109.131 Y110.18 E.0051
G1 X109.238 Y110.033 E.00735
G1 X109.398 Y109.963 E.00706
G1 X109.53 Y109.962 E.00534
G1 X109.608 Y109.99 E.00335
G1 X109.654 Y110.031 E.00249
G1 X109.725 Y110.167 E.00621
G1 X109.785 Y110.386 E.00918
G1 X110.787 Y110.915 F6000
G1 F1200
G1 X111.393 Y110.834 E.02473
G1 X111.363 Y111.495 E.02676
G1 X111.388 Y112.009 E.02081
G1 X110.448 Y111.864 E.03847
G1 X110.573 Y110.944 E.03755
G1 X110.727 Y110.923 E.00629
G1 X109.72 Y112.474 F6000
G1 F1200
G1 X109.671 Y112.638 E.00692
G1 X109.584 Y112.739 E.00539
G1 X109.421 Y112.754 E.00662
G1 X109.343 Y112.71 E.00362
G1 X109.348 Y112.575 E.00546
G1 X109.412 Y112.536 E.00303
G1 X109.66 Y112.476 E.01032
G1 E-1.12 F2400
;WIPE_START
G1 F4800
G1 X109.671 Y112.638 E-.07713
G1 X109.584 Y112.739 E-.06332
G1 X109.421 Y112.754 E-.07775
G1 X109.343 Y112.71 E-.04254
G1 X109.348 Y112.575 E-.06417
G1 X109.412 Y112.536 E-.0356
G1 X109.657 Y112.477 E-.11949
;WIPE_END
G1 X103.111 Y102.388 F6000
G1 E1.6 F2400
G1 F1200
G1 X102.972 Y102.453 E.00621
G1 X102.802 Y102.462 E.00689
G1 X102.609 Y102.406 E.00813
G1 X102.494 Y102.264 E.00739
G1 X102.452 Y102.083 E.00752
G1 X102.461 Y101.837 E.00996
G1 X102.51 Y101.669 E.00708
G1 X102.586 Y101.554 E.00558
G1 X102.676 Y101.481 E.00469
G1 X102.779 Y101.442 E.00445
G1 X102.905 Y101.44 E.0051
G1 X103.024 Y101.497 E.00534
G1 X103.083 Y101.578 E.00405
G1 X103.282 Y102.216 E.02703
G1 X103.153 Y102.345 E.00738
G1 E-1.12 F2400
;WIPE_START
G1 F4800
G1 X102.972 Y102.453 E-.10012
G1 X102.802 Y102.462 E-.08086
G1 X102.609 Y102.406 E-.09546
G1 X102.494 Y102.264 E-.0868
G1 X102.452 Y102.083 E-.08826
G1 X102.454 Y102.023 E-.0285
;WIPE_END
G1 X94.383 Y101.443 F6000
G1 E1.6 F2400
G1 F1200
G1 X94.263 Y101.447 E.00486
G1 X94.323 Y101.435 E.00247
G1 E-1.12 F2400
;WIPE_START
G1 F4800
G1 X94.263 Y101.447 E-.02906
G1 X94.323 Y101.435 E-.02906
;WIPE_END
G1 E-.42188 F2400
G1 X131.948 Y112.588 F6000
G1 E1.6 F2400
G1 F1200
G1 X131.157 Y112.586 E.03199
G1 X131.188 Y112.461 E.00521
G1 X131.244 Y111.934 E.02143
G1 X131.479 Y112.225 E.01513
G1 X131.667 Y112.398 E.01033
G1 X131.899 Y112.555 E.01133
G1 E-1.12 F2400
;WIPE_START
G1 F4800
G1 X131.157 Y112.586 E-.35276
G1 X131.188 Y112.461 E-.06117
G1 X131.203 Y112.323 E-.06607
;WIPE_END
G1 X133.693 Y110.737 F6000
G1 E1.6 F2400
G1 F1200
G1 X133.521 Y110.909 E.00984
G1 X133.383 Y110.975 E.00619
G1 X133.213 Y110.984 E.00689
G1 X133.062 Y110.95 E.00626
G1 X132.982 Y110.896 E.0039
G1 X132.904 Y110.785 E.00549
G1 X132.862 Y110.605 E.00748
G1 X132.872 Y110.359 E.00996
G1 X132.921 Y110.191 E.00708
G1 X132.997 Y110.076 E.00558
G1 X133.087 Y110.002 E.00471
G1 X133.189 Y109.963 E.00442
G1 X133.316 Y109.962 E.00514
G1 X133.435 Y110.018 E.00532
G1 X133.494 Y110.1 E.00409
G1 X133.675 Y110.68 E.02457
G1 E-1.12 F2400
;WIPE_START
G1 F4800
G1 X133.521 Y110.909 E-.13108
G1 X133.383 Y110.975 E-.07266
G1 X133.213 Y110.984 E-.08086
G1 X133.062 Y110.95 E-.07352
G1 X132.982 Y110.896 E-.04585
G1 X132.904 Y110.785 E-.06444
G1 X132.898 Y110.761 E-.01159
;WIPE_END
G1 X133.521 Y102.388 F6000
G1 E1.6 F2400
G1 F1200
G1 X133.383 Y102.453 E.00617
G1 X133.213 Y102.462 E.00689
G1 X133.02 Y102.406 E.00813
G1 X132.904 Y102.264 E.00742
G1 X132.862 Y102.083 E.00752
G1 X132.872 Y101.837 E.00996
G1 X132.921 Y101.669 E.00708
G1 X132.997 Y101.554 E.00558
G1 X133.087 Y101.481 E.00469
G1 X133.189 Y101.442 E.00442
G1 X133.316 Y101.44 E.00514
G1 X133.435 Y101.497 E.00534
G1 X133.494 Y101.578 E.00405
G1 X133.693 Y102.216 E.02703
G1 X133.564 Y102.345 E.00738
G1 E-1.12 F2400
;WIPE_START
G1 F4800
G1 X133.383 Y102.453 E-.10012
G1 X133.213 Y102.462 E-.08086
G1 X133.02 Y102.406 E-.09546
G1 X132.904 Y102.264 E-.08709
G1 X132.862 Y102.083 E-.08826
G1 X132.864 Y102.024 E-.02821
;WIPE_END
G1 X131.948 Y104.067 F6000
G1 E1.6 F2400
G1 F1200
G1 X131.157 Y104.065 E.03199
G1 X131.188 Y103.939 E.00525
G1 X131.244 Y103.413 E.02139
G1 X131.479 Y103.704 E.01513
G1 X131.667 Y103.876 E.01031
G1 X131.899 Y104.033 E.01133
G1 E-1.12 F2400
;WIPE_START
G1 F4800
G1 X131.157 Y104.065 E-.35278
G1 X131.188 Y103.939 E-.06163
G1 X131.203 Y103.802 E-.06559
;WIPE_END
