; generated by PrusaSlicer 2.6.0+win64 on 2023-07-04 at 10:42:48 UTC

; 

; external perimeters extrusion width = 0.42mm
; perimeters extrusion width = 0.44mm
; infill extrusion width = 0.44mm
; solid infill extrusion width = 0.44mm
; top infill extrusion width = 0.40mm
; support material extrusion width = 0.36mm
; first layer extrusion width = 0.42mm

; external perimeters extrusion width = 0.42mm
; perimeters extrusion width = 0.44mm
; infill extrusion width = 0.44mm
; solid infill extrusion width = 0.44mm
; top infill extrusion width = 0.40mm
; support material extrusion width = 0.36mm
; first layer extrusion width = 0.42mm

; external perimeters extrusion width = 0.42mm
; perimeters extrusion width = 0.44mm
; infill extrusion width = 0.44mm
; solid infill extrusion width = 0.44mm
; top infill extrusion width = 0.40mm
; support material extrusion width = 0.36mm
; first layer extrusion width = 0.42mm

; external perimeters extrusion width = 0.42mm
; perimeters extrusion width = 0.44mm
; infill extrusion width = 0.44mm
; solid infill extrusion width = 0.44mm
; top infill extrusion width = 0.40mm
; support material extrusion width = 0.36mm
; first layer extrusion width = 0.42mm

; external perimeters extrusion width = 0.42mm
; perimeters extrusion width = 0.44mm
; infill extrusion width = 0.44mm
; solid infill extrusion width = 0.44mm
; top infill extrusion width = 0.40mm
; support material extrusion width = 0.36mm
; first layer extrusion width = 0.42mm

; external perimeters extrusion width = 0.42mm
; perimeters extrusion width = 0.44mm
; infill extrusion width = 0.44mm
; solid infill extrusion width = 0.44mm
; top infill extrusion width = 0.40mm
; support material extrusion width = 0.36mm
; first layer extrusion width = 0.42mm

; external perimeters extrusion width = 0.42mm
; perimeters extrusion width = 0.44mm
; infill extrusion width = 0.44mm
; solid infill extrusion width = 0.44mm
; top infill extrusion width = 0.40mm
; support material extrusion width = 0.36mm
; first layer extrusion width = 0.42mm

; external perimeters extrusion width = 0.42mm
; perimeters extrusion width = 0.44mm
; infill extrusion width = 0.44mm
; solid infill extrusion width = 0.44mm
; top infill extrusion width = 0.40mm
; support material extrusion width = 0.36mm
; first layer extrusion width = 0.42mm

; external perimeters extrusion width = 0.42mm
; perimeters extrusion width = 0.44mm
; infill extrusion width = 0.44mm
; solid infill extrusion width = 0.44mm
; top infill extrusion width = 0.40mm
; support material extrusion width = 0.36mm
; first layer extrusion width = 0.42mm

; external perimeters extrusion width = 0.42mm
; perimeters extrusion width = 0.44mm
; infill extrusion width = 0.44mm
; solid infill extrusion width = 0.44mm
; top infill extrusion width = 0.40mm
; support material extrusion width = 0.36mm
; first layer extrusion width = 0.42mm

; external perimeters extrusion width = 0.42mm
; perimeters extrusion width = 0.44mm
; infill extrusion width = 0.44mm
; solid infill extrusion width = 0.44mm
; top infill extrusion width = 0.40mm
; support material extrusion width = 0.36mm
; first layer extrusion width = 0.42mm

; external perimeters extrusion width = 0.42mm
; perimeters extrusion width = 0.44mm
; infill extrusion width = 0.44mm
; solid infill extrusion width = 0.44mm
; top infill extrusion width = 0.40mm
; support material extrusion width = 0.36mm
; first layer extrusion width = 0.42mm

; external perimeters extrusion width = 0.42mm
; perimeters extrusion width = 0.44mm
; infill extrusion width = 0.44mm
; solid infill extrusion width = 0.44mm
; top infill extrusion width = 0.40mm
; support material extrusion width = 0.36mm
; first layer extrusion width = 0.42mm

;TYPE:Custom
; Ender 3 Custom Start G-code
G92 E0 ; Reset Extruder

M140 S50 ; set bed temp
M190 S50 ; wait for bed temp

G28 ; Home all axes
M104 S210 ; set extruder temp 
BED_MESH_CALIBRATE AREA_START=83.7684,88.5669 AREA_END=143.763,126.207

G1 Z2.0 F3000 ; Move Z Axis up little to prevent scratching of Heat Bed
M109 S210 ; wait for extruder temp
G1 X0.1 Y20 Z0.3 F5000.0 ; Move to start position

G1 X0.1 Y200.0 Z0.3 F1500.0 E15 ; Draw the first line
G1 X0.4 Y200.0 Z0.3 F5000.0 ; Move to side a little
G1 X0.4 Y20 Z0.3 F1500.0 E30 ; Draw the second line
G92 E0 ; Reset Extruder
G1 Z2.0 F3000 ; Move Z Axis up little to prevent scratching of Heat Bed
G1 X5 Y20 Z0.3 F5000.0 ; Move over to prevent blob squish
G21 ; set units to millimeters
G90 ; use absolute coordinates
M83 ; use relative distances for extrusion
; Filament gcode
M107
;LAYER_CHANGE
;Z:0.2
;HEIGHT:0.2
;BEFORE_LAYER_CHANGE
G92 E0
;0.2


G1 E-1.6 F2400
G1 Z.2 F6000
;AFTER_LAYER_CHANGE
;0.2
G1 X87.857 Y91.701
G1 E1.6 F2400
M204 S500
;TYPE:Skirt/Brim
;WIDTH:0.42
G1 F1200
G1 X88.725 Y90.996 E.03506
G1 X89.656 Y90.382 E.03497
G1 X91.322 Y89.564 E.05819
G1 X93.099 Y89.026 E.05821
G1 X94.721 Y88.79 E.05139
G1 X131.692 Y88.755 E1.1592
G1 X132.884 Y88.805 E.03741
G1 X133.843 Y88.938 E.03036
G1 X135.87 Y89.494 E.0659
G1 X137.7 Y90.365 E.06355
G1 X139.14 Y91.376 E.05517
G1 X140.583 Y92.775 E.06302
G1 X141.374 Y93.79 E.04035
G1 X141.835 Y94.519 E.02704
G1 X142.681 Y96.304 E.06194
G1 X143.24 Y98.341 E.06623
G1 X143.425 Y100.341 E.06298
G1 X143.575 Y114.341 E.43899
G1 X143.503 Y115.668 E.04167
G1 X143.296 Y116.888 E.0388
G1 X142.676 Y118.864 E.06493
G1 X141.69 Y120.733 E.06626
G1 X140.467 Y122.296 E.06223
G1 X139.688 Y123.064 E.0343
G1 X138.815 Y123.771 E.03522
G1 X137.173 Y124.778 E.06039
G1 X136.08 Y125.257 E.03742
G1 X134.281 Y125.783 E.05877
G1 X132.523 Y126.003 E.05555
G1 X95.078 Y126.009 E1.17406
G1 X93.39 Y125.81 E.05329
G1 X92.295 Y125.542 E.03535
G1 X91.185 Y125.153 E.03688
G1 X89.854 Y124.506 E.0464
G1 X88.8 Y123.835 E.03918
G1 X87.851 Y123.075 E.03812
G1 X86.76 Y121.96 E.04891
G1 X86.154 Y121.19 E.03072
G1 X85.328 Y119.862 E.04904
G1 X84.772 Y118.665 E.04138
G1 X84.319 Y117.276 E.04581
G1 X84.013 Y115.506 E.05632
G1 X83.957 Y114.505 E.03143
G1 X83.987 Y99.578 E.46803
G1 X84.339 Y97.433 E.06815
G1 X84.956 Y95.673 E.05848
G1 X85.359 Y94.854 E.02862
G1 X86.242 Y93.468 E.05153
G1 X86.875 Y92.684 E.03159
G1 X87.814 Y91.744 E.04166
G1 X88.08 Y92.01 F6000
G1 F1200
G1 X88.937 Y91.308 E.03473
G1 X89.836 Y90.714 E.03378
G1 X91.455 Y89.917 E.05658
G1 X92.992 Y89.437 E.05049
G1 X94.74 Y89.166 E.05546
G1 X131.692 Y89.133 E1.1586
G1 X133.767 Y89.308 E.06529
G1 X135.748 Y89.851 E.0644
G1 X137.509 Y90.69 E.06116
G1 X138.893 Y91.661 E.05301
G1 X140.304 Y93.029 E.06162
G1 X141.07 Y94.013 E.0391
G1 X141.565 Y94.802 E.0292
G1 X142.414 Y96.673 E.06442
G1 X142.882 Y98.473 E.05831
G1 X143.048 Y100.345 E.05893
G1 X143.198 Y114.345 E.43899
G1 X143.13 Y115.614 E.03985
G1 X142.924 Y116.824 E.03848
G1 X142.331 Y118.712 E.06205
G1 X141.369 Y120.534 E.0646
G1 X140.198 Y122.031 E.05959
G1 X139.594 Y122.642 E.02694
G1 X138.603 Y123.459 E.04027
G1 X136.981 Y124.453 E.05965
G1 X135.395 Y125.098 E.05368
G1 X134.218 Y125.411 E.03819
G1 X132.355 Y125.634 E.05883
G1 X95.105 Y125.633 E1.16795
G1 X93.449 Y125.437 E.05229
G1 X92.304 Y125.154 E.03698
G1 X91.337 Y124.807 E.03221
G1 X90.03 Y124.173 E.04555
G1 X89.019 Y123.528 E.0376
G1 X88.102 Y122.794 E.03683
G1 X87.039 Y121.706 E.04769
G1 X86.452 Y120.958 E.02981
G1 X85.657 Y119.676 E.0473
G1 X85.128 Y118.539 E.03932
G1 X84.684 Y117.182 E.04477
G1 X84.387 Y115.46 E.05479
G1 X84.334 Y114.505 E.02999
G1 X84.363 Y99.603 E.46724
G1 X84.7 Y97.541 E.06551
G1 X85.307 Y95.811 E.05748
G1 X85.705 Y95.004 E.02821
G1 X86.553 Y93.681 E.04927
G1 X87.156 Y92.934 E.0301
G1 X88.038 Y92.052 E.03911
G1 X88.304 Y92.318 F6000
G1 F1200
G1 X89.149 Y91.62 E.03436
G1 X90.029 Y91.037 E.0331
G1 X91.588 Y90.27 E.05448
G1 X93.208 Y89.774 E.05312
G1 X94.758 Y89.543 E.04914
G1 X131.692 Y89.51 E1.15804
G1 X133.69 Y89.677 E.06286
G1 X135.628 Y90.208 E.063
G1 X137.318 Y91.015 E.05872
G1 X138.647 Y91.947 E.0509
G1 X140.013 Y93.269 E.0596
G1 X140.766 Y94.236 E.03843
G1 X141.237 Y94.988 E.02782
G1 X142.054 Y96.785 E.06189
G1 X142.512 Y98.545 E.05702
G1 X142.671 Y100.349 E.05678
G1 X142.821 Y114.349 E.43899
G1 X142.744 Y115.641 E.04058
G1 X142.521 Y116.917 E.04061
G1 X142.276 Y117.78 E.02813
G1 X141.409 Y119.75 E.06749
G1 X140.675 Y120.874 E.04209
G1 X140.018 Y121.672 E.03241
G1 X139.333 Y122.37 E.03066
G1 X138.39 Y123.147 E.03831
G1 X136.804 Y124.12 E.05834
G1 X135.27 Y124.742 E.0519
G1 X134.141 Y125.042 E.03663
G1 X132.345 Y125.257 E.05671
G1 X95.131 Y125.257 E1.16682
G1 X93.508 Y125.065 E.05124
G1 X92.409 Y124.792 E.03551
G1 X91.488 Y124.462 E.03068
G1 X90.206 Y123.839 E.04469
G1 X89.238 Y123.221 E.03601
G1 X88.306 Y122.47 E.03753
G1 X87.318 Y121.453 E.04446
G1 X86.76 Y120.741 E.02836
G1 X85.985 Y119.491 E.04611
G1 X85.483 Y118.413 E.03729
G1 X85.05 Y117.087 E.04374
G1 X84.761 Y115.415 E.0532
G1 X84.739 Y99.629 E.49496
G1 X85.061 Y97.651 E.06284
G1 X85.658 Y95.948 E.05658
G1 X86.04 Y95.178 E.02695
G1 X86.862 Y93.897 E.04772
G1 X87.438 Y93.185 E.02871
G1 X88.262 Y92.361 E.03654
; printing object Shape-Box10 id:11 copy 0
G1 E-1.12 F2400
;WIPE_START
G1 F4800
G1 X89.038 Y91.713 E-.48
;WIPE_END
G1 X94.349 Y113.818 F6000
G1 E1.6 F2400
;TYPE:External perimeter
;WIDTH:0.5
G1 F1200
G1 X94.349 Y113.318 E.019
; stop printing object Shape-Box10 id:11 copy 0
; printing object Shape-Box9 id:9 copy 0
G1 E-1.12 F2400
;WIPE_START
G1 F4800
G1 X94.349 Y113.818 E-.2375
;WIPE_END
G1 E-.2425 F2400
G1 X98.525 Y113.744 F6000
G1 E1.6 F2400
G1 F1200
G1 X98.525 Y113.244 E.019
; stop printing object Shape-Box9 id:9 copy 0
; printing object Shape-Box10 id:10 copy 0
G1 E-1.12 F2400
;WIPE_START
G1 F4800
G1 X98.525 Y113.744 E-.2375
;WIPE_END
G1 E-.2425 F2400
G1 X98.38 Y109.362 F6000
G1 E1.6 F2400
G1 F1200
G1 X98.38 Y108.862 E.019
; stop printing object Shape-Box10 id:10 copy 0
; printing object Shape-Box10 id:12 copy 0
G1 E-1.12 F2400
;WIPE_START
G1 F4800
G1 X98.38 Y109.362 E-.2375
;WIPE_END
G1 E-.2425 F2400
G1 X94.152 Y109.179 F6000
G1 E1.6 F2400
G1 F1200
G1 X94.152 Y108.679 E.019
; stop printing object Shape-Box10 id:12 copy 0
; printing object Shape-Box6 id:6 copy 0
G1 E-1.12 F2400
;WIPE_START
G1 F4800
G1 X94.152 Y109.179 E-.2375
;WIPE_END
G1 E-.2425 F2400
G1 X109.422 Y100.821 F6000
G1 E1.6 F2400
G1 F1200
G1 X109.422 Y100.321 E.019
; stop printing object Shape-Box6 id:6 copy 0
; printing object Shape-Box5 id:5 copy 0
G1 E-1.12 F2400
;WIPE_START
G1 F4800
G1 X109.422 Y100.821 E-.2375
;WIPE_END
G1 E-.2425 F2400
G1 X109.426 Y105.36 F6000
G1 E1.6 F2400
G1 F1200
G1 X109.426 Y104.86 E.019
; stop printing object Shape-Box5 id:5 copy 0
; printing object Shape-Box id:0 copy 0
G1 E-1.12 F2400
;WIPE_START
G1 F4800
G1 X109.426 Y105.36 E-.2375
;WIPE_END
G1 E-.2425 F2400
G1 X93.425 Y102.165 F6000
G1 E1.6 F2400
;WIDTH:0.419999
G1 F1200
G1 X93.515 Y101.694 E.01504
G1 X93.732 Y101.37 E.01223
G1 X94.012 Y101.16 E.01097
G1 X94.291 Y101.077 E.00913
G1 X94.551 Y101.095 E.00817
G1 X94.741 Y101.217 E.00708
G1 X94.914 Y101.418 E.00832
;WIDTH:0.465331
G1 X94.94 Y101.505 E.00319
;WIDTH:0.510662
G1 X94.965 Y101.592 E.00352
;WIDTH:0.555994
G1 X94.99 Y101.678 E.00382
;WIDTH:0.601325
G1 X95.015 Y101.765 E.0042
;WIDTH:0.646656
G1 X95.041 Y101.852 E.00456
G1 X94.968 Y101.856 E.00367
;WIDTH:0.604832
G1 X94.895 Y101.86 E.00342
;WIDTH:0.563008
G1 X94.823 Y101.864 E.00312
;WIDTH:0.521184
G1 X94.75 Y101.868 E.00291
;WIDTH:0.479359
G1 X94.587 Y101.844 E.00598
;WIDTH:0.449679
G1 X94.424 Y101.82 E.00557
;WIDTH:0.419999
G1 X94.116 Y101.834 E.00967
G1 X93.598 Y102.041 E.01749
G1 X93.474 Y102.13 E.00479
G1 X93.617 Y101.814 F6000
G1 E-1.12 F2400
;WIPE_START
G1 F4800
G1 X93.515 Y101.694 E-.20801
G1 X93.732 Y101.37 E-.18523
G1 X93.878 Y101.26 E-.08676
;WIPE_END
G1 X104.49 Y105.648 F6000
G1 E1.6 F2400
;TYPE:Perimeter
G1 F1200
G1 X104.407 Y105.823 E.00607
G1 X104.174 Y105.991 E.00901
G1 X103.972 Y106.028 E.00644
G1 X101.223 Y106.028 E.08619
G1 X100.962 Y105.964 E.00843
G1 X100.741 Y105.636 E.0124
G1 X100.523 Y105.966 E.0124
G1 X100.259 Y106.031 E.00852
G1 X96.726 Y106.031 E.11077
G1 X96.45 Y105.959 E.00894
G1 X96.258 Y105.784 E.00815
G1 X96.16 Y105.46 E.01061
G1 X96.16 Y105.139 E.01006
G1 X95.883 Y105.475 E.01365
G1 X95.525 Y105.763 E.01441
G1 X95.121 Y105.968 E.0142
G1 X94.65 Y106.087 E.01523
G1 X94.039 Y106.1 E.01916
G1 X93.533 Y105.979 E.01631
G1 X93.229 Y105.864 E.01019
G1 X92.795 Y105.58 E.01626
G1 X92.42 Y105.186 E.01705
G1 X92.149 Y104.722 E.01685
G1 X91.966 Y104.159 E.01856
G1 X91.886 Y103.652 E.01609
G1 X91.855 Y103 E.02047
G1 X91.886 Y102.261 E.02319
G1 X91.961 Y101.763 E.01579
G1 X92.097 Y101.218 E.01761
G1 X92.327 Y100.719 E.01723
G1 X92.634 Y100.304 E.01619
G1 X93.077 Y99.924 E.0183
G1 X93.569 Y99.684 E.01716
G1 X94.13 Y99.567 E.01797
G1 X94.687 Y99.576 E.01747
G1 X95.174 Y99.692 E.0157
G1 X95.522 Y99.86 E.01212
G1 X95.831 Y100.095 E.01217
G1 X96.089 Y100.392 E.01234
G1 X96.281 Y100.74 E.01246
G1 X96.407 Y101.196 E.01483
G1 X96.454 Y101.647 E.01422
G1 X96.352 Y101.913 E.00893
G1 X96.187 Y102.067 E.00708
G1 X95.975 Y102.128 E.00692
G1 X96.24 Y102.464 E.01342
G1 X96.453 Y102.928 E.01601
G1 X96.567 Y103.647 E.02283
G1 X96.543 Y104.146 E.01566
G1 X96.856 Y103.715 E.0167
G1 X97.166 Y103.221 E.01829
G1 X97.415 Y102.758 E.01648
G1 X97.754 Y101.945 E.02762
G1 X97.959 Y101.252 E.02266
G1 X98.115 Y100.129 E.03555
G1 X98.202 Y99.897 E.00777
G1 X98.41 Y99.706 E.00885
G1 X98.675 Y99.641 E.00856
G1 X99.554 Y99.641 E.02756
G1 X99.831 Y99.713 E.00897
G1 X99.969 Y99.822 E.00551
G1 X100.1 Y100.058 E.00846
;WIDTH:0.45159
G1 X100.102 Y100.464 E.0138
;WIDTH:0.483181
G1 X100.105 Y100.871 E.0149
G1 X100.002 Y101.468 E.02218
;WIDTH:0.481348
G1 X99.911 Y101.755 E.01098
;WIDTH:0.450674
G1 X99.82 Y102.043 E.01024
;WIDTH:0.419999
G1 X99.658 Y102.57 E.01729
G1 X99.379 Y103.275 E.02377
G1 X98.885 Y104.123 E.03077
G1 X99.586 Y104.065 E.02205
G1 X100.254 Y104.058 E.02095
G1 X100.559 Y104.144 E.00994
;WIDTH:0.424045
G1 X100.705 Y104.267 E.00605
G1 X100.741 Y104.367 E.00337
G1 X100.776 Y104.266 E.00339
G1 X101.051 Y104.084 E.01045
;WIDTH:0.419999
G1 X101.472 Y104.039 E.01328
G1 X101.019 Y103.655 E.01862
G1 X100.718 Y103.243 E.016
G1 X100.476 Y102.594 E.02172
;WIDTH:0.425315
G1 X100.417 Y102.008 E.01873
;WIDTH:0.453905
G1 X100.416 Y101.831 E.00605
;WIDTH:0.482495
G1 X100.415 Y101.654 E.00647
;WIDTH:0.50788
G1 X100.543 Y101.1 E.02198
G1 X100.674 Y100.885 E.00973
;WIDTH:0.46394
G1 X100.804 Y100.669 E.00883
;WIDTH:0.419999
G1 X101.109 Y100.271 E.01572
G1 X101.506 Y99.937 E.01627
G1 X102.1 Y99.677 E.02033
G1 X102.362 Y99.598 E.00858
G1 X102.883 Y99.556 E.01639
G1 X103.325 Y99.596 E.01392
G1 X103.745 Y99.708 E.01363
G1 X104.131 Y99.895 E.01345
G1 X104.47 Y100.153 E.01336
G1 X104.807 Y100.564 E.01666
G1 X104.958 Y100.832 E.00964
G1 X105.095 Y101.231 E.01323
G1 X105.174 Y101.729 E.01581
G1 X105.131 Y101.988 E.00823
G1 X105.071 Y102.096 E.00387
G1 X104.823 Y102.232 E.00887
G1 X105.03 Y102.425 E.00887
G1 X105.068 Y102.633 E.00663
G1 X104.515 Y105.593 E.09441
G1 E-1.12 F2400
;WIPE_START
G1 F4800
G1 X104.407 Y105.823 E-.12069
G1 X104.174 Y105.991 E-.13644
G1 X103.972 Y106.028 E-.09755
G1 X103.708 Y106.028 E-.12532
;WIPE_END
G1 X100.408 Y104.504 F6000
G1 E1.6 F2400
;TYPE:External perimeter
;WIDTH:0.457649
G1 F1200
G1 X100.438 Y104.544 E.00172
;WIDTH:0.491252
G1 X100.469 Y104.584 E.00189
;WIDTH:0.524855
G1 X100.5 Y104.623 E.002
G1 X100.5 Y105.466 E.03378
;WIDTH:0.524683
G1 X100.449 Y105.521 E.003
;WIDTH:0.489789
G1 X100.398 Y105.577 E.00281
;WIDTH:0.454894
G1 X100.347 Y105.632 E.00257
;WIDTH:0.419999
G1 X99.652 Y105.654 E.0218
G1 X96.726 Y105.654 E.09174
G1 X96.595 Y105.602 E.00442
G1 X96.538 Y105.46 E.0048
;WIDTH:0.447834
G1 X96.524 Y105.136 E.01092
;WIDTH:0.475668
G1 X96.51 Y104.813 E.01163
;WIDTH:0.505434
G1 X96.529 Y104.691 E.00475
G1 X96.738 Y104.474 E.01159
;WIDTH:0.462717
G1 X96.946 Y104.257 E.01049
;WIDTH:0.419999
G1 X97.408 Y103.563 E.02614
G1 X97.734 Y102.962 E.02144
G1 X97.954 Y102.446 E.01759
G1 X98.215 Y101.714 E.02437
G1 X98.352 Y101.161 E.01786
G1 X98.488 Y100.18 E.03105
G1 X98.587 Y100.04 E.00538
G1 X99.469 Y100.018 E.02766
G1 X99.668 Y100.057 E.00636
G1 X99.736 Y100.157 E.00379
