; generated by PrusaSlicer 2.6.0+win64 on 2023-07-03 at 22:57:15 UTC

; 

; external perimeters extrusion width = 0.42mm
; perimeters extrusion width = 0.44mm
; infill extrusion width = 0.44mm
; solid infill extrusion width = 0.44mm
; top infill extrusion width = 0.40mm
; support material extrusion width = 0.36mm
; first layer extrusion width = 0.42mm

; external perimeters extrusion width = 0.42mm
; perimeters extrusion width = 0.44mm
; infill extrusion width = 0.44mm
; solid infill extrusion width = 0.44mm
; top infill extrusion width = 0.40mm
; support material extrusion width = 0.36mm
; first layer extrusion width = 0.42mm

; external perimeters extrusion width = 0.42mm
; perimeters extrusion width = 0.44mm
; infill extrusion width = 0.44mm
; solid infill extrusion width = 0.44mm
; top infill extrusion width = 0.40mm
; support material extrusion width = 0.36mm
; first layer extrusion width = 0.42mm

; external perimeters extrusion width = 0.42mm
; perimeters extrusion width = 0.44mm
; infill extrusion width = 0.44mm
; solid infill extrusion width = 0.44mm
; top infill extrusion width = 0.40mm
; support material extrusion width = 0.36mm
; first layer extrusion width = 0.42mm

; external perimeters extrusion width = 0.42mm
; perimeters extrusion width = 0.44mm
; infill extrusion width = 0.44mm
; solid infill extrusion width = 0.44mm
; top infill extrusion width = 0.40mm
; support material extrusion width = 0.36mm
; first layer extrusion width = 0.42mm

; external perimeters extrusion width = 0.42mm
; perimeters extrusion width = 0.44mm
; infill extrusion width = 0.44mm
; solid infill extrusion width = 0.44mm
; top infill extrusion width = 0.40mm
; support material extrusion width = 0.36mm
; first layer extrusion width = 0.42mm

; external perimeters extrusion width = 0.42mm
; perimeters extrusion width = 0.44mm
; infill extrusion width = 0.44mm
; solid infill extrusion width = 0.44mm
; top infill extrusion width = 0.40mm
; support material extrusion width = 0.36mm
; first layer extrusion width = 0.42mm

; external perimeters extrusion width = 0.42mm
; perimeters extrusion width = 0.44mm
; infill extrusion width = 0.44mm
; solid infill extrusion width = 0.44mm
; top infill extrusion width = 0.40mm
; support material extrusion width = 0.36mm
; first layer extrusion width = 0.42mm

; external perimeters extrusion width = 0.42mm
; perimeters extrusion width = 0.44mm
; infill extrusion width = 0.44mm
; solid infill extrusion width = 0.44mm
; top infill extrusion width = 0.40mm
; support material extrusion width = 0.36mm
; first layer extrusion width = 0.42mm

; external perimeters extrusion width = 0.42mm
; perimeters extrusion width = 0.44mm
; infill extrusion width = 0.44mm
; solid infill extrusion width = 0.44mm
; top infill extrusion width = 0.40mm
; support material extrusion width = 0.36mm
; first layer extrusion width = 0.42mm

; external perimeters extrusion width = 0.42mm
; perimeters extrusion width = 0.44mm
; infill extrusion width = 0.44mm
; solid infill extrusion width = 0.44mm
; top infill extrusion width = 0.40mm
; support material extrusion width = 0.36mm
; first layer extrusion width = 0.42mm

; external perimeters extrusion width = 0.42mm
; perimeters extrusion width = 0.44mm
; infill extrusion width = 0.44mm
; solid infill extrusion width = 0.44mm
; top infill extrusion width = 0.40mm
; support material extrusion width = 0.36mm
; first layer extrusion width = 0.42mm

; external perimeters extrusion width = 0.42mm
; perimeters extrusion width = 0.44mm
; infill extrusion width = 0.44mm
; solid infill extrusion width = 0.44mm
; top infill extrusion width = 0.40mm
; support material extrusion width = 0.36mm
; first layer extrusion width = 0.42mm

;TYPE:Custom
; Ender 3 Custom Start G-code
G92 E0 ; Reset Extruder

M140 S50 ; set bed temp
M190 S50 ; wait for bed temp

G28 ; Home all axes
M104 S205 ; set extruder temp 
BED_MESH_CALIBRATE AREA_START=83.7684,88.5669 AREA_END=143.763,126.207

G1 Z2.0 F3000 ; Move Z Axis up little to prevent scratching of Heat Bed
M109 S205 ; wait for extruder temp
G1 X0.1 Y20 Z0.3 F5000.0 ; Move to start position

G1 X0.1 Y200.0 Z0.3 F1500.0 E15 ; Draw the first line
G1 X0.4 Y200.0 Z0.3 F5000.0 ; Move to side a little
G1 X0.4 Y20 Z0.3 F1500.0 E30 ; Draw the second line
G92 E0 ; Reset Extruder
G1 Z2.0 F3000 ; Move Z Axis up little to prevent scratching of Heat Bed
G1 X5 Y20 Z0.3 F5000.0 ; Move over to prevent blob squish
G21 ; set units to millimeters
G90 ; use absolute coordinates
M83 ; use relative distances for extrusion
; Filament gcode
M107
;LAYER_CHANGE
;Z:0.2
;HEIGHT:0.2
;BEFORE_LAYER_CHANGE
G92 E0
;0.2


G1 E-1.6 F2400
G1 Z.2 F6000
;AFTER_LAYER_CHANGE
;0.2
G1 X87.857 Y91.701
G1 E1.6 F2400
M204 S500
;TYPE:Skirt/Brim
;WIDTH:0.42
G1 F1200
G1 X88.725 Y90.996 E.0312
G1 X89.656 Y90.382 E.03112
G1 X91.322 Y89.564 E.05179
G1 X93.099 Y89.026 E.05181
G1 X94.721 Y88.79 E.04574
G1 X131.692 Y88.755 E1.03169
G1 X132.884 Y88.805 E.03329
G1 X133.843 Y88.938 E.02702
G1 X135.87 Y89.494 E.05865
G1 X137.7 Y90.365 E.05656
G1 X139.14 Y91.376 E.0491
G1 X140.583 Y92.775 E.05609
G1 X141.374 Y93.79 E.03591
G1 X141.835 Y94.519 E.02407
G1 X142.681 Y96.304 E.05512
G1 X143.24 Y98.341 E.05894
G1 X143.425 Y100.341 E.05605
G1 X143.575 Y114.341 E.3907
G1 X143.503 Y115.668 E.03708
G1 X143.296 Y116.888 E.03453
G1 X142.676 Y118.864 E.05779
G1 X141.69 Y120.733 E.05897
G1 X140.467 Y122.296 E.05538
G1 X139.688 Y123.064 E.03053
G1 X138.815 Y123.771 E.03135
G1 X137.173 Y124.778 E.05375
G1 X136.08 Y125.257 E.0333
G1 X134.281 Y125.783 E.0523
G1 X132.523 Y126.003 E.04944
G1 X95.078 Y126.009 E1.04491
G1 X93.39 Y125.81 E.04743
G1 X92.295 Y125.542 E.03146
G1 X91.185 Y125.153 E.03282
G1 X89.854 Y124.506 E.0413
G1 X88.8 Y123.835 E.03487
G1 X87.851 Y123.075 E.03393
G1 X86.76 Y121.96 E.04353
G1 X86.154 Y121.19 E.02734
G1 X85.328 Y119.862 E.04364
G1 X84.772 Y118.665 E.03683
G1 X84.319 Y117.276 E.04077
G1 X84.013 Y115.506 E.05013
G1 X83.957 Y114.505 E.02798
G1 X83.987 Y99.578 E.41654
G1 X84.339 Y97.433 E.06066
G1 X84.956 Y95.673 E.05204
G1 X85.359 Y94.854 E.02547
G1 X86.242 Y93.468 E.04586
G1 X86.875 Y92.684 E.02812
G1 X87.814 Y91.744 E.03708
G1 X88.08 Y92.01 F6000
G1 F1200
G1 X88.937 Y91.308 E.03091
G1 X89.836 Y90.714 E.03007
G1 X91.455 Y89.917 E.05036
G1 X92.992 Y89.437 E.04493
G1 X94.74 Y89.166 E.04936
G1 X131.692 Y89.133 E1.03116
G1 X133.767 Y89.308 E.05811
G1 X135.748 Y89.851 E.05732
G1 X137.509 Y90.69 E.05443
G1 X138.893 Y91.661 E.04718
G1 X140.304 Y93.029 E.05484
G1 X141.07 Y94.013 E.0348
G1 X141.565 Y94.802 E.02599
G1 X142.414 Y96.673 E.05733
G1 X142.882 Y98.473 E.0519
G1 X143.048 Y100.345 E.05244
G1 X143.198 Y114.345 E.3907
G1 X143.13 Y115.614 E.03546
G1 X142.924 Y116.824 E.03425
G1 X142.331 Y118.712 E.05522
G1 X141.369 Y120.534 E.0575
G1 X140.198 Y122.031 E.05304
G1 X139.594 Y122.642 E.02397
G1 X138.603 Y123.459 E.03584
G1 X136.981 Y124.453 E.05309
G1 X135.395 Y125.098 E.04778
G1 X134.218 Y125.411 E.03399
G1 X132.355 Y125.634 E.05236
G1 X95.105 Y125.633 E1.03947
G1 X93.449 Y125.437 E.04653
G1 X92.304 Y125.154 E.03291
G1 X91.337 Y124.807 E.02867
G1 X90.03 Y124.173 E.04054
G1 X89.019 Y123.528 E.03346
G1 X88.102 Y122.794 E.03278
G1 X87.039 Y121.706 E.04245
G1 X86.452 Y120.958 E.02653
G1 X85.657 Y119.676 E.04209
G1 X85.128 Y118.539 E.03499
G1 X84.684 Y117.182 E.03984
G1 X84.387 Y115.46 E.04876
G1 X84.334 Y114.505 E.02669
G1 X84.363 Y99.603 E.41585
G1 X84.7 Y97.541 E.0583
G1 X85.307 Y95.811 E.05116
G1 X85.705 Y95.004 E.02511
G1 X86.553 Y93.681 E.04385
G1 X87.156 Y92.934 E.02679
G1 X88.038 Y92.052 E.03481
G1 X88.304 Y92.319 F6000
G1 F1200
G1 X89.149 Y91.62 E.0306
G1 X90.029 Y91.037 E.02946
G1 X91.588 Y90.27 E.04848
G1 X93.208 Y89.774 E.04728
G1 X94.758 Y89.543 E.04373
G1 X131.692 Y89.51 E1.03066
G1 X133.69 Y89.677 E.05595
G1 X135.628 Y90.208 E.05607
G1 X137.318 Y91.015 E.05226
G1 X138.647 Y91.947 E.0453
G1 X140.013 Y93.269 E.05305
G1 X140.766 Y94.236 E.0342
G1 X141.237 Y94.988 E.02476
G1 X142.054 Y96.785 E.05509
G1 X142.512 Y98.545 E.05075
G1 X142.671 Y100.349 E.05054
G1 X142.821 Y114.349 E.3907
G1 X142.744 Y115.641 E.03612
G1 X142.521 Y116.917 E.03615
G1 X142.276 Y117.78 E.02503
G1 X141.409 Y119.75 E.06006
G1 X140.675 Y120.874 E.03746
G1 X140.018 Y121.672 E.02884
G1 X139.333 Y122.37 E.02729
G1 X138.39 Y123.147 E.0341
G1 X136.804 Y124.12 E.05192
G1 X135.27 Y124.742 E.04619
G1 X134.141 Y125.042 E.0326
G1 X132.345 Y125.257 E.05048
G1 X95.131 Y125.257 E1.03847
G1 X93.508 Y125.065 E.04561
G1 X92.409 Y124.792 E.0316
G1 X91.488 Y124.462 E.0273
G1 X90.206 Y123.839 E.03978
G1 X89.238 Y123.221 E.03205
G1 X88.306 Y122.47 E.0334
G1 X87.318 Y121.453 E.03957
G1 X86.76 Y120.741 E.02524
G1 X85.985 Y119.491 E.04104
G1 X85.483 Y118.413 E.03318
G1 X85.05 Y117.087 E.03893
G1 X84.761 Y115.415 E.04735
G1 X84.739 Y99.629 E.44051
G1 X85.061 Y97.651 E.05592
G1 X85.658 Y95.949 E.05033
G1 X86.04 Y95.178 E.02401
G1 X86.862 Y93.897 E.04247
G1 X87.438 Y93.185 E.02556
G1 X88.262 Y92.361 E.03252
; printing object Shape-Box10 id:11 copy 0
G1 E-1.12 F2400
;WIPE_START
G1 F4800
G1 X89.038 Y91.713 E-.48
;WIPE_END
G1 X94.309 Y113.278 F6000
G1 E1.6 F2400
;TYPE:External perimeter
G1 F1200
G1 X94.389 Y113.278 E.00223
G1 X94.389 Y113.858 E.01619
G1 X94.309 Y113.858 E.00223
G1 X94.309 Y113.338 E.01451
G1 X94.38 Y113.315 F6000
; stop printing object Shape-Box10 id:11 copy 0
; printing object Shape-Box9 id:9 copy 0
G1 E-1.12 F2400
;WIPE_START
G1 F4800
G1 X94.389 Y113.278 E-.0475
G1 X94.389 Y113.858 E-.2755
G1 X94.309 Y113.858 E-.038
G1 X94.309 Y113.607 E-.119
;WIPE_END
G1 X98.485 Y113.204 F6000
G1 E1.6 F2400
G1 F1200
G1 X98.565 Y113.204 E.00223
G1 X98.565 Y113.784 E.01619
G1 X98.485 Y113.784 E.00223
G1 X98.485 Y113.264 E.01451
G1 X98.556 Y113.241 F6000
; stop printing object Shape-Box9 id:9 copy 0
; printing object Shape-Box10 id:10 copy 0
G1 E-1.12 F2400
;WIPE_START
G1 F4800
G1 X98.565 Y113.204 E-.0475
G1 X98.565 Y113.784 E-.2755
G1 X98.485 Y113.784 E-.038
G1 X98.485 Y113.533 E-.119
;WIPE_END
G1 X98.42 Y109.402 F6000
G1 E1.6 F2400
G1 F1200
G1 X98.34 Y109.402 E.00223
G1 X98.34 Y108.822 E.01619
G1 X98.42 Y108.822 E.00223
G1 X98.42 Y109.342 E.01451
G1 X98.349 Y109.366 F6000
; stop printing object Shape-Box10 id:10 copy 0
; printing object Shape-Box10 id:12 copy 0
G1 E-1.12 F2400
;WIPE_START
G1 F4800
G1 X98.34 Y109.402 E-.0475
G1 X98.34 Y108.822 E-.2755
G1 X98.42 Y108.822 E-.038
G1 X98.42 Y109.073 E-.119
;WIPE_END
G1 X94.192 Y109.219 F6000
G1 E1.6 F2400
G1 F1200
G1 X94.112 Y109.219 E.00223
G1 X94.112 Y108.639 E.01619
G1 X94.192 Y108.639 E.00223
G1 X94.192 Y109.159 E.01451
G1 X94.121 Y109.182 F6000
; stop printing object Shape-Box10 id:12 copy 0
; printing object Shape-Box6 id:6 copy 0
G1 E-1.12 F2400
;WIPE_START
G1 F4800
G1 X94.112 Y109.219 E-.0475
G1 X94.112 Y108.639 E-.2755
G1 X94.192 Y108.639 E-.038
G1 X94.192 Y108.89 E-.119
;WIPE_END
G1 X109.382 Y100.861 F6000
G1 E1.6 F2400
G1 F1200
G1 X109.382 Y100.281 E.01619
G1 X109.462 Y100.281 E.00223
G1 X109.462 Y100.861 E.01619
G1 X109.442 Y100.861 E.00056
G1 X109.4 Y100.461 F6000
; stop printing object Shape-Box6 id:6 copy 0
; printing object Shape-Box5 id:5 copy 0
G1 E-1.12 F2400
;WIPE_START
G1 F4800
G1 X109.382 Y100.281 E-.27697
G1 X109.462 Y100.281 E-.038
G1 X109.462 Y100.628 E-.16503
;WIPE_END
G1 X109.466 Y104.82 F6000
G1 E1.6 F2400
G1 F1200
G1 X109.466 Y105.4 E.01619
G1 X109.386 Y105.4 E.00223
G1 X109.386 Y104.82 E.01619
G1 X109.406 Y104.82 E.00056
G1 X109.448 Y105.219 F6000
; stop printing object Shape-Box5 id:5 copy 0
; printing object Shape-Box id:0 copy 0
G1 E-1.12 F2400
;WIPE_START
G1 F4800
G1 X109.466 Y105.4 E-.27697
G1 X109.386 Y105.4 E-.038
G1 X109.386 Y105.053 E-.16503
;WIPE_END
G1 X128.943 Y104.223 F6000
G1 E1.6 F2400
;TYPE:Perimeter
G1 F1200
G1 X128.863 Y104.191 E.0024
G1 X128.781 Y104.105 E.00332
G1 X128.731 Y104.004 E.00314
G1 X128.666 Y103.747 E.0074
G1 X128.609 Y103.111 E.01782
G1 X128.609 Y102.566 E.01521
G1 X128.67 Y101.912 E.01833
G1 X128.731 Y101.668 E.00702
G1 X128.841 Y101.49 E.00584
G1 X128.886 Y101.457 E.00156
G1 X128.948 Y101.453 E.00173
G1 X129.03 Y101.491 E.00252
G1 X129.136 Y101.662 E.00561
G1 X129.198 Y101.914 E.00724
G1 X129.244 Y102.306 E.01101
G1 X129.256 Y103.106 E.02233
G1 X129.189 Y103.777 E.01882
G1 X129.085 Y104.11 E.00974
G1 X129.035 Y104.184 E.00249
G1 X129 Y104.205 E.00114
G1 X128.941 Y104.603 F6000
;TYPE:External perimeter
G1 F1200
G1 X128.816 Y104.587 E.00352
G1 X128.636 Y104.501 E.00557
G1 X128.469 Y104.324 E.00679
G1 X128.375 Y104.136 E.00587
G1 X128.295 Y103.82 E.0091
G1 X128.267 Y103.623 E.00555
G1 X128.232 Y103.124 E.01396
G1 X128.232 Y102.548 E.01607
G1 X128.297 Y101.848 E.01962
G1 X128.375 Y101.537 E.00895
G1 X128.471 Y101.343 E.00604
G1 X128.58 Y101.214 E.00471
G1 X128.693 Y101.129 E.00395
G1 X128.8 Y101.085 E.00323
G1 X128.997 Y101.072 E.00551
G1 X129.181 Y101.133 E.00541
G1 X129.289 Y101.214 E.00377
G1 X129.398 Y101.34 E.00465
G1 X129.492 Y101.533 E.00599
G1 X129.57 Y101.847 E.00903
G1 X129.621 Y102.282 E.01222
G1 X129.633 Y103.122 E.02344
G1 X129.562 Y103.837 E.02005
G1 X129.524 Y104.006 E.00483
G1 X129.424 Y104.281 E.00817
G1 X129.323 Y104.432 E.00507
G1 X129.235 Y104.513 E.00334
G1 X129.065 Y104.589 E.0052
G1 X129.001 Y104.596 E.0018
G1 X128.876 Y104.494 F6000
G1 X128.947 Y103.939
;TYPE:Gap fill
;WIDTH:0.200705
G1 F1200
G1 X128.928 Y103.695 E.00286
;WIDTH:0.277865
G1 X128.936 Y102.144 E.02697
;WIDTH:0.202134
G1 X128.916 Y101.72 E.005
G1 E-1.12 F2400
;WIPE_START
G1 F4800
G1 X128.934 Y101.963 E-.11574
G1 X128.936 Y102.144 E-.08598
G1 X128.938 Y102.326 E-.08646
G1 X128.928 Y102.581 E-.12122
G1 X128.929 Y102.73 E-.0706
;WIPE_END
G1 X128.882 Y109.98 F6000
G1 E1.6 F2400
;TYPE:Perimeter
;WIDTH:0.42
G1 F1200
G1 X128.948 Y109.974 E.00185
G1 X129.03 Y110.013 E.00253
G1 X129.136 Y110.184 E.00561
G1 X129.198 Y110.436 E.00724
G1 X129.244 Y110.828 E.01101
G1 X129.256 Y111.628 E.02233
G1 X129.189 Y112.298 E.01879
G1 X129.085 Y112.631 E.00974
G1 X129.025 Y112.715 E.00288
G1 X128.943 Y112.745 E.00244
G1 X128.863 Y112.713 E.0024
G1 X128.781 Y112.627 E.00332
G1 X128.731 Y112.526 E.00314
G1 X128.642 Y112.104 E.01204
G1 X128.609 Y111.632 E.0132
G1 X128.609 Y111.087 E.01521
G1 X128.67 Y110.433 E.01833
G1 X128.731 Y110.19 E.00699
G1 X128.835 Y110.018 E.00561
G1 X128.693 Y109.65 F6000
;TYPE:External perimeter
G1 F1200
G1 X128.8 Y109.606 E.00323
G1 X128.997 Y109.594 E.00551
G1 X129.181 Y109.655 E.00541
G1 X129.289 Y109.735 E.00375
G1 X129.398 Y109.861 E.00465
G1 X129.492 Y110.054 E.00599
G1 X129.57 Y110.368 E.00903
G1 X129.621 Y110.803 E.01222
G1 X129.633 Y111.644 E.02347
G1 X129.562 Y112.358 E.02002
G1 X129.524 Y112.528 E.00486
G1 X129.424 Y112.803 E.00817
G1 X129.323 Y112.953 E.00505
G1 X129.235 Y113.034 E.00334
G1 X129.065 Y113.11 E.0052
G1 X128.941 Y113.124 E.00348
G1 X128.816 Y113.109 E.00351
G1 X128.636 Y113.022 E.00558
G1 X128.469 Y112.845 E.00679
G1 X128.375 Y112.657 E.00587
G1 X128.295 Y112.342 E.00907
G1 X128.267 Y112.144 E.00558
G1 X128.232 Y111.646 E.01393
G1 X128.232 Y111.07 E.01607
G1 X128.297 Y110.369 E.01965
G1 X128.375 Y110.059 E.00892
G1 X128.471 Y109.864 E.00607
G1 X128.645 Y109.686 E.00695
G1 X128.796 Y109.704 F6000
G1 X128.916 Y110.242
;TYPE:Gap fill
;WIDTH:0.202135
G1 F1200
G1 X128.936 Y110.666 E.005
;WIDTH:0.277865
G1 X128.928 Y112.216 E.02695
;WIDTH:0.200703
G1 X128.947 Y112.46 E.00286
G1 E-1.12 F2400
;WIPE_START
G1 F4800
G1 X128.928 Y112.216 E-.11625
G1 X128.925 Y112.073 E-.06794
G1 X128.929 Y111.847 E-.10737
G1 X128.932 Y111.621 E-.10736
G1 X128.932 Y111.614 E-.00333
G1 X128.931 Y111.45 E-.07775
;WIPE_END
G1 X117.972 Y109.98 F6000
G1 E1.6 F2400
;TYPE:Perimeter
;WIDTH:0.42
G1 F1200
G1 X118.038 Y109.974 E.00185
G1 X118.12 Y110.013 E.00253
G1 X118.226 Y110.184 E.00561
G1 X118.288 Y110.436 E.00724
G1 X118.334 Y110.828 E.01101
G1 X118.346 Y111.628 E.02233
G1 X118.279 Y112.298 E.01879
G1 X118.175 Y112.631 E.00974
G1 X118.115 Y112.715 E.00288
G1 X118.033 Y112.745 E.00244
G1 X117.953 Y112.713 E.0024
G1 X117.871 Y112.627 E.00332
G1 X117.821 Y112.526 E.00314
G1 X117.732 Y112.104 E.01204
G1 X117.699 Y111.632 E.0132
G1 X117.699 Y111.087 E.01521
