; generated by PrusaSlicer 2.6.1+win64 on 2023-10-03 at 11:39:35 UTC

; 

; external perimeters extrusion width = 0.42mm
; perimeters extrusion width = 0.44mm
; infill extrusion width = 0.44mm
; solid infill extrusion width = 0.44mm
; top infill extrusion width = 0.40mm
; first layer extrusion width = 0.42mm

;TYPE:Custom
; Ender 3 Custom Start G-code
G92 E0 ; Reset Extruder

M140 S55 ; set bed temp
M104 S160 ; set extruder temp
M109 S160 ; wait for extruder temp
M190 S55 ; wait for bed temp

G28 ; Home all axes
M104 S210 ; set extruder temp 
BED_MESH_CALIBRATE AREA_START=83.7684,88.5669 AREA_END=143.763,126.207

G1 Z2.0 F3000 ; Move Z Axis up little to prevent scratching of Heat Bed
M109 S210 ; wait for extruder temp
G1 X0.1 Y20 Z0.3 F5000.0 ; Move to start position

G1 X0.1 Y200.0 Z0.3 F1500.0 E15 ; Draw the first line
G1 X0.4 Y200.0 Z0.3 F5000.0 ; Move to side a little
G1 X0.4 Y20 Z0.3 F1500.0 E30 ; Draw the second line
G92 E0 ; Reset Extruder
G1 Z2.0 F3000 ; Move Z Axis up little to prevent scratching of Heat Bed
G1 X5 Y20 Z0.3 F5000.0 ; Move over to prevent blob squish
G21 ; set units to millimeters
G90 ; use absolute coordinates
M83 ; use relative distances for extrusion
; Filament gcode
M107
;LAYER_CHANGE
;Z:0.2
;HEIGHT:0.2
;BEFORE_LAYER_CHANGE
G92 E0
;0.2


G1 E-1.6 F2400
G1 Z.2 F6000
;AFTER_LAYER_CHANGE
;0.2
G1 X87.857 Y91.701
G1 E1.6 F2400
M204 S500
;TYPE:Skirt/Brim
;WIDTH:0.42
G1 F1200
G1 X88.725 Y90.996 E.03296
G1 X89.656 Y90.382 E.03287
G1 X91.322 Y89.564 E.0547
G1 X93.099 Y89.026 E.05472
G1 X94.721 Y88.79 E.04831
G1 X131.692 Y88.755 E1.08965
G1 X132.884 Y88.805 E.03516
G1 X133.843 Y88.938 E.02854
G1 X135.87 Y89.494 E.06195
G1 X137.7 Y90.365 E.05973
G1 X139.14 Y91.376 E.05186
G1 X140.583 Y92.775 E.05924
G1 X141.374 Y93.79 E.03793
G1 X141.835 Y94.519 E.02542
G1 X142.681 Y96.304 E.05822
G1 X143.24 Y98.341 E.06226
G1 X143.425 Y100.341 E.0592
G1 X143.575 Y114.341 E.41265
G1 X143.503 Y115.668 E.03917
G1 X143.296 Y116.888 E.03647
G1 X142.676 Y118.864 E.06104
G1 X141.69 Y120.733 E.06228
G1 X140.467 Y122.296 E.05849
G1 X139.688 Y123.064 E.03224
G1 X138.815 Y123.771 E.03311
G1 X137.173 Y124.778 E.05677
G1 X136.08 Y125.257 E.03517
G1 X134.281 Y125.783 E.05524
G1 X132.523 Y126.003 E.05222
G1 X95.078 Y126.009 E1.10362
G1 X93.39 Y125.81 E.0501
G1 X92.295 Y125.542 E.03323
G1 X91.185 Y125.153 E.03467
G1 X89.854 Y124.506 E.04362
G1 X88.8 Y123.835 E.03683
G1 X87.851 Y123.075 E.03583
G1 X86.76 Y121.96 E.04598
G1 X86.154 Y121.19 E.02888
G1 X85.328 Y119.862 E.04609
G1 X84.772 Y118.665 E.0389
G1 X84.319 Y117.276 E.04306
G1 X84.013 Y115.506 E.05294
G1 X83.957 Y114.505 E.02955
G1 X83.987 Y99.578 E.43994
G1 X84.339 Y97.433 E.06407
G1 X84.956 Y95.673 E.05497
G1 X85.359 Y94.854 E.0269
G1 X86.242 Y93.468 E.04844
G1 X86.875 Y92.684 E.0297
G1 X87.814 Y91.744 E.03916
G1 X88.08 Y92.01 F6000
G1 F1200
G1 X88.937 Y91.308 E.03265
G1 X89.836 Y90.714 E.03176
G1 X91.455 Y89.917 E.05319
G1 X92.992 Y89.437 E.04746
G1 X94.74 Y89.166 E.05213
G1 X131.692 Y89.133 E1.08909
G1 X133.767 Y89.308 E.06137
G1 X135.748 Y89.851 E.06054
G1 X137.509 Y90.69 E.05749
G1 X138.893 Y91.661 E.04983
G1 X140.304 Y93.029 E.05792
G1 X141.07 Y94.013 E.03675
G1 X141.565 Y94.802 E.02745
G1 X142.414 Y96.673 E.06056
G1 X142.882 Y98.473 E.05482
G1 X143.048 Y100.345 E.05539
G1 X143.198 Y114.345 E.41265
G1 X143.13 Y115.614 E.03745
G1 X142.924 Y116.824 E.03618
G1 X142.331 Y118.712 E.05833
G1 X141.369 Y120.534 E.06073
G1 X140.198 Y122.031 E.05602
G1 X139.594 Y122.642 E.02532
G1 X138.603 Y123.459 E.03785
G1 X136.981 Y124.453 E.05607
G1 X135.395 Y125.098 E.05046
G1 X134.218 Y125.411 E.0359
G1 X132.355 Y125.634 E.0553
G1 X95.105 Y125.633 E1.09787
G1 X93.449 Y125.437 E.04915
G1 X92.304 Y125.154 E.03476
G1 X91.337 Y124.807 E.03028
G1 X90.03 Y124.173 E.04281
G1 X89.019 Y123.528 E.03534
G1 X88.102 Y122.794 E.03462
G1 X87.039 Y121.706 E.04483
G1 X86.452 Y120.958 E.02802
G1 X85.657 Y119.676 E.04446
G1 X85.128 Y118.539 E.03696
G1 X84.684 Y117.182 E.04208
G1 X84.387 Y115.46 E.0515
G1 X84.334 Y114.505 E.02819
G1 X84.363 Y99.603 E.43921
G1 X84.7 Y97.541 E.06158
G1 X85.307 Y95.811 E.05404
G1 X85.705 Y95.004 E.02652
G1 X86.553 Y93.681 E.04632
G1 X87.156 Y92.934 E.02829
G1 X88.038 Y92.052 E.03676
G1 X88.304 Y92.318 F6000
G1 F1200
G1 X89.149 Y91.62 E.0323
G1 X90.029 Y91.037 E.03111
G1 X91.588 Y90.27 E.05121
G1 X93.208 Y89.774 E.04993
G1 X94.758 Y89.543 E.04619
G1 X131.692 Y89.51 E1.08856
G1 X133.69 Y89.677 E.05909
G1 X135.628 Y90.208 E.05922
G1 X137.318 Y91.015 E.0552
G1 X138.647 Y91.947 E.04784
G1 X140.013 Y93.269 E.05603
G1 X140.766 Y94.236 E.03612
G1 X141.237 Y94.988 E.02615
G1 X142.054 Y96.785 E.05818
G1 X142.512 Y98.545 E.0536
G1 X142.671 Y100.349 E.05338
G1 X142.821 Y114.349 E.41265
G1 X142.744 Y115.641 E.03815
G1 X142.521 Y116.917 E.03818
G1 X142.276 Y117.78 E.02644
G1 X141.409 Y119.75 E.06344
G1 X140.675 Y120.874 E.03957
G1 X140.018 Y121.672 E.03047
G1 X139.333 Y122.37 E.02882
G1 X138.39 Y123.147 E.03601
G1 X136.804 Y124.12 E.05484
G1 X135.27 Y124.742 E.04879
G1 X134.141 Y125.042 E.03443
G1 X132.345 Y125.257 E.05331
G1 X95.131 Y125.257 E1.09681
G1 X93.508 Y125.065 E.04817
G1 X92.409 Y124.792 E.03338
G1 X91.488 Y124.462 E.02883
G1 X90.206 Y123.839 E.04201
G1 X89.238 Y123.221 E.03385
G1 X88.306 Y122.47 E.03528
G1 X87.318 Y121.453 E.04179
G1 X86.76 Y120.741 E.02666
G1 X85.985 Y119.491 E.04335
G1 X85.483 Y118.413 E.03505
G1 X85.05 Y117.087 E.04111
G1 X84.761 Y115.415 E.05001
G1 X84.739 Y99.629 E.46526
G1 X85.061 Y97.651 E.05907
G1 X85.658 Y95.949 E.05316
G1 X86.04 Y95.178 E.02536
G1 X86.862 Y93.897 E.04486
G1 X87.438 Y93.185 E.02699
G1 X88.262 Y92.361 E.03435
; printing object Shape-Box id:0 copy 0
G1 E-1.12 F2400
;WIPE_START
G1 F4800
G1 X89.038 Y91.713 E-.48
;WIPE_END
G1 X109.307 Y107.764 F6000
G1 E1.6 F2400
;TYPE:Perimeter
G1 F1200
G1 X108.923 Y107.696 E.01149
G1 X109.051 Y107.125 E.01725
G1 X109.315 Y107.066 E.00797
G1 X109.293 Y107.254 E.00558
G1 X109.296 Y107.705 E.01329
G1 X108.206 Y106.658 F6000
G1 F1200
G1 X108.038 Y106.662 E.00495
G1 X107.962 Y106.63 E.00243
G1 X107.96 Y106.513 E.00345
G1 X108.017 Y106.452 E.00246
G1 X108.099 Y106.453 E.00242
G1 X108.136 Y106.487 E.00148
G1 X108.183 Y106.602 E.00366
G1 X106.484 Y107.627 F6000
G1 F1200
G1 X106.47 Y107.659 E.00103
G1 X106.442 Y107.586 E.0023
G1 E-1.12 F2400
;WIPE_START
G1 F4800
G1 X106.47 Y107.659 E-.03714
G1 X106.442 Y107.586 E-.03714
;WIPE_END
G1 E-.40572 F2400
G1 X101.748 Y106.055 F6000
G1 E1.6 F2400
;TYPE:External perimeter
G1 F1200
G1 X101.748 Y106.907 E.02511
G1 X99.802 Y109.67 E.0996
G1 X98.935 Y109.67 E.02555
G1 X98.952 Y107.082 E.07628
G1 X98.505 Y106.973 E.01356
G1 X98.505 Y106.184 E.02325
G1 X98.954 Y106.117 E.01338
G1 X98.932 Y105.113 E.0296
G1 X100.04 Y105.112 E.03266
G1 X100.04 Y106.055 E.02779
G1 X101.688 Y106.055 E.04857
G1 X102.142 Y106.122 F6000
G1 E-1.12 F2400
;WIPE_START
G1 F4800
G1 X101.748 Y106.907 E-.4057
G1 X101.658 Y107.035 E-.0743
;WIPE_END
G1 X97.454 Y106.986 F6000
G1 E1.6 F2400
G1 F1200
G1 X97.242 Y107.933 E.0286
G1 X97.031 Y107.918 E.00623
G1 X96.706 Y108.045 E.01028
G1 X96.598 Y108.126 E.00398
G1 X96.537 Y108.206 E.00297
G1 X96.51 Y108.314 E.00328
G1 X96.514 Y108.427 E.00333
G1 X96.562 Y108.544 E.00373
G1 X96.703 Y108.646 E.00513
G1 X96.751 Y108.659 E.00147
G1 X96.935 Y108.661 E.00542
G1 X97.132 Y108.571 E.00638
G1 X97.305 Y108.331 E.00872
G1 X97.41 Y108.051 E.00881
G1 X98.357 Y108.105 E.02796
G1 X98.292 Y108.537 E.01288
G1 X98.218 Y108.801 E.00808
G1 X98.096 Y109.044 E.00801
G1 X97.931 Y109.253 E.00785
G1 X97.731 Y109.424 E.00776
G1 X97.504 Y109.554 E.00771
G1 X97.255 Y109.64 E.00776
G1 X96.988 Y109.682 E.00797
G1 X96.656 Y109.676 E.00979
G1 X96.289 Y109.59 E.01111
G1 X95.96 Y109.422 E.01089
G1 X95.809 Y109.303 E.00567
G1 X95.678 Y109.165 E.00561
G1 X95.498 Y108.869 E.01021
G1 X95.435 Y108.689 E.00562
G1 X95.393 Y108.353 E.00998
G1 X95.416 Y108.165 E.00558
G1 X95.525 Y107.878 E.00905
G1 X95.631 Y107.691 E.00634
G1 X95.806 Y107.6 E.00581
G1 X95.515 Y107.363 E.01106
G1 X95.343 Y107 E.01184
G1 X95.308 Y106.787 E.00636
G1 X95.301 Y106.441 E.0102
G1 X95.355 Y106.167 E.00823
G1 X95.486 Y105.771 E.01229
G1 X95.676 Y105.517 E.00935
G1 X95.911 Y105.301 E.00941
G1 X96.191 Y105.157 E.00928
G1 X96.352 Y105.103 E.005
G1 X96.68 Y105.048 E.0098
G1 X96.984 Y105.048 E.00896
G1 X97.276 Y105.096 E.00872
G1 X97.547 Y105.198 E.00853
G1 X97.796 Y105.355 E.00868
G1 X98.074 Y105.668 E.01234
G1 X98.152 Y105.819 E.00501
G1 X98.336 Y106.621 E.02425
G1 X97.438 Y106.822 E.02712
G1 X97.229 Y106.31 E.0163
G1 X97.179 Y106.235 E.00266
G1 X97.053 Y106.122 E.00499
G1 X96.916 Y106.073 E.00429
G1 X96.716 Y106.076 E.0059
G1 X96.553 Y106.144 E.00521
G1 X96.411 Y106.287 E.00594
G1 X96.34 Y106.464 E.00562
G1 X96.33 Y106.575 E.00328
G1 X96.362 Y106.763 E.00562
G1 X96.401 Y106.836 E.00244
G1 X96.517 Y106.955 E.0049
G1 X96.703 Y107.031 E.00592
G1 X96.859 Y107.048 E.00463
G1 X97.394 Y106.992 E.01585
G1 X97.851 Y107.037 F6000
G1 X96.964 Y106.658
;TYPE:Perimeter
G1 F1200
G1 X96.797 Y106.662 E.00492
G1 X96.72 Y106.63 E.00246
G1 X96.718 Y106.513 E.00345
G1 X96.776 Y106.452 E.00248
G1 X96.857 Y106.453 E.00239
G1 X96.894 Y106.487 E.00148
G1 X96.941 Y106.602 E.00366
G1 X98.573 Y107.378 F6000
G1 F1200
G1 X98.571 Y107.74 E.01067
G1 X97.683 Y107.689 E.02622
G1 X97.809 Y107.125 E.01703
G1 X98.128 Y107.054 E.00963
G1 X98.128 Y107.269 E.00634
G1 X98.515 Y107.364 E.01174
G1 E-1.12 F2400
;WIPE_START
G1 F4800
G1 X98.571 Y107.74 E-.18057
G1 X97.942 Y107.704 E-.29943
;WIPE_END
G1 X93.539 Y106.898 F6000
G1 E1.6 F2400
G1 F1200
G1 X93.493 Y106.798 E.00324
G1 X93.489 Y106.663 E.00398
G1 X93.51 Y106.552 E.00333
G1 X93.584 Y106.452 E.00367
G1 X93.664 Y106.451 E.00236
G1 X93.728 Y106.503 E.00243
G1 X93.901 Y106.838 E.01111
G1 X93.767 Y106.906 E.00443
G1 X93.596 Y106.917 E.00505
G1 E-1.12 F2400
;WIPE_START
G1 F4800
G1 X93.493 Y106.798 E-.07476
G1 X93.489 Y106.663 E-.06415
G1 X93.51 Y106.552 E-.05366
G1 X93.584 Y106.452 E-.05909
G1 X93.664 Y106.451 E-.038
G1 X93.728 Y106.503 E-.03917
G1 X93.874 Y106.786 E-.15117
;WIPE_END
G1 X92.157 Y109.613 F6000
G1 E1.6 F2400
;TYPE:External perimeter
G1 F1200
G1 X92.178 Y108.532 E.03187
G1 X93.26 Y108.619 E.03199
G1 X93.857 Y108.606 E.0176
G1 X93.961 Y108.169 E.01324
G1 X93.519 Y108.251 E.01325
G1 X93.099 Y108.222 E.01241
G1 X92.815 Y108.144 E.00868
G1 X92.552 Y107.993 E.00894
G1 X92.325 Y107.785 E.00907
G1 X92.223 Y107.65 E.00499
G1 X92.083 Y107.381 E.00894
G1 X91.999 Y107.079 E.00924
G1 X91.972 Y106.758 E.00949
G1 X91.996 Y106.446 E.00922
G1 X92.118 Y106.025 E.01292
G1 X92.263 Y105.76 E.0089
G1 X92.474 Y105.501 E.00985
G1 X92.753 Y105.277 E.01055
G1 X93.08 Y105.126 E.01062
G1 X93.458 Y105.052 E.01135
G1 X93.93 Y105.067 E.01392
G1 X94.219 Y105.14 E.00879
G1 X94.485 Y105.265 E.00866
G1 X94.705 Y105.451 E.00849
G1 X94.886 Y105.665 E.00826
G1 X94.957 Y105.811 E.00478
G1 X95.056 Y106.171 E.011
G1 X95.141 Y106.644 E.01416
G1 X94.264 Y106.718 E.02594
G1 X94.054 Y106.312 E.01347
G1 X93.945 Y106.177 E.00511
G1 X93.729 Y106.072 E.00708
G1 X93.516 Y106.077 E.00628
G1 X93.354 Y106.149 E.00522
G1 X93.232 Y106.27 E.00506
G1 X93.151 Y106.426 E.00518
G1 X93.11 Y106.632 E.00619
G1 X93.118 Y106.86 E.00672
G1 X93.169 Y107.027 E.00515
G1 X93.256 Y107.153 E.00451
G1 X93.413 Y107.258 E.00557
G1 X93.516 Y107.288 E.00316
G1 X93.638 Y107.3 E.00361
G1 X93.877 Y107.273 E.00709
G1 X94.157 Y107.131 E.00925
G1 X94.266 Y107.004 E.00493
G1 X95.04 Y107.086 E.02294
G1 X95.01 Y107.719 E.01868
G1 X94.956 Y108.143 E.0126
G1 X94.684 Y109.616 E.04415
G1 X92.217 Y109.613 E.07271
G1 X91.761 Y109.672 F6000
G1 E-1.12 F2400
;WIPE_START
G1 F4800
G1 X92.181 Y108.603 E-.48
;WIPE_END
G1 X119.445 Y106.658 F6000
G1 E1.6 F2400
;TYPE:Perimeter
G1 F1200
G1 X119.28 Y106.662 E.00486
G1 X119.203 Y106.63 E.00246
G1 X119.201 Y106.513 E.00345
G1 X119.259 Y106.452 E.00248
G1 X119.339 Y106.452 E.00236
G1 X119.375 Y106.485 E.00144
G1 X119.423 Y106.602 E.00373
G1 E-1.12 F2400
;WIPE_START
G1 F4800
G1 X119.28 Y106.662 E-.07366
G1 X119.203 Y106.63 E-.03961
G1 X119.201 Y106.513 E-.05558
G1 X119.259 Y106.452 E-.03998
G1 X119.339 Y106.452 E-.038
G1 X119.375 Y106.485 E-.0232
G1 X119.423 Y106.602 E-.06007
;WIPE_END
G1 E-.1499 F2400
G1 X126.313 Y107.589 F6000
G1 E1.6 F2400
;TYPE:External perimeter
G1 F1200
G1 X126.332 Y107.576 E.00068
G1 X126.208 Y107.474 E.00473
G1 X126.013 Y107.371 E.0065
G1 X125.804 Y106.993 E.01273
G1 X125.74 Y106.776 E.00667
G1 X125.722 Y106.549 E.00671
G1 X125.746 Y106.248 E.0089
G1 X125.832 Y105.963 E.00877
G1 X125.975 Y105.703 E.00875
G1 X126.172 Y105.474 E.0089
G1 X126.415 Y105.285 E.00907
G1 X126.693 Y105.149 E.00912
G1 X126.995 Y105.071 E.00919
G1 X127.179 Y105.05 E.00546
G1 X127.494 Y105.051 E.00928
G1 X127.812 Y105.104 E.0095
G1 X128.106 Y105.216 E.00927
G1 X128.37 Y105.394 E.00938
G1 X128.66 Y105.75 E.01353
G1 X128.778 Y106.149 E.01226
G1 X128.829 Y106.418 E.00807
G1 X128.821 Y106.77 E.01038
G1 X128.776 Y106.978 E.00627
G1 X128.618 Y107.344 E.01175
G1 X128.327 Y107.584 E.01112
G1 X128.451 Y107.706 E.00513
G1 X128.614 Y107.809 E.00568
G1 X128.695 Y108.015 E.00652
G1 X128.771 Y108.345 E.00998
G1 X128.747 Y108.623 E.00822
G1 X128.674 Y108.881 E.0079
G1 X128.465 Y109.212 E.01154
G1 X128.157 Y109.474 E.01192
G1 X127.897 Y109.597 E.00848
G1 X127.485 Y109.682 E.0124
G1 X127.038 Y109.664 E.01319
G1 X126.632 Y109.539 E.01252
G1 X126.291 Y109.302 E.01224
G1 X126.044 Y108.99 E.01173
G1 X125.94 Y108.746 E.00782
G1 X125.907 Y108.605 E.00427
G1 X125.885 Y108.344 E.00772
G1 X125.906 Y108.151 E.00572
G1 X126.023 Y107.853 E.00944
G1 X126.136 Y107.663 E.00652
G1 X126.258 Y107.612 E.0039
G1 X126.31 Y107.567 F6000
G1 E-1.12 F2400
;WIPE_START
G1 F4800
G1 X126.332 Y107.576 E-.03909
G1 X126.208 Y107.474 E-.07627
G1 X126.013 Y107.371 E-.10475
G1 X125.804 Y106.993 E-.20517
G1 X125.771 Y106.883 E-.05472
;WIPE_END
G1 X129.037 Y106.184 F6000
G1 E1.6 F2400
G1 F1200
G1 X129.486 Y106.117 E.01338
G1 X129.464 Y105.113 E.0296
G1 X130.572 Y105.112 E.03266
G1 X130.572 Y106.056 E.02782
G1 X131.549 Y106.061 E.0288
G1 X132.274 Y106.101 E.0214
G1 X132.172 Y106.887 E.02336
G1 X131.894 Y107.281 E.01421
G1 X131.695 Y107.678 E.01309
G1 X131.453 Y108.071 E.0136
G1 X130.335 Y109.67 E.0575
G1 X129.469 Y109.67 E.02552
G1 X129.483 Y107.072 E.07657
G1 X129.037 Y106.979 E.01343
G1 X129.037 Y106.244 E.02166
G1 X128.936 Y105.797 F6000
G1 X129.022 Y107.361
;TYPE:Perimeter
G1 F1200
G1 X129.098 Y107.377 E.00229
G1 X129.092 Y108.059 E.0201
G1 X129.056 Y107.904 E.00469
G1 X128.929 Y107.577 E.01034
G1 X128.998 Y107.416 E.00516
G1 E-1.12 F2400
;WIPE_START
G1 F4800
G1 X129.098 Y107.377 E-.05098
G1 X129.092 Y108.059 E-.32396
G1 X129.056 Y107.904 E-.07558
G1 X129.034 Y107.846 E-.02948
;WIPE_END
G1 X132.221 Y107.812 F6000
G1 E1.6 F2400
;TYPE:External perimeter
G1 F1200
G1 X132.283 Y106.956 E.0253
G1 X132.815 Y106.875 E.01586
G1 X133.244 Y106.848 E.01267
G1 X133.241 Y105.749 E.03239
G1 X134.318 Y105.749 E.03174
G1 X134.318 Y106.829 E.03183
G1 X135.39 Y106.829 E.0316
G1 X135.39 Y107.9 E.03157
G1 X134.318 Y107.9 E.0316
G1 X134.318 Y108.971 E.03157
G1 X133.242 Y108.971 E.03171
G1 X133.242 Y107.891 E.03183
G1 X132.823 Y107.876 E.01236
G1 X132.281 Y107.818 E.01607
G1 X131.822 Y107.783 F6000
G1 E-1.12 F2400
;WIPE_START
G1 F4800
G1 X132.283 Y106.956 E-.40945
G1 X132.43 Y106.934 E-.07055
;WIPE_END
G1 X121.223 Y107.713 F6000
G1 E1.6 F2400
;TYPE:Perimeter
G1 F1200
G1 X121.324 Y107.544 E.0058
G1 X121.623 Y106.924 E.02029
G1 X121.736 Y106.631 E.00926
G1 X121.894 Y106.097 E.01641
G1 X121.975 Y105.622 E.0142
G1 X122.057 Y104.735 E.02625
G1 X123.909 Y104.735 E.05458
G1 X123.85 Y105.741 E.0297
G1 X123.747 Y106.373 E.01887
G1 X123.556 Y107.08 E.02158
G1 X123.42 Y107.45 E.01162
G1 X123.255 Y107.813 E.01175
G1 X123.009 Y108.218 E.01397
G1 X123.194 Y108.192 E.00551
G1 X124.408 Y108.134 E.03582
G1 X124.422 Y109.996 E.05488
G1 X122.02 Y109.994 E.07079
G1 X120.45 Y109.93 E.04631
G1 X120.488 Y109.658 E.00809
G1 X120.163 Y109.885 E.01168
G1 X119.835 Y110.002 E.01026
G1 X119.501 Y110.059 E.00999
G1 X119.111 Y110.053 E.0115
G1 X118.849 Y110.008 E.00784
G1 X118.422 Y109.85 E.01342
G1 X118.051 Y109.593 E.0133
G1 X117.865 Y109.394 E.00803
