; generated by PrusaSlicer 2.6.1+win64 on 2023-10-03 at 13:25:30 UTC

; 

; external perimeters extrusion width = 0.42mm
; perimeters extrusion width = 0.44mm
; infill extrusion width = 0.44mm
; solid infill extrusion width = 0.44mm
; top infill extrusion width = 0.40mm
; first layer extrusion width = 0.42mm

;TYPE:Custom
; Ender 3 Custom Start G-code
G92 E0 ; Reset Extruder

M140 S55 ; set bed temp
M104 S160 ; set extruder temp
M109 S160 ; wait for extruder temp
M190 S55 ; wait for bed temp

G28 ; Home all axes
M104 S210 ; set extruder temp 
BED_MESH_CALIBRATE AREA_START=83.7496,88.5673 AREA_END=143.746,126.221

G1 Z2.0 F3000 ; Move Z Axis up little to prevent scratching of Heat Bed
M109 S210 ; wait for extruder temp
G1 X0.1 Y20 Z0.3 F5000.0 ; Move to start position

G1 X0.1 Y200.0 Z0.3 F1500.0 E15 ; Draw the first line
G1 X0.4 Y200.0 Z0.3 F5000.0 ; Move to side a little
G1 X0.4 Y20 Z0.3 F1500.0 E30 ; Draw the second line
G92 E0 ; Reset Extruder
G1 Z2.0 F3000 ; Move Z Axis up little to prevent scratching of Heat Bed
G1 X5 Y20 Z0.3 F5000.0 ; Move over to prevent blob squish
G21 ; set units to millimeters
G90 ; use absolute coordinates
M83 ; use relative distances for extrusion
; Filament gcode
M107
;LAYER_CHANGE
;Z:0.2
;HEIGHT:0.2
;BEFORE_LAYER_CHANGE
G92 E0
;0.2


G1 E-1.6 F2400
G1 Z.2 F6000
;AFTER_LAYER_CHANGE
;0.2
G1 X87.359 Y92.303
G1 E1.6 F2400
M204 S500
;TYPE:Skirt/Brim
;WIDTH:0.42
G1 F1200
G1 X88.456 Y91.306 E.04369
G1 X89.19 Y90.765 E.02687
G1 X90.363 Y90.063 E.04029
G1 X92.036 Y89.357 E.05352
G1 X93.728 Y88.93 E.05143
G1 X94.971 Y88.78 E.0369
G1 X132.149 Y88.767 E1.09575
G1 X133.352 Y88.854 E.03555
G1 X134.581 Y89.073 E.03679
G1 X136.442 Y89.677 E.05767
G1 X138.023 Y90.493 E.05244
G1 X139.441 Y91.523 E.05165
G1 X140.171 Y92.186 E.02906
G1 X140.9 Y92.997 E.03214
G1 X141.949 Y94.496 E.05392
G1 X142.449 Y95.448 E.03169
G1 X142.921 Y96.603 E.03677
G1 X143.358 Y98.259 E.05048
G1 X143.558 Y100.228 E.05833
G1 X143.553 Y114.24 E.41298
G1 X143.509 Y115.461 E.03601
G1 X143.323 Y116.718 E.03745
G1 X143.022 Y117.873 E.03518
G1 X142.616 Y118.979 E.03472
G1 X141.655 Y120.768 E.05985
G1 X141.071 Y121.58 E.02948
G1 X140.125 Y122.645 E.04198
G1 X139.101 Y123.552 E.04032
G1 X138.358 Y124.088 E.027
G1 X136.664 Y125.02 E.05698
G1 X135.497 Y125.466 E.03682
G1 X133.875 Y125.865 E.04923
G1 X132.337 Y126.024 E.04557
G1 X94.873 Y125.998 E1.10418
G1 X93.689 Y125.869 E.0351
G1 X92.25 Y125.537 E.04353
G1 X91.21 Y125.17 E.0325
G1 X89.703 Y124.435 E.04942
G1 X88.786 Y123.837 E.03227
G1 X87.777 Y123.022 E.03823
G1 X87.081 Y122.339 E.02874
G1 X86.081 Y121.113 E.04663
G1 X85.24 Y119.735 E.04758
G1 X84.581 Y118.197 E.04932
G1 X84.184 Y116.762 E.04388
G1 X83.975 Y115.312 E.04318
G1 X84.149 Y99.257 E.47322
G1 X84.387 Y97.781 E.04406
G1 X84.721 Y96.609 E.03592
G1 X85.161 Y95.522 E.03456
G1 X85.802 Y94.319 E.04018
G1 X86.389 Y93.449 E.03093
G1 X87.32 Y92.348 E.0425
G1 X87.608 Y92.592 F6000
G1 F1200
G1 X88.698 Y91.595 E.04354
G1 X89.411 Y91.071 E.02608
G1 X90.539 Y90.397 E.03873
G1 X92.169 Y89.71 E.05213
G1 X93.802 Y89.3 E.04962
G1 X94.983 Y89.157 E.03506
G1 X132.149 Y89.144 E1.0954
G1 X133.959 Y89.329 E.05362
G1 X135.556 Y89.746 E.04865
G1 X137.271 Y90.495 E.05516
G1 X138.012 Y90.931 E.02534
G1 X139.116 Y91.74 E.04034
G1 X139.905 Y92.453 E.03134
G1 X140.693 Y93.335 E.03486
G1 X141.632 Y94.7 E.04883
G1 X142.105 Y95.601 E.02999
G1 X142.568 Y96.736 E.03613
G1 X142.986 Y98.317 E.0482
G1 X143.181 Y100.228 E.05662
G1 X143.176 Y114.24 E.41298
G1 X143.133 Y115.428 E.03504
G1 X142.953 Y116.644 E.03623
G1 X142.378 Y118.568 E.05918
G1 X141.355 Y120.539 E.06545
G1 X140.78 Y121.34 E.02906
G1 X139.892 Y122.346 E.03955
G1 X138.917 Y123.215 E.03849
G1 X138.139 Y123.781 E.02836
G1 X136.497 Y124.682 E.0552
G1 X135.374 Y125.11 E.03542
G1 X133.816 Y125.492 E.04728
G1 X132.31 Y125.648 E.04462
G1 X94.742 Y125.614 E1.10724
G1 X93.664 Y125.481 E.03201
G1 X92.131 Y125.105 E.04652
G1 X90.788 Y124.576 E.04254
G1 X89.871 Y124.096 E.03051
G1 X88.998 Y123.525 E.03074
G1 X88.038 Y122.75 E.03636
G1 X86.87 Y121.53 E.04978
G1 X86.299 Y120.765 E.02814
G1 X85.569 Y119.55 E.04178
G1 X84.934 Y118.064 E.04763
G1 X84.55 Y116.674 E.0425
G1 X84.352 Y115.295 E.04106
G1 X84.523 Y99.301 E.47142
G1 X84.756 Y97.861 E.04299
G1 X85.081 Y96.722 E.03491
G1 X85.5 Y95.688 E.03288
G1 X86.181 Y94.42 E.04242
G1 X86.685 Y93.682 E.02634
G1 X87.569 Y92.637 E.04034
G1 X87.856 Y92.88 F6000
G1 F1200
G1 X88.941 Y91.884 E.04341
G1 X89.72 Y91.316 E.02841
G1 X90.845 Y90.666 E.03829
G1 X92.344 Y90.048 E.04779
G1 X93.88 Y89.669 E.04663
G1 X94.994 Y89.534 E.03307
G1 X132.149 Y89.521 E1.09507
G1 X133.848 Y89.691 E.05032
G1 X135.423 Y90.099 E.04795
G1 X137.091 Y90.826 E.05363
G1 X137.799 Y91.242 E.0242
G1 X138.876 Y92.031 E.03935
G1 X139.579 Y92.662 E.02784
G1 X140.401 Y93.573 E.03616
G1 X141.351 Y94.964 E.04965
G1 X142.215 Y96.869 E.06165
G1 X142.613 Y98.375 E.04591
G1 X142.803 Y100.228 E.0549
G1 X142.799 Y114.239 E.41295
G1 X142.75 Y115.467 E.03622
G1 X142.584 Y116.569 E.03285
G1 X142.022 Y118.442 E.05763
G1 X141.072 Y120.286 E.06114
G1 X140.481 Y121.112 E.02993
G1 X139.629 Y122.075 E.0379
G1 X138.63 Y122.963 E.03939
G1 X137.92 Y123.474 E.02578
G1 X136.332 Y124.343 E.05335
G1 X135.269 Y124.748 E.03353
G1 X133.757 Y125.12 E.04589
G1 X132.284 Y125.272 E.04364
G1 X94.771 Y125.238 E1.10562
G1 X93.738 Y125.111 E.03067
G1 X92.258 Y124.75 E.0449
G1 X90.938 Y124.23 E.04181
G1 X90.055 Y123.767 E.02939
G1 X89.21 Y123.213 E.02978
G1 X88.299 Y122.479 E.03448
G1 X87.153 Y121.28 E.04888
G1 X86.614 Y120.559 E.02653
G1 X85.852 Y119.279 E.0439
G1 X85.288 Y117.932 E.04304
G1 X84.917 Y116.586 E.04115
G1 X84.729 Y115.277 E.03898
G1 X84.898 Y99.344 E.46962
G1 X85.124 Y97.94 E.04191
G1 X85.44 Y96.835 E.03387
G1 X85.838 Y95.854 E.0312
G1 X86.502 Y94.618 E.04135
G1 X86.982 Y93.915 E.02509
G1 X87.818 Y92.926 E.03817
; printing object Shape-Box id:0 copy 0
G1 E-1.12 F2400
;WIPE_START
G1 F4800
G1 X88.559 Y92.239 E-.48
;WIPE_END
G1 X110.059 Y109.903 F6000
G1 E1.6 F2400
;TYPE:Perimeter
G1 F1200
G1 X110.06 Y106.501 E.10027
G1 X115.91 Y106.503 E.17242
G1 X115.911 Y104.721 E.05252
G1 X109.269 Y104.719 E.19576
G1 X109.27 Y101.299 E.1008
G1 X119.638 Y101.302 E.30558
G1 X119.634 Y114.55 E.39046
G1 X109.554 Y114.547 E.29709
G1 X109.555 Y111.163 E.09974
G1 X115.909 Y111.165 E.18727
G1 X115.909 Y109.905 E.03714
G1 X110.119 Y109.903 E.17065
G1 X110.436 Y109.526 F6000
;TYPE:External perimeter
G1 F1200
G1 X110.437 Y106.878 E.07804
G1 X116.287 Y106.88 E.17242
G1 X116.288 Y104.344 E.07474
G1 X109.646 Y104.342 E.19576
G1 X109.647 Y101.676 E.07858
G1 X119.261 Y101.679 E.28335
G1 X119.257 Y114.173 E.36824
G1 X109.931 Y114.17 E.27487
G1 X109.932 Y111.54 E.07751
G1 X116.286 Y111.542 E.18727
G1 X116.286 Y109.528 E.05936
G1 X110.496 Y109.526 E.17065
G1 X110.039 Y109.482 F6000
G1 E-1.12 F2400
;WIPE_START
G1 F4800
G1 X110.473 Y108.516 E-.48
;WIPE_END
G1 X107.732 Y110.385 F6000
G1 E1.6 F2400
;TYPE:Perimeter
G1 F1200
G1 X107.523 Y111.053 E.02063
G1 X107.264 Y111.666 E.01961
G1 X106.953 Y112.235 E.01911
G1 X106.589 Y112.758 E.01878
G1 X106.174 Y113.231 E.01855
G1 X105.709 Y113.651 E.01847
G1 X105.196 Y114.015 E.01854
G1 X104.639 Y114.321 E.01873
G1 X104.04 Y114.566 E.01907
G1 X103.402 Y114.75 E.01957
G1 X102.728 Y114.872 E.02019
G1 X102.019 Y114.934 E.02098
G1 X101.291 Y114.933 E.02146
G1 X100.92 Y114.909 E.01096
G1 X100.235 Y114.818 E.02037
G1 X99.58 Y114.664 E.01983
G1 X98.963 Y114.448 E.01927
G1 X98.387 Y114.171 E.01884
G1 X97.854 Y113.833 E.0186
G1 X97.368 Y113.438 E.01846
G1 X96.931 Y112.988 E.01849
G1 X96.546 Y112.486 E.01865
G1 X96.212 Y111.935 E.01899
G1 X95.931 Y111.339 E.01942
G1 X95.702 Y110.701 E.01998
G1 X95.525 Y110.022 E.02068
G1 X95.399 Y109.304 E.02149
G1 X95.324 Y108.549 E.02236
G1 X95.299 Y107.757 E.02335
G1 X95.325 Y106.967 E.0233
G1 X95.401 Y106.221 E.0221
G1 X95.527 Y105.516 E.02111
G1 X95.706 Y104.854 E.02021
G1 X95.937 Y104.236 E.01945
G1 X96.221 Y103.663 E.01885
G1 X96.559 Y103.137 E.01843
G1 X96.949 Y102.663 E.01809
G1 X97.39 Y102.241 E.01799
G1 X97.872 Y101.881 E.01773
G1 X98.148 Y101.711 E.00955
G1 X98.695 Y101.436 E.01804
G1 X99.29 Y101.214 E.01872
G1 X99.922 Y101.05 E.01924
G1 X100.59 Y100.942 E.01994
G1 X101.323 Y100.888 E.02166
G1 X102.022 Y100.889 E.0206
G1 X102.726 Y100.946 E.02082
G1 X103.397 Y101.06 E.02006
G1 X104.032 Y101.233 E.0194
G1 X104.63 Y101.463 E.01888
G1 X105.187 Y101.752 E.01849
G1 X105.7 Y102.099 E.01825
G1 X106.167 Y102.501 E.01816
G1 X106.584 Y102.957 E.01821
G1 X106.95 Y103.464 E.01843
G1 X107.263 Y104.017 E.01873
G1 X107.523 Y104.616 E.01925
G1 X107.73 Y105.258 E.01988
G1 X107.884 Y105.939 E.02058
G1 X107.986 Y106.655 E.02132
G1 X108.019 Y107.046 E.01156
G1 X108.038 Y108.206 E.03419
G1 X107.986 Y108.977 E.02278
G1 X107.884 Y109.707 E.02172
G1 X107.746 Y110.326 E.01869
G1 X107.365 Y110.302 F6000
;TYPE:External perimeter
G1 F1200
G1 X107.169 Y110.923 E.01919
G1 X106.924 Y111.501 E.0185
G1 X106.632 Y112.037 E.01799
G1 X106.292 Y112.525 E.01753
G1 X105.905 Y112.966 E.01729
G1 X105.473 Y113.356 E.01715
G1 X104.996 Y113.695 E.01725
G1 X104.476 Y113.98 E.01748
G1 X103.916 Y114.209 E.01783
G1 X103.316 Y114.382 E.0184
G1 X102.678 Y114.498 E.01911
G1 X102.003 Y114.557 E.01997
G1 X101.303 Y114.556 E.02063
G1 X100.957 Y114.534 E.01022
G1 X100.303 Y114.447 E.01945
G1 X99.686 Y114.301 E.01869
G1 X99.108 Y114.099 E.01805
G1 X98.57 Y113.84 E.0176
G1 X98.075 Y113.527 E.01726
G1 X97.623 Y113.16 E.01716
G1 X97.217 Y112.741 E.0172
G1 X96.857 Y112.273 E.0174
G1 X96.545 Y111.756 E.0178
G1 X96.28 Y111.195 E.01829
G1 X96.063 Y110.589 E.01897
G1 X95.894 Y109.942 E.01971
G1 X95.773 Y109.253 E.02062
G1 X95.701 Y108.524 E.02159
G1 X95.677 Y107.757 E.02262
G1 X95.701 Y106.993 E.02253
G1 X95.774 Y106.274 E.0213
G1 X95.896 Y105.599 E.02022
G1 X96.066 Y104.97 E.0192
G1 X96.284 Y104.386 E.01837
G1 X96.55 Y103.849 E.01766
G1 X96.865 Y103.36 E.01714
G1 X97.226 Y102.92 E.01677
G1 X97.634 Y102.53 E.01664
G1 X98.084 Y102.193 E.01657
G1 X98.332 Y102.04 E.00859
G1 X98.846 Y101.782 E.01695
G1 X99.404 Y101.575 E.01754
G1 X100 Y101.42 E.01815
G1 X100.635 Y101.317 E.01896
G1 X101.336 Y101.265 E.02072
G1 X102.006 Y101.266 E.01975
G1 X102.679 Y101.321 E.0199
G1 X103.316 Y101.429 E.01904
G1 X103.915 Y101.591 E.01829
G1 X104.475 Y101.808 E.0177
G1 X104.994 Y102.077 E.01723
G1 X105.471 Y102.399 E.01696
G1 X105.904 Y102.772 E.01684
G1 X106.291 Y103.196 E.01692
G1 X106.632 Y103.667 E.01714
G1 X106.925 Y104.186 E.01757
G1 X107.17 Y104.75 E.01812
G1 X107.366 Y105.357 E.0188
G1 X107.513 Y106.008 E.01967
G1 X107.611 Y106.697 E.02051
G1 X107.643 Y107.065 E.01089
G1 X107.661 Y108.196 E.03334
G1 X107.611 Y108.938 E.02192
G1 X107.512 Y109.639 E.02087
G1 X107.378 Y110.243 E.01823
G1 X107.647 Y110.585 F6000
G1 E-1.12 F2400
;WIPE_START
G1 F4800
G1 X107.169 Y110.923 E-.33791
G1 X107.052 Y111.198 E-.14209
;WIPE_END
G1 X112.245 Y116.823 F6000
G1 E1.6 F2400
;TYPE:Perimeter
G1 F1200
G1 X112.581 Y116.607 E.01177
G1 X113.041 Y116.434 E.01448
G1 X113.427 Y116.373 E.01152
G1 X113.838 Y116.383 E.01212
G1 X114.266 Y116.477 E.01292
G1 X114.739 Y116.699 E.0154
G1 X115.092 Y116.975 E.01321
G1 X115.388 Y117.323 E.01347
G1 X115.601 Y117.718 E.01323
G1 X115.724 Y118.12 E.01239
G1 X115.768 Y118.523 E.01195
G1 X115.726 Y118.987 E.01373
G1 X115.617 Y119.357 E.01137
G1 X115.396 Y119.78 E.01407
G1 X115.133 Y120.1 E.01221
G1 X114.776 Y120.391 E.01357
G1 X114.442 Y120.57 E.01117
G1 X114.09 Y120.687 E.01093
G1 X113.634 Y120.748 E.01356
G1 X113.239 Y120.721 E.01167
G1 X112.919 Y120.646 E.00969
G1 X112.476 Y120.451 E.01427
G1 X112.163 Y120.229 E.01131
G1 X111.869 Y119.928 E.0124
G1 X111.622 Y119.544 E.01346
G1 X111.463 Y119.125 E.01321
G1 X111.397 Y118.753 E.01114
G1 X111.397 Y118.358 E.01164
G1 X111.483 Y117.918 E.01321
G1 X111.641 Y117.536 E.01218
G1 X111.893 Y117.158 E.01339
G1 X112.198 Y116.86 E.01257
G1 X112.454 Y117.137 F6000
;TYPE:External perimeter
G1 F1200
G1 X112.751 Y116.945 E.01042
G1 X113.138 Y116.8 E.01218
G1 X113.452 Y116.751 E.00937
G1 X113.792 Y116.759 E.01002
G1 X114.144 Y116.837 E.01063
G1 X114.54 Y117.022 E.01288
G1 X114.83 Y117.248 E.01084
G1 X115.074 Y117.537 E.01115
G1 X115.251 Y117.864 E.01096
G1 X115.353 Y118.196 E.01024
G1 X115.389 Y118.527 E.00981
G1 X115.354 Y118.916 E.01151
G1 X115.266 Y119.215 E.00919
G1 X115.079 Y119.571 E.01185
G1 X114.866 Y119.831 E.00991
G1 X114.566 Y120.076 E.01142
G1 X114.292 Y120.222 E.00915
G1 X114.005 Y120.318 E.00892
G1 X113.622 Y120.369 E.01139
G1 X113.295 Y120.346 E.00966
G1 X113.039 Y120.287 E.00774
G1 X112.663 Y120.121 E.01211
G1 X112.409 Y119.941 E.00918
G1 X112.165 Y119.692 E.01027
G1 X111.96 Y119.373 E.01118
G1 X111.828 Y119.024 E.011
G1 X111.774 Y118.72 E.0091
G1 X111.774 Y118.395 E.00958
G1 X111.846 Y118.027 E.01105
G1 X111.975 Y117.714 E.00998
G1 X112.184 Y117.4 E.01112
G1 X112.411 Y117.179 E.00934
G1 X112.4 Y116.787 F6000
G1 E-1.12 F2400
;WIPE_START
G1 F4800
G1 X112.751 Y116.945 E-.19605
G1 X113.138 Y116.8 E-.1963
G1 X113.32 Y116.772 E-.08765
;WIPE_END
G1 X121.095 Y104.776 F6000
G1 E1.6 F2400
;TYPE:Perimeter
G1 F1200
G1 X121.096 Y101.302 E.10239
G1 X130.816 Y101.305 E.28648
G1 X130.812 Y114.553 E.39046
G1 X127.014 Y114.552 E.11194
G1 X127.017 Y104.778 E.28807
G1 X121.155 Y104.776 E.17277
G1 X121.472 Y104.399 F6000
;TYPE:External perimeter
G1 F1200
G1 X121.473 Y101.68 E.08014
G1 X130.439 Y101.682 E.26426
G1 X130.435 Y114.176 E.36824
G1 X127.391 Y114.175 E.08972
G1 X127.394 Y104.401 E.28807
G1 X121.532 Y104.4 E.17277
G1 X121.095 Y104.265 F6000
G1 E-1.12 F2400
;WIPE_START
G1 F4800
G1 X121.51 Y103.39 E-.48
;WIPE_END
G1 X124.383 Y98.082 F6000
G1 E1.6 F2400
;TYPE:Perimeter
G1 F1200
G1 X124.436 Y98.082 E.00156
G1 X124.799 Y97.194 E.02827
G1 X125.001 Y96.782 E.01352
G1 X125.315 Y96.23 E.01872
G1 X125.609 Y95.796 E.01545
G1 X125.895 Y95.432 E.01364
G1 X126.321 Y94.95 E.01896
G1 X126.729 Y94.563 E.01657
G1 X127.092 Y94.257 E.01399
G1 X127.61 Y93.883 E.01883
G1 X128.344 Y93.453 E.02507
G1 X129.028 Y93.142 E.02215
G1 X129.528 Y92.961 E.01567
G1 X130.071 Y92.806 E.01664
G1 X130.656 Y92.689 E.01758
G1 X131.318 Y92.607 E.01966
G1 X132.133 Y92.586 E.02403
G1 X132.837 Y92.638 E.02081
G1 X133.278 Y92.702 E.01313
G1 X133.779 Y92.806 E.01508
G1 X134.364 Y92.974 E.01794
G1 X135.072 Y93.242 E.02231
G1 X135.615 Y93.512 E.01787
G1 X136.093 Y93.787 E.01625
G1 X136.539 Y94.092 E.01592
G1 X136.908 Y94.38 E.0138
G1 X137.466 Y94.881 E.0221
G1 X138.032 Y95.519 E.02514
G1 X138.384 Y96.003 E.01764
G1 X138.71 Y96.518 E.01796
G1 X138.976 Y97.032 E.01706
G1 X139.149 Y97.422 E.01257
G1 X139.339 Y97.926 E.01587
G1 X139.479 Y98.396 E.01445
G1 X139.589 Y98.872 E.0144
G1 X139.69 Y99.524 E.01945
G1 X139.739 Y100.231 E.02089
G1 X139.731 Y100.752 E.01536
G1 X139.685 Y101.316 E.01668
G1 X139.586 Y101.951 E.01894
G1 X139.408 Y102.649 E.02123
G1 X139.233 Y103.168 E.01614
G1 X139.009 Y103.703 E.01709
G1 X138.7 Y104.293 E.01963
G1 X138.394 Y104.782 E.017
G1 X138.015 Y105.3 E.01892
G1 X137.493 Y105.883 E.02306
G1 X137.128 Y106.227 E.01478
G1 X136.709 Y106.579 E.01613
G1 X135.54 Y107.415 E.04236
G1 X136.526 Y108.085 E.03513
G1 X136.912 Y108.385 E.01441
G1 X137.322 Y108.753 E.01624
G1 X137.644 Y109.079 E.0135
G1 X138.014 Y109.505 E.01663
G1 X138.367 Y109.983 E.01751
G1 X138.715 Y110.535 E.01923
G1 X138.958 Y110.999 E.01544
G1 X139.143 Y111.416 E.01345
G1 X139.339 Y111.939 E.01646
G1 X139.504 Y112.508 E.01746
G1 X139.688 Y113.538 E.03084
G1 X139.734 Y114.248 E.02097
G1 X139.705 Y115.117 E.02563
G1 X139.579 Y115.962 E.02518
G1 X139.392 Y116.687 E.02207
G1 X139.149 Y117.376 E.02153
G1 X138.516 Y118.594 E.04046
G1 X138.11 Y119.169 E.02075
G1 X137.794 Y119.552 E.01463
G1 X137.483 Y119.888 E.01349
G1 X137.129 Y120.223 E.01436
G1 X136.711 Y120.573 E.01607
G1 X136.165 Y120.962 E.01976
G1 X135.618 Y121.283 E.01869
G1 X135.011 Y121.578 E.01989
G1 X134.387 Y121.813 E.01965
G1 X133.791 Y121.987 E.0183
G1 X133.265 Y122.095 E.01583
G1 X132.789 Y122.164 E.01418
G1 X132.099 Y122.213 E.02039
G1 X131.361 Y122.193 E.02176
G1 X130.677 Y122.113 E.0203
G1 X130.145 Y122.007 E.01599
G1 X129.608 Y121.864 E.01638
G1 X129.044 Y121.663 E.01765
G1 X128.538 Y121.442 E.01627
