; generated by PrusaSlicer 2.6.1+win64 on 2023-09-28 at 11:33:07 UTC

; 

; external perimeters extrusion width = 0.42mm
; perimeters extrusion width = 0.44mm
; infill extrusion width = 0.44mm
; solid infill extrusion width = 0.44mm
; top infill extrusion width = 0.40mm
; first layer extrusion width = 0.42mm

; external perimeters extrusion width = 0.42mm
; perimeters extrusion width = 0.44mm
; infill extrusion width = 0.44mm
; solid infill extrusion width = 0.44mm
; top infill extrusion width = 0.40mm
; first layer extrusion width = 0.42mm

; external perimeters extrusion width = 0.42mm
; perimeters extrusion width = 0.44mm
; infill extrusion width = 0.44mm
; solid infill extrusion width = 0.44mm
; top infill extrusion width = 0.40mm
; first layer extrusion width = 0.42mm

; external perimeters extrusion width = 0.42mm
; perimeters extrusion width = 0.44mm
; infill extrusion width = 0.44mm
; solid infill extrusion width = 0.44mm
; top infill extrusion width = 0.40mm
; first layer extrusion width = 0.42mm

; external perimeters extrusion width = 0.42mm
; perimeters extrusion width = 0.44mm
; infill extrusion width = 0.44mm
; solid infill extrusion width = 0.44mm
; top infill extrusion width = 0.40mm
; first layer extrusion width = 0.42mm

; external perimeters extrusion width = 0.42mm
; perimeters extrusion width = 0.44mm
; infill extrusion width = 0.44mm
; solid infill extrusion width = 0.44mm
; top infill extrusion width = 0.40mm
; first layer extrusion width = 0.42mm

; external perimeters extrusion width = 0.42mm
; perimeters extrusion width = 0.44mm
; infill extrusion width = 0.44mm
; solid infill extrusion width = 0.44mm
; top infill extrusion width = 0.40mm
; first layer extrusion width = 0.42mm

; external perimeters extrusion width = 0.42mm
; perimeters extrusion width = 0.44mm
; infill extrusion width = 0.44mm
; solid infill extrusion width = 0.44mm
; top infill extrusion width = 0.40mm
; first layer extrusion width = 0.42mm

; external perimeters extrusion width = 0.42mm
; perimeters extrusion width = 0.44mm
; infill extrusion width = 0.44mm
; solid infill extrusion width = 0.44mm
; top infill extrusion width = 0.40mm
; first layer extrusion width = 0.42mm

; external perimeters extrusion width = 0.42mm
; perimeters extrusion width = 0.44mm
; infill extrusion width = 0.44mm
; solid infill extrusion width = 0.44mm
; top infill extrusion width = 0.40mm
; first layer extrusion width = 0.42mm

; external perimeters extrusion width = 0.42mm
; perimeters extrusion width = 0.44mm
; infill extrusion width = 0.44mm
; solid infill extrusion width = 0.44mm
; top infill extrusion width = 0.40mm
; first layer extrusion width = 0.42mm

; external perimeters extrusion width = 0.42mm
; perimeters extrusion width = 0.44mm
; infill extrusion width = 0.44mm
; solid infill extrusion width = 0.44mm
; top infill extrusion width = 0.40mm
; first layer extrusion width = 0.42mm

; external perimeters extrusion width = 0.42mm
; perimeters extrusion width = 0.44mm
; infill extrusion width = 0.44mm
; solid infill extrusion width = 0.44mm
; top infill extrusion width = 0.40mm
; first layer extrusion width = 0.42mm

; external perimeters extrusion width = 0.42mm
; perimeters extrusion width = 0.44mm
; infill extrusion width = 0.44mm
; solid infill extrusion width = 0.44mm
; top infill extrusion width = 0.40mm
; first layer extrusion width = 0.42mm

; external perimeters extrusion width = 0.42mm
; perimeters extrusion width = 0.44mm
; infill extrusion width = 0.44mm
; solid infill extrusion width = 0.44mm
; top infill extrusion width = 0.40mm
; first layer extrusion width = 0.42mm

;TYPE:Custom
; Ender 3 Custom Start G-code
G92 E0 ; Reset Extruder

M140 S55 ; set bed temp
M190 S55 ; wait for bed temp

G28 ; Home all axes
M104 S205 ; set extruder temp 
BED_MESH_CALIBRATE AREA_START=91.7718,93.2173 AREA_END=135.76,121.557

G1 Z2.0 F3000 ; Move Z Axis up little to prevent scratching of Heat Bed
M109 S205 ; wait for extruder temp
G1 X0.1 Y20 Z0.3 F5000.0 ; Move to start position

G1 X0.1 Y200.0 Z0.3 F1500.0 E15 ; Draw the first line
G1 X0.4 Y200.0 Z0.3 F5000.0 ; Move to side a little
G1 X0.4 Y20 Z0.3 F1500.0 E30 ; Draw the second line
G92 E0 ; Reset Extruder
G1 Z2.0 F3000 ; Move Z Axis up little to prevent scratching of Heat Bed
G1 X5 Y20 Z0.3 F5000.0 ; Move over to prevent blob squish
G21 ; set units to millimeters
G90 ; use absolute coordinates
M83 ; use relative distances for extrusion
; Filament gcode
M107
;LAYER_CHANGE
;Z:0.2
;HEIGHT:0.2
;BEFORE_LAYER_CHANGE
G92 E0
;0.2


G1 E-1.6 F2400
G1 Z.2 F6000
;AFTER_LAYER_CHANGE
;0.2
G1 X94.999 Y95.711
G1 E1.6 F2400
M204 S500
;TYPE:Skirt/Brim
;WIDTH:0.42
G1 F1200
G1 X95.707 Y95.139 E.02683
G1 X96.438 Y94.66 E.02576
G1 X97.727 Y94.031 E.04227
G1 X99.119 Y93.613 E.04284
G1 X100.392 Y93.431 E.0379
G1 X126.313 Y93.406 E.76397
G1 X127.776 Y93.514 E.04324
G1 X129.153 Y93.84 E.04171
G1 X130.423 Y94.355 E.04039
G1 X131.969 Y95.33 E.05387
G1 X133.113 Y96.393 E.04603
G1 X133.992 Y97.526 E.04226
G1 X134.669 Y98.771 E.04177
G1 X135.198 Y100.307 E.04788
G1 X135.362 Y101.134 E.02485
G1 X135.466 Y102.445 E.03876
G1 X135.571 Y112.245 E.28885
G1 X135.496 Y113.418 E.03464
G1 X135.135 Y115.06 E.04955
G1 X134.395 Y116.761 E.05467
G1 X133.801 Y117.673 E.03208
G1 X133.252 Y118.347 E.02562
G1 X132.027 Y119.486 E.0493
G1 X130.654 Y120.357 E.04792
G1 X129.704 Y120.78 E.03065
G1 X128.284 Y121.19 E.04356
G1 X126.97 Y121.355 E.03903
G1 X100.618 Y121.36 E.77667
G1 X99.358 Y121.211 E.03739
G1 X98.507 Y121.007 E.02579
G1 X97.581 Y120.683 E.02891
G1 X96.591 Y120.203 E.03243
G1 X95.756 Y119.674 E.02913
G1 X95.018 Y119.085 E.02783
G1 X93.758 Y117.71 E.05497
G1 X93.044 Y116.586 E.03925
G1 X92.585 Y115.595 E.03219
G1 X92.243 Y114.542 E.03263
G1 X92.006 Y113.184 E.04063
G1 X91.983 Y101.854 E.33393
G1 X92.101 Y100.917 E.02783
G1 X92.405 Y99.688 E.03731
G1 X93.139 Y98.015 E.05385
G1 X94.253 Y96.457 E.05645
G1 X94.956 Y95.754 E.0293
G1 X95.241 Y96.067 F6000
G1 F1200
G1 X95.919 Y95.451 E.027
G1 X96.619 Y94.991 E.02469
G1 X97.86 Y94.384 E.04072
G1 X99.191 Y93.983 E.04097
G1 X100.41 Y93.807 E.0363
G1 X126.313 Y93.783 E.76344
G1 X127.934 Y93.923 E.04795
G1 X129.422 Y94.331 E.04547
G1 X130.802 Y94.986 E.04502
G1 X131.895 Y95.754 E.03937
G1 X132.981 Y96.812 E.04469
G1 X133.942 Y98.168 E.04898
G1 X134.526 Y99.414 E.04056
G1 X134.947 Y100.933 E.04646
G1 X135.089 Y102.449 E.04488
G1 X135.194 Y112.249 E.28885
G1 X135.139 Y113.264 E.02996
G1 X134.992 Y114.13 E.02589
G1 X134.517 Y115.648 E.04688
G1 X133.792 Y117.024 E.04584
G1 X132.856 Y118.219 E.04474
G1 X131.616 Y119.321 E.04889
G1 X130.419 Y120.056 E.0414
G1 X129.559 Y120.432 E.02766
G1 X128.221 Y120.818 E.04104
G1 X126.941 Y120.979 E.03802
G1 X100.645 Y120.984 E.77502
G1 X99.417 Y120.839 E.03644
G1 X98.514 Y120.618 E.0274
G1 X97.732 Y120.338 E.02448
G1 X96.767 Y119.869 E.03162
G1 X95.975 Y119.367 E.02764
G1 X95.249 Y118.787 E.02739
G1 X93.979 Y117.375 E.05597
G1 X93.373 Y116.401 E.03381
G1 X92.94 Y115.469 E.03029
G1 X92.608 Y114.448 E.03164
G1 X92.38 Y113.138 E.03919
G1 X92.36 Y101.88 E.33181
G1 X92.628 Y100.258 E.04845
G1 X93.075 Y98.984 E.03979
G1 X93.39 Y98.339 E.02116
G1 X93.782 Y97.688 E.0224
G1 X94.52 Y96.723 E.03581
G1 X95.197 Y96.107 E.02698
G1 X95.449 Y96.384 F6000
G1 F1200
G1 X96.131 Y95.763 E.02719
G1 X96.812 Y95.315 E.02402
G1 X97.993 Y94.737 E.03875
G1 X99.229 Y94.36 E.03809
G1 X100.429 Y94.184 E.03575
G1 X126.313 Y94.16 E.76288
G1 X127.857 Y94.292 E.04567
G1 X129.299 Y94.687 E.04407
G1 X130.611 Y95.311 E.04282
G1 X131.648 Y96.039 E.03734
G1 X132.69 Y97.052 E.04283
G1 X133.614 Y98.354 E.04706
G1 X134.178 Y99.558 E.03919
G1 X134.578 Y101.012 E.04445
G1 X134.712 Y102.453 E.04265
G1 X134.817 Y112.253 E.28885
G1 X134.765 Y113.21 E.02825
G1 X134.62 Y114.067 E.02562
G1 X134.172 Y115.496 E.04414
G1 X133.441 Y116.873 E.04595
G1 X132.587 Y117.955 E.04063
G1 X131.404 Y119.01 E.04672
G1 X130.242 Y119.723 E.04018
G1 X129.435 Y120.076 E.02596
G1 X128.232 Y120.433 E.03698
G1 X126.912 Y120.603 E.03923
G1 X100.672 Y120.608 E.77337
G1 X99.476 Y120.466 E.0355
G1 X98.62 Y120.256 E.02598
G1 X96.943 Y119.536 E.05379
G1 X96.18 Y119.05 E.02666
G1 X95.454 Y118.463 E.02752
G1 X94.287 Y117.157 E.05162
G1 X93.701 Y116.215 E.0327
G1 X93.296 Y115.343 E.02834
G1 X92.973 Y114.353 E.03069
G1 X92.755 Y113.093 E.03769
G1 X92.736 Y101.906 E.32972
G1 X92.989 Y100.368 E.04594
G1 X93.426 Y99.122 E.03892
G1 X93.725 Y98.513 E.02
G1 X94.802 Y96.974 E.05536
G1 X95.405 Y96.424 E.02405
; printing object Kształt-Sześcian id:14 copy 0
G1 E-1.12 F2400
;WIPE_START
G1 F4800
G1 X96.131 Y95.763 E-.46637
G1 X96.155 Y95.747 E-.01363
;WIPE_END
G1 X129.322 Y110.011 F6000
G1 E1.6 F2400
;TYPE:External perimeter
G1 F1200
G1 X129.911 Y110.011 E.01736
G1 X129.911 Y110.091 E.00236
G1 X129.322 Y110.091 E.01736
G1 X129.322 Y110.071 E.00059
G1 X129.721 Y110.029 F6000
; stop printing object Kształt-Sześcian id:14 copy 0
; printing object Kształt-Sześcian id:1 copy 0
G1 E-1.12 F2400
;WIPE_START
G1 F4800
G1 X129.911 Y110.011 E-.28122
G1 X129.911 Y110.091 E-.038
G1 X129.573 Y110.091 E-.16078
;WIPE_END
G1 X125.457 Y109.072 F6000
G1 E1.6 F2400
G1 F1200
G1 X125.377 Y109.072 E.00236
G1 X125.377 Y108.792 E.00825
G1 X125.457 Y108.792 E.00236
G1 X125.457 Y109.012 E.00648
G1 X125.384 Y109.039 F6000
; stop printing object Kształt-Sześcian id:1 copy 0
; printing object Kształt-Sześcian id:2 copy 0
G1 E-1.12 F2400
;WIPE_START
G1 F4800
G1 X125.377 Y109.072 E-.0475
G1 X125.377 Y108.792 E-.133
G1 X125.457 Y108.792 E-.038
G1 X125.457 Y109.012 E-.1045
;WIPE_END
G1 E-.157 F2400
G1 X125.528 Y112.346 F6000
G1 E1.6 F2400
G1 F1200
G1 X125.528 Y112.626 E.00825
G1 X125.448 Y112.626 E.00236
G1 X125.448 Y112.346 E.00825
G1 X125.468 Y112.346 E.00059
G1 X125.502 Y112.625 F6000
; stop printing object Kształt-Sześcian id:2 copy 0
; printing object Kształt-Sześcian id:3 copy 0
G1 E-1.12 F2400
;WIPE_START
G1 F4800
G1 X125.528 Y112.626 E-.13602
G1 X125.448 Y112.626 E-.038
G1 X125.448 Y112.346 E-.133
G1 X125.468 Y112.346 E-.0095
;WIPE_END
G1 E-.16348 F2400
G1 X122.065 Y102.504 F6000
G1 E1.6 F2400
G1 F1200
G1 X121.985 Y102.504 E.00236
G1 X121.985 Y102.224 E.00825
G1 X122.065 Y102.224 E.00236
G1 X122.065 Y102.444 E.00648
G1 X121.993 Y102.47 F6000
; stop printing object Kształt-Sześcian id:3 copy 0
; printing object Kształt-Sześcian id:4 copy 0
G1 E-1.12 F2400
;WIPE_START
G1 F4800
G1 X121.985 Y102.504 E-.0475
G1 X121.985 Y102.224 E-.133
G1 X122.065 Y102.224 E-.038
G1 X122.065 Y102.444 E-.1045
;WIPE_END
G1 E-.157 F2400
G1 X116.998 Y108.795 F6000
G1 E1.6 F2400
G1 F1200
G1 X116.998 Y109.075 E.00825
G1 X116.918 Y109.075 E.00236
G1 X116.918 Y108.795 E.00825
G1 X116.938 Y108.795 E.00059
G1 X116.972 Y109.074 F6000
; stop printing object Kształt-Sześcian id:4 copy 0
; printing object Shape-Box id:0 copy 0
G1 E-1.12 F2400
;WIPE_START
G1 F4800
G1 X116.998 Y109.075 E-.13602
G1 X116.918 Y109.075 E-.038
G1 X116.918 Y108.795 E-.133
G1 X116.938 Y108.795 E-.0095
;WIPE_END
G1 E-.16348 F2400
G1 X128.672 Y109.75 F6000
G1 E1.6 F2400
;TYPE:Perimeter
G1 F1200
G1 X128.765 Y109.771 E.00281
G1 X128.817 Y109.817 E.00205
G1 X128.873 Y109.958 E.00447
G1 X128.878 Y110.192 E.0069
G1 X128.845 Y110.262 E.00228
G1 X128.767 Y110.32 E.00286
G1 X128.644 Y110.313 E.00363
G1 X128.603 Y110.275 E.00165
G1 X128.568 Y110.195 E.00257
G1 X128.556 Y109.997 E.00585
G1 X128.589 Y109.842 E.00467
G1 X128.625 Y109.787 E.00194
G1 X129.096 Y109.56 F6000
;TYPE:External perimeter
G1 F1200
G1 X129.184 Y109.698 E.00482
G1 X129.246 Y109.885 E.00581
G1 X129.265 Y110.165 E.00827
G1 X129.203 Y110.401 E.00719
G1 X129.062 Y110.58 E.00672
G1 X128.878 Y110.683 E.00621
G1 X128.654 Y110.703 E.00663
G1 X128.457 Y110.643 E.00607
G1 X128.298 Y110.501 E.00628
G1 X128.2 Y110.284 E.00702
G1 X128.179 Y109.97 E.00928
G1 X128.243 Y109.689 E.00849
G1 X128.38 Y109.496 E.00698
G1 X128.464 Y109.431 E.00313
G1 X128.642 Y109.371 E.00554
G1 X128.829 Y109.387 E.00553
G1 X128.97 Y109.451 E.00456
G1 X129.051 Y109.52 E.00314
G1 X129.041 Y109.715 F6000
G1 E-1.12 F2400
;WIPE_START
G1 F4800
G1 X129.184 Y109.698 E-.10555
G1 X129.246 Y109.885 E-.09358
G1 X129.265 Y110.165 E-.13331
G1 X129.203 Y110.401 E-.1159
G1 X129.162 Y110.453 E-.03166
;WIPE_END
G1 X125.441 Y109.754 F6000
G1 E1.6 F2400
;TYPE:Perimeter
G1 F1200
G1 X125.492 Y109.795 E.00193
G1 X125.523 Y109.858 E.00207
G1 X125.593 Y110.196 E.01017
G1 X125.617 Y110.536 E.01005
G1 X125.617 Y110.947 E.01211
G1 X125.565 Y111.462 E.01526
G1 X125.492 Y111.696 E.00722
G1 X125.448 Y111.742 E.00188
G1 X125.37 Y111.668 E.00317
G1 X125.327 Y111.547 E.00378
G1 X125.285 Y111.306 E.00721
G1 X125.26 Y110.956 E.01034
G1 X125.26 Y110.543 E.01217
G1 X125.306 Y110.047 E.01468
G1 X125.35 Y109.873 E.00529
G1 X125.395 Y109.788 E.00283
G1 X125.331 Y109.384 F6000
;TYPE:External perimeter
G1 F1200
G1 X125.49 Y109.373 E.0047
G1 X125.582 Y109.396 E.00279
G1 X125.728 Y109.491 E.00513
G1 X125.809 Y109.585 E.00366
G1 X125.882 Y109.735 E.00492
G1 X125.968 Y110.144 E.01232
G1 X125.994 Y110.523 E.0112
G1 X125.994 Y110.966 E.01306
G1 X125.938 Y111.523 E.0165
G1 X125.909 Y111.652 E.0039
G1 X125.83 Y111.867 E.00675
G1 X125.751 Y111.987 E.00423
G1 X125.681 Y112.05 E.00278
G1 X125.542 Y112.113 E.0045
G1 X125.445 Y112.124 E.00288
G1 X125.346 Y112.111 E.00294
G1 X125.196 Y112.039 E.0049
G1 X125.112 Y111.96 E.0034
G1 X125.031 Y111.84 E.00427
G1 X124.961 Y111.644 E.00613
G1 X124.91 Y111.352 E.00874
G1 X124.883 Y110.97 E.01129
G1 X124.883 Y110.526 E.01309
G1 X124.933 Y109.983 E.01607
G1 X124.994 Y109.742 E.00733
G1 X125.071 Y109.588 E.00507
G1 X125.156 Y109.487 E.00389
G1 X125.276 Y109.406 E.00427
G1 X125.444 Y109.495 F6000
G1 E-1.12 F2400
;WIPE_START
G1 F4800
G1 X125.49 Y109.373 E-.10285
G1 X125.582 Y109.396 E-.04504
G1 X125.728 Y109.491 E-.08274
G1 X125.809 Y109.585 E-.05894
G1 X125.882 Y109.735 E-.07924
G1 X125.93 Y109.964 E-.11119
;WIPE_END
G1 X122.222 Y103.697 F6000
G1 E1.6 F2400
;TYPE:Perimeter
G1 F1200
G1 X122.144 Y103.755 E.00286
G1 X122.038 Y103.755 E.00312
G1 X121.98 Y103.71 E.00216
G1 X121.945 Y103.63 E.00257
G1 X121.933 Y103.432 E.00585
G1 X121.946 Y103.338 E.0028
G1 X121.988 Y103.239 E.00317
G1 X122.049 Y103.185 E.0024
G1 X122.142 Y103.206 E.00281
G1 X122.214 Y103.285 E.00315
G1 X122.25 Y103.393 E.00336
G1 X122.263 Y103.581 E.00555
G1 X122.249 Y103.644 E.0019
G1 X122.52 Y103.931 F6000
;TYPE:External perimeter
G1 F1200
G1 X122.35 Y104.077 E.0066
G1 X122.148 Y104.138 E.00622
G1 X121.926 Y104.118 E.00657
G1 X121.75 Y104.017 E.00598
G1 X121.675 Y103.936 E.00325
G1 X121.577 Y103.719 E.00702
G1 X121.556 Y103.574 E.00432
G1 X121.578 Y103.251 E.00954
G1 X121.62 Y103.124 E.00394
G1 X121.679 Y103.019 E.00355
G1 X121.841 Y102.866 E.00657
G1 X122.019 Y102.806 E.00554
G1 X122.206 Y102.822 E.00553
G1 X122.348 Y102.886 E.00459
G1 X122.519 Y103.057 E.00713
G1 X122.623 Y103.319 E.00831
G1 X122.642 Y103.6 E.0083
G1 X122.621 Y103.725 E.00374
G1 X122.552 Y103.88 E.005
G1 X122.299 Y103.894 F6000
G1 E-1.12 F2400
;WIPE_START
G1 F4800
G1 X122.35 Y104.077 E-.13402
G1 X122.148 Y104.138 E-.10023
G1 X121.926 Y104.118 E-.10588
G1 X121.75 Y104.017 E-.09639
G1 X121.688 Y103.95 E-.04348
;WIPE_END
G1 X117.001 Y109.749 F6000
G1 E1.6 F2400
;TYPE:Perimeter
G1 F1200
G1 X117.05 Y109.771 E.00158
G1 X117.122 Y109.85 E.00315
G1 X117.159 Y109.958 E.00336
G1 X117.171 Y110.146 E.00555
G1 X117.13 Y110.262 E.00363
G1 X117.074 Y110.311 E.00219
G1 X117.02 Y110.326 E.00165
G1 X116.946 Y110.32 E.00219
G1 X116.888 Y110.275 E.00216
G1 X116.841 Y110.111 E.00503
G1 X116.855 Y109.903 E.00614
G1 X116.896 Y109.804 E.00316
G1 X116.943 Y109.758 E.00194
G1 X116.835 Y109.391 F6000
;TYPE:External perimeter
G1 F1200
G1 X117.046 Y109.373 E.00624
G1 X117.256 Y109.451 E.0066
G1 X117.427 Y109.622 E.00713
G1 X117.532 Y109.885 E.00835
G1 X117.55 Y110.165 E.00827
G1 X117.488 Y110.401 E.00719
G1 X117.347 Y110.58 E.00672
G1 X117.163 Y110.683 E.00621
G1 X116.94 Y110.703 E.0066
G1 X116.742 Y110.643 E.0061
G1 X116.583 Y110.501 E.00628
G1 X116.486 Y110.284 E.00701
G1 X116.464 Y109.97 E.00928
G1 X116.528 Y109.689 E.00849
G1 X116.665 Y109.496 E.00698
G1 X116.781 Y109.416 E.00415
