; generated by PrusaSlicer 2.6.1+win64 on 2023-09-27 at 15:53:33 UTC

; 

; external perimeters extrusion width = 0.42mm
; perimeters extrusion width = 0.44mm
; infill extrusion width = 0.44mm
; solid infill extrusion width = 0.44mm
; top infill extrusion width = 0.40mm
; first layer extrusion width = 0.42mm

;TYPE:Custom
; Ender 3 Custom Start G-code
G92 E0 ; Reset Extruder

M140 S50 ; set bed temp
M190 S50 ; wait for bed temp

G28 ; Home all axes
M104 S205 ; set extruder temp 
BED_MESH_CALIBRATE AREA_START=91.7718,93.2173 AREA_END=135.76,121.557

G1 Z2.0 F3000 ; Move Z Axis up little to prevent scratching of Heat Bed
M109 S205 ; wait for extruder temp
G1 X0.1 Y20 Z0.3 F5000.0 ; Move to start position

G1 X0.1 Y200.0 Z0.3 F1500.0 E15 ; Draw the first line
G1 X0.4 Y200.0 Z0.3 F5000.0 ; Move to side a little
G1 X0.4 Y20 Z0.3 F1500.0 E30 ; Draw the second line
G92 E0 ; Reset Extruder
G1 Z2.0 F3000 ; Move Z Axis up little to prevent scratching of Heat Bed
G1 X5 Y20 Z0.3 F5000.0 ; Move over to prevent blob squish
G21 ; set units to millimeters
G90 ; use absolute coordinates
M83 ; use relative distances for extrusion
; Filament gcode
M107
;LAYER_CHANGE
;Z:0.2
;HEIGHT:0.2
;BEFORE_LAYER_CHANGE
G92 E0
;0.2


G1 E-1.6 F2400
G1 Z.2 F6000
;AFTER_LAYER_CHANGE
;0.2
G1 X94.999 Y95.711
G1 E1.6 F2400
M204 S500
;TYPE:Skirt/Brim
;WIDTH:0.42
G1 F1200
G1 X95.707 Y95.139 E.02683
G1 X96.438 Y94.66 E.02576
G1 X97.727 Y94.031 E.04227
G1 X99.119 Y93.613 E.04284
G1 X100.392 Y93.431 E.0379
G1 X126.313 Y93.406 E.76397
G1 X127.776 Y93.514 E.04324
G1 X129.153 Y93.84 E.04171
G1 X130.423 Y94.355 E.04039
G1 X131.969 Y95.33 E.05387
G1 X133.113 Y96.393 E.04603
G1 X133.992 Y97.526 E.04226
G1 X134.669 Y98.771 E.04177
G1 X135.198 Y100.307 E.04788
G1 X135.362 Y101.134 E.02485
G1 X135.466 Y102.445 E.03876
G1 X135.571 Y112.245 E.28885
G1 X135.496 Y113.418 E.03464
G1 X135.135 Y115.06 E.04955
G1 X134.395 Y116.761 E.05467
G1 X133.801 Y117.673 E.03208
G1 X133.252 Y118.347 E.02562
G1 X132.027 Y119.486 E.0493
G1 X130.654 Y120.357 E.04792
G1 X129.704 Y120.78 E.03065
G1 X128.284 Y121.19 E.04356
G1 X126.97 Y121.355 E.03903
G1 X100.618 Y121.36 E.77667
G1 X99.358 Y121.211 E.03739
G1 X98.507 Y121.007 E.02579
G1 X97.581 Y120.683 E.02891
G1 X96.591 Y120.203 E.03243
G1 X95.756 Y119.674 E.02913
G1 X95.018 Y119.085 E.02783
G1 X93.758 Y117.71 E.05497
G1 X93.044 Y116.586 E.03925
G1 X92.585 Y115.595 E.03219
G1 X92.243 Y114.542 E.03263
G1 X92.006 Y113.184 E.04063
G1 X91.983 Y101.854 E.33393
G1 X92.101 Y100.917 E.02783
G1 X92.405 Y99.688 E.03731
G1 X93.139 Y98.015 E.05385
G1 X94.252 Y96.457 E.05643
G1 X94.956 Y95.754 E.02932
G1 X95.241 Y96.067 F6000
G1 F1200
G1 X95.919 Y95.451 E.027
G1 X96.619 Y94.991 E.02469
G1 X97.86 Y94.384 E.04072
G1 X99.191 Y93.983 E.04097
G1 X100.41 Y93.807 E.0363
G1 X126.313 Y93.783 E.76344
G1 X127.934 Y93.923 E.04795
G1 X129.422 Y94.331 E.04547
G1 X130.802 Y94.986 E.04502
G1 X131.895 Y95.754 E.03937
G1 X132.981 Y96.812 E.04469
G1 X133.942 Y98.168 E.04898
G1 X134.526 Y99.414 E.04056
G1 X134.947 Y100.933 E.04646
G1 X135.089 Y102.449 E.04488
G1 X135.194 Y112.249 E.28885
G1 X135.139 Y113.264 E.02996
G1 X134.992 Y114.13 E.02589
G1 X134.517 Y115.648 E.04688
G1 X133.792 Y117.024 E.04584
G1 X132.856 Y118.219 E.04474
G1 X131.616 Y119.321 E.04889
G1 X130.419 Y120.056 E.0414
G1 X129.559 Y120.432 E.02766
G1 X128.221 Y120.818 E.04104
G1 X126.941 Y120.979 E.03802
G1 X100.645 Y120.984 E.77502
G1 X99.417 Y120.839 E.03644
G1 X98.514 Y120.618 E.0274
G1 X97.732 Y120.338 E.02448
G1 X96.767 Y119.869 E.03162
G1 X95.975 Y119.367 E.02764
G1 X95.249 Y118.787 E.02739
G1 X93.979 Y117.375 E.05597
G1 X93.373 Y116.401 E.03381
G1 X92.94 Y115.469 E.03029
G1 X92.608 Y114.448 E.03164
G1 X92.38 Y113.138 E.03919
G1 X92.36 Y101.88 E.33181
G1 X92.628 Y100.258 E.04845
G1 X93.075 Y98.984 E.03979
G1 X93.39 Y98.339 E.02116
G1 X93.782 Y97.688 E.0224
G1 X94.52 Y96.723 E.03581
G1 X95.197 Y96.107 E.02698
G1 X95.449 Y96.384 F6000
G1 F1200
G1 X96.131 Y95.763 E.02719
G1 X96.812 Y95.315 E.02402
G1 X97.993 Y94.737 E.03875
G1 X99.229 Y94.36 E.03809
G1 X100.429 Y94.184 E.03575
G1 X126.313 Y94.16 E.76288
G1 X127.857 Y94.292 E.04567
G1 X129.299 Y94.687 E.04407
G1 X130.611 Y95.311 E.04282
G1 X131.648 Y96.039 E.03734
G1 X132.69 Y97.052 E.04283
G1 X133.614 Y98.354 E.04706
G1 X134.178 Y99.558 E.03919
G1 X134.578 Y101.012 E.04445
G1 X134.712 Y102.453 E.04265
G1 X134.817 Y112.253 E.28885
G1 X134.765 Y113.21 E.02825
G1 X134.62 Y114.067 E.02562
G1 X134.172 Y115.496 E.04414
G1 X133.441 Y116.873 E.04595
G1 X132.587 Y117.955 E.04063
G1 X131.404 Y119.01 E.04672
G1 X130.242 Y119.723 E.04018
G1 X129.435 Y120.076 E.02596
G1 X128.232 Y120.433 E.03698
G1 X126.912 Y120.603 E.03923
G1 X100.672 Y120.608 E.77337
G1 X99.476 Y120.466 E.0355
G1 X98.62 Y120.256 E.02598
G1 X96.943 Y119.536 E.05379
G1 X96.18 Y119.05 E.02666
G1 X95.454 Y118.463 E.02752
G1 X94.287 Y117.157 E.05162
G1 X93.701 Y116.215 E.0327
G1 X93.296 Y115.343 E.02834
G1 X92.973 Y114.353 E.03069
G1 X92.755 Y113.093 E.03769
G1 X92.736 Y101.905 E.32974
G1 X92.989 Y100.368 E.04591
G1 X93.426 Y99.122 E.03892
G1 X93.725 Y98.513 E.02
G1 X94.802 Y96.974 E.05536
G1 X95.405 Y96.424 E.02405
; printing object Shape-Box id:0 copy 0
G1 E-1.12 F2400
;WIPE_START
G1 F4800
G1 X96.131 Y95.763 E-.46637
G1 X96.155 Y95.747 E-.01363
;WIPE_END
G1 X127.418 Y109.945 F6000
G1 E1.6 F2400
;TYPE:Perimeter
G1 F1200
G1 X127.375 Y109.978 E.0016
G1 X127.313 Y109.979 E.00183
G1 X127.267 Y109.906 E.00254
G1 X127.269 Y109.667 E.00704
G1 X127.323 Y109.571 E.00325
G1 X127.403 Y109.63 E.00293
G1 X127.432 Y109.716 E.00267
G1 X127.44 Y109.89 E.00513
G1 X127.716 Y110.179 F6000
;TYPE:External perimeter
G1 F1200
G1 X127.568 Y110.306 E.00575
G1 X127.394 Y110.359 E.00536
G1 X127.201 Y110.341 E.00571
G1 X127.05 Y110.255 E.00512
G1 X126.984 Y110.184 E.00286
G1 X126.9 Y109.995 E.0061
G1 X126.88 Y109.867 E.00382
G1 X126.9 Y109.581 E.00845
G1 X126.989 Y109.377 E.00656
G1 X127.129 Y109.245 E.00567
G1 X127.281 Y109.194 E.00473
G1 X127.442 Y109.207 E.00476
G1 X127.565 Y109.263 E.00398
G1 X127.714 Y109.411 E.00619
G1 X127.805 Y109.642 E.00732
G1 X127.822 Y109.891 E.00736
G1 X127.804 Y110 E.00326
G1 X127.748 Y110.128 E.00412
G1 X127.524 Y110.147 F6000
G1 E-1.12 F2400
;WIPE_START
G1 F4800
G1 X127.568 Y110.306 E-.12025
G1 X127.394 Y110.359 E-.0864
G1 X127.201 Y110.341 E-.09207
G1 X127.05 Y110.255 E-.08254
G1 X126.984 Y110.184 E-.04605
G1 X126.939 Y110.083 E-.05269
;WIPE_END
G1 X124.37 Y109.591 F6000
G1 E1.6 F2400
;TYPE:Perimeter
G1 F1200
G1 X124.452 Y109.928 E.01022
G1 X124.473 Y110.601 E.01985
G1 X124.429 Y111.038 E.01294
G1 X124.365 Y111.244 E.00636
G1 X124.322 Y111.134 E.00348
G1 X124.285 Y110.922 E.00634
G1 X124.263 Y110.609 E.00925
G1 X124.263 Y110.239 E.01091
G1 X124.304 Y109.795 E.01314
G1 X124.343 Y109.644 E.0046
G1 X124.489 Y109.214 F6000
;TYPE:External perimeter
G1 F1200
G1 X124.616 Y109.297 E.00447
G1 X124.686 Y109.378 E.00316
G1 X124.75 Y109.509 E.0043
G1 X124.827 Y109.876 E.01105
G1 X124.85 Y110.218 E.0101
G1 X124.85 Y110.62 E.01185
G1 X124.801 Y111.114 E.01463
G1 X124.701 Y111.433 E.00985
G1 X124.576 Y111.586 E.00582
G1 X124.456 Y111.64 E.00388
G1 X124.374 Y111.649 E.00243
G1 X124.291 Y111.639 E.00246
G1 X124.161 Y111.576 E.00426
G1 X124.089 Y111.508 E.00292
G1 X124.018 Y111.404 E.00371
G1 X123.957 Y111.23 E.00543
G1 X123.91 Y110.969 E.00782
G1 X123.886 Y110.623 E.01022
G1 X123.886 Y110.221 E.01185
G1 X123.932 Y109.731 E.01451
G1 X123.986 Y109.516 E.00653
G1 X124.053 Y109.38 E.00447
G1 X124.205 Y109.234 E.00621
G1 X124.276 Y109.205 E.00226
G1 X124.431 Y109.2 E.00457
G1 X124.513 Y109.364 F6000
G1 E-1.12 F2400
;WIPE_START
G1 F4800
G1 X124.616 Y109.297 E-.09922
G1 X124.686 Y109.378 E-.05085
G1 X124.75 Y109.509 E-.06925
G1 X124.827 Y109.876 E-.17812
G1 X124.839 Y110.049 E-.08256
;WIPE_END
G1 X121.292 Y104.012 F6000
G1 E1.6 F2400
;TYPE:Perimeter
G1 F1200
G1 X121.25 Y103.941 E.00243
G1 X121.24 Y103.779 E.00478
G1 X121.266 Y103.657 E.00368
G1 X121.316 Y103.607 E.00208
G1 X121.378 Y103.65 E.00222
G1 X121.415 Y103.751 E.00317
G1 X121.421 Y103.938 E.00551
G1 X121.401 Y103.98 E.00137
G1 X121.351 Y104.015 E.0018
G1 X120.967 Y104.219 F6000
;TYPE:External perimeter
G1 F1200
G1 X120.882 Y104.03 E.00611
G1 X120.863 Y103.752 E.00821
G1 X120.883 Y103.616 E.00405
G1 X120.971 Y103.412 E.00655
G1 X121.112 Y103.28 E.00569
G1 X121.264 Y103.229 E.00473
G1 X121.425 Y103.242 E.00476
G1 X121.548 Y103.298 E.00398
G1 X121.696 Y103.446 E.00617
G1 X121.788 Y103.677 E.00733
G1 X121.805 Y103.926 E.00736
G1 X121.751 Y104.131 E.00625
G1 X121.628 Y104.287 E.00586
G1 X121.551 Y104.341 E.00277
G1 X121.377 Y104.394 E.00536
G1 X121.184 Y104.376 E.00571
G1 X121.105 Y104.342 E.00253
G1 X121.008 Y104.263 E.00369
G1 X121.057 Y104.033 F6000
G1 E-1.12 F2400
;WIPE_START
G1 F4800
G1 X120.882 Y104.03 E-.12582
G1 X120.863 Y103.752 E-.13236
G1 X120.883 Y103.616 E-.06529
G1 X120.971 Y103.412 E-.10553
G1 X121.049 Y103.339 E-.051
;WIPE_END
G1 X116.679 Y109.571 F6000
G1 E1.6 F2400
;TYPE:Perimeter
G1 F1200
G1 X116.752 Y109.615 E.00251
G1 X116.789 Y109.716 E.00317
G1 X116.794 Y109.903 E.00551
G1 X116.732 Y109.978 E.00287
G1 X116.665 Y109.977 E.00197
G1 X116.624 Y109.906 E.00242
G1 X116.614 Y109.744 E.00478
G1 X116.642 Y109.618 E.0038
G1 X116.637 Y109.194 F6000
;TYPE:External perimeter
G1 F1200
G1 X116.798 Y109.207 E.00476
G1 X116.921 Y109.263 E.00398
G1 X117.07 Y109.411 E.00619
G1 X117.162 Y109.642 E.00733
G1 X117.178 Y109.891 E.00735
G1 X117.124 Y110.096 E.00625
G1 X117.002 Y110.252 E.00584
G1 X116.925 Y110.306 E.00277
G1 X116.75 Y110.359 E.00539
G1 X116.557 Y110.341 E.00571
G1 X116.406 Y110.255 E.00512
G1 X116.291 Y110.099 E.00571
G1 X116.256 Y109.995 E.00323
G1 X116.237 Y109.717 E.00821
G1 X116.293 Y109.469 E.00749
G1 X116.413 Y109.301 E.00608
G1 X116.579 Y109.206 E.00564
G1 X116.74 Y109.318 F6000
G1 E-1.12 F2400
;WIPE_START
G1 F4800
G1 X116.798 Y109.207 E-.10403
G1 X116.921 Y109.263 E-.0642
G1 X117.07 Y109.411 E-.09976
G1 X117.162 Y109.642 E-.11811
G1 X117.175 Y109.839 E-.0939
;WIPE_END
G1 X116.713 Y104.837 F6000
G1 E1.6 F2400
G1 F1200
G1 X116.713 Y104.179 E.01939
G1 X117.17 Y104.179 E.01347
G1 X116.747 Y104.787 E.02183
G1 X116.713 Y104.437 F6000
G1 E-1.12 F2400
;WIPE_START
G1 F4800
G1 X116.713 Y104.179 E-.28925
G1 X117.115 Y104.179 E-.19075
;WIPE_END
G1 X114.06 Y105.431 F6000
G1 E1.6 F2400
G1 F1200
G1 X114.014 Y105.539 E.00346
G1 X113.919 Y105.63 E.00388
G1 X113.794 Y105.678 E.00395
G1 X113.641 Y105.678 E.00451
G1 X113.517 Y105.629 E.00393
G1 X113.42 Y105.534 E.004
G1 X113.372 Y105.416 E.00375
G1 X113.371 Y105.28 E.00401
G1 X113.418 Y105.169 E.00355
G1 X113.508 Y105.08 E.00373
G1 X113.632 Y105.033 E.00391
G1 X113.792 Y105.032 E.00472
G1 X113.914 Y105.074 E.0038
G1 X114.012 Y105.171 E.00406
G1 X114.06 Y105.292 E.00384
G1 X114.06 Y105.371 E.00233
G1 X113.949 Y105.467 F6000
G1 X113.798 Y103.817
;TYPE:Perimeter
G1 F1200
G1 X113.699 Y103.835 E.00297
G1 X113.633 Y103.812 E.00206
G1 X113.594 Y103.735 E.00254
G1 X113.604 Y103.649 E.00255
G1 X113.681 Y103.606 E.0026
G1 X113.792 Y103.627 E.00333
G1 X113.821 Y103.692 E.0021
G1 X113.827 Y103.766 E.00219
G1 X114.193 Y103.599 F6000
;TYPE:External perimeter
G1 F1200
G1 X114.206 Y103.79 E.00564
G1 X114.157 Y103.965 E.00536
G1 X114.039 Y104.109 E.00549
G1 X113.877 Y104.194 E.00539
G1 X113.666 Y104.212 E.00624
G1 X113.475 Y104.159 E.00584
G1 X113.323 Y104.036 E.00576
G1 X113.235 Y103.871 E.00551
G1 X113.216 Y103.657 E.00633
G1 X113.268 Y103.473 E.00564
G1 X113.387 Y103.33 E.00548
G1 X113.55 Y103.246 E.0054
G1 X113.775 Y103.23 E.00665
G1 X113.981 Y103.295 E.00637
G1 X114.11 Y103.412 E.00513
G1 X114.168 Y103.544 E.00425
G1 X114.056 Y103.733 F6000
G1 E-1.12 F2400
;WIPE_START
G1 F4800
G1 X114.206 Y103.79 E-.11824
G1 X114.157 Y103.965 E-.08632
G1 X114.039 Y104.109 E-.08843
G1 X113.877 Y104.194 E-.0869
G1 X113.667 Y104.212 E-.10011
;WIPE_END
G1 X110.791 Y103.817 F6000
G1 E1.6 F2400
;TYPE:Perimeter
G1 F1200
G1 X110.693 Y103.835 E.00294
G1 X110.626 Y103.812 E.00209
G1 X110.587 Y103.735 E.00254
G1 X110.597 Y103.649 E.00255
G1 X110.674 Y103.606 E.0026
G1 X110.786 Y103.627 E.00336
G1 X110.815 Y103.692 E.0021
G1 X110.82 Y103.766 E.00219
G1 X111.032 Y104.109 F6000
;TYPE:External perimeter
G1 F1200
G1 X110.87 Y104.194 E.00539
G1 X110.659 Y104.212 E.00624
G1 X110.468 Y104.159 E.00584
G1 X110.317 Y104.036 E.00574
G1 X110.228 Y103.871 E.00553
G1 X110.21 Y103.769 E.00305
G1 X110.228 Y103.557 E.00627
G1 X110.312 Y103.397 E.00533
G1 X110.457 Y103.28 E.00549
G1 X110.644 Y103.228 E.00572
G1 X110.836 Y103.241 E.00567
G1 X111.016 Y103.323 E.00583
G1 X111.103 Y103.412 E.00367
G1 X111.186 Y103.599 E.00603
G1 X111.2 Y103.79 E.00564
G1 X111.183 Y103.88 E.0027
G1 X111.15 Y103.965 E.00269
G1 X111.074 Y104.067 E.00375
G1 X110.864 Y104.039 F6000
G1 X110.365 Y105.28
G1 F1200
G1 X110.411 Y105.169 E.00354
G1 X110.502 Y105.08 E.00375
G1 X110.626 Y105.033 E.00391
G1 X110.786 Y105.032 E.00472
G1 X110.907 Y105.074 E.00377
G1 X111.005 Y105.171 E.00406
G1 X111.053 Y105.292 E.00384
G1 X111.053 Y105.431 E.0041
G1 X111.007 Y105.539 E.00346
G1 X110.913 Y105.63 E.00386
G1 X110.787 Y105.678 E.00397
G1 X110.634 Y105.678 E.00451
G1 X110.51 Y105.629 E.00393
G1 X110.414 Y105.534 E.00398
G1 X110.365 Y105.416 E.00377
G1 X110.365 Y105.34 E.00224
G1 X110.479 Y105.241 F6000
G1 E-1.12 F2400
;WIPE_START
G1 F4800
G1 X110.411 Y105.169 E-.08411
G1 X110.502 Y105.08 E-.06046
G1 X110.626 Y105.033 E-.06299
G1 X110.786 Y105.032 E-.076
G1 X110.907 Y105.074 E-.06084
G1 X111.005 Y105.171 E-.0655
G1 X111.053 Y105.292 E-.06183
G1 X111.053 Y105.309 E-.00827
;WIPE_END
G1 X106.126 Y103.98 F6000
G1 E1.6 F2400
;TYPE:Perimeter
G1 F1200
G1 X106.084 Y104.013 E.00157
G1 X106.022 Y104.014 E.00183
G1 X105.976 Y103.941 E.00254
G1 X105.977 Y103.702 E.00704
G1 X106.032 Y103.606 E.00326
G1 X106.112 Y103.665 E.00293
G1 X106.141 Y103.751 E.00267
G1 X106.149 Y103.925 E.00513
G1 X106.425 Y104.214 F6000
;TYPE:External perimeter
G1 F1200
G1 X106.277 Y104.341 E.00575
G1 X106.103 Y104.394 E.00536
G1 X105.91 Y104.376 E.00571
G1 X105.758 Y104.29 E.00515
G1 X105.693 Y104.219 E.00284
G1 X105.608 Y104.03 E.00611
G1 X105.589 Y103.902 E.00381
G1 X105.609 Y103.616 E.00845
G1 X105.697 Y103.412 E.00655
G1 X105.838 Y103.28 E.00569
G1 X105.99 Y103.229 E.00473
G1 X106.151 Y103.242 E.00476
G1 X106.274 Y103.298 E.00398
G1 X106.422 Y103.446 E.00617
G1 X106.514 Y103.677 E.00733
G1 X106.531 Y103.926 E.00736
G1 X106.513 Y104.035 E.00326
G1 X106.457 Y104.163 E.00412
G1 X106.233 Y104.182 F6000
G1 E-1.12 F2400
;WIPE_START
G1 F4800
G1 X106.277 Y104.341 E-.12025
G1 X106.103 Y104.394 E-.0864
G1 X105.91 Y104.376 E-.09207
G1 X105.758 Y104.29 E-.08296
G1 X105.693 Y104.219 E-.04572
G1 X105.648 Y104.118 E-.0526
;WIPE_END
G1 X106.089 Y109.591 F6000
G1 E1.6 F2400
;TYPE:Perimeter
G1 F1200
G1 X106.171 Y109.928 E.01022
G1 X106.192 Y110.601 E.01985
G1 X106.148 Y111.038 E.01294
G1 X106.084 Y111.244 E.00636
G1 X106.042 Y111.134 E.00347
G1 X106.004 Y110.922 E.00635
G1 X105.982 Y110.609 E.00925
G1 X105.982 Y110.239 E.01091
G1 X106.024 Y109.795 E.01314
G1 X106.062 Y109.644 E.00459
G1 X106.209 Y109.214 F6000
;TYPE:External perimeter
G1 F1200
G1 X106.335 Y109.297 E.00445
G1 X106.405 Y109.378 E.00316
G1 X106.469 Y109.509 E.0043
G1 X106.546 Y109.876 E.01105
G1 X106.57 Y110.218 E.0101
G1 X106.569 Y110.62 E.01185
G1 X106.52 Y111.114 E.01463
G1 X106.42 Y111.433 E.00985
G1 X106.295 Y111.586 E.00582
G1 X106.176 Y111.64 E.00385
G1 X106.094 Y111.649 E.00243
G1 X106.01 Y111.639 E.00249
G1 X105.88 Y111.576 E.00426
G1 X105.808 Y111.508 E.00292
G1 X105.737 Y111.404 E.00371
G1 X105.676 Y111.23 E.00543
G1 X105.63 Y110.969 E.00781
G1 X105.605 Y110.623 E.01022
G1 X105.605 Y110.221 E.01185
G1 X105.651 Y109.731 E.01451
G1 X105.705 Y109.516 E.00653
G1 X105.772 Y109.38 E.00447
G1 X105.924 Y109.234 E.00621
G1 X105.995 Y109.205 E.00226
G1 X106.15 Y109.2 E.00457
G1 X106.233 Y109.364 F6000
G1 E-1.12 F2400
;WIPE_START
G1 F4800
G1 X106.335 Y109.297 E-.09922
G1 X106.405 Y109.378 E-.05085
G1 X106.469 Y109.509 E-.06925
G1 X106.546 Y109.876 E-.17812
G1 X106.558 Y110.049 E-.08256
;WIPE_END
G1 X103.029 Y109.571 F6000
G1 E1.6 F2400
;TYPE:Perimeter
G1 F1200
