; generated by PrusaSlicer 2.7.2+win64 on 2024-03-12 at 21:35:28 UTC

; 

; external perimeters extrusion width = 0.42mm
; perimeters extrusion width = 0.44mm
; infill extrusion width = 0.44mm
; solid infill extrusion width = 0.44mm
; top infill extrusion width = 0.40mm
; first layer extrusion width = 0.42mm


; printing object Shape-Box id:0 copy 0
; stop printing object Shape-Box id:0 copy 0

;TYPE:Custom
; Ender 3 Custom Start G-code
G92 E0 ; Reset Extruder

M140 S55 ; set bed temp
M104 S160 ; set extruder temp
M109 S160 ; wait for extruder temp
M190 S55 ; wait for bed temp

G28 ; Home all axes
M104 S210 ; set extruder temp 
BED_MESH_CALIBRATE AREA_START=83.7684,88.5669 AREA_END=143.763,126.207

G1 Z2.0 F3000 ; Move Z Axis up little to prevent scratching of Heat Bed
M109 S210 ; wait for extruder temp
G1 X0.1 Y20 Z0.3 F5000.0 ; Move to start position

G1 X0.1 Y200.0 Z0.3 F1500.0 E15 ; Draw the first line
G1 X0.4 Y200.0 Z0.3 F5000.0 ; Move to side a little
G1 X0.4 Y20 Z0.3 F1500.0 E30 ; Draw the second line
G92 E0 ; Reset Extruder
G1 Z2.0 F3000 ; Move Z Axis up little to prevent scratching of Heat Bed
G1 X5 Y20 Z0.3 F5000.0 ; Move over to prevent blob squish
G21 ; set units to millimeters
G90 ; use absolute coordinates
M83 ; use relative distances for extrusion
; Filament gcode
M107
;LAYER_CHANGE
;Z:0.2
;HEIGHT:0.2
G1 E-1.6 F2400
G1 Z.2 F6000
G1 X87.857 Y91.701
G1 Z.2
G1 E1.6 F2400
M204 S500
;TYPE:Skirt/Brim
;WIDTH:0.42
G1 F1200
G1 X88.725 Y90.996 E.03296
G1 X89.656 Y90.382 E.03287
G1 X91.322 Y89.564 E.0547
G1 X93.099 Y89.026 E.05472
G1 X94.721 Y88.79 E.04831
G1 X132.884 Y88.805 E1.12478
G1 X133.843 Y88.938 E.02854
G1 X135.87 Y89.494 E.06195
G1 X137.7 Y90.365 E.05973
G1 X139.14 Y91.376 E.05186
G1 X140.583 Y92.775 E.05924
G1 X141.374 Y93.79 E.03793
G1 X141.835 Y94.519 E.02542
G1 X142.681 Y96.304 E.05822
G1 X143.24 Y98.341 E.06226
G1 X143.425 Y100.341 E.0592
G1 X143.575 Y114.341 E.41265
G1 X143.503 Y115.668 E.03917
G1 X143.296 Y116.888 E.03647
G1 X142.676 Y118.864 E.06104
G1 X141.69 Y120.733 E.06228
G1 X140.467 Y122.296 E.05849
G1 X139.688 Y123.064 E.03224
G1 X138.815 Y123.771 E.03311
G1 X137.173 Y124.778 E.05677
G1 X136.08 Y125.257 E.03517
G1 X134.281 Y125.783 E.05524
G1 X132.523 Y126.003 E.05222
G1 X95.078 Y126.009 E1.10362
G1 X93.39 Y125.81 E.0501
G1 X92.295 Y125.542 E.03323
G1 X91.185 Y125.153 E.03467
G1 X89.854 Y124.506 E.04362
G1 X88.8 Y123.835 E.03683
G1 X87.851 Y123.075 E.03583
G1 X86.76 Y121.96 E.04598
G1 X86.154 Y121.19 E.02888
G1 X85.328 Y119.862 E.04609
G1 X84.772 Y118.665 E.0389
G1 X84.319 Y117.276 E.04306
G1 X84.013 Y115.506 E.05294
G1 X83.957 Y114.505 E.02955
G1 X83.987 Y99.578 E.43994
G1 X84.339 Y97.433 E.06407
G1 X84.956 Y95.673 E.05497
G1 X85.359 Y94.854 E.0269
G1 X86.242 Y93.468 E.04844
G1 X86.875 Y92.684 E.0297
G1 X87.814 Y91.744 E.03916
G1 X87.814 Y91.744 F6000
G1 X88.08 Y92.01
G1 F1200
G1 X88.109 Y91.982 E.00119
G1 X88.937 Y91.308 E.03147
G1 X89.836 Y90.714 E.03176
G1 X91.455 Y89.917 E.05319
G1 X92.992 Y89.437 E.04746
G1 X94.74 Y89.166 E.05213
G1 X131.692 Y89.133 E1.08909
G1 X133.767 Y89.308 E.06137
G1 X135.748 Y89.851 E.06054
G1 X137.509 Y90.69 E.05749
G1 X138.893 Y91.661 E.04983
G1 X140.304 Y93.029 E.05792
G1 X141.07 Y94.013 E.03675
G1 X141.565 Y94.802 E.02745
G1 X142.414 Y96.673 E.06056
G1 X142.882 Y98.473 E.05482
G1 X143.048 Y100.345 E.05539
G1 X143.198 Y114.345 E.41265
G1 X143.13 Y115.614 E.03745
G1 X142.924 Y116.824 E.03618
G1 X142.331 Y118.712 E.05833
G1 X141.369 Y120.534 E.06073
G1 X140.198 Y122.031 E.05602
G1 X139.594 Y122.642 E.02532
G1 X138.603 Y123.459 E.03785
G1 X136.981 Y124.453 E.05607
G1 X135.395 Y125.098 E.05046
G1 X134.218 Y125.411 E.0359
G1 X132.355 Y125.634 E.0553
G1 X95.105 Y125.633 E1.09787
G1 X93.449 Y125.437 E.04915
G1 X92.304 Y125.154 E.03476
G1 X91.337 Y124.807 E.03028
G1 X90.03 Y124.173 E.04281
G1 X89.019 Y123.528 E.03534
G1 X88.102 Y122.794 E.03462
G1 X87.039 Y121.706 E.04483
G1 X86.452 Y120.958 E.02802
G1 X85.657 Y119.676 E.04446
G1 X85.128 Y118.539 E.03696
G1 X84.684 Y117.182 E.04208
G1 X84.387 Y115.46 E.0515
G1 X84.334 Y114.505 E.02819
G1 X84.363 Y99.603 E.43921
G1 X84.7 Y97.541 E.06158
G1 X85.307 Y95.811 E.05404
G1 X85.705 Y95.004 E.02652
G1 X86.553 Y93.681 E.04632
G1 X87.156 Y92.934 E.02829
G1 X88.038 Y92.052 E.03676
G1 X88.038 Y92.052 F6000
G1 X88.304 Y92.318
G1 F1200
G1 X88.361 Y92.262 E.00236
G1 X89.149 Y91.62 E.02996
G1 X90.029 Y91.037 E.03111
G1 X91.588 Y90.27 E.05121
G1 X93.208 Y89.774 E.04993
G1 X94.758 Y89.543 E.04619
G1 X131.692 Y89.51 E1.08856
G1 X133.69 Y89.677 E.05909
G1 X135.628 Y90.208 E.05922
G1 X137.318 Y91.015 E.0552
G1 X138.647 Y91.947 E.04784
G1 X140.013 Y93.269 E.05603
G1 X140.766 Y94.236 E.03612
G1 X141.237 Y94.988 E.02615
G1 X142.054 Y96.785 E.05818
G1 X142.512 Y98.545 E.0536
G1 X142.671 Y100.349 E.05338
G1 X142.821 Y114.349 E.41265
G1 X142.744 Y115.641 E.03815
G1 X142.521 Y116.917 E.03818
G1 X142.276 Y117.78 E.02644
G1 X141.409 Y119.75 E.06344
G1 X140.675 Y120.874 E.03957
G1 X140.018 Y121.672 E.03047
G1 X139.333 Y122.37 E.02882
G1 X138.39 Y123.147 E.03601
G1 X136.804 Y124.12 E.05484
G1 X135.27 Y124.742 E.04879
G1 X134.141 Y125.042 E.03443
G1 X132.345 Y125.257 E.05331
G1 X95.131 Y125.257 E1.09681
G1 X93.508 Y125.065 E.04817
G1 X92.409 Y124.792 E.03338
G1 X91.488 Y124.462 E.02883
G1 X90.206 Y123.839 E.04201
G1 X89.238 Y123.221 E.03385
G1 X88.306 Y122.47 E.03528
G1 X87.318 Y121.453 E.04179
G1 X86.76 Y120.741 E.02666
G1 X85.985 Y119.491 E.04335
G1 X85.483 Y118.413 E.03505
G1 X85.05 Y117.087 E.04111
G1 X84.761 Y115.415 E.05001
G1 X84.739 Y99.629 E.46526
G1 X85.061 Y97.651 E.05907
G1 X85.658 Y95.948 E.05319
G1 X86.04 Y95.178 E.02533
G1 X86.862 Y93.897 E.04486
G1 X87.438 Y93.185 E.02699
G1 X88.262 Y92.361 E.03435
; printing object Shape-Box id:0 copy 0
G1 E-1.12 F2400
;WIPE_START
G1 F4800
G1 X88.304 Y92.318 E-.02855
G1 X88.361 Y92.262 E-.03796
G1 X89.036 Y91.712 E-.41349
;WIPE_END
G1 X111.636 Y105.477 F6000
G1 E1.6 F2400
;TYPE:Perimeter
G1 F1200
G1 X111.801 Y105.155 E.01066
G1 X111.993 Y104.905 E.00929
G1 X112.215 Y104.69 E.00911
G1 X112.466 Y104.511 E.00909
G1 X112.737 Y104.372 E.00898
G1 X113.028 Y104.272 E.00907
G1 X113.363 Y104.211 E.01004
G1 X113.884 Y104.206 E.01536
G1 X114.378 Y104.306 E.01485
G1 X114.819 Y104.504 E.01425
G1 X115.053 Y104.663 E.00834
G1 X115.402 Y104.993 E.01416
G1 X115.587 Y105.241 E.00912
G1 X115.828 Y105.739 E.01631
G1 X115.979 Y106.32 E.01769
G1 X116.049 Y106.965 E.01912
G1 X116.048 Y107.702 E.02172
G1 X115.972 Y108.414 E.0211
G1 X115.814 Y109.038 E.01897
G1 X115.69 Y109.341 E.00965
G1 X115.544 Y109.613 E.0091
G1 X115.37 Y109.858 E.00886
G1 X115.183 Y110.064 E.0082
G1 X114.795 Y110.368 E.01453
G1 X114.334 Y110.578 E.01493
G1 X113.837 Y110.678 E.01494
G1 X113.378 Y110.683 E.01353
G1 X112.994 Y110.624 E.01145
G1 X112.645 Y110.504 E.01088
G1 X112.448 Y110.403 E.00652
G1 X112.149 Y110.187 E.01087
G1 X111.885 Y109.904 E.01141
G1 X111.68 Y109.565 E.01168
G1 X111.613 Y109.366 E.00619
G1 X111.48 Y109.613 E.00827
G1 X111.306 Y109.858 E.00886
G1 X111.119 Y110.064 E.0082
G1 X110.732 Y110.368 E.0145
G1 X110.27 Y110.578 E.01496
G1 X109.773 Y110.678 E.01494
G1 X109.314 Y110.683 E.01353
G1 X108.93 Y110.624 E.01145
G1 X108.581 Y110.504 E.01088
G1 X108.384 Y110.403 E.00652
G1 X108.085 Y110.187 E.01087
G1 X107.821 Y109.904 E.01141
G1 X107.616 Y109.565 E.01168
G1 X107.49 Y109.188 E.01172
G1 X107.33 Y108.048 E.03393
G1 X107.858 Y108.094 E.01562
G1 X107.706 Y107.926 E.00668
G1 X107.56 Y107.701 E.00791
G1 X107.395 Y107.281 E.0133
G1 X107.317 Y106.826 E.01361
G1 X107.324 Y106.3 E.0155
G1 X107.378 Y105.985 E.00942
G1 X107.466 Y105.691 E.00904
G1 X107.588 Y105.408 E.00908
G1 X107.742 Y105.143 E.00903
G1 X107.931 Y104.901 E.00905
G1 X108.152 Y104.688 E.00905
G1 X108.402 Y104.511 E.00903
G1 X108.673 Y104.372 E.00898
G1 X108.964 Y104.272 E.00907
G1 X109.299 Y104.211 E.01004
G1 X109.82 Y104.206 E.01536
G1 X110.298 Y104.303 E.01438
G1 X110.563 Y104.404 E.00836
G1 X110.964 Y104.643 E.01376
G1 X111.184 Y104.831 E.00853
G1 X111.51 Y105.226 E.01509
G1 X111.609 Y105.423 E.0065
G1 E-1.12 F2400
;WIPE_START
G1 F4800
G1 X111.636 Y105.477 E-.02868
G1 X111.801 Y105.155 E-.17186
G1 X111.993 Y104.905 E-.14973
G1 X112.189 Y104.715 E-.12973
;WIPE_END
G1 X111.833 Y108.465 F6000
G1 E1.6 F2400
;TYPE:External perimeter
G1 F1200
G1 X112.457 Y108.519 E.01846
G1 X112.92 Y108.483 E.01369
G1 X112.999 Y108.78 E.00906
G1 X113.186 Y109.025 E.00908
G1 X113.393 Y109.148 E.0071
G1 X113.601 Y109.185 E.00623
G1 X113.803 Y109.156 E.00601
G1 X113.869 Y109.13 E.00209
G1 X114.076 Y108.99 E.00737
G1 X114.398 Y108.609 E.0147
G1 X114.481 Y108.317 E.00895
G1 X114.51 Y108.12 E.00587
G1 X114.306 Y108.246 E.00707
G1 X113.758 Y108.451 E.01724
G1 X113.525 Y108.454 E.00687
G1 X113.196 Y108.397 E.00984
G1 X112.886 Y108.3 E.00957
G1 X112.32 Y107.961 E.01944
G1 X112.077 Y107.661 E.01138
G1 X111.934 Y107.316 E.01101
G1 X111.859 Y106.791 E.01563
G1 X111.851 Y106.106 E.02019
G1 X111.902 Y105.843 E.0079
G1 X111.996 Y105.592 E.0079
G1 X112.119 Y105.36 E.00774
G1 X112.276 Y105.156 E.00759
G1 X112.457 Y104.98 E.00744
G1 X112.662 Y104.834 E.00742
G1 X112.885 Y104.72 E.00738
G1 X113.124 Y104.638 E.00745
G1 X113.399 Y104.587 E.00824
G1 X113.848 Y104.583 E.01323
G1 X114.262 Y104.667 E.01245
G1 X114.634 Y104.835 E.01203
G1 X114.817 Y104.958 E.0065
G1 X115.119 Y105.244 E.01226
G1 X115.263 Y105.438 E.00712
G1 X115.472 Y105.87 E.01414
G1 X115.607 Y106.388 E.01578
G1 X115.672 Y106.985 E.0177
G1 X115.671 Y107.682 E.02054
G1 X115.6 Y108.347 E.01971
G1 X115.455 Y108.92 E.01742
G1 X115.349 Y109.18 E.00828
G1 X115.223 Y109.414 E.00783
G1 X115.075 Y109.621 E.0075
G1 X114.925 Y109.787 E.00659
G1 X114.598 Y110.043 E.01224
G1 X114.217 Y110.217 E.01234
G1 X113.797 Y110.302 E.01263
G1 X113.405 Y110.306 E.01155
G1 X113.085 Y110.256 E.00955
G1 X112.793 Y110.157 E.00909
G1 X112.646 Y110.081 E.00488
G1 X112.399 Y109.903 E.00897
G1 X112.187 Y109.676 E.00915
G1 X112.024 Y109.406 E.0093
G1 X111.922 Y109.101 E.00948
G1 X111.841 Y108.524 E.01717
G1 E-1.12 F2400
;WIPE_START
G1 F4800
G1 X111.833 Y108.465 E-.02828
G1 X112.457 Y108.519 E-.29751
G1 X112.78 Y108.494 E-.15421
;WIPE_END
G1 X108.856 Y108.483 F6000
G1 E1.6 F2400
G1 F1200
G1 X108.935 Y108.78 E.00906
G1 X109.122 Y109.025 E.00908
G1 X109.329 Y109.148 E.0071
G1 X109.537 Y109.185 E.00623
G1 X109.739 Y109.156 E.00601
G1 X109.805 Y109.13 E.00209
G1 X110.012 Y108.99 E.00737
G1 X110.334 Y108.609 E.0147
G1 X110.417 Y108.317 E.00895
G1 X110.446 Y108.12 E.00587
G1 X110.245 Y108.245 E.00698
G1 X109.895 Y108.388 E.01114
G1 X109.688 Y108.451 E.00638
G1 X109.461 Y108.454 E.00669
G1 X109.132 Y108.397 E.00984
G1 X108.823 Y108.3 E.00955
G1 X108.255 Y107.971 E.01935
G1 X108.006 Y107.695 E.01096
G1 X107.897 Y107.527 E.0059
G1 X107.76 Y107.179 E.01102
G1 X107.694 Y106.797 E.01143
G1 X107.701 Y106.334 E.01365
G1 X107.746 Y106.071 E.00786
G1 X107.821 Y105.82 E.00772
G1 X107.925 Y105.579 E.00774
G1 X108.055 Y105.355 E.00763
G1 X108.212 Y105.154 E.00752
G1 X108.393 Y104.98 E.0074
G1 X108.598 Y104.834 E.00742
G1 X108.822 Y104.72 E.00741
G1 X109.06 Y104.638 E.00742
G1 X109.335 Y104.587 E.00824
G1 X109.784 Y104.583 E.01323
G1 X110.192 Y104.666 E.01227
G1 X110.397 Y104.744 E.00646
G1 X110.743 Y104.951 E.01188
G1 X110.914 Y105.096 E.00661
G1 X111.192 Y105.434 E.0129
G1 X111.304 Y105.656 E.00733
G1 X111.391 Y105.894 E.00747
G1 X111.443 Y106.156 E.00787
G1 X111.575 Y107.661 E.04453
G1 X111.57 Y108.014 E.01041
G1 X111.533 Y108.342 E.00973
G1 X111.471 Y108.644 E.00909
G1 X111.389 Y108.923 E.00857
G1 X111.285 Y109.18 E.00817
G1 X111.159 Y109.413 E.00781
G1 X111.011 Y109.621 E.00752
G1 X110.861 Y109.787 E.00659
G1 X110.534 Y110.043 E.01224
G1 X110.153 Y110.217 E.01234
G1 X109.733 Y110.302 E.01263
G1 X109.341 Y110.306 E.01155
G1 X109.021 Y110.256 E.00955
G1 X108.729 Y110.157 E.00909
G1 X108.582 Y110.081 E.00488
G1 X108.335 Y109.903 E.00897
G1 X108.123 Y109.676 E.00915
G1 X107.96 Y109.406 E.0093
G1 X107.858 Y109.101 E.00948
G1 X107.769 Y108.465 E.01893
G1 X108.393 Y108.519 E.01846
G1 X108.796 Y108.487 E.01192
G1 E-1.12 F2400
;WIPE_START
G1 F4800
G1 X108.856 Y108.483 E-.02856
G1 X108.935 Y108.78 E-.14598
G1 X109.122 Y109.025 E-.1464
G1 X109.329 Y109.148 E-.11437
G1 X109.422 Y109.164 E-.04469
;WIPE_END
G1 X116.402 Y110.688 F6000
G1 E1.6 F2400
;TYPE:Perimeter
G1 F1200
G1 X116.402 Y104.283 E.18877
G1 X118.393 Y104.283 E.05868
G1 X118.386 Y106.948 E.07855
G1 X118.356 Y107.477 E.01562
G1 X118.325 Y107.703 E.00672
G1 X119.589 Y107.103 E.04124
G1 X119.628 Y109.147 E.06025
G1 X118.828 Y109.588 E.02692
G1 X118.49 Y109.846 E.01253
G1 X118.242 Y110.102 E.0105
G1 X117.863 Y110.688 E.02057
G1 X116.462 Y110.688 E.04129
G1 X116.462 Y110.688 F6000
G1 X116.779 Y110.311
;TYPE:External perimeter
G1 F1200
G1 X116.779 Y104.66 E.16655
G1 X118.015 Y104.66 E.03643
G1 X118.009 Y106.936 E.06708
G1 X117.98 Y107.44 E.01488
G1 X117.914 Y107.924 E.0144
G1 X117.919 Y108.454 E.01562
G1 X118.332 Y108.201 E.01427
G1 X118.475 Y108.049 E.00615
G1 X119.223 Y107.694 E.0244
G1 X119.246 Y108.927 E.03635
G1 X118.621 Y109.272 E.02104
G1 X118.239 Y109.563 E.01415
G1 X117.946 Y109.866 E.01242
G1 X117.658 Y110.311 E.01562
G1 X116.839 Y110.311 E.02414
G1 E-1.12 F2400
;WIPE_START
G1 F4800
G1 X116.779 Y110.311 E-.0285
G1 X116.779 Y109.36 E-.4515
;WIPE_END
G1 X122.166 Y108.094 F6000
G1 E1.6 F2400
;TYPE:Perimeter
G1 F1200
G1 X122.014 Y107.926 E.00668
G1 X121.867 Y107.701 E.00792
G1 X121.703 Y107.281 E.01329
G1 X121.624 Y106.826 E.01361
G1 X121.632 Y106.3 E.0155
G1 X121.686 Y105.985 E.00942
G1 X121.773 Y105.691 E.00904
G1 X121.896 Y105.408 E.00909
G1 X122.05 Y105.143 E.00903
G1 X122.239 Y104.901 E.00905
G1 X122.46 Y104.688 E.00905
G1 X122.71 Y104.511 E.00903
G1 X122.981 Y104.372 E.00898
G1 X123.272 Y104.272 E.00907
G1 X123.592 Y104.213 E.00959
G1 X123.883 Y104.196 E.00859
G1 X124.379 Y104.243 E.01468
G1 X124.856 Y104.395 E.01476
G1 X125.285 Y104.651 E.01472
G1 X125.647 Y104.995 E.01472
G1 X125.821 Y105.233 E.00869
G1 X125.962 Y105.491 E.00867
G1 X126.008 Y105.614 E.00387
G1 X126.165 Y105.296 E.01045
G1 X126.501 Y104.861 E.0162
G1 X126.932 Y104.521 E.01618
G1 X127.428 Y104.298 E.01603
G1 X127.979 Y104.2 E.01649
G1 X128.526 Y104.222 E.01613
G1 X128.906 Y104.313 E.01152
G1 X129.253 Y104.468 E.0112
G1 X129.566 Y104.691 E.01133
G1 X129.83 Y104.977 E.01147
G1 X130.032 Y105.317 E.01166
G1 X130.155 Y105.695 E.01172
G1 X130.311 Y106.826 E.03365
G1 X129.786 Y106.785 E.01552
G1 X129.945 Y106.965 E.00708
G1 X130.092 Y107.192 E.00797
G1 X130.249 Y107.604 E.01299
G1 X130.304 Y107.857 E.00763
G1 X130.339 Y108.309 E.01336
G1 X130.327 Y108.458 E.00441
G1 X130.671 Y107.938 E.01838
G1 X130.984 Y107.355 E.0195
G1 X131.312 Y106.569 E.0251
G1 X131.518 Y105.87 E.02148
G1 X131.624 Y105.248 E.0186
G1 X131.714 Y104.283 E.02856
G1 X133.707 Y104.283 E.05874
G1 X133.618 Y105.533 E.03693
G1 X133.509 Y106.144 E.01829
G1 X133.272 Y107.021 E.02678
G1 X133.109 Y107.474 E.01419
G1 X132.918 Y107.915 E.01416
G1 X132.687 Y108.354 E.01462
G1 X132.458 Y108.697 E.01216
G1 X133.163 Y108.643 E.02084
G1 X134.36 Y108.633 E.03528
G1 X134.36 Y110.603 E.05806
G1 X129.742 Y110.602 E.13611
G1 X129.743 Y109.959 E.01895
G1 X129.353 Y110.309 E.01544
G1 X128.958 Y110.523 E.01324
G1 X128.527 Y110.65 E.01324
G1 X128.079 Y110.69 E.01326
G1 X127.739 Y110.667 E.01004
G1 X127.412 Y110.596 E.00986
G1 X127.099 Y110.478 E.00986
G1 X126.807 Y110.315 E.00986
G1 X126.522 Y110.098 E.01056
G1 X126.192 Y109.723 E.01472
G1 X125.998 Y109.391 E.01133
G1 X125.956 Y109.264 E.00394
G1 X125.79 Y109.605 E.01118
G1 X125.605 Y109.869 E.0095
G1 X125.248 Y110.223 E.01482
G1 X124.829 Y110.478 E.01446
G1 X124.56 Y110.581 E.00849
G1 X124.08 Y110.678 E.01443
G1 X123.622 Y110.683 E.0135
G1 X123.238 Y110.624 E.01145
G1 X122.889 Y110.504 E.01088
G1 X122.692 Y110.403 E.00652
G1 X122.393 Y110.187 E.01087
G1 X122.128 Y109.904 E.01143
G1 X121.923 Y109.565 E.01168
G1 X121.797 Y109.188 E.01172
G1 X121.638 Y108.048 E.03392
G1 X122.106 Y108.089 E.01385
G1 X122.106 Y108.089 F6000
G1 X123.163 Y108.483
;TYPE:External perimeter
G1 F1200
G1 X123.243 Y108.78 E.00907
G1 X123.429 Y109.025 E.00907
G1 X123.637 Y109.148 E.00712
