; generated by PrusaSlicer 2.6.0+win64 on 2023-08-02 at 09:51:26 UTC

; 

; external perimeters extrusion width = 0.42mm
; perimeters extrusion width = 0.44mm
; infill extrusion width = 0.44mm
; solid infill extrusion width = 0.44mm
; top infill extrusion width = 0.40mm
; first layer extrusion width = 0.42mm

; external perimeters extrusion width = 0.42mm
; perimeters extrusion width = 0.44mm
; infill extrusion width = 0.44mm
; solid infill extrusion width = 0.44mm
; top infill extrusion width = 0.40mm
; first layer extrusion width = 0.42mm

; external perimeters extrusion width = 0.42mm
; perimeters extrusion width = 0.44mm
; infill extrusion width = 0.44mm
; solid infill extrusion width = 0.44mm
; top infill extrusion width = 0.40mm
; first layer extrusion width = 0.42mm

; external perimeters extrusion width = 0.42mm
; perimeters extrusion width = 0.44mm
; infill extrusion width = 0.44mm
; solid infill extrusion width = 0.44mm
; top infill extrusion width = 0.40mm
; first layer extrusion width = 0.42mm

; external perimeters extrusion width = 0.42mm
; perimeters extrusion width = 0.44mm
; infill extrusion width = 0.44mm
; solid infill extrusion width = 0.44mm
; top infill extrusion width = 0.40mm
; first layer extrusion width = 0.42mm

; external perimeters extrusion width = 0.42mm
; perimeters extrusion width = 0.44mm
; infill extrusion width = 0.44mm
; solid infill extrusion width = 0.44mm
; top infill extrusion width = 0.40mm
; first layer extrusion width = 0.42mm

; external perimeters extrusion width = 0.42mm
; perimeters extrusion width = 0.44mm
; infill extrusion width = 0.44mm
; solid infill extrusion width = 0.44mm
; top infill extrusion width = 0.40mm
; first layer extrusion width = 0.42mm

; external perimeters extrusion width = 0.42mm
; perimeters extrusion width = 0.44mm
; infill extrusion width = 0.44mm
; solid infill extrusion width = 0.44mm
; top infill extrusion width = 0.40mm
; first layer extrusion width = 0.42mm

; external perimeters extrusion width = 0.42mm
; perimeters extrusion width = 0.44mm
; infill extrusion width = 0.44mm
; solid infill extrusion width = 0.44mm
; top infill extrusion width = 0.40mm
; first layer extrusion width = 0.42mm

; external perimeters extrusion width = 0.42mm
; perimeters extrusion width = 0.44mm
; infill extrusion width = 0.44mm
; solid infill extrusion width = 0.44mm
; top infill extrusion width = 0.40mm
; first layer extrusion width = 0.42mm

; external perimeters extrusion width = 0.42mm
; perimeters extrusion width = 0.44mm
; infill extrusion width = 0.44mm
; solid infill extrusion width = 0.44mm
; top infill extrusion width = 0.40mm
; first layer extrusion width = 0.42mm

; external perimeters extrusion width = 0.42mm
; perimeters extrusion width = 0.44mm
; infill extrusion width = 0.44mm
; solid infill extrusion width = 0.44mm
; top infill extrusion width = 0.40mm
; first layer extrusion width = 0.42mm

; external perimeters extrusion width = 0.42mm
; perimeters extrusion width = 0.44mm
; infill extrusion width = 0.44mm
; solid infill extrusion width = 0.44mm
; top infill extrusion width = 0.40mm
; first layer extrusion width = 0.42mm

; external perimeters extrusion width = 0.42mm
; perimeters extrusion width = 0.44mm
; infill extrusion width = 0.44mm
; solid infill extrusion width = 0.44mm
; top infill extrusion width = 0.40mm
; first layer extrusion width = 0.42mm

; external perimeters extrusion width = 0.42mm
; perimeters extrusion width = 0.44mm
; infill extrusion width = 0.44mm
; solid infill extrusion width = 0.44mm
; top infill extrusion width = 0.40mm
; first layer extrusion width = 0.42mm

;TYPE:Custom
; Ender 3 Custom Start G-code
G92 E0 ; Reset Extruder

M140 S50 ; set bed temp
M190 S50 ; wait for bed temp

G28 ; Home all axes
M104 S205 ; set extruder temp 
BED_MESH_CALIBRATE AREA_START=83.7684,88.5669 AREA_END=143.763,126.207

G1 Z2.0 F3000 ; Move Z Axis up little to prevent scratching of Heat Bed
M109 S205 ; wait for extruder temp
G1 X0.1 Y20 Z0.3 F5000.0 ; Move to start position

G1 X0.1 Y200.0 Z0.3 F1500.0 E15 ; Draw the first line
G1 X0.4 Y200.0 Z0.3 F5000.0 ; Move to side a little
G1 X0.4 Y20 Z0.3 F1500.0 E30 ; Draw the second line
G92 E0 ; Reset Extruder
G1 Z2.0 F3000 ; Move Z Axis up little to prevent scratching of Heat Bed
G1 X5 Y20 Z0.3 F5000.0 ; Move over to prevent blob squish
G21 ; set units to millimeters
G90 ; use absolute coordinates
M83 ; use relative distances for extrusion
; Filament gcode
M107
;LAYER_CHANGE
;Z:0.2
;HEIGHT:0.2
;BEFORE_LAYER_CHANGE
G92 E0
;0.2


G1 E-1.6 F2400
G1 Z.2 F6000
;AFTER_LAYER_CHANGE
;0.2
G1 X87.857 Y91.701
G1 E1.6 F2400
M204 S500
;TYPE:Skirt/Brim
;WIDTH:0.42
G1 F1200
G1 X88.725 Y90.996 E.03296
G1 X89.656 Y90.382 E.03287
G1 X91.322 Y89.564 E.0547
G1 X93.099 Y89.026 E.05472
G1 X94.721 Y88.79 E.04831
G1 X131.692 Y88.755 E1.08965
G1 X132.884 Y88.805 E.03516
G1 X133.843 Y88.938 E.02854
G1 X135.87 Y89.494 E.06195
G1 X137.7 Y90.365 E.05973
G1 X139.14 Y91.376 E.05186
G1 X140.583 Y92.775 E.05924
G1 X141.374 Y93.79 E.03793
G1 X141.835 Y94.519 E.02542
G1 X142.681 Y96.304 E.05822
G1 X143.24 Y98.341 E.06226
G1 X143.425 Y100.341 E.0592
G1 X143.575 Y114.341 E.41265
G1 X143.503 Y115.668 E.03917
G1 X143.296 Y116.888 E.03647
G1 X142.676 Y118.864 E.06104
G1 X141.69 Y120.733 E.06228
G1 X140.467 Y122.296 E.05849
G1 X139.688 Y123.064 E.03224
G1 X138.815 Y123.771 E.03311
G1 X137.173 Y124.778 E.05677
G1 X136.08 Y125.257 E.03517
G1 X134.281 Y125.783 E.05524
G1 X132.523 Y126.003 E.05222
G1 X95.078 Y126.009 E1.10362
G1 X93.39 Y125.81 E.0501
G1 X92.295 Y125.542 E.03323
G1 X91.185 Y125.153 E.03467
G1 X89.854 Y124.506 E.04362
G1 X88.8 Y123.835 E.03683
G1 X87.851 Y123.075 E.03583
G1 X86.76 Y121.96 E.04598
G1 X86.154 Y121.19 E.02888
G1 X85.328 Y119.862 E.04609
G1 X84.772 Y118.665 E.0389
G1 X84.319 Y117.276 E.04306
G1 X84.013 Y115.506 E.05294
G1 X83.957 Y114.505 E.02955
G1 X83.987 Y99.578 E.43994
G1 X84.339 Y97.433 E.06407
G1 X84.956 Y95.673 E.05497
G1 X85.359 Y94.854 E.0269
G1 X86.242 Y93.468 E.04844
G1 X86.875 Y92.684 E.0297
G1 X87.814 Y91.744 E.03916
G1 X88.08 Y92.01 F6000
G1 F1200
G1 X88.937 Y91.308 E.03265
G1 X89.836 Y90.714 E.03176
G1 X91.455 Y89.917 E.05319
G1 X92.992 Y89.437 E.04746
G1 X94.74 Y89.166 E.05213
G1 X131.692 Y89.133 E1.08909
G1 X133.767 Y89.308 E.06137
G1 X135.748 Y89.851 E.06054
G1 X137.509 Y90.69 E.05749
G1 X138.893 Y91.661 E.04983
G1 X140.304 Y93.029 E.05792
G1 X141.07 Y94.013 E.03675
G1 X141.565 Y94.802 E.02745
G1 X142.414 Y96.673 E.06056
G1 X142.882 Y98.473 E.05482
G1 X143.048 Y100.345 E.05539
G1 X143.198 Y114.345 E.41265
G1 X143.13 Y115.614 E.03745
G1 X142.924 Y116.824 E.03618
G1 X142.331 Y118.712 E.05833
G1 X141.369 Y120.534 E.06073
G1 X140.198 Y122.031 E.05602
G1 X139.594 Y122.642 E.02532
G1 X138.603 Y123.459 E.03785
G1 X136.981 Y124.453 E.05607
G1 X135.395 Y125.098 E.05046
G1 X134.218 Y125.411 E.0359
G1 X132.355 Y125.634 E.0553
G1 X95.105 Y125.633 E1.09787
G1 X93.449 Y125.437 E.04915
G1 X92.304 Y125.154 E.03476
G1 X91.337 Y124.807 E.03028
G1 X90.03 Y124.173 E.04281
G1 X89.019 Y123.528 E.03534
G1 X88.102 Y122.794 E.03462
G1 X87.039 Y121.706 E.04483
G1 X86.452 Y120.958 E.02802
G1 X85.657 Y119.676 E.04446
G1 X85.128 Y118.539 E.03696
G1 X84.684 Y117.182 E.04208
G1 X84.387 Y115.46 E.0515
G1 X84.334 Y114.505 E.02819
G1 X84.363 Y99.603 E.43921
G1 X84.7 Y97.541 E.06158
G1 X85.307 Y95.811 E.05404
G1 X85.705 Y95.004 E.02652
G1 X86.553 Y93.681 E.04632
G1 X87.156 Y92.934 E.02829
G1 X88.038 Y92.052 E.03676
G1 X88.304 Y92.318 F6000
G1 F1200
G1 X89.149 Y91.62 E.0323
G1 X90.029 Y91.037 E.03111
G1 X91.588 Y90.27 E.05121
G1 X93.208 Y89.774 E.04993
G1 X94.758 Y89.543 E.04619
G1 X131.692 Y89.51 E1.08856
G1 X133.69 Y89.677 E.05909
G1 X135.628 Y90.208 E.05922
G1 X137.318 Y91.015 E.0552
G1 X138.647 Y91.947 E.04784
G1 X140.013 Y93.269 E.05603
G1 X140.766 Y94.236 E.03612
G1 X141.237 Y94.988 E.02615
G1 X142.054 Y96.785 E.05818
G1 X142.512 Y98.545 E.0536
G1 X142.671 Y100.349 E.05338
G1 X142.821 Y114.349 E.41265
G1 X142.744 Y115.641 E.03815
G1 X142.521 Y116.917 E.03818
G1 X142.276 Y117.78 E.02644
G1 X141.409 Y119.75 E.06344
G1 X140.675 Y120.874 E.03957
G1 X140.018 Y121.672 E.03047
G1 X139.333 Y122.37 E.02882
G1 X138.39 Y123.147 E.03601
G1 X136.804 Y124.12 E.05484
G1 X135.27 Y124.742 E.04879
G1 X134.141 Y125.042 E.03443
G1 X132.345 Y125.257 E.05331
G1 X95.131 Y125.257 E1.09681
G1 X93.508 Y125.065 E.04817
G1 X92.409 Y124.792 E.03338
G1 X91.488 Y124.462 E.02883
G1 X90.206 Y123.839 E.04201
G1 X89.238 Y123.221 E.03385
G1 X88.306 Y122.47 E.03528
G1 X87.318 Y121.453 E.04179
G1 X86.76 Y120.741 E.02666
G1 X85.985 Y119.491 E.04335
G1 X85.483 Y118.413 E.03505
G1 X85.05 Y117.087 E.04111
G1 X84.761 Y115.415 E.05001
G1 X84.739 Y99.629 E.46526
G1 X85.061 Y97.651 E.05907
G1 X85.658 Y95.948 E.05319
G1 X86.04 Y95.178 E.02533
G1 X86.862 Y93.897 E.04486
G1 X87.438 Y93.185 E.02699
G1 X88.262 Y92.361 E.03435
; printing object 9 id:9 copy 0
G1 E-1.12 F2400
;WIPE_START
G1 F4800
G1 X89.038 Y91.713 E-.48
;WIPE_END
G1 X98.441 Y113.359 F6000
G1 E1.6 F2400
;TYPE:External perimeter
G1 F1200
G1 X98.521 Y113.359 E.00236
G1 X98.521 Y113.939 E.01709
G1 X98.441 Y113.939 E.00236
G1 X98.441 Y113.419 E.01533
G1 X98.512 Y113.396 F6000
; stop printing object 9 id:9 copy 0
; printing object 14 id:14 copy 0
G1 E-1.12 F2400
;WIPE_START
G1 F4800
G1 X98.521 Y113.359 E-.0475
G1 X98.521 Y113.939 E-.2755
G1 X98.441 Y113.939 E-.038
G1 X98.441 Y113.688 E-.119
;WIPE_END
G1 X102.673 Y113.398 F6000
G1 E1.6 F2400
G1 F1200
G1 X102.753 Y113.398 E.00236
G1 X102.753 Y113.978 E.01709
G1 X102.673 Y113.978 E.00236
G1 X102.673 Y113.458 E.01533
G1 X102.744 Y113.435 F6000
; stop printing object 14 id:14 copy 0
; printing object 6 id:6 copy 0
G1 E-1.12 F2400
;WIPE_START
G1 F4800
G1 X102.753 Y113.398 E-.0475
G1 X102.753 Y113.978 E-.2755
G1 X102.673 Y113.978 E-.038
G1 X102.673 Y113.727 E-.119
;WIPE_END
G1 X102.732 Y109.314 F6000
G1 E1.6 F2400
G1 F1200
G1 X102.732 Y108.734 E.01709
G1 X102.812 Y108.734 E.00236
G1 X102.812 Y109.314 E.01709
G1 X102.792 Y109.314 E.00059
G1 X102.75 Y108.914 F6000
; stop printing object 6 id:6 copy 0
; printing object 8 id:8 copy 0
G1 E-1.12 F2400
;WIPE_START
G1 F4800
G1 X102.732 Y108.734 E-.27697
G1 X102.812 Y108.734 E-.038
G1 X102.812 Y109.081 E-.16503
;WIPE_END
G1 X98.38 Y109.473 F6000
G1 E1.6 F2400
G1 F1200
G1 X98.3 Y109.473 E.00236
G1 X98.3 Y108.893 E.01709
G1 X98.38 Y108.893 E.00236
G1 X98.38 Y109.413 E.01533
G1 X98.309 Y109.436 F6000
; stop printing object 8 id:8 copy 0
; printing object 10 id:10 copy 0
G1 E-1.12 F2400
;WIPE_START
G1 F4800
G1 X98.3 Y109.473 E-.0475
G1 X98.3 Y108.893 E-.2755
G1 X98.38 Y108.893 E-.038
G1 X98.38 Y109.144 E-.119
;WIPE_END
G1 X98.509 Y105.328 F6000
G1 E1.6 F2400
G1 F1200
G1 X98.509 Y104.748 E.01709
G1 X98.589 Y104.748 E.00236
G1 X98.589 Y105.328 E.01709
G1 X98.569 Y105.328 E.00059
G1 X98.527 Y104.928 F6000
; stop printing object 10 id:10 copy 0
; printing object 11 id:11 copy 0
G1 E-1.12 F2400
;WIPE_START
G1 F4800
G1 X98.509 Y104.748 E-.27697
G1 X98.589 Y104.748 E-.038
G1 X98.589 Y105.095 E-.16503
;WIPE_END
G1 X98.617 Y102.62 F6000
G1 E1.6 F2400
G1 F1200
G1 X98.617 Y102.04 E.01709
G1 X98.697 Y102.04 E.00236
G1 X98.697 Y102.62 E.01709
G1 X98.677 Y102.62 E.00059
G1 X98.635 Y102.22 F6000
; stop printing object 11 id:11 copy 0
; printing object Shape-Box id:0 copy 0
G1 E-1.12 F2400
;WIPE_START
G1 F4800
G1 X98.617 Y102.04 E-.27697
G1 X98.697 Y102.04 E-.038
G1 X98.697 Y102.387 E-.16503
;WIPE_END
G1 X109.165 Y104.02 F6000
G1 E1.6 F2400
;TYPE:Perimeter
G1 F1200
G1 X109.19 Y103.914 E.00321
G1 X109.319 Y103.688 E.00767
G1 X109.451 Y103.529 E.00609
G1 X109.8 Y103.185 E.01444
G1 X109.712 Y104.066 E.02609
G1 X109.683 Y104.127 E.00199
G1 X109.617 Y104.187 E.00263
G1 X109.529 Y104.216 E.00273
G1 X109.342 Y104.217 E.00551
G1 X109.264 Y104.191 E.00242
G1 X109.192 Y104.128 E.00282
G1 X109.173 Y104.08 E.00152
G1 E-1.12 F2400
;WIPE_START
G1 F4800
G1 X109.19 Y103.914 E-.07926
G1 X109.319 Y103.688 E-.12361
G1 X109.451 Y103.529 E-.09816
G1 X109.719 Y103.265 E-.17897
;WIPE_END
G1 X111.386 Y103.301 F6000
G1 E1.6 F2400
G1 F1200
G1 X109.847 Y103.143 E.0456
G1 X110.829 Y102.294 E.03826
G1 X111.222 Y101.886 E.0167
G1 X111.399 Y101.661 E.00844
G1 X111.561 Y101.393 E.00923
G1 X111.506 Y101.58 E.00574
G1 X111.403 Y102.228 E.01934
G1 X111.37 Y102.972 E.02195
G1 X111.383 Y103.242 E.00797
G1 E-1.12 F2400
;WIPE_START
G1 F4800
G1 X110.375 Y103.177 E-.48
;WIPE_END
G1 X115.724 Y102.199 F6000
G1 E1.6 F2400
G1 F1200
G1 X115.706 Y102.372 E.00513
G1 X115.521 Y102.159 E.00832
G1 X115.692 Y102.172 E.00505
G1 E-1.12 F2400
;WIPE_START
G1 F4800
G1 X115.706 Y102.372 E-.09523
G1 X115.521 Y102.159 E-.13401
G1 X115.692 Y102.172 E-.08146
;WIPE_END
G1 E-.1693 F2400
G1 X124.37 Y112.542 F6000
G1 E1.6 F2400
G1 F1200
G1 X124.395 Y112.435 E.00324
G1 X124.524 Y112.209 E.00767
G1 X124.656 Y112.051 E.00607
G1 X125.006 Y111.706 E.01448
G1 X124.917 Y112.587 E.0261
G1 X124.889 Y112.648 E.00198
G1 X124.822 Y112.708 E.00265
G1 X124.734 Y112.737 E.00273
G1 X124.548 Y112.738 E.00548
G1 X124.469 Y112.712 E.00245
G1 X124.397 Y112.65 E.0028
G1 X124.379 Y112.601 E.00154
G1 E-1.12 F2400
;WIPE_START
G1 F4800
G1 X124.395 Y112.435 E-.07922
G1 X124.524 Y112.209 E-.12361
G1 X124.656 Y112.051 E-.09779
G1 X124.925 Y111.786 E-.17938
;WIPE_END
G1 X126.595 Y110.194 F6000
G1 E1.6 F2400
G1 F1200
G1 X126.591 Y110.519 E.00958
G1 X126.643 Y110.847 E.00979
G1 X126.751 Y111.199 E.01085
G1 X127.126 Y111.72 E.01892
G1 X127.049 Y111.87 E.00497
G1 X125.052 Y111.665 E.05917
G1 X126.034 Y110.815 E.03828
G1 X126.428 Y110.408 E.0167
G1 X126.558 Y110.242 E.00621
G1 E-1.12 F2400
;WIPE_START
G1 F4800
G1 X126.591 Y110.519 E-.13251
G1 X126.643 Y110.847 E-.15775
G1 X126.751 Y111.199 E-.17489
G1 X126.769 Y111.224 E-.01485
;WIPE_END
G1 X129.306 Y110.435 F6000
G1 E1.6 F2400
G1 F1200
G1 X129.34 Y110.558 E.00376
G1 X129.039 Y110.622 E.00907
G1 X128.887 Y110.629 E.00448
G1 X128.791 Y110.607 E.0029
G1 X128.673 Y110.51 E.0045
G1 X128.637 Y110.432 E.00253
G1 X128.628 Y110.302 E.00384
G1 X128.656 Y110.181 E.00366
G1 X128.76 Y110.038 E.00521
G1 X128.916 Y109.969 E.00503
G1 X129.045 Y109.968 E.0038
G1 X129.12 Y109.995 E.00235
G1 X129.163 Y110.034 E.00171
G1 X129.234 Y110.168 E.00447
G1 X129.29 Y110.377 E.00638
G1 E-1.12 F2400
;WIPE_START
G1 F4800
G1 X129.34 Y110.558 E-.0892
G1 X129.039 Y110.622 E-.14617
G1 X128.887 Y110.629 E-.07228
G1 X128.791 Y110.607 E-.04678
G1 X128.673 Y110.51 E-.07256
G1 X128.637 Y110.432 E-.04081
G1 X128.635 Y110.406 E-.0122
;WIPE_END
G1 X129.228 Y112.478 F6000
G1 E1.6 F2400
G1 F1200
G1 X129.182 Y112.63 E.00468
G1 X129.096 Y112.73 E.00389
G1 X128.939 Y112.744 E.00465
G1 X128.866 Y112.703 E.00247
G1 X128.87 Y112.58 E.00363
G1 X128.932 Y112.542 E.00214
G1 X129.169 Y112.481 E.00721
G1 E-1.12 F2400
;WIPE_START
G1 F4800
G1 X129.182 Y112.63 E-.07104
G1 X129.096 Y112.73 E-.06265
G1 X128.939 Y112.744 E-.07487
G1 X128.866 Y112.703 E-.03977
G1 X128.87 Y112.58 E-.05846
G1 X128.932 Y112.542 E-.03454
G1 X129.169 Y112.481 E-.11624
;WIPE_END
G1 E-.02243 F2400
G1 X120.34 Y112.194 F6000
G1 E1.6 F2400
G1 F1200
G1 X120.325 Y112.339 E.0043
G1 X120.164 Y112.97 E.01919
G1 X120.04 Y113.277 E.00976
G1 X119.891 Y113.552 E.00922
G1 X119.715 Y113.799 E.00894
G1 X119.527 Y114.007 E.00826
G1 X119.135 Y114.314 E.01467
G1 X118.669 Y114.526 E.01509
G1 X118.167 Y114.628 E.0151
G1 X117.704 Y114.633 E.01365
G1 X117.316 Y114.573 E.01157
G1 X116.963 Y114.452 E.011
G1 X116.765 Y114.35 E.00656
G1 X116.463 Y114.132 E.01098
G1 X116.196 Y113.847 E.01151
G1 X116.045 Y113.598 E.00858
G1 X116.046 Y114.551 E.02809
G1 X111.381 Y114.551 E.13749
G1 X111.381 Y113.127 E.04197
G1 X111.88 Y112.532 E.02289
G1 X112.322 Y111.863 E.02363
G1 X112.64 Y111.271 E.01981
G1 X112.819 Y110.873 E.01286
G1 X112.973 Y110.472 E.01266
G1 X113.182 Y109.763 E.02179
G1 X113.29 Y109.131 E.0189
G1 X113.38 Y108.16 E.02874
G1 X115.382 Y108.16 E.05901
G1 X115.292 Y109.418 E.03717
G1 X115.183 Y110.037 E.01852
G1 X114.943 Y110.925 E.02711
G1 X114.777 Y111.383 E.01436
G1 X114.585 Y111.83 E.01434
G1 X114.352 Y112.274 E.01478
G1 X114.11 Y112.639 E.01291
