; generated by PrusaSlicer 2.6.0+win64 on 2023-07-20 at 08:30:06 UTC

; 

; external perimeters extrusion width = 0.42mm
; perimeters extrusion width = 0.44mm
; infill extrusion width = 0.44mm
; solid infill extrusion width = 0.44mm
; top infill extrusion width = 0.40mm
; first layer extrusion width = 0.42mm

; external perimeters extrusion width = 0.42mm
; perimeters extrusion width = 0.44mm
; infill extrusion width = 0.44mm
; solid infill extrusion width = 0.44mm
; top infill extrusion width = 0.40mm
; first layer extrusion width = 0.42mm

; external perimeters extrusion width = 0.42mm
; perimeters extrusion width = 0.44mm
; infill extrusion width = 0.44mm
; solid infill extrusion width = 0.44mm
; top infill extrusion width = 0.40mm
; first layer extrusion width = 0.42mm

; external perimeters extrusion width = 0.42mm
; perimeters extrusion width = 0.44mm
; infill extrusion width = 0.44mm
; solid infill extrusion width = 0.44mm
; top infill extrusion width = 0.40mm
; first layer extrusion width = 0.42mm

; external perimeters extrusion width = 0.42mm
; perimeters extrusion width = 0.44mm
; infill extrusion width = 0.44mm
; solid infill extrusion width = 0.44mm
; top infill extrusion width = 0.40mm
; first layer extrusion width = 0.42mm

; external perimeters extrusion width = 0.42mm
; perimeters extrusion width = 0.44mm
; infill extrusion width = 0.44mm
; solid infill extrusion width = 0.44mm
; top infill extrusion width = 0.40mm
; first layer extrusion width = 0.42mm

; external perimeters extrusion width = 0.42mm
; perimeters extrusion width = 0.44mm
; infill extrusion width = 0.44mm
; solid infill extrusion width = 0.44mm
; top infill extrusion width = 0.40mm
; first layer extrusion width = 0.42mm

; external perimeters extrusion width = 0.42mm
; perimeters extrusion width = 0.44mm
; infill extrusion width = 0.44mm
; solid infill extrusion width = 0.44mm
; top infill extrusion width = 0.40mm
; first layer extrusion width = 0.42mm

; external perimeters extrusion width = 0.42mm
; perimeters extrusion width = 0.44mm
; infill extrusion width = 0.44mm
; solid infill extrusion width = 0.44mm
; top infill extrusion width = 0.40mm
; first layer extrusion width = 0.42mm

; external perimeters extrusion width = 0.42mm
; perimeters extrusion width = 0.44mm
; infill extrusion width = 0.44mm
; solid infill extrusion width = 0.44mm
; top infill extrusion width = 0.40mm
; first layer extrusion width = 0.42mm

;TYPE:Custom
; Ender 3 Custom Start G-code
G92 E0 ; Reset Extruder

M140 S50 ; set bed temp
M190 S50 ; wait for bed temp

G28 ; Home all axes
M104 S205 ; set extruder temp 
BED_MESH_CALIBRATE AREA_START=83.7684,88.5669 AREA_END=143.763,126.207

G1 Z2.0 F3000 ; Move Z Axis up little to prevent scratching of Heat Bed
M109 S205 ; wait for extruder temp
G1 X0.1 Y20 Z0.3 F5000.0 ; Move to start position

G1 X0.1 Y200.0 Z0.3 F1500.0 E15 ; Draw the first line
G1 X0.4 Y200.0 Z0.3 F5000.0 ; Move to side a little
G1 X0.4 Y20 Z0.3 F1500.0 E30 ; Draw the second line
G92 E0 ; Reset Extruder
G1 Z2.0 F3000 ; Move Z Axis up little to prevent scratching of Heat Bed
G1 X5 Y20 Z0.3 F5000.0 ; Move over to prevent blob squish
G21 ; set units to millimeters
G90 ; use absolute coordinates
M83 ; use relative distances for extrusion
; Filament gcode
M107
;LAYER_CHANGE
;Z:0.2
;HEIGHT:0.2
;BEFORE_LAYER_CHANGE
G92 E0
;0.2


G1 E-1.6 F2400
G1 Z.2 F6000
;AFTER_LAYER_CHANGE
;0.2
G1 X87.857 Y91.701
G1 E1.6 F2400
M204 S500
;TYPE:Skirt/Brim
;WIDTH:0.42
G1 F1200
G1 X88.725 Y90.996 E.03296
G1 X89.656 Y90.382 E.03287
G1 X91.322 Y89.564 E.0547
G1 X93.099 Y89.026 E.05472
G1 X94.721 Y88.79 E.04831
G1 X131.692 Y88.755 E1.08965
G1 X132.884 Y88.805 E.03516
G1 X133.843 Y88.938 E.02854
G1 X135.87 Y89.494 E.06195
G1 X137.7 Y90.365 E.05973
G1 X139.14 Y91.376 E.05186
G1 X140.583 Y92.775 E.05924
G1 X141.374 Y93.79 E.03793
G1 X141.835 Y94.519 E.02542
G1 X142.681 Y96.304 E.05822
G1 X143.24 Y98.341 E.06226
G1 X143.425 Y100.341 E.0592
G1 X143.575 Y114.341 E.41265
G1 X143.503 Y115.668 E.03917
G1 X143.296 Y116.888 E.03647
G1 X142.676 Y118.864 E.06104
G1 X141.69 Y120.733 E.06228
G1 X140.467 Y122.296 E.05849
G1 X139.688 Y123.064 E.03224
G1 X138.815 Y123.771 E.03311
G1 X137.173 Y124.778 E.05677
G1 X136.08 Y125.257 E.03517
G1 X134.281 Y125.783 E.05524
G1 X132.523 Y126.003 E.05222
G1 X95.078 Y126.009 E1.10362
G1 X93.39 Y125.81 E.0501
G1 X92.295 Y125.542 E.03323
G1 X91.185 Y125.153 E.03467
G1 X89.854 Y124.506 E.04362
G1 X88.8 Y123.835 E.03683
G1 X87.851 Y123.075 E.03583
G1 X86.76 Y121.96 E.04598
G1 X86.154 Y121.19 E.02888
G1 X85.328 Y119.862 E.04609
G1 X84.772 Y118.665 E.0389
G1 X84.319 Y117.276 E.04306
G1 X84.013 Y115.506 E.05294
G1 X83.957 Y114.505 E.02955
G1 X83.987 Y99.578 E.43994
G1 X84.339 Y97.433 E.06407
G1 X84.956 Y95.673 E.05497
G1 X85.359 Y94.854 E.0269
G1 X86.242 Y93.468 E.04844
G1 X86.875 Y92.684 E.0297
G1 X87.814 Y91.744 E.03916
G1 X88.08 Y92.01 F6000
G1 F1200
G1 X88.937 Y91.308 E.03265
G1 X89.836 Y90.714 E.03176
G1 X91.455 Y89.917 E.05319
G1 X92.992 Y89.437 E.04746
G1 X94.74 Y89.166 E.05213
G1 X131.692 Y89.133 E1.08909
G1 X133.767 Y89.308 E.06137
G1 X135.748 Y89.851 E.06054
G1 X137.509 Y90.69 E.05749
G1 X138.893 Y91.661 E.04983
G1 X140.304 Y93.029 E.05792
G1 X141.07 Y94.013 E.03675
G1 X141.565 Y94.802 E.02745
G1 X142.414 Y96.673 E.06056
G1 X142.882 Y98.473 E.05482
G1 X143.048 Y100.345 E.05539
G1 X143.198 Y114.345 E.41265
G1 X143.13 Y115.614 E.03745
G1 X142.924 Y116.824 E.03618
G1 X142.331 Y118.712 E.05833
G1 X141.369 Y120.534 E.06073
G1 X140.198 Y122.031 E.05602
G1 X139.594 Y122.642 E.02532
G1 X138.603 Y123.459 E.03785
G1 X136.981 Y124.453 E.05607
G1 X135.395 Y125.098 E.05046
G1 X134.218 Y125.411 E.0359
G1 X132.355 Y125.634 E.0553
G1 X95.105 Y125.633 E1.09787
G1 X93.449 Y125.437 E.04915
G1 X92.304 Y125.154 E.03476
G1 X91.337 Y124.807 E.03028
G1 X90.03 Y124.173 E.04281
G1 X89.019 Y123.528 E.03534
G1 X88.102 Y122.794 E.03462
G1 X87.039 Y121.706 E.04483
G1 X86.452 Y120.958 E.02802
G1 X85.657 Y119.676 E.04446
G1 X85.128 Y118.539 E.03696
G1 X84.684 Y117.182 E.04208
G1 X84.387 Y115.46 E.0515
G1 X84.334 Y114.505 E.02819
G1 X84.363 Y99.603 E.43921
G1 X84.7 Y97.541 E.06158
G1 X85.307 Y95.811 E.05404
G1 X85.705 Y95.004 E.02652
G1 X86.553 Y93.681 E.04632
G1 X87.156 Y92.934 E.02829
G1 X88.038 Y92.052 E.03676
G1 X88.304 Y92.318 F6000
G1 F1200
G1 X89.149 Y91.62 E.0323
G1 X90.029 Y91.037 E.03111
G1 X91.588 Y90.27 E.05121
G1 X93.208 Y89.774 E.04993
G1 X94.758 Y89.543 E.04619
G1 X131.692 Y89.51 E1.08856
G1 X133.69 Y89.677 E.05909
G1 X135.628 Y90.208 E.05922
G1 X137.318 Y91.015 E.0552
G1 X138.647 Y91.947 E.04784
G1 X140.013 Y93.269 E.05603
G1 X140.766 Y94.236 E.03612
G1 X141.237 Y94.988 E.02615
G1 X142.054 Y96.785 E.05818
G1 X142.512 Y98.545 E.0536
G1 X142.671 Y100.349 E.05338
G1 X142.821 Y114.349 E.41265
G1 X142.744 Y115.641 E.03815
G1 X142.521 Y116.917 E.03818
G1 X142.276 Y117.78 E.02644
G1 X141.409 Y119.75 E.06344
G1 X140.675 Y120.874 E.03957
G1 X140.018 Y121.672 E.03047
G1 X139.333 Y122.37 E.02882
G1 X138.39 Y123.147 E.03601
G1 X136.804 Y124.12 E.05484
G1 X135.27 Y124.742 E.04879
G1 X134.141 Y125.042 E.03443
G1 X132.345 Y125.257 E.05331
G1 X95.131 Y125.257 E1.09681
G1 X93.508 Y125.065 E.04817
G1 X92.409 Y124.792 E.03338
G1 X91.488 Y124.462 E.02883
G1 X90.206 Y123.839 E.04201
G1 X89.238 Y123.221 E.03385
G1 X88.306 Y122.47 E.03528
G1 X87.318 Y121.453 E.04179
G1 X86.76 Y120.741 E.02666
G1 X85.985 Y119.491 E.04335
G1 X85.483 Y118.413 E.03505
G1 X85.05 Y117.087 E.04111
G1 X84.761 Y115.415 E.05001
G1 X84.739 Y99.629 E.46526
G1 X85.061 Y97.651 E.05907
G1 X85.658 Y95.949 E.05316
G1 X86.04 Y95.178 E.02536
G1 X86.862 Y93.897 E.04486
G1 X87.438 Y93.185 E.02699
G1 X88.262 Y92.361 E.03435
; printing object Shape-Box id:7 copy 0
G1 E-1.12 F2400
;WIPE_START
G1 F4800
G1 X89.038 Y91.713 E-.48
;WIPE_END
G1 X133.194 Y100.359 F6000
G1 E1.6 F2400
;TYPE:External perimeter
G1 F1200
G1 X133.274 Y100.359 E.00236
G1 X133.274 Y100.939 E.01709
G1 X133.194 Y100.939 E.00236
G1 X133.194 Y100.419 E.01533
G1 X133.265 Y100.395 F6000
; stop printing object Shape-Box id:7 copy 0
; printing object Shape-Box id:5 copy 0
G1 E-1.12 F2400
;WIPE_START
G1 F4800
G1 X133.274 Y100.359 E-.0475
G1 X133.274 Y100.939 E-.2755
G1 X133.194 Y100.939 E-.038
G1 X133.194 Y100.688 E-.119
;WIPE_END
G1 X128.92 Y104.789 F6000
G1 E1.6 F2400
G1 F1200
G1 X128.92 Y105.369 E.01709
G1 X128.84 Y105.369 E.00236
G1 X128.84 Y104.789 E.01709
G1 X128.86 Y104.789 E.00059
G1 X128.902 Y105.189 F6000
; stop printing object Shape-Box id:5 copy 0
; printing object Shape-Box id:2 copy 0
G1 E-1.12 F2400
;WIPE_START
G1 F4800
G1 X128.92 Y105.369 E-.27697
G1 X128.84 Y105.369 E-.038
G1 X128.84 Y105.022 E-.16503
;WIPE_END
G1 X118.082 Y100.729 F6000
G1 E1.6 F2400
G1 F1200
G1 X118.002 Y100.729 E.00236
G1 X118.002 Y100.149 E.01709
G1 X118.082 Y100.149 E.00236
G1 X118.082 Y100.669 E.01533
G1 X118.011 Y100.692 F6000
; stop printing object Shape-Box id:2 copy 0
; printing object Shape-Box id:1 copy 0
G1 E-1.12 F2400
;WIPE_START
G1 F4800
G1 X118.002 Y100.729 E-.0475
G1 X118.002 Y100.149 E-.2755
G1 X118.082 Y100.149 E-.038
G1 X118.082 Y100.4 E-.119
;WIPE_END
G1 X118.091 Y104.878 F6000
G1 E1.6 F2400
G1 F1200
G1 X118.091 Y105.458 E.01709
G1 X118.011 Y105.458 E.00236
G1 X118.011 Y104.878 E.01709
G1 X118.031 Y104.878 E.00059
G1 X118.073 Y105.277 F6000
; stop printing object Shape-Box id:1 copy 0
; printing object Shape-Box id:0 copy 0
G1 E-1.12 F2400
;WIPE_START
G1 F4800
G1 X118.091 Y105.458 E-.27697
G1 X118.011 Y105.458 E-.038
G1 X118.011 Y105.111 E-.16503
;WIPE_END
G1 X133.943 Y102.252 F6000
G1 E1.6 F2400
;TYPE:Perimeter
G1 F1200
G1 X133.834 Y102.39 E.00518
G1 X133.767 Y102.436 E.0024
G1 X133.622 Y102.48 E.00447
G1 X133.45 Y102.465 E.00509
G1 X133.332 Y102.397 E.00401
G1 X133.276 Y102.336 E.00244
G1 X133.199 Y102.163 E.00558
G1 X133.178 Y101.847 E.00933
G1 X133.237 Y101.581 E.00803
G1 X133.285 Y101.497 E.00285
G1 X133.407 Y101.382 E.00494
G1 X133.511 Y101.346 E.00324
G1 X133.632 Y101.352 E.00357
G1 X133.747 Y101.404 E.00372
G1 X133.88 Y101.534 E.00548
G1 X133.992 Y101.865 E.0103
G1 X133.995 Y102.049 E.00542
G1 X133.964 Y102.196 E.00443
G1 X134.283 Y102.42 F6000
;TYPE:External perimeter
G1 F1200
G1 X134.196 Y102.558 E.00481
G1 X134.08 Y102.678 E.00492
G1 X133.951 Y102.768 E.00464
G1 X133.812 Y102.827 E.00445
G1 X133.658 Y102.857 E.00462
G1 X133.491 Y102.857 E.00492
G1 X133.338 Y102.827 E.0046
G1 X133.203 Y102.769 E.00433
G1 X133.08 Y102.68 E.00447
G1 X132.971 Y102.562 E.00473
G1 X132.888 Y102.421 E.00482
G1 X132.831 Y102.252 E.00526
G1 X132.801 Y102.051 E.00599
G1 X132.801 Y101.82 E.00681
G1 X132.832 Y101.608 E.00631
G1 X132.891 Y101.428 E.00558
G1 X132.976 Y101.277 E.00511
G1 X133.088 Y101.151 E.00497
G1 X133.21 Y101.058 E.00452
G1 X133.337 Y100.998 E.00414
G1 X133.474 Y100.968 E.00413
G1 X133.651 Y100.971 E.00522
G1 X133.749 Y100.992 E.00295
G1 X133.952 Y101.084 E.00657
G1 X134.131 Y101.239 E.00698
G1 X134.259 Y101.44 E.00702
G1 X134.349 Y101.708 E.00833
G1 X134.369 Y101.832 E.0037
G1 X134.372 Y102.077 E.00722
G1 X134.342 Y102.261 E.00549
G1 X134.304 Y102.364 E.00324
G1 X134.12 Y102.43 F6000
G1 X133.869 Y101.947
;TYPE:Solid infill
;WIDTH:0.438891
G1 F1200
G1 X133.565 Y101.644 E.01328
G1 X133.533 Y101.655 E.00105
G1 X133.482 Y101.774 E.00401
G1 X133.469 Y101.868 E.00294
G1 X133.469 Y101.99 E.00378
G1 X133.503 Y102.14 E.00476
G1 X133.693 Y102.331 E.00834
G1 E-1.12 F2400
;WIPE_START
G1 F4800
G1 X133.503 Y102.14 E-.12797
G1 X133.469 Y101.99 E-.07306
G1 X133.469 Y101.868 E-.05795
G1 X133.482 Y101.774 E-.04507
G1 X133.533 Y101.655 E-.0615
G1 X133.565 Y101.644 E-.01607
G1 X133.712 Y101.79 E-.09838
;WIPE_END
G1 X129.652 Y103.344 F6000
G1 E1.6 F2400
;TYPE:Perimeter
;WIDTH:0.42
G1 F1200
G1 X129.729 Y103.504 E.00523
G1 X129.749 Y103.622 E.00353
G1 X129.748 Y103.778 E.0046
G1 X129.685 Y104.041 E.00797
G1 X129.554 Y104.219 E.00651
G1 X129.415 Y104.305 E.00482
G1 X129.269 Y104.321 E.00433
G1 X129.153 Y104.283 E.0036
G1 X129.03 Y104.168 E.00496
G1 X128.946 Y103.978 E.00612
G1 X128.925 Y103.656 E.00951
G1 X128.981 Y103.406 E.00755
G1 X129.077 Y103.273 E.00483
G1 X129.193 Y103.208 E.00392
G1 X129.275 Y103.192 E.00246
G1 X129.46 Y103.209 E.00548
G1 X129.61 Y103.301 E.00519
G1 X129.536 Y104.665 F6000
;TYPE:External perimeter
G1 F1200
G1 X129.387 Y104.697 E.00449
G1 X129.23 Y104.698 E.00463
G1 X129.089 Y104.668 E.00425
G1 X128.959 Y104.608 E.00422
G1 X128.836 Y104.516 E.00453
G1 X128.724 Y104.391 E.00495
G1 X128.638 Y104.242 E.00507
G1 X128.578 Y104.067 E.00545
G1 X128.548 Y103.86 E.00616
G1 X128.547 Y103.629 E.00681
G1 X128.578 Y103.423 E.00614
G1 X128.635 Y103.25 E.00537
G1 X128.718 Y103.107 E.00487
G1 X128.826 Y102.989 E.00471
G1 X128.947 Y102.902 E.00439
G1 X129.083 Y102.845 E.00435
G1 X129.239 Y102.815 E.00468
G1 X129.403 Y102.815 E.00483
G1 X129.568 Y102.845 E.00494
G1 X129.708 Y102.904 E.00448
G1 X129.837 Y102.992 E.0046
G1 X129.951 Y103.111 E.00486
G1 X130.037 Y103.249 E.00479
G1 X130.095 Y103.408 E.00499
G1 X130.126 Y103.591 E.00547
G1 X130.125 Y103.808 E.0064
G1 X130.092 Y104.018 E.00627
G1 X130.028 Y104.201 E.00571
G1 X129.934 Y104.36 E.00544
G1 X129.81 Y104.497 E.00545
G1 X129.676 Y104.599 E.00496
G1 X129.591 Y104.639 E.00277
G1 X129.421 Y104.564 F6000
G1 X129.21 Y103.337
;TYPE:Solid infill
;WIDTH:0.453876
G1 F1200
G1 X129.434 Y103.561 E.01018
G1 X129.455 Y103.647 E.00284
G1 X129.425 Y103.903 E.00828
G1 X129.353 Y104.002 E.00393
G1 X129.316 Y104.024 E.00138
G1 X129.05 Y103.758 E.01208
G1 E-1.12 F2400
;WIPE_START
G1 F4800
G1 X129.316 Y104.024 E-.17869
G1 X129.353 Y104.002 E-.02045
G1 X129.425 Y103.903 E-.05815
G1 X129.455 Y103.647 E-.12243
G1 X129.434 Y103.561 E-.04205
G1 X129.347 Y103.474 E-.05823
;WIPE_END
G1 X118.033 Y104.221 F6000
G1 E1.6 F2400
;TYPE:Perimeter
;WIDTH:0.42
G1 F1200
G1 X117.953 Y104.189 E.00254
G1 X117.871 Y104.104 E.00348
G1 X117.821 Y104.003 E.00332
G1 X117.756 Y103.745 E.00784
G1 X117.699 Y103.109 E.01882
G1 X117.699 Y102.564 E.01606
G1 X117.759 Y101.91 E.01936
G1 X117.821 Y101.667 E.00739
G1 X117.931 Y101.488 E.00619
G1 X117.976 Y101.455 E.00164
G1 X118.038 Y101.451 E.00183
G1 X118.12 Y101.49 E.00268
G1 X118.226 Y101.661 E.00593
G1 X118.288 Y101.913 E.00765
G1 X118.334 Y102.305 E.01163
G1 X118.346 Y103.105 E.02358
G1 X118.279 Y103.775 E.01985
G1 X118.175 Y104.108 E.01028
G1 X118.125 Y104.183 E.00266
G1 X118.09 Y104.203 E.00119
G1 X118.031 Y104.601 F6000
;TYPE:External perimeter
G1 F1200
G1 X117.906 Y104.586 E.00371
G1 X117.726 Y104.499 E.00589
G1 X117.558 Y104.322 E.00719
G1 X117.465 Y104.134 E.00618
G1 X117.385 Y103.818 E.00961
G1 X117.357 Y103.621 E.00586
G1 X117.322 Y103.123 E.01471
G1 X117.322 Y102.547 E.01698
G1 X117.387 Y101.846 E.02075
G1 X117.465 Y101.535 E.00945
G1 X117.561 Y101.341 E.00638
G1 X117.67 Y101.212 E.00498
G1 X117.783 Y101.127 E.00417
G1 X117.89 Y101.083 E.00341
G1 X118.087 Y101.07 E.00582
G1 X118.271 Y101.131 E.00571
G1 X118.379 Y101.212 E.00398
G1 X118.488 Y101.338 E.00491
G1 X118.582 Y101.531 E.00633
G1 X118.66 Y101.845 E.00954
G1 X118.711 Y102.28 E.01291
G1 X118.723 Y103.121 E.02479
G1 X118.652 Y103.835 E.02115
G1 X118.614 Y104.005 E.00513
G1 X118.514 Y104.28 E.00862
G1 X118.413 Y104.43 E.00533
G1 X118.325 Y104.511 E.00353
G1 X118.155 Y104.587 E.00549
G1 X118.091 Y104.594 E.0019
G1 X117.966 Y104.493 F6000
G1 X118.036 Y103.937
;TYPE:Gap fill
;WIDTH:0.200704
G1 F1200
G1 X118.018 Y103.693 E.00302
;WIDTH:0.277864
G1 X118.026 Y102.143 E.02846
;WIDTH:0.202135
G1 X118.006 Y101.718 E.00529
G1 E-1.12 F2400
;WIPE_START
G1 F4800
G1 X118.024 Y101.961 E-.11574
G1 X118.026 Y102.143 E-.08646
G1 X118.028 Y102.325 E-.08646
G1 X118.018 Y102.579 E-.12074
G1 X118.019 Y102.728 E-.0706
;WIPE_END
G1 X109.638 Y104.229 F6000
G1 E1.6 F2400
;TYPE:Perimeter
;WIDTH:0.42
G1 F1200
G1 X109.573 Y104.291 E.00265
G1 X109.493 Y104.321 E.00252
G1 X109.321 Y104.309 E.00508
G1 X109.249 Y104.26 E.00257
G1 X109.201 Y104.194 E.00241
G1 X109.186 Y104.105 E.00266
G1 X109.2 Y104.028 E.00231
G1 X109.241 Y103.969 E.00212
G1 X109.302 Y103.929 E.00215
G1 X109.418 Y103.91 E.00346
G1 X109.548 Y103.932 E.00389
G1 X109.607 Y103.971 E.00208
