; generated by PrusaSlicer 2.7.1+win64 on 2024-02-12 at 20:33:34 UTC


;
;

;
;
; 

; external perimeters extrusion width = 0.42mm
; perimeters extrusion width = 0.44mm
; infill extrusion width = 0.44mm
; solid infill extrusion width = 0.44mm
; top infill extrusion width = 0.40mm
; first layer extrusion width = 0.42mm


; printing object Shape-Box id:0 copy 0
; stop printing object Shape-Box id:0 copy 0

;TYPE:Custom
; Ender 3 Custom Start G-code
G92 E0 ; Reset Extruder

M140 S55 ; set bed temp
M104 S160 ; set extruder temp
M109 S160 ; wait for extruder temp
M190 S55 ; wait for bed temp

G28 ; Home all axes
M104 S210 ; set extruder temp 
BED_MESH_CALIBRATE AREA_START=89.8758,99.6949 AREA_END=137.248,114.764

G1 Z2.0 F3000 ; Move Z Axis up little to prevent scratching of Heat Bed
M109 S210 ; wait for extruder temp
G1 X0.1 Y20 Z0.3 F5000.0 ; Move to start position

G1 X0.1 Y200.0 Z0.3 F1500.0 E15 ; Draw the first line
G1 X0.4 Y200.0 Z0.3 F5000.0 ; Move to side a little
G1 X0.4 Y20 Z0.3 F1500.0 E30 ; Draw the second line
G92 E0 ; Reset Extruder
G1 Z2.0 F3000 ; Move Z Axis up little to prevent scratching of Heat Bed
G1 X5 Y20 Z0.3 F5000.0 ; Move over to prevent blob squish
G21 ; set units to millimeters
G90 ; use absolute coordinates
M83 ; use relative distances for extrusion
; Filament gcode
M107
;LAYER_CHANGE
;Z:0.2
;HEIGHT:0.2
;BEFORE_LAYER_CHANGE
G92 E0
;0.2


G1 E-1.6 F2400
G1 Z.2 F6000
;AFTER_LAYER_CHANGE
;0.2
G1 X92.326 Y101.483
G1 Z.2
G1 E1.6 F2400
M204 S500
;TYPE:Skirt/Brim
;WIDTH:0.42
G1 F1200
G1 X93.522 Y100.667 E.04267
G1 X94.846 Y100.152 E.04187
G1 X96.4 Y99.902 E.04639
G1 X112.84 Y99.884 E.48454
G1 X133.969 Y100.16 E.62279
G1 X135.483 Y100.573 E.04625
G1 X136.607 Y101.67 E.04629
G1 X137.059 Y103.291 E.0496
G1 X137.059 Y111.181 E.23254
G1 X136.666 Y112.701 E.04627
G1 X135.584 Y113.838 E.04626
G1 X133.95 Y114.312 E.05014
G1 X96.669 Y114.571 E1.09881
G1 X95.818 Y114.496 E.02518
G1 X94.915 Y114.307 E.02719
G1 X94.071 Y114.011 E.02636
G1 X93.257 Y113.591 E.027
G1 X92.656 Y113.172 E.02159
G1 X91.982 Y112.555 E.02693
G1 X91.408 Y111.851 E.02677
G1 X90.95 Y111.098 E.02598
G1 X90.413 Y109.742 E.04299
G1 X90.141 Y108.406 E.04018
G1 X90.08 Y106.533 E.05523
G1 X90.311 Y104.922 E.04797
G1 X90.739 Y103.652 E.0395
G1 X91.465 Y102.411 E.04238
G1 X92.285 Y101.527 E.03554
G1 X92.563 Y101.8 F6000
G1 F1200
G1 X92.705 Y101.656 E.00596
G1 X93.84 Y100.929 E.03973
G1 X95.143 Y100.467 E.04075
G1 X96.857 Y100.262 E.05088
G1 X112.835 Y100.261 E.47092
G1 X133.964 Y100.537 E.62279
G1 X135.376 Y100.948 E.04334
G1 X136.375 Y102.027 E.04334
G1 X136.682 Y103.291 E.03834
G1 X136.682 Y111.181 E.23254
G1 X136.289 Y112.598 E.04334
G1 X135.223 Y113.611 E.04334
G1 X133.948 Y113.935 E.03877
G1 X96.677 Y114.194 E1.09852
G1 X95.011 Y113.943 E.04966
G1 X94.225 Y113.667 E.02455
G1 X93.45 Y113.267 E.0257
G1 X92.759 Y112.77 E.02509
G1 X92.137 Y112.166 E.02555
G1 X91.628 Y111.504 E.02461
G1 X91.2 Y110.755 E.02543
G1 X90.67 Y109.233 E.0475
G1 X90.469 Y107.898 E.03979
G1 X90.47 Y106.355 E.04548
G1 X90.675 Y105.02 E.03981
G1 X91.161 Y103.638 E.04318
G1 X91.873 Y102.501 E.03954
G1 X92.521 Y101.843 E.02722
G1 X92.786 Y102.12 F6000
G1 F1200
G1 X93.077 Y101.842 E.01186
G1 X94.165 Y101.193 E.03734
G1 X95.611 Y100.754 E.04454
G1 X96.871 Y100.639 E.03729
G1 X112.83 Y100.638 E.47036
G1 X133.959 Y100.914 E.62279
G1 X135.261 Y101.322 E.04021
G1 X136.123 Y102.38 E.04022
G1 X136.305 Y103.291 E.02738
G1 X136.305 Y111.181 E.23254
G1 X135.913 Y112.488 E.04022
G1 X134.868 Y113.364 E.04019
G1 X133.945 Y113.558 E.0278
G1 X96.582 Y113.812 E1.10123
G1 X94.986 Y113.543 E.0477
G1 X94.207 Y113.246 E.02457
G1 X93.524 Y112.867 E.02302
G1 X92.868 Y112.366 E.02433
G1 X92.326 Y111.808 E.02293
G1 X91.843 Y111.142 E.02425
G1 X91.486 Y110.477 E.02225
G1 X91.034 Y109.138 E.04165
G1 X90.834 Y107.7 E.04279
G1 X90.892 Y105.93 E.0522
G1 X91.147 Y104.717 E.03653
G1 X91.647 Y103.518 E.03829
G1 X92.26 Y102.622 E.032
G1 X92.742 Y102.162 E.01964
; printing object Shape-Box id:0 copy 0
G1 E-1.12 F2400
;WIPE_START
G1 F4800
G1 X92.786 Y102.12 E-.02889
G1 X93.077 Y101.842 E-.19116
G1 X93.547 Y101.562 E-.25995
;WIPE_END
G1 X95.756 Y104.351 F6000
G1 E1.6 F2400
;TYPE:External perimeter
G1 F1200
G1 X95.985 Y104.24 E.0075
G1 X96.456 Y104.1 E.01448
G1 X96.933 Y104.055 E.01412
G1 X97.504 Y104.098 E.01688
G1 X97.767 Y104.157 E.00794
G1 X98.013 Y104.24 E.00765
G1 X98.245 Y104.349 E.00755
G1 X98.461 Y104.485 E.00752
G1 X98.658 Y104.647 E.00752
G1 X98.836 Y104.834 E.00761
G1 X98.993 Y105.046 E.00778
G1 X99.128 Y105.28 E.00796
G1 X99.24 Y105.536 E.00824
G1 X99.333 Y105.817 E.00872
G1 X99.453 Y106.427 E.01832
G1 X99.492 Y107.127 E.02066
G1 X99.454 Y107.833 E.02084
G1 X99.337 Y108.463 E.01889
G1 X99.141 Y109.011 E.01715
G1 X99.008 Y109.262 E.00837
G1 X98.855 Y109.487 E.00802
G1 X98.681 Y109.689 E.00786
G1 X98.485 Y109.866 E.00778
G1 X98.27 Y110.017 E.00774
G1 X98.037 Y110.141 E.00778
G1 X97.788 Y110.236 E.00785
G1 X97.524 Y110.304 E.00803
G1 X97.248 Y110.344 E.00822
G1 X96.959 Y110.357 E.00853
G1 X96.672 Y110.344 E.00847
G1 X96.397 Y110.304 E.00819
G1 X96.136 Y110.236 E.00795
G1 X95.888 Y110.14 E.00784
G1 X95.657 Y110.016 E.00773
G1 X95.444 Y109.865 E.0077
G1 X95.25 Y109.687 E.00776
G1 X95.078 Y109.485 E.00782
G1 X94.927 Y109.26 E.00799
G1 X94.796 Y109.01 E.00832
G1 X94.603 Y108.462 E.01712
G1 X94.487 Y107.832 E.01888
G1 X94.45 Y107.126 E.02084
G1 X94.496 Y106.42 E.02085
G1 X94.633 Y105.806 E.01854
G1 X94.737 Y105.525 E.00883
G1 X94.86 Y105.27 E.00834
G1 X95.003 Y105.038 E.00803
G1 X95.166 Y104.829 E.00781
G1 X95.347 Y104.644 E.00763
G1 X95.544 Y104.485 E.00746
G1 X95.705 Y104.383 E.00562
G1 X95.556 Y104.031 F6000
;TYPE:Perimeter
G1 F1200
G1 X95.324 Y104.178 E.00809
G1 X95.093 Y104.365 E.00876
G1 X94.882 Y104.58 E.00888
G1 X94.693 Y104.822 E.00905
G1 X94.529 Y105.088 E.00921
G1 X94.389 Y105.377 E.00946
G1 X94.271 Y105.699 E.01011
G1 X94.122 Y106.367 E.02017
G1 X94.072 Y107.124 E.02236
G1 X94.112 Y107.876 E.0222
G1 X94.237 Y108.559 E.02046
G1 X94.45 Y109.161 E.01882
G1 X94.603 Y109.453 E.00972
G1 X94.777 Y109.713 E.00922
G1 X94.978 Y109.949 E.00914
G1 X95.206 Y110.159 E.00914
G1 X95.458 Y110.338 E.00911
G1 X95.73 Y110.484 E.0091
G1 X96.02 Y110.596 E.00916
G1 X96.323 Y110.674 E.00922
G1 X96.636 Y110.72 E.00932
G1 X96.959 Y110.735 E.00953
G1 X97.283 Y110.72 E.00956
G1 X97.598 Y110.674 E.00938
G1 X97.903 Y110.596 E.00928
G1 X98.194 Y110.485 E.00918
G1 X98.468 Y110.339 E.00915
G1 X98.722 Y110.161 E.00914
G1 X98.951 Y109.952 E.00914
G1 X99.155 Y109.716 E.00919
G1 X99.331 Y109.457 E.00923
G1 X99.486 Y109.164 E.00977
G1 X99.702 Y108.562 E.01885
G1 X99.829 Y107.878 E.0205
G1 X99.87 Y107.127 E.02217
G1 X99.828 Y106.38 E.02205
G1 X99.699 Y105.721 E.01979
G1 X99.593 Y105.4 E.00996
G1 X99.464 Y105.109 E.00938
G1 X99.309 Y104.839 E.00918
G1 X99.126 Y104.592 E.00906
G1 X98.916 Y104.37 E.00901
G1 X98.681 Y104.178 E.00894
G1 X98.426 Y104.018 E.00887
G1 X98.154 Y103.89 E.00886
G1 X97.906 Y103.806 E.00772
G1 X98.328 Y103.93 E.01296
G1 X98.597 Y104.051 E.00869
G1 X98.839 Y104.195 E.0083
G1 X99.058 Y104.362 E.00812
G1 X99.255 Y104.553 E.00809
G1 X99.432 Y104.77 E.00825
G1 X99.589 Y105.016 E.0086
G1 X99.726 Y105.292 E.00908
G1 X99.841 Y105.598 E.00963
G1 X99.935 Y105.941 E.01048
G1 X100.004 Y106.315 E.01121
G1 X100.046 Y106.723 E.01209
G1 X100.06 Y107.164 E.013
G1 X100.046 Y107.608 E.01309
G1 X100.003 Y108.023 E.0123
G1 X99.934 Y108.406 E.01147
G1 X99.84 Y108.759 E.01077
G1 X99.722 Y109.081 E.01011
G1 X99.584 Y109.368 E.00939
G1 X99.424 Y109.627 E.00897
G1 X99.244 Y109.857 E.00861
G1 X99.045 Y110.059 E.00836
G1 X98.825 Y110.236 E.00832
G1 X98.582 Y110.388 E.00845
G1 X98.314 Y110.516 E.00875
G1 X98.019 Y110.618 E.0092
G1 X97.695 Y110.694 E.00981
G1 X97.342 Y110.741 E.0105
G1 X96.959 Y110.757 E.0113
G1 X96.576 Y110.741 E.0113
G1 X96.224 Y110.694 E.01047
G1 X95.902 Y110.618 E.00975
G1 X95.61 Y110.516 E.00912
G1 X95.344 Y110.388 E.0087
G1 X95.104 Y110.236 E.00837
G1 X94.886 Y110.059 E.00828
G1 X94.689 Y109.856 E.00834
G1 X94.512 Y109.625 E.00858
G1 X94.354 Y109.364 E.00899
G1 X94.216 Y109.074 E.00947
G1 X94.099 Y108.748 E.01021
G1 X94.006 Y108.391 E.01087
G1 X93.938 Y108.001 E.01167
G1 X93.896 Y107.58 E.01247
G1 X93.881 Y107.128 E.01333
G1 X93.896 Y106.678 E.01327
G1 X93.938 Y106.265 E.01224
G1 X94.005 Y105.887 E.01131
G1 X94.098 Y105.545 E.01045
G1 X94.211 Y105.241 E.00956
G1 X94.346 Y104.97 E.00892
G1 X94.499 Y104.731 E.00836
G1 X94.672 Y104.52 E.00804
G1 X94.865 Y104.336 E.00786
G1 X95.08 Y104.175 E.00792
G1 X95.319 Y104.037 E.00813
G1 X95.586 Y103.921 E.00858
G1 X95.881 Y103.828 E.00912
G1 X96.322 Y103.746 E.01322
G1 X95.848 Y103.887 E.01458
G1 X95.609 Y104.003 E.00783
G1 X94.621 Y104.047 F6000
;TYPE:External perimeter
G1 F1200
G1 X94.872 Y103.86 E.00923
G1 X95.149 Y103.7 E.00943
G1 X95.454 Y103.567 E.00981
G1 X95.785 Y103.463 E.01023
G1 X96.149 Y103.387 E.01096
G1 X96.539 Y103.341 E.01157
G1 X96.992 Y103.326 E.01336
G1 X97.377 Y103.341 E.01136
G1 X97.769 Y103.39 E.01164
G1 X98.13 Y103.469 E.01089
G1 X98.464 Y103.578 E.01035
G1 X98.771 Y103.716 E.00992
G1 X99.051 Y103.882 E.00959
G1 X99.304 Y104.076 E.0094
G1 X99.533 Y104.298 E.0094
G1 X99.738 Y104.549 E.00955
G1 X99.917 Y104.83 E.00982
G1 X100.072 Y105.141 E.01024
G1 X100.2 Y105.481 E.01071
G1 X100.303 Y105.857 E.01149
G1 X100.377 Y106.262 E.01213
G1 X100.422 Y106.698 E.01292
G1 X100.438 Y107.164 E.01374
G1 X100.422 Y107.634 E.01386
G1 X100.377 Y108.076 E.01309
G1 X100.303 Y108.489 E.01237
G1 X100.2 Y108.872 E.01169
G1 X100.07 Y109.228 E.01117
G1 X99.915 Y109.549 E.01051
G1 X99.734 Y109.843 E.01018
G1 X99.528 Y110.106 E.00985
G1 X99.298 Y110.339 E.00965
G1 X99.044 Y110.544 E.00962
G1 X98.764 Y110.719 E.00973
G1 X98.457 Y110.865 E.01002
G1 X98.124 Y110.981 E.01039
G1 X97.763 Y111.065 E.01092
G1 X97.375 Y111.117 E.01154
G1 X96.959 Y111.134 E.01227
G1 X96.543 Y111.117 E.01227
G1 X96.156 Y111.065 E.01151
G1 X95.797 Y110.981 E.01087
G1 X95.465 Y110.865 E.01037
G1 X95.161 Y110.719 E.00994
G1 X94.884 Y110.543 E.00967
G1 X94.631 Y110.338 E.0096
G1 X94.403 Y110.103 E.00965
G1 X94.2 Y109.838 E.00984
G1 X94.021 Y109.543 E.01017
G1 X93.868 Y109.218 E.01059
G1 X93.739 Y108.859 E.01124
G1 X93.637 Y108.471 E.01182
G1 X93.564 Y108.053 E.01251
G1 X93.519 Y107.604 E.0133
G1 X93.504 Y107.128 E.01404
G1 X93.519 Y106.653 E.01401
G1 X93.564 Y106.212 E.01307
G1 X93.637 Y105.805 E.01219
G1 X93.738 Y105.43 E.01145
G1 X93.865 Y105.091 E.01067
G1 X94.017 Y104.784 E.0101
G1 X94.194 Y104.508 E.00966
G1 X94.395 Y104.263 E.00934
G1 X94.578 Y104.089 E.00744
G1 X96.508 Y103.717 F6000
;TYPE:Gap fill
;WIDTH:0.373008
G1 F1200
G1 X96.945 Y103.691 E.01129
G1 X97.545 Y103.733 E.01552
G1 X97.675 Y103.933 E.00615
G1 E-1.12 F2400
;WIPE_START
G1 F4800
G1 X97.545 Y103.733 E-.11331
G1 X96.945 Y103.691 E-.2857
G1 X96.775 Y103.701 E-.08099
;WIPE_END
G1 X107.201 Y103.978 F6000
G1 E1.6 F2400
;TYPE:Perimeter
;WIDTH:0.42
G1 F1200
G1 X107.417 Y103.978 E.00637
G1 X107.417 Y110.494 E.19205
G1 X107.201 Y110.494 E.00637
G1 X107.201 Y104.038 E.19028
G1 X106.824 Y104.355 F6000
;TYPE:External perimeter
G1 F1200
G1 X102.876 Y104.355 E.11636
G1 X102.876 Y103.601 E.02222
G1 X107.794 Y103.601 E.14495
G1 X107.794 Y110.871 E.21427
G1 X106.824 Y110.871 E.02859
G1 X106.824 Y104.415 E.19028
G1 X107.012 Y103.978 F6000
;TYPE:Gap fill
;WIDTH:0.419842
G1 F1200
G1 X103.064 Y103.978 E.11631
G1 E-1.12 F2400
;WIPE_START
G1 F4800
G1 X104.075 Y103.978 E-.48
;WIPE_END
G1 X114.464 Y105.538 F6000
G1 E1.6 F2400
;TYPE:Perimeter
;WIDTH:0.42
G1 F1200
G1 X114.459 Y105.184 E.01043
G1 X114.403 Y104.836 E.01039
G1 X114.293 Y104.501 E.01039
G1 X114.11 Y104.185 E.01076
G1 X113.907 Y103.981 E.00848
G1 X113.99 Y104.032 E.00287
G1 X114.186 Y104.223 E.00807
G1 X114.341 Y104.47 E.00859
G1 X114.457 Y104.794 E.01014
G1 X114.523 Y105.211 E.01244
G1 X114.526 Y105.538 E.00964
G1 X114.524 Y105.538 E.00006
G1 E-1.12 F2400
;WIPE_START
G1 F4800
G1 X114.464 Y105.538 E-.0285
G1 X114.459 Y105.184 E-.16817
G1 X114.403 Y104.836 E-.16743
G1 X114.327 Y104.604 E-.1159
;WIPE_END
G1 X111.133 Y105.91 F6000
G1 E1.6 F2400
G1 F1200
G1 X111.126 Y110.494 E.1351
G1 X110.909 Y110.494 E.0064
G1 X110.917 Y105.205 E.15588
G1 X110.981 Y104.826 E.01133
G1 X111.096 Y104.523 E.00955
G1 X111.256 Y104.275 E.0087
G1 X111.479 Y104.06 E.00913
G1 X111.705 Y103.933 E.00764
G1 X111.589 Y104.019 E.00426
G1 X111.434 Y104.204 E.00711
G1 X111.269 Y104.517 E.01043
G1 X111.176 Y104.859 E.01045
G1 X111.134 Y105.205 E.01027
G1 X111.133 Y105.85 E.01901
G1 E-1.12 F2400
;WIPE_START
G1 F4800
G1 X111.133 Y105.91 E-.0285
G1 X111.132 Y106.86 E-.4515
;WIPE_END
G1 X114.093 Y105.915 F6000
G1 E1.6 F2400
;TYPE:External perimeter
G1 F1200
G1 X114.083 Y105.217 E.02057
G1 X114.036 Y104.925 E.00872
G1 X113.947 Y104.656 E.00835
G1 X113.808 Y104.417 E.00815
G1 X113.618 Y104.225 E.00796
G1 X113.495 Y104.144 E.00434
G1 X113.364 Y104.08 E.0043
G1 X113.097 Y104.005 E.00817
G1 X112.799 Y103.982 E.00881
G1 X112.488 Y104.002 E.00919
G1 X112.21 Y104.07 E.00844
G1 X112.066 Y104.134 E.00464
G1 X111.85 Y104.295 E.00794
G1 X111.749 Y104.416 E.00465
G1 X111.622 Y104.656 E.008
G1 X111.547 Y104.931 E.0084
G1 X111.511 Y105.228 E.00882
G1 X111.502 Y110.871 E.16632
G1 X110.532 Y110.871 E.02859
G1 X110.532 Y105.406 E.16107
G1 X110.541 Y105.166 E.00708
G1 X110.615 Y104.728 E.01309
G1 X110.757 Y104.352 E.01185
G1 X110.963 Y104.034 E.01117
G1 X111.24 Y103.766 E.01136
G1 X111.393 Y103.662 E.00545
G1 X111.787 Y103.479 E.0128
G1 X112 Y103.415 E.00656
G1 X112.517 Y103.335 E.01542
G1 X112.815 Y103.326 E.00879
G1 X113.297 Y103.361 E.01424
G1 X113.509 Y103.402 E.00636
G1 X113.902 Y103.538 E.01226
G1 X114.223 Y103.731 E.01104
G1 X114.481 Y103.985 E.01067
G1 X114.683 Y104.304 E.01113
G1 X114.824 Y104.7 E.01239
G1 X114.9 Y105.179 E.01429
G1 X114.908 Y105.915 E.02169
G1 X114.153 Y105.915 E.02225
G1 E-1.12 F2400
;WIPE_START
G1 F4800
G1 X114.093 Y105.915 E-.0285
G1 X114.083 Y105.217 E-.33158
G1 X114.043 Y104.968 E-.11992
;WIPE_END
G1 X113.755 Y103.869 F6000
G1 E1.6 F2400
;TYPE:Gap fill
;WIDTH:0.367561
G1 F1200
G1 X113.473 Y103.754 E.00773
G1 X113.252 Y103.697 E.00579
G1 X112.808 Y103.654 E.01132
G1 X112.427 Y103.68 E.00969
G1 X112.085 Y103.749 E.00885
G1 X111.864 Y103.831 E.00598
G1 E-1.12 F2400
;WIPE_START
G1 F4800
G1 X112.085 Y103.749 E-.11197
G1 X112.427 Y103.68 E-.16572
G1 X112.808 Y103.654 E-.1814
G1 X112.852 Y103.658 E-.02091
;WIPE_END
G1 X118.609 Y105.579 F6000
G1 E1.6 F2400
;TYPE:Perimeter
;WIDTH:0.42
G1 F1200
G1 X118.622 Y105.622 E.00132
G1 X118.676 Y105.622 E.00159
G1 X120.1 Y110.152 E.13995
G1 X121.177 Y110.155 E.03174
G1 X122.664 Y105.538 E.14296
G1 X122.646 Y105.538 E.00053
G1 X123.181 Y103.978 E.04861
G1 X123.397 Y103.978 E.00637
G1 X121.071 Y110.494 E.20392
G1 X120.165 Y110.494 E.0267
G1 X117.869 Y103.978 E.20362
G1 X118.118 Y103.978 E.00734
G1 X118.347 Y104.725 E.02303
G1 X118.592 Y105.522 E.02457
G1 X119.163 Y105.915 F6000
;TYPE:External perimeter
G1 F1200
G1 X122.146 Y105.915 E.08792
G1 X120.902 Y109.777 E.11958
G1 X120.377 Y109.776 E.01547
G1 X119.181 Y105.972 E.11753
G1 X118.901 Y105.245 F6000
G1 F1200
G1 X122.348 Y105.245 E.10159
G1 X122.912 Y103.601 E.05123
G1 X123.932 Y103.601 E.03006
G1 X121.337 Y110.871 E.22751
G1 X119.898 Y110.871 E.04241
G1 X117.336 Y103.601 E.22718
G1 X118.397 Y103.601 E.03127
G1 X118.708 Y104.615 E.03126
G1 X118.883 Y105.187 E.01763
G1 X118.86 Y105.58 F6000
;TYPE:Gap fill
;WIDTH:0.335842
G1 F1200
G1 X122.433 Y105.58 E.0818
G1 E-1.12 F2400
;WIPE_START
G1 F4800
G1 X121.423 Y105.58 E-.48
;WIPE_END
G1 X127.073 Y108.904 F6000
G1 E1.6 F2400
;TYPE:Perimeter
;WIDTH:0.42
G1 F1200
G1 X127.073 Y109.281 E.01111
G1 X128.327 Y109.449 E.03729
G1 X128.07 Y110.494 E.03172
G1 X126.965 Y110.494 E.03257
G1 X126.965 Y103.978 E.19205
G1 X127.073 Y103.978 E.00318
G1 X127.073 Y108.844 E.14342
G1 E-1.12 F2400
;WIPE_START
G1 F4800
G1 X127.073 Y108.904 E-.0285
G1 X127.073 Y109.281 E-.17908
G1 X127.642 Y109.357 E-.27242
;WIPE_END
G1 X130.579 Y104.681 F6000
G1 E1.6 F2400
G1 F1200
G1 X129.65 Y104.681 E.02738
G1 X129.842 Y103.978 E.02148
G1 X130.388 Y103.978 E.01609
G1 X130.563 Y104.624 E.01973
G1 E-1.12 F2400
;WIPE_START
G1 F4800
