; generated by PrusaSlicer 2.7.1+win64 on 2024-02-28 at 14:29:49 UTC


;
;

;
;
; 

; external perimeters extrusion width = 0.42mm
; perimeters extrusion width = 0.44mm
; infill extrusion width = 0.44mm
; solid infill extrusion width = 0.44mm
; top infill extrusion width = 0.40mm
; first layer extrusion width = 0.42mm


; printing object Shape-Box id:0 copy 0
; stop printing object Shape-Box id:0 copy 0

;TYPE:Custom
; Ender 3 Custom Start G-code
G92 E0 ; Reset Extruder

M140 S55 ; set bed temp
M104 S160 ; set extruder temp
M109 S160 ; wait for extruder temp
M190 S55 ; wait for bed temp

G28 ; Home all axes
M104 S210 ; set extruder temp 
BED_MESH_CALIBRATE AREA_START=85.5025,96.6789 AREA_END=145.497,134.319

G1 Z2.0 F3000 ; Move Z Axis up little to prevent scratching of Heat Bed
M109 S210 ; wait for extruder temp
G1 X0.1 Y20 Z0.3 F5000.0 ; Move to start position

G1 X0.1 Y200.0 Z0.3 F1500.0 E15 ; Draw the first line
G1 X0.4 Y200.0 Z0.3 F5000.0 ; Move to side a little
G1 X0.4 Y20 Z0.3 F1500.0 E30 ; Draw the second line
G92 E0 ; Reset Extruder
G1 Z2.0 F3000 ; Move Z Axis up little to prevent scratching of Heat Bed
G1 X5 Y20 Z0.3 F5000.0 ; Move over to prevent blob squish
G21 ; set units to millimeters
G90 ; use absolute coordinates
M83 ; use relative distances for extrusion
; Filament gcode
M107
;LAYER_CHANGE
;Z:0.2
;HEIGHT:0.2
;BEFORE_LAYER_CHANGE
G92 E0
;0.2


G1 E-1.6 F2400
G1 Z.2 F6000
;AFTER_LAYER_CHANGE
;0.2
G1 X89.591 Y99.813
G1 Z.2
G1 E1.6 F2400
M204 S500
;TYPE:Skirt/Brim
;WIDTH:0.42
G1 F1200
G1 X90.459 Y99.108 E.03296
G1 X91.39 Y98.494 E.03287
G1 X93.056 Y97.676 E.0547
G1 X94.833 Y97.138 E.05472
G1 X96.455 Y96.902 E.04831
G1 X134.618 Y96.917 E1.12478
G1 X135.577 Y97.05 E.02854
G1 X137.604 Y97.606 E.06195
G1 X139.434 Y98.477 E.05973
G1 X140.874 Y99.488 E.05186
G1 X142.317 Y100.887 E.05924
G1 X143.108 Y101.902 E.03793
G1 X143.569 Y102.631 E.02542
G1 X144.415 Y104.416 E.05822
G1 X144.974 Y106.453 E.06226
G1 X145.159 Y108.453 E.0592
G1 X145.309 Y122.453 E.41265
G1 X145.237 Y123.78 E.03917
G1 X145.03 Y125 E.03647
G1 X144.41 Y126.976 E.06104
G1 X143.424 Y128.845 E.06228
G1 X142.201 Y130.408 E.05849
G1 X141.422 Y131.176 E.03224
G1 X140.549 Y131.883 E.03311
G1 X138.907 Y132.89 E.05677
G1 X137.814 Y133.369 E.03517
G1 X136.015 Y133.895 E.05524
G1 X134.257 Y134.115 E.05222
G1 X96.812 Y134.121 E1.10362
G1 X95.124 Y133.922 E.0501
G1 X94.029 Y133.654 E.03323
G1 X92.92 Y133.265 E.03464
G1 X91.588 Y132.618 E.04364
G1 X90.534 Y131.947 E.03683
G1 X89.585 Y131.187 E.03583
G1 X88.494 Y130.072 E.04598
G1 X87.888 Y129.302 E.02888
G1 X87.062 Y127.974 E.04609
G1 X86.506 Y126.777 E.0389
G1 X86.053 Y125.388 E.04306
G1 X85.747 Y123.618 E.05294
G1 X85.691 Y122.617 E.02955
G1 X85.721 Y107.69 E.43994
G1 X86.073 Y105.545 E.06407
G1 X86.69 Y103.785 E.05497
G1 X87.093 Y102.966 E.0269
G1 X87.976 Y101.58 E.04844
G1 X88.609 Y100.795 E.02972
G1 X89.548 Y99.856 E.03914
G1 X89.815 Y100.122 F6000
G1 F1200
G1 X89.843 Y100.093 E.00119
G1 X90.671 Y99.42 E.03145
G1 X91.57 Y98.825 E.03177
G1 X93.189 Y98.029 E.05317
G1 X94.726 Y97.549 E.04746
G1 X96.474 Y97.278 E.05213
G1 X133.426 Y97.244 E1.08909
G1 X135.501 Y97.42 E.06138
G1 X137.482 Y97.963 E.06054
G1 X139.243 Y98.802 E.05749
G1 X140.627 Y99.773 E.04983
G1 X142.038 Y101.141 E.05792
G1 X142.804 Y102.125 E.03675
G1 X143.299 Y102.914 E.02745
G1 X144.148 Y104.784 E.06053
G1 X144.616 Y106.585 E.05484
G1 X144.782 Y108.457 E.05539
G1 X144.932 Y122.457 E.41265
G1 X144.864 Y123.726 E.03745
G1 X144.658 Y124.936 E.03618
G1 X144.065 Y126.824 E.05833
G1 X143.103 Y128.646 E.06073
G1 X141.932 Y130.143 E.05602
G1 X141.328 Y130.754 E.02532
G1 X140.337 Y131.571 E.03785
G1 X138.715 Y132.565 E.05607
G1 X137.129 Y133.21 E.05046
G1 X135.952 Y133.523 E.0359
G1 X134.089 Y133.746 E.0553
G1 X96.839 Y133.745 E1.09787
G1 X95.183 Y133.549 E.04915
G1 X94.038 Y133.266 E.03476
G1 X93.071 Y132.919 E.03028
G1 X91.764 Y132.285 E.04281
G1 X90.753 Y131.64 E.03534
G1 X89.836 Y130.906 E.03462
G1 X88.773 Y129.818 E.04483
G1 X88.186 Y129.07 E.02802
G1 X87.391 Y127.788 E.04446
G1 X86.862 Y126.651 E.03696
G1 X86.419 Y125.294 E.04207
G1 X86.121 Y123.572 E.05151
G1 X86.068 Y122.617 E.02819
G1 X86.097 Y107.715 E.43921
G1 X86.434 Y105.653 E.06158
G1 X87.041 Y103.923 E.05404
G1 X87.439 Y103.116 E.02652
G1 X88.287 Y101.793 E.04632
G1 X88.89 Y101.046 E.02829
G1 X89.772 Y100.164 E.03676
G1 X90.038 Y100.43 F6000
G1 F1200
G1 X90.095 Y100.374 E.00236
G1 X90.883 Y99.732 E.02996
G1 X91.763 Y99.149 E.03111
G1 X93.322 Y98.382 E.05121
G1 X94.942 Y97.885 E.04994
G1 X96.492 Y97.655 E.04618
G1 X133.426 Y97.622 E1.08856
G1 X135.424 Y97.789 E.05909
G1 X137.362 Y98.32 E.05922
G1 X139.052 Y99.127 E.0552
G1 X140.381 Y100.059 E.04784
G1 X141.747 Y101.381 E.05603
G1 X142.5 Y102.348 E.03612
G1 X142.971 Y103.1 E.02615
G1 X143.788 Y104.897 E.05818
G1 X144.246 Y106.657 E.0536
G1 X144.405 Y108.461 E.05338
G1 X144.555 Y122.461 E.41265
G1 X144.478 Y123.753 E.03815
G1 X144.255 Y125.029 E.03818
G1 X144.01 Y125.892 E.02644
G1 X143.143 Y127.862 E.06344
G1 X142.409 Y128.985 E.03954
G1 X141.752 Y129.784 E.03049
G1 X141.067 Y130.482 E.02882
G1 X140.124 Y131.259 E.03601
G1 X138.538 Y132.232 E.05484
G1 X137.004 Y132.854 E.04879
G1 X135.875 Y133.154 E.03443
G1 X134.079 Y133.369 E.05331
G1 X96.865 Y133.369 E1.09681
G1 X95.242 Y133.177 E.04817
G1 X94.143 Y132.904 E.03338
G1 X93.222 Y132.574 E.02883
G1 X91.94 Y131.951 E.04201
G1 X90.972 Y131.333 E.03385
G1 X90.04 Y130.582 E.03528
G1 X89.052 Y129.565 E.04179
G1 X88.494 Y128.853 E.02666
G1 X87.719 Y127.603 E.04335
G1 X87.217 Y126.525 E.03505
G1 X86.784 Y125.199 E.04111
G1 X86.495 Y123.527 E.05001
G1 X86.473 Y107.741 E.46526
G1 X86.795 Y105.763 E.05907
G1 X87.392 Y104.06 E.05319
G1 X87.774 Y103.29 E.02533
G1 X88.596 Y102.009 E.04486
G1 X89.172 Y101.297 E.02699
G1 X89.996 Y100.473 E.03435
; printing object Shape-Box id:0 copy 0
G1 E-1.12 F2400
;WIPE_START
G1 F4800
G1 X90.038 Y100.43 E-.02855
G1 X90.095 Y100.374 E-.03796
G1 X90.77 Y99.824 E-.41349
;WIPE_END
G1 X115.909 Y119.323 F6000
G1 E1.6 F2400
;TYPE:Perimeter
G1 F1200
G1 X115.524 Y119.409 E.01163
G1 X115.353 Y119.417 E.00505
G1 X115.237 Y119.39 E.00351
G1 X115.155 Y119.342 E.0028
G1 X115.087 Y119.268 E.00296
G1 X115.043 Y119.171 E.00314
G1 X115.031 Y119.013 E.00467
G1 X115.064 Y118.871 E.0043
G1 X115.133 Y118.755 E.00398
G1 X115.243 Y118.662 E.00425
G1 X115.378 Y118.615 E.00421
G1 X115.535 Y118.613 E.00463
G1 X115.632 Y118.649 E.00305
G1 X115.694 Y118.705 E.00246
G1 X115.776 Y118.862 E.00522
G1 X115.892 Y119.265 E.01236
G1 E-1.12 F2400
;WIPE_START
G1 F4800
G1 X115.909 Y119.323 E-.02871
G1 X115.524 Y119.409 E-.18738
G1 X115.353 Y119.417 E-.08131
G1 X115.237 Y119.39 E-.05657
G1 X115.155 Y119.342 E-.04513
G1 X115.087 Y119.268 E-.04774
G1 X115.058 Y119.205 E-.03316
;WIPE_END
G1 X115.768 Y121.311 F6000
G1 E1.6 F2400
G1 F1200
G1 X115.726 Y121.493 E.00551
G1 X115.669 Y121.606 E.00373
G1 X115.619 Y121.652 E.002
G1 X115.543 Y121.68 E.00239
G1 X115.404 Y121.68 E.0041
G1 X115.336 Y121.656 E.00213
G1 X115.295 Y121.616 E.00169
G1 X115.279 Y121.491 E.00371
G1 X115.306 Y121.421 E.00221
G1 X115.48 Y121.333 E.00575
G1 X115.58 Y121.312 E.00301
G1 X115.708 Y121.311 E.00377
G1 E-1.12 F2400
;WIPE_START
G1 F4800
G1 X115.768 Y121.311 E-.0285
G1 X115.726 Y121.493 E-.08872
G1 X115.669 Y121.606 E-.06012
G1 X115.619 Y121.652 E-.03227
G1 X115.543 Y121.68 E-.03847
G1 X115.404 Y121.68 E-.06603
G1 X115.336 Y121.656 E-.03425
G1 X115.295 Y121.616 E-.02721
G1 X115.279 Y121.491 E-.05986
G1 X115.306 Y121.421 E-.03564
G1 X115.323 Y121.413 E-.00893
;WIPE_END
G1 X115.761 Y112.189 F6000
G1 E1.6 F2400
G1 F1200
G1 X115.719 Y112.371 E.00551
G1 X115.661 Y112.485 E.00377
G1 X115.612 Y112.531 E.00198
G1 X115.536 Y112.558 E.00238
G1 X115.397 Y112.558 E.0041
G1 X115.329 Y112.534 E.00213
G1 X115.287 Y112.495 E.00169
G1 X115.272 Y112.37 E.00371
G1 X115.299 Y112.299 E.00224
G1 X115.473 Y112.212 E.00573
G1 X115.573 Y112.191 E.00301
G1 X115.701 Y112.19 E.00377
G1 E-1.12 F2400
;WIPE_START
G1 F4800
G1 X115.761 Y112.189 E-.0285
G1 X115.719 Y112.371 E-.08872
G1 X115.661 Y112.485 E-.06076
G1 X115.612 Y112.531 E-.03192
G1 X115.536 Y112.558 E-.03831
G1 X115.397 Y112.558 E-.06602
G1 X115.329 Y112.534 E-.03425
G1 X115.287 Y112.495 E-.02722
G1 X115.272 Y112.37 E-.0598
G1 X115.299 Y112.299 E-.03608
G1 X115.315 Y112.291 E-.00842
;WIPE_END
G1 X115.876 Y110.115 F6000
G1 E1.6 F2400
G1 F1200
G1 X115.901 Y110.202 E.00267
G1 X115.516 Y110.288 E.01163
G1 X115.345 Y110.295 E.00504
G1 X115.229 Y110.269 E.0035
G1 X115.147 Y110.221 E.0028
G1 X115.08 Y110.147 E.00294
G1 X115.035 Y110.05 E.00315
G1 X115.024 Y109.891 E.0047
G1 X115.057 Y109.749 E.0043
G1 X115.126 Y109.634 E.00395
G1 X115.236 Y109.541 E.00425
G1 X115.37 Y109.493 E.0042
G1 X115.527 Y109.492 E.00463
G1 X115.624 Y109.527 E.00304
G1 X115.686 Y109.583 E.00246
G1 X115.769 Y109.74 E.00523
G1 X115.86 Y110.057 E.00972
G1 E-1.12 F2400
;WIPE_START
G1 F4800
G1 X115.876 Y110.115 E-.02858
G1 X115.901 Y110.202 E-.043
G1 X115.516 Y110.288 E-.18738
G1 X115.345 Y110.295 E-.08129
G1 X115.229 Y110.269 E-.05647
G1 X115.147 Y110.221 E-.04513
G1 X115.093 Y110.161 E-.03815
;WIPE_END
G1 X100.345 Y110.118 F6000
G1 E1.6 F2400
G1 F1200
G1 X100.369 Y110.201 E.00255
G1 X99.983 Y110.288 E.01166
G1 X99.811 Y110.295 E.00507
G1 X99.695 Y110.269 E.0035
G1 X99.613 Y110.221 E.0028
G1 X99.546 Y110.147 E.00294
G1 X99.501 Y110.05 E.00315
G1 X99.49 Y109.891 E.0047
G1 X99.523 Y109.749 E.0043
G1 X99.585 Y109.646 E.00354
G1 X99.683 Y109.556 E.00392
G1 X99.784 Y109.508 E.0033
G1 X99.993 Y109.492 E.00618
G1 X100.076 Y109.52 E.00258
G1 X100.183 Y109.628 E.00448
G1 X100.233 Y109.731 E.00337
G1 X100.328 Y110.061 E.01012
G1 E-1.12 F2400
;WIPE_START
G1 F4800
G1 X100.345 Y110.118 E-.02825
G1 X100.369 Y110.201 E-.04104
G1 X99.983 Y110.288 E-.18795
G1 X99.811 Y110.295 E-.08177
G1 X99.695 Y110.269 E-.05647
G1 X99.613 Y110.221 E-.04513
G1 X99.557 Y110.159 E-.03939
;WIPE_END
G1 X102.394 Y111.385 F6000
G1 E1.6 F2400
G1 F1200
G1 X102.279 Y111.477 E.00434
G1 X102.151 Y111.795 E.0101
G1 X100.943 Y111.58 E.03616
G1 X101.075 Y110.535 E.03104
G1 X101.459 Y110.469 E.01148
G1 X101.877 Y110.35 E.01281
G1 X101.879 Y110.372 E.00065
G1 X101.976 Y110.74 E.01122
G1 X102.361 Y111.335 E.02089
G1 E-1.12 F2400
;WIPE_START
G1 F4800
G1 X102.394 Y111.385 E-.02846
G1 X102.279 Y111.477 E-.06995
G1 X102.151 Y111.795 E-.16283
G1 X101.697 Y111.714 E-.21876
;WIPE_END
G1 X100.227 Y112.189 F6000
G1 E1.6 F2400
G1 F1200
G1 X100.185 Y112.371 E.00551
G1 X100.127 Y112.485 E.00377
G1 X100.078 Y112.531 E.00198
G1 X100.002 Y112.558 E.00238
G1 X99.863 Y112.558 E.0041
G1 X99.795 Y112.534 E.00213
G1 X99.754 Y112.495 E.00167
G1 X99.738 Y112.37 E.00371
G1 X99.765 Y112.299 E.00224
G1 X99.939 Y112.212 E.00573
G1 X100.039 Y112.191 E.00301
G1 X100.167 Y112.19 E.00377
G1 E-1.12 F2400
;WIPE_START
G1 F4800
G1 X100.227 Y112.189 E-.0285
G1 X100.185 Y112.371 E-.08872
G1 X100.127 Y112.485 E-.06076
G1 X100.078 Y112.531 E-.03192
G1 X100.002 Y112.558 E-.03831
G1 X99.863 Y112.558 E-.06602
G1 X99.795 Y112.534 E-.03425
G1 X99.754 Y112.495 E-.02688
G1 X99.738 Y112.37 E-.05986
G1 X99.765 Y112.299 E-.03608
G1 X99.781 Y112.291 E-.0087
;WIPE_END
G1 X97.918 Y111.309 F6000
G1 E1.6 F2400
G1 F1200
G1 X97.991 Y111.4 E.00344
G1 X97.914 Y111.546 E.00486
G1 X97.917 Y111.369 E.00522
G1 E-1.12 F2400
;WIPE_START
G1 F4800
G1 X97.918 Y111.309 E-.0285
G1 X97.991 Y111.4 E-.05541
G1 X97.914 Y111.546 E-.0784
G1 X97.917 Y111.369 E-.08409
;WIPE_END
G1 E-.2336 F2400
G1 X95.196 Y121.617 F6000
G1 E1.6 F2400
G1 F1200
G1 X95.296 Y121.631 E.00298
G1 X95.583 Y121.59 E.00854
G1 X95.541 Y121.628 E.00167
G1 X95.461 Y121.668 E.00264
G1 X95.351 Y121.684 E.00328
G1 X95.285 Y121.674 E.00197
G1 X95.246 Y121.649 E.00137
G1 E-1.12 F2400
;WIPE_START
G1 F4800
G1 X95.196 Y121.617 E-.0282
G1 X95.296 Y121.631 E-.04796
G1 X95.583 Y121.59 E-.13771
G1 X95.541 Y121.628 E-.0269
G1 X95.461 Y121.668 E-.04249
G1 X95.351 Y121.684 E-.0528
G1 X95.285 Y121.674 E-.03171
G1 X95.246 Y121.649 E-.022
;WIPE_END
G1 E-.09023 F2400
G1 X135.636 Y119.733 F6000
G1 E1.6 F2400
G1 F1200
G1 X135.615 Y119.748 E.00076
G1 X135.461 Y119.787 E.00468
G1 X135.281 Y119.779 E.00531
G1 X135.124 Y119.719 E.00495
G1 X134.987 Y119.551 E.00639
G1 X134.938 Y119.343 E.0063
G1 X134.948 Y119.071 E.00802
G1 X135.004 Y118.88 E.00587
G1 X135.092 Y118.748 E.00468
G1 X135.198 Y118.661 E.00404
G1 X135.319 Y118.615 E.00382
G1 X135.47 Y118.614 E.00445
G1 X135.615 Y118.683 E.00473
G1 X135.689 Y118.79 E.00383
G1 X135.728 Y118.895 E.0033
G1 X135.857 Y119.522 E.01887
G1 X135.746 Y119.659 E.0052
G1 X135.686 Y119.7 E.00214
G1 E-1.12 F2400
;WIPE_START
G1 F4800
G1 X135.636 Y119.733 E-.02846
G1 X135.615 Y119.748 E-.01226
G1 X135.461 Y119.787 E-.07546
G1 X135.281 Y119.779 E-.08558
G1 X135.124 Y119.719 E-.07984
G1 X134.987 Y119.551 E-.10297
G1 X134.941 Y119.355 E-.09543
;WIPE_END
G1 X126.872 Y118.688 F6000
G1 E1.6 F2400
G1 F1200
G1 X126.718 Y118.674 E.00456
G1 X126.429 Y118.69 E.00853
G1 X126.519 Y118.637 E.00308
G1 X126.629 Y118.609 E.00335
G1 X126.799 Y118.63 E.00505
G1 X126.825 Y118.65 E.00097
G1 E-1.12 F2400
;WIPE_START
G1 F4800
G1 X126.872 Y118.688 E-.02871
G1 X126.718 Y118.674 E-.07345
G1 X126.429 Y118.69 E-.13749
G1 X126.519 Y118.637 E-.04961
G1 X126.629 Y118.609 E-.05392
G1 X126.799 Y118.63 E-.08136
G1 X126.825 Y118.65 E-.01558
;WIPE_END
G1 E-.03988 F2400
G1 X126.864 Y109.566 F6000
G1 E1.6 F2400
G1 F1200
G1 X126.711 Y109.552 E.00453
G1 X126.421 Y109.568 E.00856
G1 X126.512 Y109.516 E.00309
G1 X126.622 Y109.487 E.00335
G1 X126.791 Y109.508 E.00502
G1 X126.817 Y109.529 E.00099
G1 E-1.12 F2400
;WIPE_START
G1 F4800
G1 X126.864 Y109.566 E-.02841
G1 X126.711 Y109.552 E-.07298
G1 X126.421 Y109.568 E-.13796
G1 X126.512 Y109.516 E-.04978
G1 X126.622 Y109.487 E-.05404
G1 X126.791 Y109.508 E-.08089
G1 X126.817 Y109.529 E-.01588
;WIPE_END
G1 E-.04006 F2400
G1 X135.849 Y110.401 F6000
G1 E1.6 F2400
G1 F1200
G1 X135.739 Y110.538 E.00518
G1 X135.607 Y110.626 E.00468
G1 X135.454 Y110.666 E.00466
G1 X135.273 Y110.657 E.00534
G1 X135.117 Y110.598 E.00492
G1 X134.98 Y110.43 E.00639
G1 X134.931 Y110.221 E.00633
G1 X134.941 Y109.95 E.00799
G1 X134.997 Y109.759 E.00587
G1 X135.085 Y109.627 E.00468
G1 X135.191 Y109.54 E.00404
G1 X135.311 Y109.494 E.00379
G1 X135.463 Y109.492 E.00448
G1 X135.608 Y109.562 E.00475
G1 X135.681 Y109.669 E.00382
G1 X135.72 Y109.774 E.0033
G1 X135.837 Y110.342 E.01709
G1 E-1.12 F2400
;WIPE_START
G1 F4800
G1 X135.849 Y110.401 E-.0286
G1 X135.739 Y110.538 E-.08346
G1 X135.607 Y110.626 E-.07536
G1 X135.454 Y110.666 E-.07512
G1 X135.273 Y110.657 E-.08608
G1 X135.117 Y110.598 E-.07922
G1 X135.048 Y110.513 E-.05216
;WIPE_END
G1 X117.391 Y119.496 F6000
G1 E1.6 F2400
G1 F1200
G1 X116.989 Y119.597 E.01222
G1 X116.616 Y119.659 E.01114
G1 X116.484 Y120.702 E.03099
G1 X117.949 Y120.962 E.04385
G1 X117.754 Y121.858 E.02703
G1 X117.623 Y122.248 E.01213
G1 X117.427 Y122.615 E.01226
G1 X117.168 Y122.937 E.01218
G1 X116.854 Y123.204 E.01215
G1 X116.499 Y123.408 E.01207
G1 X116.11 Y123.541 E.01212
G1 X115.696 Y123.606 E.01235
G1 X115.205 Y123.598 E.01447
G1 X114.904 Y123.546 E.009
G1 X114.623 Y123.461 E.00865
G1 X114.356 Y123.344 E.00859
G1 X114.105 Y123.197 E.00857
G1 X113.875 Y123.016 E.00863
G1 X113.674 Y122.804 E.00861
G1 X113.51 Y122.569 E.00845
G1 X113.38 Y122.321 E.00825
G1 X113.285 Y122.059 E.00821
G1 X113.228 Y121.783 E.00831
G1 X113.212 Y121.503 E.00827
G1 X113.235 Y121.223 E.00828
G1 X113.315 Y120.932 E.00889
G1 X113.543 Y120.5 E.0144
G1 X113.378 Y120.288 E.00792
G1 X113.282 Y120.113 E.00588
G1 X112.743 Y120.938 E.02904
G1 X110.877 Y123.589 E.09555
G1 X109.288 Y123.589 E.04683
G1 X109.288 Y120.063 E.10392
G1 X108.553 Y120.063 E.02166
G1 X108.553 Y118.077 E.05853
G1 X109.288 Y118.077 E.02166
G1 X109.288 Y116.774 E.0384
G1 X111.33 Y116.774 E.06018
G1 X111.33 Y118.079 E.03846
G1 X112.078 Y118.082 E.02205
G1 X112.59 Y118.113 E.01512
G1 X113.185 Y118.197 E.01771
G1 X113.231 Y118.005 E.00582
G1 X113.498 Y117.567 E.01512
G1 X113.852 Y117.207 E.01488
G1 X114.269 Y116.941 E.01458
G1 X114.728 Y116.768 E.01446
G1 X115.219 Y116.687 E.01467
G1 X115.475 Y116.677 E.00755
G1 X115.919 Y116.712 E.01313
