; generated by PrusaSlicer 2.7.2+win64 on 2024-03-15 at 14:15:58 UTC

; 

; external perimeters extrusion width = 0.42mm
; perimeters extrusion width = 0.44mm
; infill extrusion width = 0.44mm
; solid infill extrusion width = 0.44mm
; top infill extrusion width = 0.40mm
; first layer extrusion width = 0.42mm


; printing object Shape-Box id:0 copy 0
; stop printing object Shape-Box id:0 copy 0

;TYPE:Custom
; Ender 3 Custom Start G-code
G92 E0 ; Reset Extruder

M140 S55 ; set bed temp
M104 S160 ; set extruder temp
M109 S160 ; wait for extruder temp
M190 S55 ; wait for bed temp

G28 ; Home all axes
M104 S210 ; set extruder temp 
BED_MESH_CALIBRATE AREA_START=83.7684,88.5669 AREA_END=143.763,126.207

G1 Z2.0 F3000 ; Move Z Axis up little to prevent scratching of Heat Bed
M109 S210 ; wait for extruder temp
G1 X0.1 Y20 Z0.3 F5000.0 ; Move to start position

G1 X0.1 Y200.0 Z0.3 F1500.0 E15 ; Draw the first line
G1 X0.4 Y200.0 Z0.3 F5000.0 ; Move to side a little
G1 X0.4 Y20 Z0.3 F1500.0 E30 ; Draw the second line
G92 E0 ; Reset Extruder
G1 Z2.0 F3000 ; Move Z Axis up little to prevent scratching of Heat Bed
G1 X5 Y20 Z0.3 F5000.0 ; Move over to prevent blob squish
G21 ; set units to millimeters
G90 ; use absolute coordinates
M83 ; use relative distances for extrusion
; Filament gcode
M107
;LAYER_CHANGE
;Z:0.2
;HEIGHT:0.2
G1 E-1.6 F2400
G1 Z.2 F6000
G1 X87.857 Y91.701
G1 Z.2
G1 E1.6 F2400
M204 S500
;TYPE:Skirt/Brim
;WIDTH:0.42
G1 F1200
G1 X88.725 Y90.996 E.03506
G1 X89.656 Y90.382 E.03497
G1 X91.322 Y89.564 E.05819
G1 X93.099 Y89.026 E.05821
G1 X94.721 Y88.79 E.05139
G1 X132.884 Y88.805 E1.19657
G1 X133.843 Y88.938 E.03036
G1 X135.87 Y89.494 E.0659
G1 X137.7 Y90.365 E.06355
G1 X139.14 Y91.376 E.05517
G1 X140.583 Y92.775 E.06302
G1 X141.374 Y93.79 E.04035
G1 X141.835 Y94.519 E.02704
G1 X142.681 Y96.304 E.06194
G1 X143.24 Y98.341 E.06623
G1 X143.425 Y100.341 E.06298
G1 X143.575 Y114.341 E.43899
G1 X143.503 Y115.668 E.04167
G1 X143.296 Y116.888 E.0388
G1 X142.676 Y118.864 E.06493
G1 X141.69 Y120.733 E.06626
G1 X140.467 Y122.296 E.06223
G1 X139.688 Y123.064 E.0343
G1 X138.815 Y123.771 E.03522
G1 X137.173 Y124.778 E.06039
G1 X136.08 Y125.257 E.03742
G1 X134.281 Y125.783 E.05877
G1 X132.523 Y126.003 E.05555
G1 X95.078 Y126.009 E1.17406
G1 X93.39 Y125.81 E.05329
G1 X92.295 Y125.542 E.03535
G1 X91.185 Y125.153 E.03688
G1 X89.854 Y124.506 E.0464
G1 X88.8 Y123.835 E.03918
G1 X87.851 Y123.075 E.03812
G1 X86.76 Y121.96 E.04891
G1 X86.154 Y121.19 E.03072
G1 X85.328 Y119.862 E.04904
G1 X84.772 Y118.665 E.04138
G1 X84.319 Y117.276 E.04581
G1 X84.013 Y115.506 E.05632
G1 X83.957 Y114.505 E.03143
G1 X83.987 Y99.578 E.46803
G1 X84.339 Y97.433 E.06815
G1 X84.956 Y95.673 E.05848
G1 X85.359 Y94.854 E.02862
G1 X86.242 Y93.468 E.05153
G1 X86.875 Y92.684 E.03159
G1 X87.814 Y91.744 E.04166
G1 X87.814 Y91.744 F6000
G1 X88.08 Y92.01
G1 F1200
G1 X88.109 Y91.982 E.00126
G1 X88.937 Y91.308 E.03348
G1 X89.836 Y90.714 E.03378
G1 X91.455 Y89.917 E.05658
G1 X92.992 Y89.437 E.05049
G1 X94.74 Y89.166 E.05546
G1 X131.692 Y89.133 E1.1586
G1 X133.767 Y89.308 E.06529
G1 X135.748 Y89.851 E.0644
G1 X137.509 Y90.69 E.06116
G1 X138.893 Y91.661 E.05301
G1 X140.304 Y93.029 E.06162
G1 X141.07 Y94.013 E.0391
G1 X141.565 Y94.802 E.0292
G1 X142.414 Y96.673 E.06442
G1 X142.882 Y98.473 E.05831
G1 X143.048 Y100.345 E.05893
G1 X143.198 Y114.345 E.43899
G1 X143.13 Y115.614 E.03985
G1 X142.924 Y116.824 E.03848
G1 X142.331 Y118.712 E.06205
G1 X141.369 Y120.534 E.0646
G1 X140.198 Y122.031 E.05959
G1 X139.594 Y122.642 E.02694
G1 X138.603 Y123.459 E.04027
G1 X136.981 Y124.453 E.05965
G1 X135.395 Y125.098 E.05368
G1 X134.218 Y125.411 E.03819
G1 X132.355 Y125.634 E.05883
G1 X95.105 Y125.633 E1.16795
G1 X93.449 Y125.437 E.05229
G1 X92.304 Y125.154 E.03698
G1 X91.337 Y124.807 E.03221
G1 X90.03 Y124.173 E.04555
G1 X89.019 Y123.528 E.0376
G1 X88.102 Y122.794 E.03683
G1 X87.039 Y121.706 E.04769
G1 X86.452 Y120.958 E.02981
G1 X85.657 Y119.676 E.0473
G1 X85.128 Y118.539 E.03932
G1 X84.684 Y117.182 E.04477
G1 X84.387 Y115.46 E.05479
G1 X84.334 Y114.505 E.02999
G1 X84.363 Y99.603 E.46724
G1 X84.7 Y97.541 E.06551
G1 X85.307 Y95.811 E.05748
G1 X85.705 Y95.004 E.02821
G1 X86.553 Y93.681 E.04927
G1 X87.156 Y92.934 E.0301
G1 X88.038 Y92.052 E.03911
G1 X88.038 Y92.052 F6000
G1 X88.304 Y92.318
G1 F1200
G1 X88.361 Y92.262 E.00251
G1 X89.149 Y91.62 E.03187
G1 X90.029 Y91.037 E.0331
G1 X91.588 Y90.27 E.05448
G1 X93.208 Y89.774 E.05312
G1 X94.758 Y89.543 E.04914
G1 X131.692 Y89.51 E1.15804
G1 X133.69 Y89.677 E.06286
G1 X135.628 Y90.208 E.063
G1 X137.318 Y91.015 E.05872
G1 X138.647 Y91.947 E.0509
G1 X140.013 Y93.269 E.0596
G1 X140.766 Y94.236 E.03843
G1 X141.237 Y94.988 E.02782
G1 X142.054 Y96.785 E.06189
G1 X142.512 Y98.545 E.05702
G1 X142.671 Y100.349 E.05678
G1 X142.821 Y114.349 E.43899
G1 X142.744 Y115.641 E.04058
G1 X142.521 Y116.917 E.04061
G1 X142.276 Y117.78 E.02813
G1 X141.409 Y119.75 E.06749
G1 X140.675 Y120.874 E.04209
G1 X140.018 Y121.672 E.03241
G1 X139.333 Y122.37 E.03066
G1 X138.39 Y123.147 E.03831
G1 X136.804 Y124.12 E.05834
G1 X135.27 Y124.742 E.0519
G1 X134.141 Y125.042 E.03663
G1 X132.345 Y125.257 E.05671
G1 X95.131 Y125.257 E1.16682
G1 X93.508 Y125.065 E.05124
G1 X92.409 Y124.792 E.03551
G1 X91.488 Y124.462 E.03068
G1 X90.206 Y123.839 E.04469
G1 X89.238 Y123.221 E.03601
G1 X88.306 Y122.47 E.03753
G1 X87.318 Y121.453 E.04446
G1 X86.76 Y120.741 E.02836
G1 X85.985 Y119.491 E.04611
G1 X85.483 Y118.413 E.03729
G1 X85.05 Y117.087 E.04374
G1 X84.761 Y115.415 E.0532
G1 X84.739 Y99.629 E.49496
G1 X85.061 Y97.651 E.06284
G1 X85.658 Y95.948 E.05658
G1 X86.04 Y95.178 E.02695
G1 X86.862 Y93.897 E.04772
G1 X87.438 Y93.185 E.02871
G1 X88.262 Y92.361 E.03654
; printing object Shape-Box id:0 copy 0
G1 E-1.12 F2400
;WIPE_START
G1 F4800
G1 X88.304 Y92.318 E-.02855
G1 X88.361 Y92.262 E-.03796
G1 X89.036 Y91.712 E-.41349
;WIPE_END
G1 X114.175 Y111.211 F6000
G1 E1.6 F2400
;TYPE:Perimeter
G1 F1200
G1 X113.79 Y111.298 E.01238
G1 X113.619 Y111.305 E.00537
G1 X113.503 Y111.279 E.00373
G1 X113.421 Y111.23 E.003
G1 X113.353 Y111.156 E.00315
G1 X113.309 Y111.06 E.00331
G1 X113.297 Y110.901 E.005
G1 X113.33 Y110.759 E.00457
G1 X113.399 Y110.643 E.00423
G1 X113.509 Y110.55 E.00452
G1 X113.644 Y110.503 E.00448
G1 X113.8 Y110.501 E.00489
G1 X113.898 Y110.537 E.00327
G1 X113.96 Y110.593 E.00262
G1 X114.042 Y110.75 E.00555
G1 X114.158 Y111.154 E.01318
G1 E-1.12 F2400
;WIPE_START
G1 F4800
G1 X114.175 Y111.211 E-.02825
G1 X113.79 Y111.298 E-.18749
G1 X113.619 Y111.305 E-.08129
G1 X113.503 Y111.279 E-.05647
G1 X113.421 Y111.23 E-.04537
G1 X113.353 Y111.156 E-.04774
G1 X113.323 Y111.092 E-.03339
;WIPE_END
G1 X114.034 Y113.199 F6000
G1 E1.6 F2400
G1 F1200
G1 X113.992 Y113.381 E.00586
G1 X113.935 Y113.495 E.004
G1 X113.885 Y113.54 E.00211
G1 X113.809 Y113.568 E.00254
G1 X113.67 Y113.568 E.00436
G1 X113.602 Y113.544 E.00226
G1 X113.561 Y113.504 E.0018
G1 X113.545 Y113.379 E.00395
G1 X113.572 Y113.309 E.00235
G1 X113.746 Y113.221 E.00611
G1 X113.846 Y113.2 E.0032
G1 X113.974 Y113.199 E.00401
G1 E-1.12 F2400
;WIPE_START
G1 F4800
G1 X114.034 Y113.199 E-.0285
G1 X113.992 Y113.381 E-.08872
G1 X113.935 Y113.495 E-.06054
G1 X113.885 Y113.54 E-.03195
G1 X113.809 Y113.568 E-.03847
G1 X113.67 Y113.568 E-.06602
G1 X113.602 Y113.544 E-.03425
G1 X113.561 Y113.504 E-.02721
G1 X113.545 Y113.379 E-.05986
G1 X113.572 Y113.309 E-.03564
G1 X113.589 Y113.301 E-.00884
;WIPE_END
G1 X114.027 Y104.078 F6000
G1 E1.6 F2400
G1 F1200
G1 X113.985 Y104.259 E.00583
G1 X113.927 Y104.373 E.00401
G1 X113.878 Y104.419 E.00211
G1 X113.802 Y104.446 E.00253
G1 X113.663 Y104.446 E.00436
G1 X113.595 Y104.423 E.00225
G1 X113.553 Y104.383 E.00182
G1 X113.538 Y104.258 E.00395
G1 X113.565 Y104.187 E.00238
G1 X113.739 Y104.1 E.0061
G1 X113.839 Y104.079 E.0032
G1 X113.967 Y104.078 E.00401
G1 E-1.12 F2400
;WIPE_START
G1 F4800
G1 X114.027 Y104.078 E-.0285
G1 X113.985 Y104.259 E-.08826
G1 X113.927 Y104.373 E-.06076
G1 X113.878 Y104.419 E-.03192
G1 X113.802 Y104.446 E-.03831
G1 X113.663 Y104.446 E-.06603
G1 X113.595 Y104.423 E-.0341
G1 X113.553 Y104.383 E-.02755
G1 X113.538 Y104.258 E-.0598
G1 X113.565 Y104.187 E-.03608
G1 X113.581 Y104.179 E-.00869
;WIPE_END
G1 X114.142 Y102.003 F6000
G1 E1.6 F2400
G1 F1200
G1 X114.167 Y102.09 E.00284
G1 X113.782 Y102.176 E.01237
G1 X113.611 Y102.183 E.00537
G1 X113.495 Y102.157 E.00373
G1 X113.413 Y102.109 E.00298
G1 X113.346 Y102.035 E.00313
G1 X113.301 Y101.938 E.00335
G1 X113.29 Y101.779 E.005
G1 X113.323 Y101.637 E.00457
G1 X113.392 Y101.522 E.0042
G1 X113.502 Y101.429 E.00452
G1 X113.636 Y101.381 E.00446
G1 X113.793 Y101.38 E.00492
G1 X113.89 Y101.415 E.00323
G1 X113.952 Y101.471 E.00262
G1 X114.035 Y101.628 E.00557
G1 X114.126 Y101.946 E.01037
G1 E-1.12 F2400
;WIPE_START
G1 F4800
G1 X114.142 Y102.003 E-.02812
G1 X114.167 Y102.09 E-.043
G1 X113.782 Y102.176 E-.18738
G1 X113.611 Y102.183 E-.08129
G1 X113.495 Y102.157 E-.05647
G1 X113.413 Y102.109 E-.04513
G1 X113.358 Y102.048 E-.03861
;WIPE_END
G1 X98.611 Y102.007 F6000
G1 E1.6 F2400
G1 F1200
G1 X98.635 Y102.089 E.00268
G1 X98.248 Y102.176 E.01244
G1 X98.077 Y102.183 E.00537
G1 X97.961 Y102.157 E.00373
G1 X97.879 Y102.109 E.00298
G1 X97.812 Y102.035 E.00313
G1 X97.767 Y101.938 E.00335
G1 X97.756 Y101.779 E.005
G1 X97.789 Y101.637 E.00457
G1 X97.851 Y101.534 E.00377
G1 X97.949 Y101.444 E.00417
G1 X98.05 Y101.396 E.00351
G1 X98.259 Y101.38 E.00657
G1 X98.342 Y101.408 E.00275
G1 X98.449 Y101.516 E.00477
G1 X98.499 Y101.619 E.00359
G1 X98.594 Y101.949 E.01077
G1 E-1.12 F2400
;WIPE_START
G1 F4800
G1 X98.611 Y102.007 E-.02871
G1 X98.635 Y102.089 E-.04058
G1 X98.248 Y102.176 E-.18841
G1 X98.077 Y102.183 E-.08129
G1 X97.961 Y102.157 E-.05647
G1 X97.879 Y102.109 E-.04513
G1 X97.823 Y102.047 E-.03941
;WIPE_END
G1 X100.66 Y103.273 F6000
G1 E1.6 F2400
G1 F1200
G1 X100.545 Y103.366 E.00464
G1 X100.417 Y103.683 E.01072
G1 X99.209 Y103.468 E.03847
G1 X99.341 Y102.423 E.03303
G1 X99.725 Y102.357 E.01222
G1 X100.143 Y102.238 E.01363
G1 X100.145 Y102.26 E.00069
G1 X100.242 Y102.628 E.01193
G1 X100.627 Y103.223 E.02222
G1 E-1.12 F2400
;WIPE_START
G1 F4800
G1 X100.66 Y103.273 E-.02846
G1 X100.545 Y103.366 E-.07025
G1 X100.417 Y103.683 E-.16239
G1 X99.963 Y103.602 E-.2189
;WIPE_END
G1 X98.493 Y104.078 F6000
G1 E1.6 F2400
G1 F1200
G1 X98.451 Y104.259 E.00583
G1 X98.393 Y104.373 E.00401
G1 X98.344 Y104.419 E.00211
G1 X98.268 Y104.446 E.00253
G1 X98.129 Y104.446 E.00436
G1 X98.061 Y104.423 E.00225
G1 X98.019 Y104.383 E.00182
G1 X98.004 Y104.258 E.00395
G1 X98.031 Y104.187 E.00238
G1 X98.205 Y104.1 E.0061
G1 X98.305 Y104.079 E.0032
G1 X98.433 Y104.078 E.00401
G1 E-1.12 F2400
;WIPE_START
G1 F4800
G1 X98.493 Y104.078 E-.0285
G1 X98.451 Y104.259 E-.08826
G1 X98.393 Y104.373 E-.06076
G1 X98.344 Y104.419 E-.03192
G1 X98.268 Y104.446 E-.03831
G1 X98.129 Y104.446 E-.06602
G1 X98.061 Y104.423 E-.0341
G1 X98.019 Y104.383 E-.02755
G1 X98.004 Y104.258 E-.0598
G1 X98.031 Y104.187 E-.03608
G1 X98.047 Y104.179 E-.0087
;WIPE_END
G1 X96.184 Y103.197 F6000
G1 E1.6 F2400
G1 F1200
G1 X96.257 Y103.288 E.00366
G1 X96.179 Y103.434 E.00519
G1 X96.183 Y103.257 E.00555
G1 E-1.12 F2400
;WIPE_START
G1 F4800
G1 X96.184 Y103.197 E-.0285
G1 X96.257 Y103.288 E-.05541
G1 X96.179 Y103.434 E-.07863
G1 X96.183 Y103.257 E-.0841
;WIPE_END
G1 E-.23336 F2400
G1 X93.462 Y113.505 F6000
G1 E1.6 F2400
G1 F1200
G1 X93.562 Y113.519 E.00317
G1 X93.849 Y113.478 E.00909
G1 X93.807 Y113.516 E.00178
G1 X93.727 Y113.556 E.0028
G1 X93.617 Y113.572 E.00349
G1 X93.551 Y113.562 E.00209
G1 X93.512 Y113.537 E.00145
G1 E-1.12 F2400
;WIPE_START
G1 F4800
G1 X93.462 Y113.505 E-.0282
G1 X93.562 Y113.519 E-.04796
G1 X93.849 Y113.478 E-.13771
G1 X93.807 Y113.516 E-.0269
G1 X93.727 Y113.556 E-.04249
G1 X93.617 Y113.572 E-.0528
G1 X93.551 Y113.562 E-.03171
G1 X93.512 Y113.537 E-.022
;WIPE_END
G1 E-.09023 F2400
G1 X133.902 Y111.621 F6000
G1 E1.6 F2400
G1 F1200
G1 X133.881 Y111.636 E.00081
G1 X133.727 Y111.675 E.00498
G1 X133.547 Y111.667 E.00565
G1 X133.39 Y111.607 E.00527
G1 X133.253 Y111.44 E.00677
G1 X133.204 Y111.231 E.00673
G1 X133.214 Y110.959 E.00853
G1 X133.27 Y110.769 E.00621
G1 X133.358 Y110.636 E.005
G1 X133.464 Y110.549 E.0043
G1 X133.585 Y110.503 E.00406
G1 X133.736 Y110.502 E.00473
G1 X133.881 Y110.571 E.00503
G1 X133.955 Y110.678 E.00408
G1 X133.994 Y110.783 E.00351
G1 X134.123 Y111.411 E.0201
G1 X134.012 Y111.547 E.0055
G1 X133.952 Y111.588 E.00228
G1 E-1.12 F2400
;WIPE_START
G1 F4800
G1 X133.902 Y111.621 E-.02846
G1 X133.881 Y111.636 E-.01226
G1 X133.727 Y111.675 E-.07546
G1 X133.547 Y111.667 E-.08558
G1 X133.39 Y111.607 E-.07984
G1 X133.253 Y111.44 E-.1026
G1 X133.207 Y111.244 E-.0958
;WIPE_END
G1 X125.137 Y110.576 F6000
G1 E1.6 F2400
G1 F1200
G1 X124.984 Y110.562 E.00482
G1 X124.695 Y110.578 E.00908
G1 X124.785 Y110.525 E.00327
G1 X124.895 Y110.497 E.00356
G1 X125.065 Y110.518 E.00537
G1 X125.091 Y110.538 E.00103
G1 E-1.12 F2400
;WIPE_START
G1 F4800
G1 X125.137 Y110.576 E-.02834
G1 X124.984 Y110.562 E-.07298
G1 X124.695 Y110.578 E-.13749
G1 X124.785 Y110.525 E-.04961
G1 X124.895 Y110.497 E-.05392
G1 X125.065 Y110.518 E-.08136
G1 X125.091 Y110.538 E-.01558
;WIPE_END
G1 E-.04072 F2400
G1 X125.13 Y101.454 F6000
G1 E1.6 F2400
G1 F1200
G1 X124.977 Y101.441 E.00481
G1 X124.687 Y101.456 E.0091
G1 X124.778 Y101.404 E.00329
G1 X124.888 Y101.375 E.00357
G1 X125.057 Y101.396 E.00534
G1 X125.083 Y101.417 E.00105
G1 E-1.12 F2400
;WIPE_START
G1 F4800
G1 X125.13 Y101.454 E-.02841
G1 X124.977 Y101.441 E-.07294
G1 X124.687 Y101.456 E-.13793
G1 X124.778 Y101.404 E-.04978
G1 X124.888 Y101.375 E-.05404
G1 X125.057 Y101.396 E-.08089
G1 X125.083 Y101.417 E-.01588
;WIPE_END
G1 E-.04013 F2400
G1 X134.115 Y102.289 F6000
G1 E1.6 F2400
G1 F1200
G1 X134.005 Y102.426 E.00551
G1 X133.873 Y102.514 E.00497
G1 X133.72 Y102.554 E.00496
G1 X133.539 Y102.545 E.00568
G1 X133.383 Y102.486 E.00523
G1 X133.246 Y102.318 E.0068
G1 X133.197 Y102.11 E.0067
G1 X133.207 Y101.838 E.00853
G1 X133.263 Y101.647 E.00624
G1 X133.351 Y101.515 E.00497
G1 X133.457 Y101.428 E.0043
G1 X133.577 Y101.382 E.00403
G1 X133.729 Y101.38 E.00477
G1 X133.874 Y101.45 E.00505
G1 X133.947 Y101.557 E.00406
G1 X133.986 Y101.662 E.00351
G1 X134.103 Y102.23 E.01818
G1 E-1.12 F2400
;WIPE_START
G1 F4800
G1 X134.115 Y102.289 E-.0286
G1 X134.005 Y102.426 E-.08346
G1 X133.873 Y102.514 E-.07536
G1 X133.72 Y102.554 E-.07512
G1 X133.539 Y102.545 E-.08608
G1 X133.383 Y102.486 E-.07922
G1 X133.314 Y102.401 E-.05216
;WIPE_END
G1 X115.657 Y111.384 F6000
G1 E1.6 F2400
G1 F1200
G1 X115.255 Y111.485 E.013
G1 X114.882 Y111.547 E.01186
G1 X114.75 Y112.59 E.03296
G1 X116.215 Y112.85 E.04665
G1 X116.02 Y113.746 E.02875
G1 X115.889 Y114.136 E.0129
G1 X115.693 Y114.503 E.01305
G1 X115.434 Y114.825 E.01296
G1 X115.12 Y115.092 E.01292
G1 X114.765 Y115.296 E.01284
G1 X114.376 Y115.429 E.01289
G1 X113.962 Y115.494 E.01314
G1 X113.471 Y115.486 E.0154
G1 X113.17 Y115.434 E.00958
G1 X112.889 Y115.349 E.0092
G1 X112.622 Y115.232 E.00914
G1 X112.371 Y115.085 E.00912
G1 X112.141 Y114.904 E.00918
G1 X111.94 Y114.692 E.00916
G1 X111.776 Y114.457 E.00899
G1 X111.646 Y114.209 E.00878
G1 X111.551 Y113.947 E.00874
G1 X111.494 Y113.672 E.00881
G1 X111.478 Y113.391 E.00882
G1 X111.501 Y113.111 E.00881
G1 X111.581 Y112.82 E.00946
G1 X111.809 Y112.388 E.01532
G1 X111.644 Y112.176 E.00842
G1 X111.548 Y112.001 E.00626
G1 X111.009 Y112.827 E.03092
G1 X109.143 Y115.477 E.10162
G1 X107.554 Y115.477 E.04982
G1 X107.554 Y111.952 E.11052
G1 X106.819 Y111.952 E.02305
G1 X106.819 Y109.965 E.0623
G1 X107.554 Y109.965 E.02305
G1 X107.554 Y108.663 E.04082
G1 X109.596 Y108.663 E.06403
G1 X109.596 Y109.967 E.04089
G1 X110.344 Y109.971 E.02345
G1 X110.856 Y110.001 E.01608
G1 X111.451 Y110.085 E.01884
G1 X111.497 Y109.894 E.00616
G1 X111.764 Y109.455 E.01611
G1 X112.118 Y109.095 E.01583
G1 X112.535 Y108.829 E.01551
G1 X112.994 Y108.656 E.01538
G1 X113.485 Y108.575 E.0156
G1 X113.741 Y108.565 E.00803
G1 X114.185 Y108.6 E.01396
G1 X114.619 Y108.711 E.01405
G1 X115.023 Y108.901 E.014
G1 X115.384 Y109.169 E.0141
G1 X115.687 Y109.504 E.01416
