; generated by PrusaSlicer 2.7.1+win64 on 2024-02-12 at 20:47:39 UTC


;
;

;
;
; 

; external perimeters extrusion width = 0.42mm
; perimeters extrusion width = 0.44mm
; infill extrusion width = 0.44mm
; solid infill extrusion width = 0.44mm
; top infill extrusion width = 0.40mm
; first layer extrusion width = 0.42mm


; printing object Shape-Box id:0 copy 0
; stop printing object Shape-Box id:0 copy 0

;TYPE:Custom
; Ender 3 Custom Start G-code
G92 E0 ; Reset Extruder

M140 S55 ; set bed temp
M104 S200 ; set extruder temp
M109 S200 ; wait for extruder temp
M190 S55 ; wait for bed temp

G28 ; Home all axes
M104 S210 ; set extruder temp 

G1 Z2.0 F3000 ; Move Z Axis up little to prevent scratching of Heat Bed
M109 S210 ; wait for extruder temp
G1 X0.1 Y20 Z0.3 F5000.0 ; Move to start position

G1 X0.1 Y200.0 Z0.3 F1500.0 E15 ; Draw the first line
G1 X0.4 Y200.0 Z0.3 F5000.0 ; Move to side a little
G1 X0.4 Y20 Z0.3 F1500.0 E30 ; Draw the second line
G92 E0 ; Reset Extruder
G1 Z2.0 F3000 ; Move Z Axis up little to prevent scratching of Heat Bed
G1 X5 Y20 Z0.3 F5000.0 ; Move over to prevent blob squish
G21 ; set units to millimeters
G90 ; use absolute coordinates
M83 ; use relative distances for extrusion
; Filament gcode
M107
;LAYER_CHANGE
;Z:0.2
;HEIGHT:0.2
;BEFORE_LAYER_CHANGE
G92 E0
;0.2


G1 E-1.6 F2400
G1 Z.2 F6000
;AFTER_LAYER_CHANGE
;0.2
G1 X87.368 Y92.305
G1 Z.2
G1 E1.6 F2400
M204 S500
;TYPE:Skirt/Brim
;WIDTH:0.42
G1 F1200
G1 X88.464 Y91.308 E.04367
G1 X89.198 Y90.767 E.02687
G1 X90.371 Y90.065 E.04029
G1 X92.044 Y89.358 E.05353
G1 X93.735 Y88.93 E.05141
G1 X94.979 Y88.78 E.03693
G1 X132.384 Y88.764 E1.10244
G1 X133.359 Y88.843 E.02883
G1 X134.588 Y89.061 E.03679
G1 X136.45 Y89.665 E.05769
G1 X138.031 Y90.48 E.05242
G1 X139.45 Y91.51 E.05168
G1 X140.181 Y92.173 E.02909
G1 X140.909 Y92.983 E.0321
G1 X141.958 Y94.482 E.05392
G1 X142.459 Y95.433 E.03168
G1 X142.931 Y96.588 E.03677
G1 X143.369 Y98.244 E.05049
G1 X143.569 Y100.213 E.05833
G1 X143.568 Y114.225 E.41298
G1 X143.524 Y115.446 E.03601
G1 X143.339 Y116.703 E.03745
G1 X143.039 Y117.859 E.0352
G1 X142.633 Y118.965 E.03472
G1 X141.672 Y120.754 E.05985
G1 X141.089 Y121.566 E.02946
G1 X140.143 Y122.631 E.04198
G1 X139.119 Y123.538 E.04032
G1 X138.376 Y124.075 E.02702
G1 X136.682 Y125.007 E.05698
G1 X135.516 Y125.454 E.0368
G1 X133.893 Y125.853 E.04926
G1 X132.356 Y126.013 E.04554
G1 X94.891 Y125.998 E1.10421
G1 X93.707 Y125.869 E.0351
G1 X92.269 Y125.537 E.0435
G1 X91.228 Y125.17 E.03253
G1 X89.722 Y124.436 E.04938
G1 X88.804 Y123.838 E.03229
G1 X87.795 Y123.024 E.03821
G1 X87.099 Y122.341 E.02874
G1 X86.099 Y121.116 E.04661
G1 X85.257 Y119.737 E.04762
G1 X84.598 Y118.2 E.04929
G1 X84.2 Y116.765 E.04389
G1 X83.991 Y115.315 E.04318
G1 X84.159 Y99.26 E.47322
G1 X84.397 Y97.784 E.04406
G1 X84.731 Y96.611 E.03595
G1 X85.171 Y95.524 E.03456
G1 X85.812 Y94.321 E.04018
G1 X86.398 Y93.452 E.03089
G1 X87.329 Y92.35 E.04252
G1 X87.616 Y92.593 F6000
G1 F1200
G1 X87.641 Y92.564 E.00113
G1 X88.707 Y91.597 E.04242
G1 X89.522 Y91.002 E.02974
G1 X90.697 Y90.324 E.03998
G1 X92.177 Y89.711 E.04721
G1 X93.81 Y89.3 E.04963
G1 X94.991 Y89.157 E.03506
G1 X132.293 Y89.136 E1.0994
G1 X133.305 Y89.216 E.02992
G1 X134.512 Y89.43 E.03613
G1 X136.317 Y90.018 E.05595
G1 X137.843 Y90.806 E.05062
G1 X139.125 Y91.727 E.04652
G1 X139.914 Y92.44 E.03134
G1 X140.702 Y93.321 E.03484
G1 X141.641 Y94.686 E.04883
G1 X142.115 Y95.587 E.03001
G1 X142.578 Y96.721 E.0361
G1 X142.996 Y98.302 E.0482
G1 X143.192 Y100.213 E.05662
G1 X143.191 Y114.225 E.41298
G1 X143.149 Y115.414 E.03507
G1 X142.969 Y116.629 E.0362
G1 X142.394 Y118.554 E.05921
G1 X141.372 Y120.525 E.06544
G1 X140.798 Y121.326 E.02904
G1 X139.909 Y122.332 E.03957
G1 X138.935 Y123.202 E.03849
G1 X138.157 Y123.768 E.02836
G1 X136.515 Y124.669 E.0552
G1 X135.393 Y125.098 E.0354
G1 X133.834 Y125.48 E.04731
G1 X132.329 Y125.637 E.0446
G1 X94.761 Y125.614 E1.10724
G1 X93.683 Y125.481 E.03201
G1 X92.15 Y125.106 E.04651
G1 X90.806 Y124.576 E.04258
G1 X89.889 Y124.098 E.03048
G1 X89.016 Y123.526 E.03076
G1 X88.056 Y122.752 E.03634
G1 X86.888 Y121.532 E.04978
G1 X86.316 Y120.767 E.02815
G1 X85.586 Y119.553 E.04175
G1 X84.951 Y118.067 E.04763
G1 X84.566 Y116.677 E.04251
G1 X84.367 Y115.297 E.04109
G1 X84.534 Y99.303 E.47142
G1 X84.766 Y97.863 E.04299
G1 X85.091 Y96.724 E.03491
G1 X85.509 Y95.69 E.03287
G1 X86.19 Y94.422 E.04242
G1 X86.694 Y93.684 E.02634
G1 X87.578 Y92.639 E.04034
G1 X87.865 Y92.882 F6000
G1 F1200
G1 X87.914 Y92.824 E.00224
G1 X88.949 Y91.885 E.04119
G1 X89.729 Y91.317 E.02844
G1 X90.853 Y90.667 E.03827
G1 X92.352 Y90.049 E.04779
G1 X93.888 Y89.669 E.04664
G1 X95.002 Y89.534 E.03307
G1 X132.274 Y89.512 E1.09852
G1 X133.266 Y89.591 E.02933
G1 X134.436 Y89.799 E.03502
G1 X136.184 Y90.371 E.05421
G1 X137.655 Y91.133 E.04883
G1 X138.885 Y92.017 E.04464
G1 X139.588 Y92.649 E.02786
G1 X140.41 Y93.56 E.03616
G1 X141.361 Y94.95 E.04964
G1 X142.225 Y96.854 E.06162
G1 X142.623 Y98.361 E.04594
G1 X142.814 Y100.213 E.05487
G1 X142.814 Y114.225 E.41298
G1 X142.766 Y115.452 E.03619
G1 X142.6 Y116.554 E.03285
G1 X142.039 Y118.428 E.05765
G1 X141.089 Y120.272 E.06114
G1 X140.498 Y121.098 E.02993
G1 X139.646 Y122.062 E.03792
G1 X138.648 Y122.949 E.03935
G1 X137.938 Y123.461 E.0258
G1 X136.35 Y124.33 E.05335
G1 X135.287 Y124.736 E.03354
G1 X133.775 Y125.108 E.04589
G1 X132.302 Y125.261 E.04365
G1 X94.789 Y125.238 E1.10562
G1 X93.757 Y125.111 E.03065
G1 X92.276 Y124.75 E.04493
G1 X90.957 Y124.231 E.04178
G1 X90.073 Y123.769 E.0294
G1 X89.228 Y123.215 E.02978
G1 X88.317 Y122.48 E.0345
G1 X87.17 Y121.282 E.04888
G1 X86.631 Y120.561 E.02653
G1 X85.868 Y119.282 E.04389
G1 X85.304 Y117.934 E.04307
G1 X84.933 Y116.588 E.04115
G1 X84.744 Y115.28 E.03895
G1 X84.909 Y99.347 E.46962
G1 X85.135 Y97.942 E.04194
G1 X85.451 Y96.837 E.03387
G1 X85.848 Y95.856 E.03119
G1 X86.511 Y94.62 E.04134
G1 X86.991 Y93.917 E.02509
G1 X87.827 Y92.928 E.03817
; printing object Shape-Box id:0 copy 0
G1 E-1.12 F2400
;WIPE_START
G1 F4800
G1 X87.865 Y92.882 E-.02834
G1 X87.914 Y92.824 E-.03607
G1 X88.562 Y92.236 E-.41559
;WIPE_END
G1 X96.021 Y105.386 F6000
G1 E1.6 F2400
;TYPE:Perimeter
G1 F1200
G1 X96.244 Y105.225 E.00811
G1 X96.501 Y105.118 E.0082
G1 X96.798 Y105.061 E.00891
G1 X97.14 Y105.061 E.01008
G1 X97.497 Y105.121 E.01067
G1 X97.78 Y105.235 E.00899
G1 X97.978 Y105.379 E.00722
G1 X98.071 Y105.477 E.00398
G1 X98.23 Y105.718 E.00851
G1 X98.371 Y106.087 E.01164
G1 X98.461 Y106.55 E.0139
G1 X98.494 Y107.128 E.01706
G1 X98.461 Y107.725 E.01762
G1 X98.426 Y107.963 E.00709
G1 X98.308 Y108.409 E.0136
G1 X98.144 Y108.759 E.01139
G1 X97.965 Y108.992 E.00866
G1 X97.748 Y109.166 E.0082
G1 X97.5 Y109.279 E.00803
G1 X97.151 Y109.348 E.01049
G1 X96.769 Y109.348 E.01126
G1 X96.426 Y109.279 E.01031
G1 X96.183 Y109.167 E.00789
G1 X95.97 Y108.994 E.00809
G1 X95.794 Y108.762 E.00858
G1 X95.632 Y108.411 E.01139
G1 X95.518 Y107.974 E.01331
G1 X95.456 Y107.435 E.01599
G1 X95.458 Y106.833 E.01774
G1 X95.53 Y106.32 E.01527
G1 X95.657 Y105.916 E.01248
G1 X95.824 Y105.61 E.01027
G1 X95.981 Y105.431 E.00702
G1 X95.765 Y105.105 F6000
;TYPE:External perimeter
G1 F1200
G1 X96.059 Y104.894 E.01067
G1 X96.392 Y104.754 E.01065
G1 X96.762 Y104.684 E.0111
G1 X97.171 Y104.684 E.01205
G1 X97.599 Y104.756 E.01279
G1 X97.952 Y104.897 E.0112
G1 X98.235 Y105.102 E.0103
G1 X98.36 Y105.234 E.00536
G1 X98.571 Y105.556 E.01135
G1 X98.735 Y105.983 E.01348
G1 X98.836 Y106.503 E.01561
G1 X98.872 Y107.128 E.01845
G1 X98.837 Y107.763 E.01874
G1 X98.796 Y108.04 E.00825
G1 X98.664 Y108.538 E.01518
G1 X98.473 Y108.946 E.01328
G1 X98.236 Y109.255 E.01148
G1 X97.946 Y109.488 E.01096
G1 X97.605 Y109.643 E.01104
G1 X97.188 Y109.725 E.01253
G1 X96.732 Y109.725 E.01344
G1 X96.32 Y109.643 E.01238
G1 X95.984 Y109.488 E.01091
G1 X95.698 Y109.256 E.01085
G1 X95.464 Y108.947 E.01142
G1 X95.276 Y108.539 E.01324
G1 X95.146 Y108.044 E.01508
G1 X95.079 Y107.456 E.01744
G1 X95.081 Y106.806 E.01916
G1 X95.161 Y106.237 E.01694
G1 X95.309 Y105.768 E.01449
G1 X95.513 Y105.393 E.01258
G1 X95.726 Y105.15 E.00952
G1 X96.837 Y105.182 F6000
;TYPE:Solid infill
;WIDTH:0.420139
G1 F1200
G1 X98.156 Y106.501 E.055
G1 X98.2 Y107.079 E.01709
G1 X96.538 Y105.417 E.0693
G1 X96.387 Y105.48 E.00482
G1 X96.205 Y105.616 E.0067
G1 X98.178 Y107.59 E.08229
G1 X98.141 Y107.904 E.00932
G1 X98.103 Y108.048 E.00439
G1 X95.982 Y105.927 E.08844
G1 X95.925 Y106.031 E.0035
G1 X95.836 Y106.315 E.00877
G1 X97.969 Y108.448 E.08894
G1 X97.894 Y108.607 E.00518
G1 X97.764 Y108.777 E.00631
G1 X95.76 Y106.772 E.08358
G1 X95.747 Y107.293 E.01537
G1 X97.441 Y108.987 E.07063
G1 X97.123 Y109.058 E.00961
G1 X96.979 Y109.058 E.00425
G1 X95.606 Y107.685 E.05725
G1 E-1.12 F2400
;WIPE_START
G1 F4800
G1 X96.32 Y108.399 E-.48
;WIPE_END
G1 X120.915 Y106.812 F6000
G1 E1.6 F2400
;TYPE:Perimeter
;WIDTH:0.42
G1 F1200
G1 X120.647 Y107.643 E.02573
G1 X120.386 Y106.812 E.02567
G1 X120.855 Y106.812 E.01382
G1 X121.432 Y106.435 F6000
;TYPE:External perimeter
G1 F1200
G1 X120.643 Y108.887 E.07592
G1 X119.872 Y106.435 E.07576
G1 X121.372 Y106.435 E.04421
G1 E-1.12 F2400
;WIPE_START
G1 F4800
G1 X121.432 Y106.435 E-.0285
G1 X121.141 Y107.34 E-.4515
;WIPE_END
G1 X115.907 Y106.912 F6000
G1 E1.6 F2400
;TYPE:Perimeter
G1 F1200
G1 X113.106 Y106.912 E.08255
G1 X113.087 Y105.316 E.04704
G1 X113.043 Y105.093 E.0067
G1 X113.006 Y105.022 E.00236
G1 X112.974 Y105.006 E.00105
G1 X112.793 Y104.983 E.00538
G1 X112.571 Y105.007 E.00658
G1 X112.529 Y105.118 E.0035
G1 X112.508 Y105.292 E.00517
G1 X112.498 Y111.868 E.19381
G1 X109.535 Y111.868 E.08733
G1 X109.535 Y105.375 E.19137
G1 X109.583 Y104.782 E.01753
G1 X109.654 Y104.455 E.00986
G1 X109.857 Y103.916 E.01698
G1 X110.014 Y103.641 E.00933
G1 X110.191 Y103.398 E.00886
G1 X110.396 Y103.176 E.00891
G1 X110.627 Y102.978 E.00897
G1 X110.881 Y102.804 E.00907
G1 X111.157 Y102.658 E.0092
G1 X111.452 Y102.538 E.00939
G1 X111.764 Y102.445 E.0096
G1 X112.096 Y102.379 E.00998
G1 X112.481 Y102.338 E.01141
G1 X113.116 Y102.338 E.01872
G1 X113.457 Y102.375 E.01011
G1 X114.031 Y102.514 E.01741
G1 X114.324 Y102.632 E.00931
G1 X114.588 Y102.772 E.00881
G1 X114.834 Y102.94 E.00878
G1 X115.059 Y103.136 E.00879
G1 X115.26 Y103.357 E.0088
G1 X115.435 Y103.602 E.00887
G1 X115.582 Y103.868 E.00896
G1 X115.707 Y104.166 E.00952
G1 X115.858 Y104.769 E.01832
G1 X115.907 Y105.425 E.01939
G1 X115.907 Y106.852 E.04206
G1 E-1.12 F2400
;WIPE_START
G1 F4800
G1 X115.907 Y106.912 E-.0285
G1 X114.956 Y106.912 E-.4515
;WIPE_END
G1 X113.478 Y106.535 F6000
G1 E1.6 F2400
;TYPE:External perimeter
G1 F1200
G1 X113.464 Y105.277 E.03708
G1 X113.405 Y104.98 E.00892
G1 X113.347 Y104.848 E.00425
G1 X113.275 Y104.753 E.00351
G1 X113.186 Y104.685 E.0033
G1 X113.07 Y104.637 E.0037
G1 X112.798 Y104.604 E.00808
G1 X112.489 Y104.635 E.00915
G1 X112.369 Y104.68 E.00378
G1 X112.296 Y104.734 E.00268
G1 X112.2 Y104.889 E.00537
G1 X112.158 Y105.045 E.00476
G1 X112.131 Y105.269 E.00665
G1 X112.122 Y111.491 E.18338
G1 X109.912 Y111.491 E.06514
G1 X109.912 Y105.39 E.17982
G1 X109.957 Y104.838 E.01632
G1 X110.016 Y104.561 E.00835
G1 X110.199 Y104.077 E.01525
G1 X110.331 Y103.847 E.00782
G1 X110.483 Y103.638 E.00762
G1 X110.659 Y103.448 E.00763
G1 X110.857 Y103.277 E.00771
G1 X111.077 Y103.128 E.00783
G1 X111.317 Y103 E.00802
G1 X111.577 Y102.894 E.00828
G1 X111.855 Y102.812 E.00854
G1 X112.153 Y102.752 E.00896
G1 X112.501 Y102.715 E.01031
G1 X113.096 Y102.715 E.01754
G1 X113.391 Y102.747 E.00875
G1 X113.915 Y102.874 E.01589
G1 X114.164 Y102.974 E.00791
G1 X114.393 Y103.095 E.00763
G1 X114.603 Y103.239 E.0075
G1 X114.795 Y103.406 E.0075
G1 X114.966 Y103.594 E.00749
G1 X115.115 Y103.804 E.00759
G1 X115.242 Y104.033 E.00772
G1 X115.348 Y104.286 E.00808
G1 X115.485 Y104.83 E.01653
G1 X115.53 Y105.439 E.018
G1 X115.53 Y106.535 E.0323
G1 X113.538 Y106.535 E.05871
G1 E-1.12 F2400
;WIPE_START
G1 F4800
G1 X113.478 Y106.535 E-.0285
G1 X113.467 Y105.585 E-.4515
;WIPE_END
G1 X116.053 Y102.961 F6000
G1 E1.6 F2400
;TYPE:Perimeter
G1 F1200
G1 X115.927 Y102.604 E.01116
G1 X119.134 Y102.604 E.09452
G1 X119.638 Y104.248 E.05068
G1 X121.636 Y104.248 E.05889
G1 X122.2 Y102.604 E.05123
G1 X125.346 Y102.604 E.09272
G1 X122.04 Y111.868 E.2899
G1 X119.192 Y111.868 E.08394
G1 X116.073 Y103.018 E.27656
G1 X116.46 Y102.981 F6000
;TYPE:External perimeter
G1 F1200
G1 X118.855 Y102.981 E.07059
G1 X119.359 Y104.625 E.05068
G1 X121.905 Y104.625 E.07504
G1 X122.469 Y102.981 E.05123
G1 X124.811 Y102.981 E.06903
G1 X121.774 Y111.491 E.26631
G1 X119.459 Y111.491 E.06823
G1 X116.48 Y103.037 E.26418
G1 E-1.12 F2400
;WIPE_START
G1 F4800
G1 X116.46 Y102.981 E-.02825
G1 X117.411 Y102.981 E-.45175
;WIPE_END
G1 X125.591 Y102.981 F6000
G1 E1.6 F2400
;TYPE:Perimeter
G1 F1200
G1 X125.591 Y102.604 E.01111
G1 X128.449 Y102.604 E.08423
G1 X128.445 Y103.896 E.03808
G1 X128.789 Y102.604 E.03941
G1 X131.441 Y102.604 E.07816
G1 X131.773 Y103.857 E.0382
G1 X131.769 Y102.604 E.03693
G1 X134.615 Y102.604 E.08388
G1 X134.615 Y111.868 E.27304
G1 X131.01 Y111.868 E.10625
G1 X130.079 Y108.063 E.11545
G1 X129.147 Y111.868 E.11546
G1 X125.591 Y111.868 E.10481
G1 X125.591 Y103.041 E.26016
G1 X125.968 Y102.981 F6000
;TYPE:External perimeter
G1 F1200
G1 X128.071 Y102.981 E.06198
G1 X128.065 Y104.768 E.05267
G1 X127.97 Y106.237 E.04339
G1 X127.97 Y107.434 E.03528
G1 X128.364 Y105.944 E.04542
G1 X128.535 Y105.021 E.02767
G1 X129.079 Y102.981 E.06223
G1 X131.151 Y102.981 E.06107
G1 X131.69 Y105.014 E.06199
G1 X131.857 Y105.932 E.0275
G1 X132.248 Y107.405 E.04492
G1 X132.248 Y106.224 E.03481
G1 X132.154 Y104.761 E.04321
G1 X132.147 Y102.981 E.05246
G1 X134.238 Y102.981 E.06163
G1 X134.238 Y111.491 E.25082
G1 X131.306 Y111.491 E.08641
G1 X130.417 Y107.857 E.11026
G1 X130.322 Y107.353 E.01512
G1 X130.268 Y106.858 E.01468
G1 X130.079 Y106.09 E.02331
G1 X129.89 Y106.858 E.02331
G1 X129.836 Y107.353 E.01468
G1 X129.741 Y107.857 E.01512
G1 X128.852 Y111.491 E.11026
G1 X125.968 Y111.491 E.085
G1 X125.968 Y103.041 E.24905
G1 E-1.12 F2400
;WIPE_START
G1 F4800
G1 X125.968 Y102.981 E-.0285
G1 X126.918 Y102.981 E-.4515
;WIPE_END
G1 X115.734 Y119.011 F6000
G1 E1.6 F2400
;TYPE:Perimeter
G1 F1200
G1 X115.634 Y119.35 E.01042
G1 X115.412 Y119.773 E.01408
G1 X115.15 Y120.093 E.01219
G1 X114.793 Y120.385 E.01359
G1 X114.459 Y120.564 E.01117
G1 X114.108 Y120.681 E.0109
G1 X113.651 Y120.742 E.01359
G1 X113.256 Y120.715 E.01167
G1 X112.936 Y120.64 E.00969
G1 X112.493 Y120.445 E.01427
G1 X112.18 Y120.223 E.01131
G1 X111.886 Y119.923 E.01238
G1 X111.639 Y119.54 E.01343
G1 X111.48 Y119.12 E.01324
G1 X111.413 Y118.748 E.01114
G1 X111.414 Y118.353 E.01164
G1 X111.5 Y117.913 E.01321
G1 X111.657 Y117.531 E.01217
G1 X111.909 Y117.153 E.01339
G1 X112.233 Y116.836 E.01336
G1 X112.597 Y116.601 E.01277
G1 X113.057 Y116.428 E.01448
G1 X113.443 Y116.367 E.01152
G1 X113.854 Y116.377 E.01212
G1 X114.282 Y116.471 E.01292
G1 X114.755 Y116.693 E.0154
G1 X115.108 Y116.969 E.01321
G1 X115.404 Y117.317 E.01347
G1 X115.617 Y117.712 E.01323
G1 X115.74 Y118.114 E.01239
G1 X115.785 Y118.517 E.01195
G1 X115.745 Y118.953 E.0129
G1 X115.37 Y118.91 F6000
;TYPE:External perimeter
G1 F1200
G1 X115.282 Y119.208 E.00916
G1 X115.096 Y119.564 E.01184
G1 X114.883 Y119.825 E.00993
G1 X114.583 Y120.069 E.0114
G1 X114.309 Y120.216 E.00916
G1 X114.022 Y120.312 E.00892
G1 X113.639 Y120.363 E.01139
G1 X113.312 Y120.341 E.00966
G1 X113.056 Y120.281 E.00775
G1 X112.68 Y120.116 E.0121
G1 X112.426 Y119.935 E.00919
G1 X112.182 Y119.686 E.01027
G1 X111.978 Y119.369 E.01111
G1 X111.845 Y119.019 E.01104
G1 X111.79 Y118.715 E.00911
G1 X111.791 Y118.389 E.00961
G1 X111.863 Y118.022 E.01102
G1 X111.991 Y117.709 E.00997
G1 X112.201 Y117.395 E.01113
G1 X112.47 Y117.132 E.01109
G1 X112.767 Y116.94 E.01042
G1 X113.154 Y116.795 E.01218
G1 X113.468 Y116.745 E.00937
G1 X113.808 Y116.753 E.01002
G1 X114.16 Y116.831 E.01063
G1 X114.556 Y117.016 E.01288
G1 X114.846 Y117.242 E.01084
G1 X115.091 Y117.531 E.01117
G1 X115.268 Y117.858 E.01096
G1 X115.369 Y118.19 E.01023
G1 X115.406 Y118.52 E.00979
G1 X115.376 Y118.85 E.00977
G1 E-1.12 F2400
;WIPE_START
G1 F4800
