; HEADER_BLOCK_START
; BambuStudio 01.08.04.51
; model printing time: 41m 37s; total estimated time: 42m 16s
; total layer number: 22
; model label id: 6938
; filament_density: 1.24
; filament_diameter: 1.75
; max_z_height: 4.40
; HEADER_BLOCK_END

; CONFIG_BLOCK_START
; accel_to_decel_enable = 0
; accel_to_decel_factor = 50%
; activate_air_filtration = 0
; additional_cooling_fan_speed = 70
; auxiliary_fan = 0
; bed_custom_model = 
; bed_custom_texture = 
; bed_exclude_area = 0x0
; before_layer_change_gcode = 
; best_object_pos = 0.5,0.5
; bottom_shell_layers = 5
; bottom_shell_thickness = 0
; bottom_surface_pattern = monotonic
; bridge_angle = 0
; bridge_flow = 0.95
; bridge_no_support = 0
; bridge_speed = 25
; brim_object_gap = 0
; brim_type = auto_brim
; brim_width = 0
; chamber_temperatures = 0
; change_filament_gcode = M600
; close_fan_the_first_x_layers = 1
; complete_print_exhaust_fan_speed = 80
; cool_plate_temp = 60
; cool_plate_temp_initial_layer = 60
; curr_bed_type = High Temp Plate
; default_acceleration = 0
; default_filament_colour = ""
; default_filament_profile = "Generic PLA @Creality"
; default_jerk = 0
; default_print_profile = 0.20mm Standard @Creality Ender3S1
; deretraction_speed = 40
; detect_narrow_internal_solid_infill = 1
; detect_overhang_wall = 1
; detect_thin_wall = 0
; different_settings_to_system = ;;print_host
; draft_shield = disabled
; during_print_exhaust_fan_speed = 60
; elefant_foot_compensation = 0.1
; enable_arc_fitting = 0
; enable_overhang_bridge_fan = 1
; enable_overhang_speed = 1
; enable_pressure_advance = 0
; enable_prime_tower = 0
; enable_support = 0
; enforce_support_layers = 0
; eng_plate_temp = 60
; eng_plate_temp_initial_layer = 60
; ensure_vertical_shell_thickness = 1
; exclude_object = 1
; extruder_clearance_height_to_lid = 34
; extruder_clearance_height_to_rod = 34
; extruder_clearance_max_radius = 68
; extruder_clearance_radius = 47
; extruder_colour = #FCE94F
; extruder_offset = 0x0
; extruder_type = DirectDrive
; fan_cooling_layer_time = 100
; fan_max_speed = 100
; fan_min_speed = 100
; filament_colour = #00AE42
; filament_cost = 20
; filament_density = 1.24
; filament_diameter = 1.75
; filament_end_gcode = "; filament end gcode \n"
; filament_flow_ratio = 0.98
; filament_ids = GFL99
; filament_is_support = 0
; filament_max_volumetric_speed = 12
; filament_minimal_purge_on_wipe_tower = 15
; filament_settings_id = "Generic PLA @Creality"
; filament_soluble = 0
; filament_start_gcode = "; filament start gcode\n"
; filament_type = PLA
; filament_vendor = Generic
; filename_format = [input_filename_base].gcode
; filter_out_gap_fill = 0
; first_layer_print_sequence = 0
; flush_into_infill = 0
; flush_into_objects = 0
; flush_into_support = 1
; flush_multiplier = 1
; flush_volumes_matrix = 0
; flush_volumes_vector = 140,140
; full_fan_speed_layer = 0
; fuzzy_skin = none
; fuzzy_skin_point_distance = 0.8
; fuzzy_skin_thickness = 0.3
; gap_infill_speed = 30
; gcode_add_line_number = 0
; gcode_flavor = marlin
; head_wrap_detect_zone = 
; host_type = octoprint
; hot_plate_temp = 60
; hot_plate_temp_initial_layer = 60
; independent_support_layer_height = 1
; infill_combination = 0
; infill_direction = 45
; infill_jerk = 9
; infill_wall_overlap = 25%
; inherits_group = ;;"Creality Ender-3 S1 0.4 nozzle"
; initial_layer_acceleration = 0
; initial_layer_flow_ratio = 1
; initial_layer_infill_speed = 35
; initial_layer_jerk = 9
; initial_layer_line_width = 0.42
; initial_layer_print_height = 0.2
; initial_layer_speed = 15
; inner_wall_acceleration = 0
; inner_wall_jerk = 9
; inner_wall_line_width = 0.45
; inner_wall_speed = 40
; interface_shells = 0
; internal_bridge_support_thickness = 0
; internal_solid_infill_line_width = 0
; internal_solid_infill_pattern = zig-zag
; internal_solid_infill_speed = 50
; ironing_direction = 45
; ironing_flow = 15%
; ironing_pattern = zig-zag
; ironing_spacing = 0.1
; ironing_speed = 15
; ironing_type = no ironing
; is_infill_first = 0
; layer_change_gcode = 
; layer_height = 0.2
; line_width = 0.45
; machine_end_gcode = {if max_layer_z < printable_height}G1 Z{z_offset+min(max_layer_z+2, printable_height)} F600 ; Move print head up{endif}\nG1 X5 Y{print_bed_max[1]*0.8} F{travel_speed*60} ; present print\n{if max_layer_z < printable_height-10}G1 Z{z_offset+min(max_layer_z+70, printable_height-10)} F600 ; Move print head further up{endif}\n{if max_layer_z < max_print_height*0.6}G1 Z{printable_height*0.6} F600 ; Move print head further up{endif}\nM140 S0 ; turn off heatbed\nM104 S0 ; turn off temperature\nM107 ; turn off fan\nM84 X Y E ; disable motors
; machine_load_filament_time = 0
; machine_max_acceleration_e = 5000,5000
; machine_max_acceleration_extruding = 500,500
; machine_max_acceleration_retracting = 1000,1000
; machine_max_acceleration_travel = 1500,1250
; machine_max_acceleration_x = 500,500
; machine_max_acceleration_y = 500,500
; machine_max_acceleration_z = 100,100
; machine_max_jerk_e = 5,5
; machine_max_jerk_x = 8,8
; machine_max_jerk_y = 8,8
; machine_max_jerk_z = 0.4,0.4
; machine_max_speed_e = 60,60
; machine_max_speed_x = 500,500
; machine_max_speed_y = 500,500
; machine_max_speed_z = 10,10
; machine_min_extruding_rate = 0,0
; machine_min_travel_rate = 0,0
; machine_pause_gcode = M25
; machine_start_gcode = G90 ; use absolute coordinates\nM83 ; extruder relative mode\nM140 S[bed_temperature_initial_layer_single] ; set final bed temp\nM104 S150 ; set temporary nozzle temp to prevent oozing during homing\nG4 S10 ; allow partial nozzle warmup\nG28 ; home all axis\nG1 Z50 F240\nG1 X2 Y10 F3000\nM104 S[nozzle_temperature_initial_layer] ; set final nozzle temp\nM190 S[bed_temperature_initial_layer_single] ; wait for bed temp to stabilize\nM109 S[nozzle_temperature_initial_layer] ; wait for nozzle temp to stabilize\nG1 Z0.28 F240\nG92 E0\nG1 Y140 E10 F1500 ; prime the nozzle\nG1 X2.3 F5000\nG92 E0\nG1 Y10 E10 F1200 ; prime the nozzle\nG92 E0
; machine_unload_filament_time = 0
; max_bridge_length = 10
; max_layer_height = 0.36
; max_travel_detour_distance = 0
; min_bead_width = 85%
; min_feature_size = 25%
; min_layer_height = 0.08
; minimum_sparse_infill_area = 10
; mmu_segmented_region_interlocking_depth = 0
; mmu_segmented_region_max_width = 0
; nozzle_diameter = 0.4
; nozzle_temperature = 220
; nozzle_temperature_initial_layer = 220
; nozzle_temperature_range_high = 230
; nozzle_temperature_range_low = 190
; nozzle_type = undefine
; nozzle_volume = 0
; only_one_wall_first_layer = 0
; ooze_prevention = 0
; outer_wall_acceleration = 500
; outer_wall_jerk = 9
; outer_wall_line_width = 0.45
; outer_wall_speed = 40
; overhang_1_4_speed = 0
; overhang_2_4_speed = 20
; overhang_3_4_speed = 15
; overhang_4_4_speed = 10
; overhang_fan_speed = 100
; overhang_fan_threshold = 50%
; post_process = 
; pressure_advance = 0.02
; prime_tower_brim_width = 3
; prime_tower_width = 60
; prime_volume = 45
; print_compatible_printers = "Creality Ender-3 S1 0.4 nozzle"
; print_flow_ratio = 1
; print_host = 192.168.1.211
; print_host_webui = 
; print_sequence = by layer
; print_settings_id = 0.20mm Standard @Creality Ender3S1
; printable_area = 0x0,220x0,220x220,0x220
; printable_height = 270
; printer_model = Creality Ender-3 S1
; printer_settings_id = Creality Ender-3 S1 0.4 nozzle - Copy
; printer_structure = undefine
; printer_technology = FFF
; printer_variant = 0.4
; printhost_apikey = 
; printhost_authorization_type = key
; printhost_cafile = 
; printhost_password = 
; printhost_port = 
; printhost_ssl_ignore_revoke = 0
; printhost_user = 
; printing_by_object_gcode = 
; raft_contact_distance = 0.1
; raft_expansion = 1.5
; raft_first_layer_density = 90%
; raft_first_layer_expansion = 2
; raft_layers = 0
; reduce_crossing_wall = 0
; reduce_fan_stop_start_freq = 1
; reduce_infill_retraction = 1
; required_nozzle_HRC = 3
; resolution = 0.012
; retract_before_wipe = 70%
; retract_length_toolchange = 1
; retract_lift_above = 0
; retract_lift_below = 269
; retract_restart_extra = 0
; retract_restart_extra_toolchange = 0
; retract_when_changing_layer = 1
; retraction_length = 1
; retraction_minimum_travel = 2
; retraction_speed = 60
; scan_first_layer = 0
; seam_gap = 15%
; seam_position = aligned
; silent_mode = 0
; single_extruder_multi_material = 0
; skirt_distance = 2
; skirt_height = 2
; skirt_loops = 2
; slice_closing_radius = 0.049
; slicing_mode = regular
; slow_down_for_layer_cooling = 1
; slow_down_layer_time = 8
; slow_down_min_speed = 10
; small_perimeter_speed = 50%
; small_perimeter_threshold = 0
; solid_infill_filament = 1
; sparse_infill_acceleration = 100%
; sparse_infill_anchor = 400%
; sparse_infill_anchor_max = 20
; sparse_infill_density = 15%
; sparse_infill_filament = 1
; sparse_infill_line_width = 0.45
; sparse_infill_pattern = grid
; sparse_infill_speed = 60
; spiral_mode = 0
; standby_temperature_delta = -5
; start_end_points = 30x-3,54x245
; support_air_filtration = 0
; support_angle = 0
; support_base_pattern = default
; support_base_pattern_spacing = 2.5
; support_bottom_interface_spacing = 0.5
; support_bottom_z_distance = 0.2
; support_chamber_temp_control = 0
; support_critical_regions_only = 0
; support_expansion = 0
; support_filament = 0
; support_interface_bottom_layers = 0
; support_interface_filament = 0
; support_interface_loop_pattern = 0
; support_interface_not_for_body = 1
; support_interface_pattern = auto
; support_interface_spacing = 0.5
; support_interface_speed = 100
; support_interface_top_layers = 3
; support_line_width = 0.4
; support_object_xy_distance = 0.35
; support_on_build_plate_only = 0
; support_remove_small_overhang = 1
; support_speed = 40
; support_style = default
; support_threshold_angle = 30
; support_top_z_distance = 0.15
; support_type = normal(auto)
; temperature_vitrification = 60
; template_custom_gcode = 
; textured_plate_temp = 60
; textured_plate_temp_initial_layer = 60
; thick_bridges = 0
; thumbnail_size = 50x50
; time_lapse_gcode = 
; timelapse_type = 0
; top_area_threshold = 100%
; top_one_wall_type = all top
; top_shell_layers = 7
; top_shell_thickness = 0.8
; top_solid_infill_flow_ratio = 1
; top_surface_acceleration = 0
; top_surface_jerk = 9
; top_surface_line_width = 0.4
; top_surface_pattern = monotonic
; top_surface_speed = 30
; travel_jerk = 9
; travel_speed = 150
; travel_speed_z = 0
; tree_support_branch_angle = 40
; tree_support_branch_diameter = 5
; tree_support_branch_distance = 5
; tree_support_brim_width = 0
; tree_support_wall_count = 0
; upward_compatible_machine = 
; use_firmware_retraction = 0
; use_relative_e_distances = 1
; wall_distribution_count = 1
; wall_filament = 1
; wall_generator = arachne
; wall_loops = 2
; wall_sequence = inner wall/outer wall
; wall_transition_angle = 10
; wall_transition_filter_deviation = 25%
; wall_transition_length = 100%
; wipe = 1
; wipe_distance = 2
; wipe_speed = 80%
; wipe_tower_no_sparse_layers = 0
; wipe_tower_rotation_angle = 0
; wipe_tower_x = 165
; wipe_tower_y = 250
; xy_contour_compensation = 0
; xy_hole_compensation = 0
; z_hop = 0.4
; z_hop_types = Normal Lift
; CONFIG_BLOCK_END

; THUMBNAIL_BLOCK_START
; THUMBNAIL_BLOCK_END

; EXECUTABLE_BLOCK_START
M73 P0 R42
M201 X500 Y500 Z100 E5000
M203 X500 Y500 Z10 E60
M204 P500 R1000 T500
M205 X8.00 Y8.00 Z0.40 E5.00
M106 S0
M106 P2 S0
; FEATURE: Custom
G90 ; use absolute coordinates
M83 ; extruder relative mode
M140 S60 ; set final bed temp
M104 S150 ; set temporary nozzle temp to prevent oozing during homing
G4 S10 ; allow partial nozzle warmup
G28 ; home all axis
G1 Z50 F240
G1 X2 Y10 F3000
M104 S220 ; set final nozzle temp
M190 S60 ; wait for bed temp to stabilize
M109 S220 ; wait for nozzle temp to stabilize
G1 Z0.28 F240
G92 E0
G1 Y140 E10 F1500 ; prime the nozzle
M73 P0 R41
G1 X2.3 F5000
G92 E0
M73 P1 R41
G1 Y10 E10 F1200 ; prime the nozzle
G92 E0
G90
G21
M83 ; use relative distances for extrusion
; filament start gcode
; CHANGE_LAYER
; Z_HEIGHT: 0.2
; LAYER_HEIGHT: 0.2
G1 E-1 F3600
M106 S0
M106 P2 S0
G1 Z.4 F9000
G1 X81.731 Y98.457
G1 Z.4
G1 Z.2
G1 E1 F2400
; FEATURE: Skirt
; LINE_WIDTH: 0.42
G1 F900
G1 X82.717 Y97.688 E.03841
G1 X84.066 Y96.885 E.04824
G1 X85.632 Y96.238 E.05206
G1 X87.155 Y95.855 E.04824
G1 X88.692 Y95.689 E.04751
G1 X126.067 Y95.681 E1.14843
G1 X127.946 Y95.847 E.05796
G1 X129.887 Y96.367 E.06175
G1 X131.663 Y97.2 E.06028
G1 X133.234 Y98.301 E.05894
G1 X134.605 Y99.664 E.05941
G1 X135.686 Y101.179 E.05721
G1 X136.53 Y102.924 E.05954
G1 X137.067 Y104.811 E.06028
G1 X137.264 Y106.59 E.055
G1 X137.477 Y120.745 E.435
G1 X137.447 Y121.767 E.03143
G1 X137.303 Y122.912 E.03546
G1 X137.048 Y124.017 E.03485
G1 X136.668 Y125.128 E.03606
G1 X136.241 Y126.065 E.03165
G1 X135.676 Y127.044 E.03472
G1 X135.078 Y127.882 E.03164
G1 X134.303 Y128.769 E.0362
G1 X133.495 Y129.524 E.03399
G1 X132.659 Y130.167 E.03238
G1 X131.303 Y130.977 E.04855
G1 X129.865 Y131.583 E.04794
G1 X128.324 Y131.99 E.04898
G1 X126.665 Y132.18 E.05132
G1 X88.729 Y132.172 E1.16567
G1 X87.411 Y132.022 E.04075
G1 X86.097 Y131.71 E.04148
G1 X84.921 Y131.284 E.03844
G1 X83.864 Y130.765 E.0362
G1 X82.844 Y130.123 E.03701
G1 X81.793 Y129.282 E.04137
G1 X80.946 Y128.428 E.03696
G1 X80.109 Y127.37 E.04146
G1 X79.325 Y126.065 E.04677
G1 X78.774 Y124.806 E.04222
G1 X78.365 Y123.419 E.04443
G1 X78.135 Y121.963 E.0453
G1 X77.88 Y107.124 E.45603
G1 X77.936 Y105.806 E.04054
G1 X78.095 Y104.74 E.03312
G1 X78.437 Y103.434 E.04148
G1 X78.873 Y102.31 E.03704
G1 X79.399 Y101.286 E.03538
G1 X80.13 Y100.181 E.04071
G1 X80.889 Y99.273 E.03633
G1 X81.688 Y98.498 E.03422
G1 X81.95 Y98.769 F9000
G1 F900
G1 X81.981 Y98.739 E.00132
G1 X82.928 Y98.001 E.03689
G1 X84.232 Y97.224 E.04663
G1 X85.752 Y96.596 E.05054
G1 X87.224 Y96.226 E.04663
G1 X88.712 Y96.066 E.04599
G1 X126.06 Y96.058 E1.14762
G1 X127.884 Y96.219 E.05624
M73 P2 R41
G1 X129.755 Y96.72 E.05953
G1 X131.472 Y97.525 E.05826
G1 X132.994 Y98.591 E.05712
G1 X134.321 Y99.911 E.05749
G1 X135.36 Y101.368 E.05499
G1 X136.229 Y103.195 E.06216
G1 X136.723 Y105.025 E.05826
G1 X136.887 Y106.596 E.04853
G1 X137.1 Y120.765 E.43542
G1 X136.932 Y122.844 E.06407
G1 X136.684 Y123.916 E.03384
G1 X136.317 Y124.99 E.03485
G1 X135.357 Y126.841 E.06407
G1 X134.782 Y127.647 E.03043
G1 X134.034 Y128.505 E.03498
G1 X133.247 Y129.24 E.03308
G1 X132.324 Y129.94 E.03562
G1 X131.011 Y130.701 E.04663
G1 X129.605 Y131.273 E.04663
G1 X128.259 Y131.619 E.04271
G1 X126.645 Y131.803 E.0499
G1 X88.752 Y131.795 E1.16436
G1 X87.473 Y131.65 E.03953
G1 X86.201 Y131.348 E.04017
G1 X85.072 Y130.938 E.03692
G1 X84.049 Y130.437 E.03498
G1 X83.066 Y129.818 E.0357
G1 X81.939 Y128.903 E.04461
G1 X81.034 Y127.954 E.04029
G1 X80.336 Y127.034 E.0355
G1 X79.641 Y125.854 E.04208
G1 X79.113 Y124.634 E.04084
G1 X78.734 Y123.341 E.04141
G1 X78.51 Y121.924 E.04408
G1 X78.257 Y107.118 E.45499
G1 X78.311 Y105.839 E.03935
G1 X78.464 Y104.818 E.0317
G1 X78.795 Y103.553 E.04017
G1 X79.215 Y102.469 E.03573
G1 X79.724 Y101.477 E.03427
G1 X80.434 Y100.405 E.03951
G1 X81.167 Y99.528 E.03511
G1 X81.907 Y98.811 E.03169
G1 E-.7 F3600
; WIPE_START
G1 F7200
G1 X81.981 Y98.739 E-.01466
G1 X82.928 Y98.001 E-.1711
G1 X83.526 Y97.644 E-.09924
; WIPE_END
G1 E-.015 F3600
; start printing object, unique label id: 6938
G1 Z.6 F9000
G1 X116.61 Y113.151 Z.6
G1 Z.2
G1 E1 F2400
; FEATURE: Inner wall
; LINE_WIDTH: 0.635422
G1 F900
G1 X116.55 Y113.183 E.0033
; LINE_WIDTH: 0.591
G1 X116.489 Y113.214 E.00305
; LINE_WIDTH: 0.546578
G1 X116.429 Y113.246 E.0028
; LINE_WIDTH: 0.502156
G1 X116.368 Y113.278 E.00256
; LINE_WIDTH: 0.457734
G1 X116.308 Y113.309 E.00231
; LINE_WIDTH: 0.413312
G1 X116.247 Y113.341 E.00206
; LINE_WIDTH: 0.379556
G1 X116.122 Y113.356 E.00346
; LINE_WIDTH: 0.419999
G1 X115.627 Y113.545 E.01627
G1 X115.231 Y113.865 E.01564
G1 X114.892 Y114.296 E.01685
; LINE_WIDTH: 0.450514
G1 X114.645 Y114.832 E.01962
G1 X114.588 Y115.333 E.01675
; LINE_WIDTH: 0.443271
G1 X114.618 Y115.855 E.01705
G1 X114.533 Y115.857 E.00277
G1 X114.174 Y115.981 E.01238
G1 X114.216 Y115.25 E.02387
; LINE_WIDTH: 0.442055
