; generated by PrusaSlicer 2.6.1+win64 on 2023-09-20 at 13:12:03 UTC

; 

; external perimeters extrusion width = 0.42mm
; perimeters extrusion width = 0.44mm
; infill extrusion width = 0.44mm
; solid infill extrusion width = 0.44mm
; top infill extrusion width = 0.40mm
; first layer extrusion width = 0.42mm

;TYPE:Custom
; Ender 3 Custom Start G-code
G92 E0 ; Reset Extruder

M140 S55 ; set bed temp
M104 S160 ; set extruder temp
M109 S160 ; wait for extruder temp
M190 S55 ; wait for bed temp

G28 ; Home all axes
M104 S210 ; set extruder temp 
BED_MESH_CALIBRATE AREA_START=54.1827,54.1818 AREA_END=176.817,176.818

G1 Z2.0 F3000 ; Move Z Axis up little to prevent scratching of Heat Bed
M109 S210 ; wait for extruder temp
G1 X0.1 Y20 Z0.3 F5000.0 ; Move to start position

G1 X0.1 Y200.0 Z0.3 F1500.0 E15 ; Draw the first line
G1 X0.4 Y200.0 Z0.3 F5000.0 ; Move to side a little
G1 X0.4 Y20 Z0.3 F1500.0 E30 ; Draw the second line
G92 E0 ; Reset Extruder
G1 Z2.0 F3000 ; Move Z Axis up little to prevent scratching of Heat Bed
G1 X5 Y20 Z0.3 F5000.0 ; Move over to prevent blob squish
G21 ; set units to millimeters
G90 ; use absolute coordinates
M83 ; use relative distances for extrusion
; Filament gcode
M107
;LAYER_CHANGE
;Z:0.2
;HEIGHT:0.2
;BEFORE_LAYER_CHANGE
G92 E0
;0.2


G1 E-1.6 F2400
G1 Z.2 F6000
;AFTER_LAYER_CHANGE
;0.2
G1 X57.21 Y58.075
G1 E1.6 F2400
M204 S500
;TYPE:Skirt/Brim
;WIDTH:0.42
G1 F1200
G1 X58.669 Y56.714 E.05881
G1 X59.484 Y56.137 E.02943
G1 X60.598 Y55.509 E.03769
G1 X62.461 Y54.794 E.05881
G1 X64.142 Y54.454 E.05055
G1 X65.138 Y54.377 E.02944
G1 X165.862 Y54.377 E2.96864
G1 X167.843 Y54.62 E.05882
G1 X169.748 Y55.214 E.05881
G1 X171.516 Y56.137 E.05878
G1 X173.091 Y57.362 E.05881
G1 X174.422 Y58.848 E.0588
G1 X175.467 Y60.548 E.05881
G1 X176.109 Y62.139 E.05057
G1 X176.368 Y63.103 E.02942
G1 X176.621 Y65.082 E.0588
G1 X176.629 Y165.699 E2.96549
G1 X176.425 Y167.622 E.05699
G1 X175.87 Y169.538 E.05879
G1 X174.983 Y171.325 E.0588
G1 X173.79 Y172.925 E.05882
G1 X172.331 Y174.286 E.05881
G1 X171.516 Y174.863 E.02943
G1 X170.402 Y175.491 E.03769
G1 X169.487 Y175.89 E.02942
G1 X167.843 Y176.38 E.05056
G1 X166.858 Y176.546 E.02944
G1 X165.66 Y176.63 E.0354
G1 X65.34 Y176.63 E2.95674
G1 X63.433 Y176.435 E.0565
G1 X61.513 Y175.89 E.05882
G1 X59.722 Y175.012 E.05879
G1 X58.117 Y173.827 E.0588
G1 X57.21 Y172.925 E.0377
G1 X56.578 Y172.152 E.02943
G1 X55.533 Y170.452 E.05881
G1 X54.891 Y168.861 E.05057
G1 X54.632 Y167.897 E.02942
G1 X54.461 Y166.913 E.02944
G1 X54.371 Y165.699 E.03588
G1 X54.371 Y65.301 E2.95903
G1 X54.575 Y63.378 E.05699
G1 X55.13 Y61.462 E.05879
G1 X56.017 Y59.675 E.0588
G1 X57.174 Y58.123 E.05705
G1 X57.476 Y58.349 F6000
G1 F1200
G1 X58.91 Y57.004 E.05795
G1 X59.698 Y56.448 E.02842
G1 X60.753 Y55.852 E.03571
G1 X62.552 Y55.16 E.05681
G1 X64.2 Y54.827 E.04955
G1 X65.162 Y54.753 E.02844
G1 X165.838 Y54.753 E2.96723
G1 X167.751 Y54.986 E.0568
G1 X169.593 Y55.557 E.05684
G1 X171.302 Y56.448 E.0568
G1 X172.825 Y57.629 E.0568
G1 X174.113 Y59.064 E.05683
G1 X175.124 Y60.705 E.05681
G1 X175.754 Y62.264 E.04956
G1 X176.002 Y63.196 E.02842
G1 X176.245 Y65.108 E.05681
G1 X176.252 Y165.699 E2.96472
G1 X176.053 Y167.562 E.05522
G1 X175.515 Y169.413 E.05681
G1 X174.655 Y171.138 E.05681
G1 X173.501 Y172.682 E.05681
G1 X172.09 Y173.996 E.05683
G1 X171.302 Y174.552 E.02842
G1 X170.247 Y175.148 E.03571
G1 X169.363 Y175.534 E.02843
G1 X167.751 Y176.014 E.04957
G1 X166.8 Y176.173 E.02842
G1 X165.66 Y176.253 E.03368
G1 X65.34 Y176.253 E2.95674
G1 X63.491 Y176.063 E.05478
G1 X61.637 Y175.534 E.05682
G1 X59.907 Y174.683 E.05682
G1 X58.358 Y173.537 E.05679
G1 X57.037 Y172.133 E.05682
G1 X56.477 Y171.347 E.02844
G1 X55.876 Y170.295 E.03571
G1 X55.246 Y168.736 E.04956
G1 X54.998 Y167.804 E.02842
G1 X54.833 Y166.853 E.02845
G1 X54.748 Y165.699 E.0341
G1 X54.748 Y65.301 E2.95903
G1 X54.947 Y63.438 E.05522
G1 X55.485 Y61.587 E.05681
G1 X56.345 Y59.862 E.05681
G1 X57.44 Y58.397 E.05391
G1 X57.741 Y58.622 F6000
G1 F1200
G1 X57.788 Y58.56 E.00229
G1 X59.151 Y57.294 E.05483
G1 X59.912 Y56.758 E.02743
G1 X60.908 Y56.196 E.03371
G1 X61.761 Y55.822 E.02745
G1 X63.34 Y55.352 E.04856
G1 X65.34 Y55.125 E.05932
G1 X165.814 Y55.13 E2.96127
G1 X167.66 Y55.352 E.0548
G1 X169.437 Y55.901 E.05482
G1 X171.088 Y56.758 E.05483
G1 X172.559 Y57.897 E.05483
G1 X173.803 Y59.279 E.0548
G1 X174.781 Y60.862 E.05484
G1 X175.398 Y62.389 E.04854
G1 X175.637 Y63.289 E.02745
G1 X175.869 Y65.135 E.05484
G1 X175.875 Y165.699 E2.96393
G1 X175.68 Y167.502 E.05345
G1 X175.159 Y169.288 E.05483
G1 X174.328 Y170.951 E.05479
G1 X173.212 Y172.44 E.05484
G1 X171.849 Y173.706 E.05483
G1 X171.088 Y174.242 E.02743
G1 X170.092 Y174.804 E.03371
G1 X169.239 Y175.178 E.02745
G1 X167.66 Y175.648 E.04856
G1 X165.66 Y175.875 E.05932
G1 X65.34 Y175.875 E2.95674
G1 X63.549 Y175.69 E.05307
G1 X61.761 Y175.178 E.05482
G1 X60.093 Y174.355 E.05482
G1 X58.599 Y173.247 E.05482
G1 X57.932 Y172.597 E.02745
G1 X57.197 Y171.721 E.0337
G1 X56.219 Y170.138 E.05484
G1 X55.602 Y168.611 E.04854
G1 X55.363 Y167.711 E.02745
G1 X55.125 Y165.699 E.05971
G1 X55.125 Y65.301 E2.95903
G1 X55.32 Y63.498 E.05345
G1 X55.841 Y61.712 E.05483
G1 X56.672 Y60.049 E.05479
G1 X57.705 Y58.67 E.05078
; printing object Remixed_MSI_VESA_Mount.stl id:0 copy 0
G1 E-1.12 F2400
;WIPE_START
G1 F4800
G1 X57.788 Y58.56 E-.06546
G1 X58.427 Y57.966 E-.41454
;WIPE_END
G1 X110.906 Y124.662 F6000
G1 E1.6 F2400
;TYPE:Perimeter
G1 F1200
G1 X111.097 Y124.399 E.00958
G1 X111.536 Y123.921 E.01913
G1 X112.027 Y123.496 E.01914
G1 X112.563 Y123.129 E.01915
G1 X113.137 Y122.826 E.01913
G1 X113.742 Y122.59 E.01914
G1 X114.37 Y122.425 E.01914
G1 X115.013 Y122.333 E.01914
G1 X115.644 Y122.315 E.01861
G1 X116.309 Y122.37 E.01967
G1 X116.946 Y122.499 E.01916
G1 X117.564 Y122.699 E.01914
G1 X118.155 Y122.969 E.01915
G1 X118.711 Y123.305 E.01915
G1 X119.225 Y123.701 E.01912
G1 X119.691 Y124.154 E.01915
G1 X120.102 Y124.657 E.01914
G1 X120.453 Y125.203 E.01913
G1 X120.74 Y125.786 E.01915
G1 X120.958 Y126.397 E.01912
G1 X121.101 Y127.012 E.01861
G1 X121.179 Y127.674 E.01965
G1 X121.179 Y128.325 E.01919
G1 X121.105 Y128.97 E.01913
G1 X120.958 Y129.603 E.01915
G1 X120.74 Y130.214 E.01912
G1 X120.453 Y130.797 E.01915
G1 X120.102 Y131.343 E.01913
G1 X119.691 Y131.846 E.01914
G1 X119.225 Y132.299 E.01915
G1 X118.711 Y132.695 E.01912
G1 X118.154 Y133.031 E.01917
G1 X117.564 Y133.301 E.01912
G1 X116.946 Y133.501 E.01914
G1 X116.31 Y133.63 E.01913
G1 X115.662 Y133.686 E.01917
G1 X115.013 Y133.667 E.01914
G1 X114.37 Y133.575 E.01914
G1 X113.742 Y133.41 E.01914
G1 X113.137 Y133.174 E.01914
G1 X112.563 Y132.871 E.01913
G1 X112.027 Y132.505 E.01913
G1 X111.536 Y132.079 E.01916
G1 X111.097 Y131.601 E.01913
G1 X110.715 Y131.075 E.01916
G1 X110.395 Y130.51 E.01914
G1 X110.143 Y129.912 E.01913
G1 X109.96 Y129.288 E.01917
G1 X109.849 Y128.648 E.01914
G1 X109.812 Y128 E.01913
G1 X109.849 Y127.352 E.01913
G1 X109.96 Y126.712 E.01914
G1 X110.143 Y126.088 E.01917
G1 X110.395 Y125.49 E.01913
G1 X110.715 Y124.925 E.01914
G1 X110.87 Y124.711 E.00779
G1 X111.211 Y124.884 F6000
;TYPE:External perimeter
G1 F1200
G1 X111.389 Y124.638 E.00895
G1 X111.799 Y124.192 E.01786
G1 X112.257 Y123.795 E.01786
G1 X112.758 Y123.452 E.0179
G1 X113.294 Y123.169 E.01786
G1 X113.859 Y122.949 E.01787
G1 X114.445 Y122.795 E.01786
G1 X115.046 Y122.709 E.01789
G1 X115.634 Y122.692 E.01734
G1 X116.255 Y122.743 E.01836
G1 X116.85 Y122.864 E.0179
G1 X117.427 Y123.051 E.01788
G1 X117.978 Y123.303 E.01786
G1 X118.497 Y123.616 E.01786
G1 X118.978 Y123.987 E.0179
G1 X119.412 Y124.409 E.01784
G1 X119.796 Y124.879 E.01789
G1 X120.124 Y125.389 E.01787
G1 X120.392 Y125.933 E.01787
G1 X120.595 Y126.504 E.01786
G1 X120.729 Y127.077 E.01734
G1 X120.802 Y127.696 E.01837
G1 X120.802 Y128.303 E.01789
G1 X120.733 Y128.906 E.01789
G1 X120.595 Y129.496 E.01786
G1 X120.392 Y130.067 E.01786
G1 X120.124 Y130.611 E.01787
G1 X119.796 Y131.121 E.01787
G1 X119.412 Y131.591 E.01789
G1 X118.978 Y132.013 E.01784
G1 X118.497 Y132.384 E.0179
G1 X117.978 Y132.697 E.01786
G1 X117.427 Y132.949 E.01786
G1 X116.85 Y133.136 E.01788
G1 X116.256 Y133.256 E.01786
G1 X115.652 Y133.308 E.01787
G1 X115.046 Y133.291 E.01787
G1 X114.445 Y133.205 E.01789
G1 X113.859 Y133.051 E.01786
G1 X113.294 Y132.831 E.01787
G1 X112.758 Y132.548 E.01786
G1 X112.257 Y132.205 E.0179
G1 X111.799 Y131.808 E.01786
G1 X111.389 Y131.362 E.01786
G1 X111.033 Y130.871 E.01787
G1 X110.734 Y130.343 E.01788
G1 X110.498 Y129.785 E.01786
G1 X110.328 Y129.203 E.01787
G1 X110.224 Y128.605 E.01789
G1 X110.189 Y128 E.01786
G1 X110.224 Y127.395 E.01786
G1 X110.328 Y126.797 E.01789
G1 X110.498 Y126.215 E.01787
G1 X110.734 Y125.657 E.01786
G1 X111.033 Y125.129 E.01788
G1 X111.175 Y124.932 E.00716
G1 X111.08 Y124.61 F6000
G1 E-1.12 F2400
;WIPE_START
G1 F4800
G1 X111.389 Y124.638 E-.17273
G1 X111.799 Y124.192 E-.28776
G1 X111.83 Y124.165 E-.01951
;WIPE_END
G1 X116.29 Y108.632 F6000
G1 E1.6 F2400
;TYPE:Perimeter
G1 F1200
G1 X115.662 Y108.686 E.01858
G1 X115.013 Y108.667 E.01914
G1 X114.37 Y108.575 E.01914
G1 X113.742 Y108.41 E.01914
G1 X113.154 Y108.181 E.0186
G1 X112.563 Y107.872 E.01966
G1 X112.027 Y107.505 E.01915
G1 X111.536 Y107.079 E.01916
G1 X111.097 Y106.601 E.01913
G1 X110.715 Y106.075 E.01916
G1 X110.395 Y105.51 E.01914
G1 X110.143 Y104.912 E.01913
G1 X109.96 Y104.288 E.01917
G1 X109.849 Y103.648 E.01914
G1 X109.812 Y103 E.01913
G1 X109.849 Y102.352 E.01913
G1 X109.96 Y101.712 E.01914
G1 X110.143 Y101.088 E.01917
G1 X110.388 Y100.507 E.01858
G1 X110.714 Y99.925 E.01966
G1 X111.097 Y99.399 E.01918
G1 X111.536 Y98.921 E.01913
G1 X112.027 Y98.496 E.01914
G1 X112.563 Y98.129 E.01915
G1 X113.137 Y97.826 E.01913
G1 X113.742 Y97.59 E.01914
G1 X114.37 Y97.425 E.01914
G1 X115.013 Y97.333 E.01914
G1 X115.644 Y97.315 E.01861
G1 X116.309 Y97.37 E.01967
G1 X116.946 Y97.499 E.01916
G1 X117.564 Y97.699 E.01914
G1 X118.155 Y97.969 E.01915
G1 X118.711 Y98.305 E.01915
G1 X119.225 Y98.701 E.01912
G1 X119.691 Y99.154 E.01915
G1 X120.102 Y99.657 E.01914
G1 X120.453 Y100.203 E.01913
G1 X120.74 Y100.786 E.01915
G1 X120.958 Y101.397 E.01912
G1 X121.101 Y102.012 E.01861
G1 X121.179 Y102.674 E.01965
G1 X121.179 Y103.325 E.01919
G1 X121.105 Y103.97 E.01913
G1 X120.958 Y104.603 E.01915
G1 X120.74 Y105.214 E.01912
G1 X120.453 Y105.797 E.01915
G1 X120.102 Y106.343 E.01913
G1 X119.691 Y106.846 E.01914
G1 X119.225 Y107.299 E.01915
G1 X118.711 Y107.695 E.01912
G1 X118.154 Y108.031 E.01917
G1 X117.564 Y108.301 E.01912
G1 X116.946 Y108.501 E.01914
G1 X116.349 Y108.622 E.01795
G1 X116.256 Y108.256 F6000
;TYPE:External perimeter
G1 F1200
G1 X115.652 Y108.308 E.01787
G1 X115.046 Y108.291 E.01787
G1 X114.445 Y108.205 E.01789
G1 X113.859 Y108.051 E.01786
G1 X113.31 Y107.837 E.01737
G1 X112.758 Y107.548 E.01836
G1 X112.257 Y107.205 E.0179
G1 X111.799 Y106.808 E.01786
G1 X111.389 Y106.362 E.01786
G1 X111.033 Y105.871 E.01787
G1 X110.734 Y105.343 E.01788
G1 X110.498 Y104.785 E.01786
G1 X110.328 Y104.203 E.01787
G1 X110.224 Y103.605 E.01789
G1 X110.189 Y103 E.01786
G1 X110.224 Y102.395 E.01786
G1 X110.328 Y101.797 E.01789
G1 X110.498 Y101.215 E.01787
G1 X110.728 Y100.673 E.01735
G1 X111.032 Y100.129 E.01837
G1 X111.389 Y99.638 E.01789
G1 X111.799 Y99.192 E.01786
G1 X112.257 Y98.795 E.01786
G1 X112.758 Y98.452 E.0179
G1 X113.294 Y98.169 E.01786
G1 X113.859 Y97.949 E.01787
G1 X114.445 Y97.795 E.01786
G1 X115.046 Y97.709 E.01789
G1 X115.634 Y97.692 E.01734
G1 X116.255 Y97.743 E.01836
G1 X116.85 Y97.864 E.0179
G1 X117.427 Y98.051 E.01788
G1 X117.978 Y98.303 E.01786
G1 X118.497 Y98.616 E.01786
G1 X118.978 Y98.987 E.0179
G1 X119.412 Y99.409 E.01784
G1 X119.796 Y99.879 E.01789
G1 X120.124 Y100.389 E.01787
G1 X120.392 Y100.933 E.01787
G1 X120.595 Y101.504 E.01786
G1 X120.729 Y102.077 E.01734
G1 X120.802 Y102.696 E.01837
G1 X120.802 Y103.303 E.01789
G1 X120.733 Y103.906 E.01789
G1 X120.595 Y104.496 E.01786
G1 X120.392 Y105.067 E.01786
G1 X120.124 Y105.611 E.01787
G1 X119.796 Y106.121 E.01787
G1 X119.412 Y106.591 E.01789
G1 X118.978 Y107.013 E.01784
G1 X118.497 Y107.384 E.0179
G1 X117.978 Y107.697 E.01786
G1 X117.427 Y107.949 E.01786
G1 X116.85 Y108.136 E.01788
G1 X116.315 Y108.245 E.01609
G1 X116.107 Y108.628 F6000
G1 E-1.12 F2400
;WIPE_START
G1 F4800
G1 X115.652 Y108.308 E-.31634
G1 X115.308 Y108.298 E-.16366
;WIPE_END
G1 X155.952 Y147.412 F6000
G1 E1.6 F2400
;TYPE:Perimeter
G1 F1200
G1 X156.658 Y148.417 E.0362
G1 X157.392 Y149.15 E.03057
G1 X170.189 Y159.888 E.49236
G1 X170.683 Y160.342 E.01977
G1 X171.125 Y160.828 E.01936
G1 X171.521 Y161.351 E.01933
G1 X171.869 Y161.907 E.01933
G1 X172.165 Y162.493 E.01935
G1 X172.408 Y163.102 E.01933
G1 X172.596 Y163.734 E.01943
G1 X172.725 Y164.374 E.01924
G1 X172.797 Y165.026 E.01933
G1 X172.81 Y165.682 E.01934
G1 X172.764 Y166.337 E.01935
G1 X172.66 Y166.985 E.01934
G1 X172.498 Y167.62 E.01931
G1 X172.28 Y168.239 E.01934
G1 X172.007 Y168.836 E.01935
G1 X171.682 Y169.406 E.01934
G1 X171.307 Y169.944 E.01933
G1 X170.885 Y170.447 E.01935
G1 X170.42 Y170.91 E.01934
G1 X169.915 Y171.329 E.01934
G1 X169.375 Y171.701 E.01933
G1 X168.803 Y172.024 E.01936
G1 X168.205 Y172.293 E.01933
G1 X167.586 Y172.509 E.01932
G1 X166.949 Y172.667 E.01934
G1 X166.301 Y172.768 E.01933
G1 X165.646 Y172.811 E.01935
G1 X164.99 Y172.794 E.01934
G1 X164.338 Y172.719 E.01934
G1 X163.696 Y172.586 E.01932
G1 X163.068 Y172.396 E.01934
G1 X162.459 Y172.15 E.01936
G1 X161.876 Y171.851 E.01931
G1 X161.321 Y171.5 E.01935
G1 X160.788 Y171.092 E.01978
G1 X149.17 Y161.344 E.44698
G1 X148.258 Y160.706 E.0328
G1 X147.262 Y160.238 E.03243
G1 X146.008 Y159.902 E.03826
G1 X144.941 Y159.809 E.03157
G1 X86.059 Y159.809 E1.73543
G1 X84.926 Y159.911 E.03353
G1 X83.8 Y160.212 E.03435
G1 X82.744 Y160.705 E.03435
G1 X81.861 Y161.319 E.0317
G1 X70.212 Y171.092 E.44816
G1 X69.679 Y171.5 E.01978
G1 X69.124 Y171.851 E.01935
G1 X68.541 Y172.15 E.01931
G1 X67.932 Y172.396 E.01936
G1 X67.304 Y172.586 E.01934
G1 X66.662 Y172.719 E.01932
G1 X66.01 Y172.794 E.01934
G1 X65.354 Y172.811 E.01934
G1 X64.699 Y172.768 E.01935
G1 X64.051 Y172.667 E.01933
G1 X63.414 Y172.509 E.01934
G1 X62.795 Y172.293 E.01932
G1 X62.197 Y172.024 E.01933
G1 X61.625 Y171.701 E.01936
G1 X61.085 Y171.329 E.01933
G1 X60.58 Y170.91 E.01934
G1 X60.115 Y170.447 E.01934
G1 X59.693 Y169.944 E.01935
G1 X59.317 Y169.403 E.01942
G1 X58.993 Y168.836 E.01925
G1 X58.72 Y168.239 E.01935
G1 X58.502 Y167.62 E.01934
G1 X58.34 Y166.985 E.01931
G1 X58.236 Y166.337 E.01934
G1 X58.19 Y165.682 E.01935
G1 X58.203 Y165.026 E.01934
G1 X58.275 Y164.374 E.01933
G1 X58.405 Y163.731 E.01933
G1 X58.592 Y163.102 E.01934
G1 X58.835 Y162.493 E.01933
G1 X59.131 Y161.907 E.01935
G1 X59.479 Y161.351 E.01933
G1 X59.875 Y160.828 E.01933
G1 X60.317 Y160.342 E.01936
G1 X60.811 Y159.888 E.01977
G1 X73.589 Y149.166 E.49162
G1 X74.398 Y148.351 E.03385
G1 X75.037 Y147.437 E.03287
G1 X75.544 Y146.35 E.03535
G1 X75.833 Y145.273 E.03287
G1 X75.939 Y144.106 E.03454
G1 X75.939 Y86.894 E1.68621
G1 X75.833 Y85.727 E.03454
G1 X75.544 Y84.65 E.03287
G1 X75.036 Y83.561 E.03542
G1 X74.342 Y82.583 E.03534
G1 X73.608 Y81.85 E.03057
G1 X60.811 Y71.112 E.49236
G1 X60.317 Y70.658 E.01977
G1 X59.875 Y70.172 E.01936
G1 X59.479 Y69.649 E.01933
G1 X59.131 Y69.093 E.01933
G1 X58.835 Y68.507 E.01935
G1 X58.592 Y67.898 E.01933
G1 X58.405 Y67.269 E.01934
G1 X58.275 Y66.626 E.01933
G1 X58.203 Y65.974 E.01933
G1 X58.19 Y65.318 E.01934
G1 X58.236 Y64.663 E.01935
G1 X58.34 Y64.015 E.01934
G1 X58.502 Y63.38 E.01931
G1 X58.721 Y62.758 E.01944
G1 X58.993 Y62.164 E.01926
G1 X59.318 Y61.594 E.01934
G1 X59.693 Y61.056 E.01933
G1 X60.115 Y60.553 E.01935
G1 X60.58 Y60.09 E.01934
G1 X61.085 Y59.671 E.01934
G1 X61.625 Y59.299 E.01933
G1 X62.197 Y58.977 E.01935
G1 X62.795 Y58.707 E.01934
G1 X63.414 Y58.491 E.01932
G1 X64.051 Y58.333 E.01934
G1 X64.699 Y58.232 E.01933
G1 X65.354 Y58.189 E.01935
G1 X66.01 Y58.206 E.01934
G1 X66.662 Y58.281 E.01934
G1 X67.304 Y58.414 E.01932
G1 X67.932 Y58.604 E.01934
G1 X68.541 Y58.85 E.01936
G1 X69.124 Y59.149 E.01931
G1 X69.679 Y59.5 E.01935
G1 X70.212 Y59.908 E.01978
