; generated by PrusaSlicer 2.6.1+win64 on 2023-09-20 at 11:42:54 UTC

; 

; external perimeters extrusion width = 0.42mm
; perimeters extrusion width = 0.44mm
; infill extrusion width = 0.44mm
; solid infill extrusion width = 0.44mm
; top infill extrusion width = 0.40mm
; first layer extrusion width = 0.42mm

;TYPE:Custom
; Ender 3 Custom Start G-code
G92 E0 ; Reset Extruder

M140 S55 ; set bed temp
M104 S160 ; set extruder temp
M109 S160 ; wait for extruder temp
M190 S55 ; wait for bed temp

G28 ; Home all axes
M104 S210 ; set extruder temp 
BED_MESH_CALIBRATE AREA_START=83.7684,88.5669 AREA_END=143.763,126.207

G1 Z2.0 F3000 ; Move Z Axis up little to prevent scratching of Heat Bed
M109 S210 ; wait for extruder temp
G1 X0.1 Y20 Z0.3 F5000.0 ; Move to start position

G1 X0.1 Y200.0 Z0.3 F1500.0 E15 ; Draw the first line
G1 X0.4 Y200.0 Z0.3 F5000.0 ; Move to side a little
G1 X0.4 Y20 Z0.3 F1500.0 E30 ; Draw the second line
G92 E0 ; Reset Extruder
G1 Z2.0 F3000 ; Move Z Axis up little to prevent scratching of Heat Bed
G1 X5 Y20 Z0.3 F5000.0 ; Move over to prevent blob squish
G21 ; set units to millimeters
G90 ; use absolute coordinates
M83 ; use relative distances for extrusion
; Filament gcode
M107
;LAYER_CHANGE
;Z:0.2
;HEIGHT:0.2
;BEFORE_LAYER_CHANGE
G92 E0
;0.2


G1 E-1.6 F2400
G1 Z.2 F6000
;AFTER_LAYER_CHANGE
;0.2
G1 X87.857 Y91.701
G1 E1.6 F2400
M204 S500
;TYPE:Skirt/Brim
;WIDTH:0.42
G1 F1200
G1 X88.725 Y90.996 E.03296
G1 X89.656 Y90.382 E.03287
G1 X91.322 Y89.564 E.0547
G1 X93.099 Y89.026 E.05472
G1 X94.721 Y88.79 E.04831
G1 X131.692 Y88.755 E1.08965
G1 X132.884 Y88.805 E.03516
G1 X133.843 Y88.938 E.02854
G1 X135.87 Y89.494 E.06195
G1 X137.7 Y90.365 E.05973
G1 X139.14 Y91.376 E.05186
G1 X140.583 Y92.775 E.05924
G1 X141.374 Y93.79 E.03793
G1 X141.835 Y94.519 E.02542
G1 X142.681 Y96.304 E.05822
G1 X143.24 Y98.341 E.06226
G1 X143.425 Y100.341 E.0592
G1 X143.575 Y114.341 E.41265
G1 X143.503 Y115.668 E.03917
G1 X143.296 Y116.888 E.03647
G1 X142.676 Y118.864 E.06104
G1 X141.69 Y120.733 E.06228
G1 X140.467 Y122.296 E.05849
G1 X139.688 Y123.064 E.03224
G1 X138.815 Y123.771 E.03311
G1 X137.173 Y124.778 E.05677
G1 X136.08 Y125.257 E.03517
G1 X134.281 Y125.783 E.05524
G1 X132.523 Y126.003 E.05222
G1 X95.078 Y126.009 E1.10362
G1 X93.39 Y125.81 E.0501
G1 X92.295 Y125.542 E.03323
G1 X91.185 Y125.153 E.03467
G1 X89.854 Y124.506 E.04362
G1 X88.8 Y123.835 E.03683
G1 X87.851 Y123.075 E.03583
G1 X86.76 Y121.96 E.04598
G1 X86.154 Y121.19 E.02888
G1 X85.328 Y119.862 E.04609
G1 X84.772 Y118.665 E.0389
G1 X84.319 Y117.276 E.04306
G1 X84.013 Y115.506 E.05294
G1 X83.957 Y114.505 E.02955
G1 X83.987 Y99.578 E.43994
G1 X84.339 Y97.433 E.06407
G1 X84.956 Y95.673 E.05497
G1 X85.359 Y94.854 E.0269
G1 X86.242 Y93.468 E.04844
G1 X86.875 Y92.684 E.0297
G1 X87.814 Y91.744 E.03916
G1 X88.08 Y92.01 F6000
G1 F1200
G1 X88.937 Y91.308 E.03265
G1 X89.836 Y90.714 E.03176
G1 X91.455 Y89.917 E.05319
G1 X92.992 Y89.437 E.04746
G1 X94.74 Y89.166 E.05213
G1 X131.692 Y89.133 E1.08909
G1 X133.767 Y89.308 E.06137
G1 X135.748 Y89.851 E.06054
G1 X137.509 Y90.69 E.05749
G1 X138.893 Y91.661 E.04983
G1 X140.304 Y93.029 E.05792
G1 X141.07 Y94.013 E.03675
G1 X141.565 Y94.802 E.02745
G1 X142.414 Y96.673 E.06056
G1 X142.882 Y98.473 E.05482
G1 X143.048 Y100.345 E.05539
G1 X143.198 Y114.345 E.41265
G1 X143.13 Y115.614 E.03745
G1 X142.924 Y116.824 E.03618
G1 X142.331 Y118.712 E.05833
G1 X141.369 Y120.534 E.06073
G1 X140.198 Y122.031 E.05602
G1 X139.594 Y122.642 E.02532
G1 X138.603 Y123.459 E.03785
G1 X136.981 Y124.453 E.05607
G1 X135.395 Y125.098 E.05046
G1 X134.218 Y125.411 E.0359
G1 X132.355 Y125.634 E.0553
G1 X95.105 Y125.633 E1.09787
G1 X93.449 Y125.437 E.04915
G1 X92.304 Y125.154 E.03476
G1 X91.337 Y124.807 E.03028
G1 X90.03 Y124.173 E.04281
G1 X89.019 Y123.528 E.03534
G1 X88.102 Y122.794 E.03462
G1 X87.039 Y121.706 E.04483
G1 X86.452 Y120.958 E.02802
G1 X85.657 Y119.676 E.04446
G1 X85.128 Y118.539 E.03696
G1 X84.684 Y117.182 E.04208
G1 X84.387 Y115.46 E.0515
G1 X84.334 Y114.505 E.02819
G1 X84.363 Y99.603 E.43921
G1 X84.7 Y97.541 E.06158
G1 X85.307 Y95.811 E.05404
G1 X85.705 Y95.004 E.02652
G1 X86.553 Y93.681 E.04632
G1 X87.156 Y92.934 E.02829
G1 X88.038 Y92.052 E.03676
G1 X88.304 Y92.318 F6000
G1 F1200
G1 X89.149 Y91.62 E.0323
G1 X90.029 Y91.037 E.03111
G1 X91.588 Y90.27 E.05121
G1 X93.208 Y89.774 E.04993
G1 X94.758 Y89.543 E.04619
G1 X131.692 Y89.51 E1.08856
G1 X133.69 Y89.677 E.05909
G1 X135.628 Y90.208 E.05922
G1 X137.318 Y91.015 E.0552
G1 X138.647 Y91.947 E.04784
G1 X140.013 Y93.269 E.05603
G1 X140.766 Y94.236 E.03612
G1 X141.237 Y94.988 E.02615
G1 X142.054 Y96.785 E.05818
G1 X142.512 Y98.545 E.0536
G1 X142.671 Y100.349 E.05338
G1 X142.821 Y114.349 E.41265
G1 X142.744 Y115.641 E.03815
G1 X142.521 Y116.917 E.03818
G1 X142.276 Y117.78 E.02644
G1 X141.409 Y119.75 E.06344
G1 X140.675 Y120.874 E.03957
G1 X140.018 Y121.672 E.03047
G1 X139.333 Y122.37 E.02882
G1 X138.39 Y123.147 E.03601
G1 X136.804 Y124.12 E.05484
G1 X135.27 Y124.742 E.04879
G1 X134.141 Y125.042 E.03443
G1 X132.345 Y125.257 E.05331
G1 X95.131 Y125.257 E1.09681
G1 X93.508 Y125.065 E.04817
G1 X92.409 Y124.792 E.03338
G1 X91.488 Y124.462 E.02883
G1 X90.206 Y123.839 E.04201
G1 X89.238 Y123.221 E.03385
G1 X88.306 Y122.47 E.03528
G1 X87.318 Y121.453 E.04179
G1 X86.76 Y120.741 E.02666
G1 X85.985 Y119.491 E.04335
G1 X85.483 Y118.413 E.03505
G1 X85.05 Y117.087 E.04111
G1 X84.761 Y115.415 E.05001
G1 X84.739 Y99.629 E.46526
G1 X85.061 Y97.651 E.05907
G1 X85.658 Y95.948 E.05319
G1 X86.04 Y95.178 E.02533
G1 X86.862 Y93.897 E.04486
G1 X87.438 Y93.185 E.02699
G1 X88.262 Y92.361 E.03435
; printing object Shape-Box id:0 copy 0
G1 E-1.12 F2400
;WIPE_START
G1 F4800
G1 X89.038 Y91.713 E-.48
;WIPE_END
G1 X115.02 Y106.865 F6000
G1 E1.6 F2400
;TYPE:Perimeter
G1 F1200
G1 X114.893 Y106.714 E.00582
G1 X115.04 Y106.715 E.00433
G1 X115.026 Y106.806 E.00271
G1 X113.399 Y106.022 F6000
G1 F1200
G1 X113.272 Y106.009 E.00376
G1 X113.015 Y106.023 E.00759
G1 X113.182 Y105.96 E.00526
G1 X113.352 Y105.985 E.00506
G1 E-1.12 F2400
;WIPE_START
G1 F4800
G1 X113.272 Y106.009 E-.03967
G1 X113.015 Y106.023 E-.12226
G1 X113.182 Y105.96 E-.08478
G1 X113.352 Y105.985 E-.08162
;WIPE_END
G1 E-.15167 F2400
G1 X117.369 Y106.023 F6000
G1 E1.6 F2400
G1 F1200
G1 X117.43 Y105.988 E.00207
G1 X117.554 Y105.959 E.00375
G1 X117.7 Y105.98 E.00435
G1 X117.754 Y106.022 E.00202
G1 X117.429 Y106.019 E.00958
G1 E-1.12 F2400
;WIPE_START
G1 F4800
G1 X117.43 Y105.988 E-.01473
G1 X117.554 Y105.959 E-.06049
G1 X117.7 Y105.98 E-.07006
G1 X117.754 Y106.022 E-.03249
G1 X117.429 Y106.019 E-.15438
;WIPE_END
G1 E-.14785 F2400
G1 X130.822 Y108.215 F6000
G1 E1.6 F2400
G1 F1200
G1 X130.837 Y108.064 E.00447
G1 X130.969 Y108.218 E.00598
G1 X130.882 Y108.217 E.00256
G1 X132.531 Y108.928 F6000
G1 F1200
G1 X132.85 Y108.916 E.00941
G1 X132.764 Y108.961 E.00286
G1 X132.657 Y108.977 E.00319
G1 X132.581 Y108.96 E.0023
G1 E-1.12 F2400
;WIPE_START
G1 F4800
G1 X132.85 Y108.916 E-.12947
G1 X132.764 Y108.961 E-.0461
G1 X132.657 Y108.977 E-.05139
G1 X132.581 Y108.96 E-.03699
;WIPE_END
G1 E-.21605 F2400
G1 X115.328 Y105.539 F6000
G1 E1.6 F2400
G1 F1200
G1 X115.614 Y105.032 E.01716
G1 X116.005 Y104.605 E.01706
G1 X116.482 Y104.288 E.01688
G1 X117.01 Y104.101 E.01651
G1 X117.426 Y104.044 E.01238
G1 X117.991 Y104.066 E.01666
G1 X118.389 Y104.162 E.01207
G1 X118.752 Y104.324 E.01172
G1 X119.079 Y104.557 E.01183
G1 X119.355 Y104.854 E.01195
G1 X119.565 Y105.204 E.01203
G1 X119.702 Y105.595 E.01221
G1 X119.871 Y106.72 E.03353
G1 X119.252 Y106.714 E.01824
G1 X119.496 Y106.989 E.01084
G1 X119.64 Y107.233 E.00835
G1 X119.799 Y107.658 E.01337
G1 X119.854 Y107.921 E.00792
G1 X119.891 Y108.397 E.01407
G1 X119.852 Y108.898 E.01481
G1 X119.73 Y109.372 E.01443
G1 X119.518 Y109.808 E.01429
G1 X119.22 Y110.19 E.01428
G1 X118.856 Y110.499 E.01407
G1 X118.442 Y110.723 E.01387
G1 X117.99 Y110.856 E.01389
G1 X117.521 Y110.899 E.01388
G1 X117.161 Y110.874 E.01064
G1 X116.808 Y110.797 E.01065
G1 X116.332 Y110.597 E.01522
G1 X115.892 Y110.285 E.0159
G1 X115.529 Y109.873 E.01618
G1 X115.317 Y109.472 E.01337
G1 X115.167 Y109.8 E.01063
G1 X114.867 Y110.188 E.01446
G1 X114.502 Y110.499 E.01413
G1 X114.088 Y110.723 E.01387
G1 X113.636 Y110.856 E.01389
G1 X113.156 Y110.9 E.01421
G1 X112.633 Y110.845 E.0155
G1 X112.135 Y110.678 E.01548
G1 X111.687 Y110.407 E.01543
G1 X111.409 Y110.158 E.011
G1 X111.171 Y109.867 E.01108
G1 X110.899 Y109.35 E.01722
G1 X110.639 Y109.88 E.0174
G1 X110.413 Y110.178 E.01102
G1 X110.14 Y110.441 E.01117
G1 X109.683 Y110.717 E.01573
G1 X109.311 Y110.837 E.01152
G1 X108.932 Y110.892 E.01129
G1 X108.469 Y110.884 E.01365
G1 X108.181 Y110.836 E.00861
G1 X107.895 Y110.75 E.0088
G1 X107.445 Y110.511 E.01502
G1 X107.219 Y110.326 E.00861
G1 X107.02 Y110.116 E.00853
G1 X106.737 Y109.683 E.01525
G1 X106.526 Y109.177 E.01616
G1 X106.382 Y108.594 E.0177
G1 X106.313 Y107.876 E.02126
G1 X106.318 Y106.978 E.02647
G1 X106.39 Y106.309 E.01983
G1 X106.533 Y105.72 E.01786
G1 X106.758 Y105.205 E.01656
G1 X107.071 Y104.758 E.01608
G1 X107.463 Y104.411 E.01543
G1 X107.658 Y104.293 E.00672
G1 X107.992 Y104.151 E.0107
G1 X108.351 Y104.068 E.01086
G1 X108.58 Y104.045 E.00678
G1 X109.004 Y104.05 E.0125
G1 X109.491 Y104.148 E.01464
G1 X109.945 Y104.355 E.01471
G1 X110.323 Y104.655 E.01422
G1 X110.505 Y104.86 E.00808
G1 X110.677 Y105.111 E.00897
G1 X110.822 Y105.39 E.00927
G1 X110.928 Y105.668 E.00877
G1 X111.06 Y105.361 E.00985
G1 X111.372 Y104.889 E.01668
G1 X111.652 Y104.607 E.01171
G1 X111.973 Y104.375 E.01167
G1 X112.482 Y104.146 E.01645
G1 X113.06 Y104.043 E.0173
G1 X113.637 Y104.066 E.01702
G1 X114.035 Y104.162 E.01207
G1 X114.398 Y104.324 E.01172
G1 X114.725 Y104.557 E.01183
G1 X115.001 Y104.854 E.01195
G1 X115.211 Y105.204 E.01203
G1 X115.308 Y105.482 E.00868
G1 X115.078 Y106.338 F6000
;TYPE:External perimeter
G1 F1200
G1 X113.945 Y106.327 E.03339
G1 X113.894 Y106.085 E.00729
G1 X113.698 Y105.776 E.01078
G1 X113.532 Y105.648 E.00618
G1 X113.46 Y105.616 E.00232
G1 X113.216 Y105.58 E.00727
G1 X113.124 Y105.586 E.00272
G1 X112.931 Y105.635 E.00587
G1 X112.763 Y105.733 E.00573
G1 X112.61 Y105.865 E.00596
G1 X112.385 Y106.174 E.01127
G1 X112.324 Y106.293 E.00394
G1 X112.219 Y106.78 E.01468
G1 X112.416 Y106.65 E.00696
G1 X112.792 Y106.469 E.0123
G1 X113.021 Y106.4 E.00705
G1 X113.263 Y106.387 E.00714
G1 X113.469 Y106.408 E.0061
G1 X113.958 Y106.567 E.01516
G1 X114.234 Y106.721 E.00932
G1 X114.404 Y106.79 E.00541
G1 X114.58 Y106.927 E.00657
G1 X114.829 Y107.224 E.01142
G1 X114.933 Y107.417 E.00646
G1 X115.037 Y107.799 E.01167
G1 X115.1 Y108.6 E.02368
G1 X115.068 Y109.021 E.01244
G1 X115.01 Y109.236 E.00656
G1 X114.842 Y109.604 E.01192
G1 X114.593 Y109.927 E.01202
G1 X114.287 Y110.186 E.01182
G1 X113.943 Y110.373 E.01154
G1 X113.565 Y110.484 E.01161
G1 X113.159 Y110.521 E.01202
G1 X112.714 Y110.474 E.01319
G1 X112.295 Y110.334 E.01302
G1 X111.912 Y110.103 E.01318
G1 X111.682 Y109.897 E.0091
G1 X111.485 Y109.656 E.00917
G1 X111.263 Y109.247 E.01372
G1 X111.2 Y109.075 E.0054
G1 X111.117 Y108.713 E.01095
G1 X111.091 Y108.3 E.0122
G1 X111.1 Y106.891 E.04153
G1 X111.122 Y106.452 E.01295
G1 X111.195 Y106.056 E.01187
G1 X111.253 Y105.867 E.00583
G1 X111.393 Y105.541 E.01046
G1 X111.666 Y105.128 E.01459
G1 X111.898 Y104.894 E.00971
G1 X112.162 Y104.703 E.0096
G1 X112.594 Y104.509 E.01396
G1 X113.086 Y104.421 E.01473
G1 X113.585 Y104.441 E.01472
G1 X113.913 Y104.52 E.00994
G1 X114.21 Y104.653 E.00959
G1 X114.475 Y104.842 E.00959
G1 X114.698 Y105.082 E.00966
G1 X114.868 Y105.365 E.00973
G1 X114.98 Y105.686 E.01002
G1 X115.069 Y106.279 E.01767
G1 X115.104 Y106.737 F6000
G1 E-1.12 F2400
;WIPE_START
G1 F4800
G1 X114.059 Y106.322 E-.48
;WIPE_END
G1 X110.13 Y109.927 F6000
G1 E1.6 F2400
G1 F1200
G1 X109.909 Y110.14 E.00905
G1 X109.525 Y110.371 E.01321
G1 X109.225 Y110.468 E.00929
G1 X108.907 Y110.515 E.00947
G1 X108.504 Y110.508 E.01188
G1 X108.267 Y110.468 E.00708
G1 X108.039 Y110.4 E.00701
G1 X107.655 Y110.195 E.01283
G1 X107.476 Y110.05 E.00679
G1 X107.318 Y109.882 E.0068
G1 X107.071 Y109.505 E.01328
G1 X106.885 Y109.058 E.01427
G1 X106.755 Y108.531 E.016
G1 X106.69 Y107.859 E.0199
G1 X106.695 Y106.999 E.02535
G1 X106.763 Y106.374 E.01853
G1 X106.892 Y105.841 E.01616
G1 X107.088 Y105.39 E.01449
G1 X107.355 Y105.011 E.01366
G1 X107.688 Y104.716 E.01311
G1 X107.83 Y104.629 E.00491
G1 X108.109 Y104.511 E.00893
G1 X108.412 Y104.441 E.00917
G1 X108.596 Y104.422 E.00545
G1 X108.964 Y104.427 E.01085
G1 X109.375 Y104.509 E.01235
G1 X109.746 Y104.679 E.01203
G1 X110.063 Y104.93 E.01192
G1 X110.207 Y105.093 E.00641
G1 X110.353 Y105.305 E.00759
G1 X110.477 Y105.545 E.00796
G1 X110.579 Y105.81 E.00837
G1 X110.655 Y106.1 E.00884
G1 X110.705 Y106.417 E.00946
G1 X110.721 Y106.754 E.00994
G1 X110.708 Y108.342 E.0468
G1 X110.674 Y108.739 E.01174
G1 X110.535 Y109.251 E.01564
G1 X110.318 Y109.679 E.01414
G1 X110.167 Y109.879 E.00739
G1 X110.231 Y110.217 F6000
G1 E-1.12 F2400
;WIPE_START
G1 F4800
G1 X109.909 Y110.14 E-.17432
G1 X109.525 Y110.371 E-.21286
G1 X109.339 Y110.431 E-.09282
;WIPE_END
G1 X116.573 Y106.78 F6000
G1 E1.6 F2400
G1 F1200
G1 X116.77 Y106.65 E.00696
G1 X117.146 Y106.469 E.0123
G1 X117.375 Y106.4 E.00705
G1 X117.618 Y106.387 E.00717
G1 X117.823 Y106.408 E.00607
G1 X118.313 Y106.567 E.01518
G1 X118.588 Y106.721 E.00929
G1 X118.758 Y106.789 E.0054
G1 X118.933 Y106.922 E.00648
G1 X119.19 Y107.212 E.01142
G1 X119.298 Y107.396 E.00629
G1 X119.436 Y107.763 E.01156
G1 X119.48 Y107.975 E.00638
G1 X119.513 Y108.397 E.01248
G1 X119.479 Y108.836 E.01298
G1 X119.374 Y109.241 E.01233
G1 X119.197 Y109.607 E.01198
G1 X118.947 Y109.927 E.01197
G1 X118.642 Y110.186 E.01179
G1 X118.297 Y110.373 E.01157
G1 X117.919 Y110.484 E.01161
G1 X117.517 Y110.52 E.0119
G1 X117.214 Y110.5 E.00895
G1 X116.921 Y110.436 E.00884
G1 X116.516 Y110.266 E.01295
G1 X116.145 Y110.003 E.0134
G1 X115.841 Y109.657 E.01357
G1 X115.62 Y109.237 E.01399
G1 X115.518 Y108.892 E.0106
G1 X115.384 Y107.367 E.04512
G1 X115.397 Y106.872 E.01459
G1 X115.495 Y106.233 E.01905
G1 X115.67 Y105.7 E.01653
G1 X115.921 Y105.254 E.01508
G1 X116.252 Y104.893 E.01444
G1 X116.652 Y104.628 E.01414
G1 X117.099 Y104.47 E.01397
G1 X117.445 Y104.422 E.0103
G1 X117.939 Y104.441 E.01457
G1 X118.267 Y104.52 E.00994
G1 X118.564 Y104.653 E.00959
G1 X118.829 Y104.842 E.00959
G1 X119.052 Y105.082 E.00966
G1 X119.222 Y105.365 E.00973
G1 X119.334 Y105.686 E.01002
G1 X119.432 Y106.338 E.01943
G1 X118.299 Y106.327 E.03339
G1 X118.248 Y106.085 E.00729
G1 X118.052 Y105.776 E.01078
G1 X117.887 Y105.648 E.00615
G1 X117.814 Y105.616 E.00235
G1 X117.57 Y105.58 E.00727
G1 X117.478 Y105.586 E.00272
G1 X117.285 Y105.635 E.00587
G1 X117.117 Y105.733 E.00573
G1 X116.964 Y105.865 E.00596
G1 X116.74 Y106.174 E.01125
G1 X116.678 Y106.293 E.00395
G1 X116.586 Y106.722 E.01293
G1 X116.733 Y106.607 F6000
G1 E-1.12 F2400
;WIPE_START
G1 F4800
G1 X116.77 Y106.65 E-.09385
G1 X117.146 Y106.469 E-.19822
G1 X117.375 Y106.4 E-.11361
G1 X117.531 Y106.392 E-.07432
;WIPE_END
G1 X104.516 Y108.794 F6000
G1 E1.6 F2400
;TYPE:Perimeter
G1 F1200
G1 X104.516 Y110.805 E.05927
G1 X99.666 Y110.805 E.14294
G1 X99.666 Y109.353 E.04279
G1 X100.191 Y108.728 E.02406
G1 X100.418 Y108.404 E.01166
G1 X100.651 Y108.031 E.01296
G1 X100.991 Y107.396 E.02123
G1 X101.182 Y106.973 E.01368
G1 X101.345 Y106.548 E.01342
G1 X101.567 Y105.795 E.02314
G1 X101.682 Y105.124 E.02006
G1 X101.774 Y104.132 E.02936
G1 X103.813 Y104.132 E.0601
G1 X103.72 Y105.417 E.03797
G1 X103.605 Y106.067 E.01945
G1 X103.353 Y107.002 E.02854
G1 X103.179 Y107.483 E.01508
G1 X102.979 Y107.95 E.01497
G1 X102.741 Y108.416 E.01542
G1 X102.471 Y108.832 E.01462
G1 X102.932 Y108.803 E.01361
G1 X104.456 Y108.795 E.04492
G1 X104.139 Y109.173 F6000
;TYPE:External perimeter
G1 F1200
G1 X104.139 Y110.428 E.03699
G1 X100.043 Y110.428 E.12072
G1 X100.043 Y109.491 E.02762
G1 X100.49 Y108.958 E.0205
G1 X100.977 Y108.22 E.02606
G1 X101.33 Y107.563 E.02198
G1 X101.53 Y107.118 E.01438
G1 X101.703 Y106.669 E.01418
G1 X101.935 Y105.88 E.02424
G1 X102.056 Y105.173 E.02114
G1 X102.118 Y104.509 E.01966
