; generated by PrusaSlicer 2.7.4+win64 on 2024-04-21 at 22:59:06 UTC

; 

; external perimeters extrusion width = 0.42mm
; perimeters extrusion width = 0.44mm
; infill extrusion width = 0.44mm
; solid infill extrusion width = 0.44mm
; top infill extrusion width = 0.40mm
; first layer extrusion width = 0.42mm


; printing object Shape-Box id:0 copy 0
; stop printing object Shape-Box id:0 copy 0

;TYPE:Custom
; Ender 3 Custom Start G-code
G92 E0 ; Reset Extruder

M140 S55 ; set bed temp
M104 S160 ; set extruder temp
M109 S160 ; wait for extruder temp
M190 S55 ; wait for bed temp

G28 ; Home all axes
M104 S210 ; set extruder temp 
BED_MESH_CALIBRATE AREA_START=83.7684,88.5669 AREA_END=143.763,126.207

G1 Z2.0 F3000 ; Move Z Axis up little to prevent scratching of Heat Bed
M109 S210 ; wait for extruder temp
G1 X0.1 Y20 Z0.3 F5000.0 ; Move to start position

G1 X0.1 Y200.0 Z0.3 F1500.0 E15 ; Draw the first line
G1 X0.4 Y200.0 Z0.3 F5000.0 ; Move to side a little
G1 X0.4 Y20 Z0.3 F1500.0 E30 ; Draw the second line
G92 E0 ; Reset Extruder
G1 Z2.0 F3000 ; Move Z Axis up little to prevent scratching of Heat Bed
G1 X5 Y20 Z0.3 F5000.0 ; Move over to prevent blob squish
G21 ; set units to millimeters
G90 ; use absolute coordinates
M83 ; use relative distances for extrusion
; Filament gcode
M107
;LAYER_CHANGE
;Z:0.2
;HEIGHT:0.2
G1 E-1.6 F2400
G1 Z.2 F6000
G1 X87.857 Y91.701
G1 Z.2
G1 E1.6 F2400
M204 S500
;TYPE:Skirt/Brim
;WIDTH:0.42
G1 F1200
G1 X88.725 Y90.996 E.03506
G1 X89.656 Y90.382 E.03497
G1 X91.322 Y89.564 E.05819
G1 X93.099 Y89.026 E.05821
G1 X94.721 Y88.79 E.05139
G1 X132.884 Y88.805 E1.19657
G1 X133.843 Y88.938 E.03036
G1 X135.87 Y89.494 E.0659
G1 X137.7 Y90.365 E.06355
G1 X139.14 Y91.376 E.05517
G1 X140.583 Y92.775 E.06302
G1 X141.374 Y93.79 E.04035
G1 X141.835 Y94.519 E.02704
G1 X142.681 Y96.304 E.06194
G1 X143.24 Y98.341 E.06623
G1 X143.425 Y100.341 E.06298
G1 X143.575 Y114.341 E.43899
G1 X143.503 Y115.668 E.04167
G1 X143.296 Y116.888 E.0388
G1 X142.676 Y118.864 E.06493
G1 X141.69 Y120.733 E.06626
G1 X140.467 Y122.296 E.06223
G1 X139.688 Y123.064 E.0343
G1 X138.815 Y123.771 E.03522
G1 X137.173 Y124.778 E.06039
G1 X136.08 Y125.257 E.03742
G1 X134.281 Y125.783 E.05877
G1 X132.523 Y126.003 E.05555
G1 X95.078 Y126.009 E1.17406
G1 X93.39 Y125.81 E.05329
G1 X92.295 Y125.542 E.03535
G1 X91.185 Y125.153 E.03688
G1 X89.854 Y124.506 E.0464
G1 X88.8 Y123.835 E.03918
G1 X87.851 Y123.075 E.03812
G1 X86.76 Y121.96 E.04891
G1 X86.154 Y121.19 E.03072
G1 X85.328 Y119.862 E.04904
G1 X84.772 Y118.665 E.04138
G1 X84.319 Y117.276 E.04581
G1 X84.013 Y115.506 E.05632
G1 X83.957 Y114.505 E.03143
G1 X83.987 Y99.578 E.46803
G1 X84.339 Y97.433 E.06815
G1 X84.956 Y95.673 E.05848
G1 X85.359 Y94.854 E.02862
G1 X86.242 Y93.468 E.05153
G1 X86.875 Y92.684 E.03159
G1 X87.814 Y91.744 E.04166
G1 X87.814 Y91.744 F6000
G1 X88.08 Y92.01
G1 F1200
G1 X88.109 Y91.982 E.00126
G1 X88.937 Y91.308 E.03348
G1 X89.836 Y90.714 E.03378
G1 X91.455 Y89.917 E.05658
G1 X92.992 Y89.437 E.05049
G1 X94.74 Y89.166 E.05546
G1 X131.692 Y89.133 E1.1586
G1 X133.767 Y89.308 E.06529
G1 X135.748 Y89.851 E.0644
G1 X137.509 Y90.69 E.06116
G1 X138.893 Y91.661 E.05301
G1 X140.304 Y93.029 E.06162
G1 X141.07 Y94.013 E.0391
G1 X141.565 Y94.802 E.0292
G1 X142.414 Y96.673 E.06442
G1 X142.882 Y98.473 E.05831
G1 X143.048 Y100.345 E.05893
G1 X143.198 Y114.345 E.43899
G1 X143.13 Y115.614 E.03985
G1 X142.924 Y116.824 E.03848
G1 X142.331 Y118.712 E.06205
G1 X141.369 Y120.534 E.0646
G1 X140.198 Y122.031 E.05959
G1 X139.594 Y122.642 E.02694
G1 X138.603 Y123.459 E.04027
G1 X136.981 Y124.453 E.05965
G1 X135.395 Y125.098 E.05368
G1 X134.218 Y125.411 E.03819
G1 X132.355 Y125.634 E.05883
G1 X95.105 Y125.633 E1.16795
G1 X93.449 Y125.437 E.05229
G1 X92.304 Y125.154 E.03698
G1 X91.337 Y124.807 E.03221
G1 X90.03 Y124.173 E.04555
G1 X89.019 Y123.528 E.0376
G1 X88.102 Y122.794 E.03683
G1 X87.039 Y121.706 E.04769
G1 X86.452 Y120.958 E.02981
G1 X85.657 Y119.676 E.0473
G1 X85.128 Y118.539 E.03932
G1 X84.684 Y117.182 E.04477
G1 X84.387 Y115.46 E.05479
G1 X84.334 Y114.505 E.02999
G1 X84.363 Y99.603 E.46724
G1 X84.7 Y97.541 E.06551
G1 X85.307 Y95.811 E.05748
G1 X85.705 Y95.004 E.02821
G1 X86.553 Y93.681 E.04927
G1 X87.156 Y92.934 E.0301
G1 X88.038 Y92.052 E.03911
G1 X88.038 Y92.052 F6000
G1 X88.304 Y92.318
G1 F1200
G1 X88.361 Y92.262 E.00251
G1 X89.149 Y91.62 E.03187
G1 X90.029 Y91.037 E.0331
G1 X91.588 Y90.27 E.05448
G1 X93.208 Y89.774 E.05312
G1 X94.758 Y89.543 E.04914
G1 X131.692 Y89.51 E1.15804
G1 X133.69 Y89.677 E.06286
G1 X135.628 Y90.208 E.063
G1 X137.318 Y91.015 E.05872
G1 X138.647 Y91.947 E.0509
G1 X140.013 Y93.269 E.0596
G1 X140.766 Y94.236 E.03843
G1 X141.237 Y94.988 E.02782
G1 X142.054 Y96.785 E.06189
G1 X142.512 Y98.545 E.05702
G1 X142.671 Y100.349 E.05678
G1 X142.821 Y114.349 E.43899
G1 X142.744 Y115.641 E.04058
G1 X142.521 Y116.917 E.04061
G1 X142.276 Y117.78 E.02813
G1 X141.409 Y119.75 E.06749
G1 X140.675 Y120.874 E.04209
G1 X140.018 Y121.672 E.03241
G1 X139.333 Y122.37 E.03066
G1 X138.39 Y123.147 E.03831
G1 X136.804 Y124.12 E.05834
G1 X135.27 Y124.742 E.0519
G1 X134.141 Y125.042 E.03663
G1 X132.345 Y125.257 E.05671
G1 X95.131 Y125.257 E1.16682
G1 X93.508 Y125.065 E.05124
G1 X92.409 Y124.792 E.03551
G1 X91.488 Y124.462 E.03068
G1 X90.206 Y123.839 E.04469
G1 X89.238 Y123.221 E.03601
G1 X88.306 Y122.47 E.03753
G1 X87.318 Y121.453 E.04446
G1 X86.76 Y120.741 E.02836
G1 X85.985 Y119.491 E.04611
G1 X85.483 Y118.413 E.03729
G1 X85.05 Y117.087 E.04374
G1 X84.761 Y115.415 E.0532
G1 X84.739 Y99.629 E.49496
G1 X85.061 Y97.651 E.06284
G1 X85.658 Y95.948 E.05658
G1 X86.04 Y95.178 E.02695
G1 X86.862 Y93.897 E.04772
G1 X87.438 Y93.185 E.02871
G1 X88.262 Y92.361 E.03654
G1 E-1.12 F2400
;WIPE_START
G1 F4800
G1 X88.304 Y92.318 E-.02855
G1 X88.361 Y92.262 E-.03796
G1 X89.036 Y91.712 E-.41349
;WIPE_END
; printing object Shape-Box id:0 copy 0
G1 X99.149 Y112.088 F6000
G1 E1.6 F2400
;TYPE:Perimeter
G1 F1200
G1 X99.197 Y112.044 E.00204
G1 X99.334 Y112.004 E.00447
G1 X99.513 Y112.021 E.00564
G1 X99.64 Y112.09 E.00453
G1 X99.698 Y112.151 E.00264
G1 X99.773 Y112.306 E.0054
G1 X99.792 Y112.573 E.00839
G1 X99.769 Y112.718 E.0046
G1 X99.73 Y112.829 E.00369
G1 X99.603 Y113.002 E.00673
G1 X99.468 Y113.086 E.00499
G1 X99.329 Y113.101 E.00438
G1 X99.218 Y113.064 E.00367
G1 X99.159 Y113.02 E.00231
G1 X99.053 Y112.874 E.00566
G1 X98.996 Y112.626 E.00798
G1 X99.017 Y112.312 E.00987
G1 X99.093 Y112.138 E.00595
G1 X99.105 Y112.128 E.00049
G1 X99.105 Y112.128 F6000
G1 X98.893 Y111.798
;TYPE:External perimeter
G1 F1200
G1 X99.012 Y111.713 E.00459
G1 X99.145 Y111.657 E.00452
G1 X99.298 Y111.627 E.00489
G1 X99.46 Y111.627 E.00508
G1 X99.621 Y111.657 E.00513
G1 X99.759 Y111.714 E.00468
G1 X99.885 Y111.801 E.0048
G1 X99.997 Y111.918 E.00508
G1 X100.082 Y112.054 E.00503
G1 X100.14 Y112.209 E.00519
G1 X100.169 Y112.39 E.00575
G1 X100.169 Y112.603 E.00668
G1 X100.137 Y112.81 E.00657
G1 X100.074 Y112.989 E.00595
G1 X99.981 Y113.146 E.00572
G1 X99.859 Y113.281 E.00571
G1 X99.727 Y113.381 E.00519
G1 X99.59 Y113.445 E.00474
G1 X99.443 Y113.477 E.00472
G1 X99.29 Y113.478 E.0048
G1 X99.151 Y113.448 E.00446
G1 X99.023 Y113.39 E.00441
G1 X98.903 Y113.299 E.00472
G1 X98.793 Y113.176 E.00517
G1 X98.708 Y113.03 E.0053
G1 X98.65 Y112.858 E.00569
G1 X98.619 Y112.654 E.00647
G1 X98.619 Y112.427 E.00712
G1 X98.649 Y112.224 E.00643
G1 X98.705 Y112.055 E.00558
G1 X98.787 Y111.914 E.00511
G1 X98.852 Y111.843 E.00302
G1 X98.852 Y111.843 F6000
G1 X99.273 Y112.148
;TYPE:Solid infill
;WIDTH:0.439093
G1 F1200
G1 X99.488 Y112.382 E.01047
G1 X99.5 Y112.561 E.00591
G1 X99.471 Y112.692 E.00442
G1 X99.369 Y112.804 E.00499
G1 X99.122 Y112.557 E.01151
G1 E-1.12 F2400
;WIPE_START
G1 F4800
G1 X99.369 Y112.804 E-.16592
G1 X99.471 Y112.692 E-.07196
G1 X99.5 Y112.561 E-.06373
G1 X99.488 Y112.382 E-.08522
G1 X99.355 Y112.237 E-.09317
;WIPE_END
G1 X114.145 Y111.025 F6000
G1 E1.6 F2400
;TYPE:Perimeter
;WIDTH:0.42
G1 F1200
G1 X113.99 Y111.174 E.00674
G1 X113.81 Y111.254 E.00618
G1 X113.677 Y111.257 E.00417
G1 X113.495 Y111.205 E.00593
G1 X113.387 Y111.071 E.0054
G1 X113.348 Y110.9 E.0055
G1 X113.356 Y110.662 E.00747
G1 X113.404 Y110.501 E.00527
G1 X113.476 Y110.392 E.0041
G1 X113.56 Y110.323 E.00341
G1 X113.656 Y110.287 E.00321
G1 X113.774 Y110.285 E.0037
G1 X113.863 Y110.322 E.00302
G1 X113.95 Y110.44 E.0046
G1 X114.126 Y110.968 E.01745
G1 E-1.12 F2400
;WIPE_START
G1 F4800
G1 X114.145 Y111.025 E-.02854
G1 X113.99 Y111.174 E-.10213
G1 X113.81 Y111.254 E-.09356
G1 X113.677 Y111.257 E-.06319
G1 X113.495 Y111.205 E-.08991
G1 X113.387 Y111.071 E-.08175
G1 X113.377 Y111.028 E-.02092
;WIPE_END
G1 X112.361 Y112.839 F6000
G1 E1.6 F2400
G1 F1200
G1 X111.604 Y112.836 E.02374
G1 X111.713 Y112.194 E.02042
G1 X111.798 Y112.331 E.00506
G1 X111.971 Y112.528 E.00822
G1 X112.314 Y112.801 E.01375
G1 E-1.12 F2400
;WIPE_START
G1 F4800
G1 X112.361 Y112.839 E-.02871
G1 X111.604 Y112.836 E-.35958
G1 X111.636 Y112.646 E-.09171
;WIPE_END
G1 X110.081 Y111.025 F6000
G1 E1.6 F2400
G1 F1200
G1 X109.915 Y111.184 E.00721
G1 X109.81 Y111.237 E.00369
G1 X109.663 Y111.258 E.00466
G1 X109.517 Y111.239 E.00462
G1 X109.384 Y111.165 E.00477
G1 X109.314 Y111.051 E.00419
G1 X109.292 Y110.965 E.00278
G1 X109.284 Y110.734 E.00725
G1 X109.321 Y110.546 E.00601
G1 X109.385 Y110.425 E.00429
G1 X109.469 Y110.341 E.00372
G1 X109.6 Y110.285 E.00447
G1 X109.724 Y110.289 E.00389
G1 X109.833 Y110.356 E.00401
G1 X109.882 Y110.428 E.00273
G1 X110.062 Y110.968 E.01785
G1 E-1.12 F2400
;WIPE_START
G1 F4800
G1 X110.081 Y111.025 E-.02854
G1 X109.915 Y111.184 E-.10918
G1 X109.81 Y111.237 E-.05587
G1 X109.663 Y111.258 E-.07053
G1 X109.517 Y111.239 E-.06993
G1 X109.384 Y111.165 E-.0723
G1 X109.314 Y111.051 E-.06354
G1 X109.309 Y111.03 E-.01011
;WIPE_END
G1 X111.419 Y104.436 F6000
G1 E1.6 F2400
G1 F1200
G1 X111.444 Y104.104 E.01044
G1 X111.469 Y104.131 E.00115
G1 X111.856 Y104.437 E.01547
G1 X111.479 Y104.436 E.01182
G1 E-1.12 F2400
;WIPE_START
G1 F4800
G1 X111.419 Y104.436 E-.0285
G1 X111.444 Y104.104 E-.15815
G1 X111.469 Y104.131 E-.01748
G1 X111.856 Y104.437 E-.23435
G1 X111.769 Y104.437 E-.04152
;WIPE_END
G1 X112.847 Y102.399 F6000
G1 E1.6 F2400
G1 F1200
G1 X112.852 Y102.26 E.00436
G1 X112.9 Y102.099 E.00527
G1 X112.972 Y101.991 E.00407
G1 X113.106 Y101.895 E.00517
G1 X113.283 Y101.888 E.00555
G1 X113.359 Y101.921 E.0026
G1 X113.445 Y102.038 E.00455
G1 X113.64 Y102.623 E.01933
G1 X113.485 Y102.772 E.00674
G1 X113.306 Y102.853 E.00616
G1 X113.173 Y102.856 E.00417
G1 X112.991 Y102.803 E.00594
G1 X112.883 Y102.669 E.0054
G1 X112.843 Y102.499 E.00548
G1 X112.845 Y102.459 E.00126
G1 E-1.12 F2400
;WIPE_START
G1 F4800
G1 X112.847 Y102.399 E-.02852
G1 X112.852 Y102.26 E-.06607
G1 X112.9 Y102.099 E-.0798
G1 X112.972 Y101.991 E-.06165
G1 X113.106 Y101.895 E-.0783
G1 X113.283 Y101.888 E-.08414
G1 X113.359 Y101.921 E-.03936
G1 X113.412 Y101.993 E-.04216
;WIPE_END
G1 X115.5 Y102.034 F6000
G1 E1.6 F2400
G1 F1200
G1 X116.469 Y102.022 E.03038
G1 X116.249 Y102.192 E.00872
G1 X115.865 Y102.549 E.01644
G1 X115.513 Y102.942 E.01654
G1 X115.411 Y103.094 E.00574
G1 X115.484 Y102.705 E.01241
G1 X115.578 Y102.697 E.00296
G1 X115.507 Y102.094 E.01904
G1 E-1.12 F2400
;WIPE_START
G1 F4800
G1 X115.5 Y102.034 E-.02869
G1 X116.45 Y102.023 E-.45131
;WIPE_END
G1 X116.983 Y104.39 F6000
G1 E1.6 F2400
G1 F1200
G1 X117.082 Y104.161 E.00782
G1 X117.265 Y103.929 E.00926
G1 X117.585 Y103.613 E.0141
G1 X117.5 Y104.454 E.0265
G1 X117.475 Y104.51 E.00192
G1 X117.389 Y104.579 E.00346
G1 X117.233 Y104.602 E.00494
G1 X117.148 Y104.596 E.00267
G1 X117.074 Y104.571 E.00245
G1 X117.004 Y104.511 E.00289
G1 X116.994 Y104.449 E.00197
G1 E-1.12 F2400
;WIPE_START
G1 F4800
G1 X116.983 Y104.39 E-.02851
G1 X117.082 Y104.161 E-.1185
G1 X117.265 Y103.929 E-.14036
G1 X117.553 Y103.644 E-.19263
;WIPE_END
G1 X125.204 Y102.591 F6000
G1 E1.6 F2400
G1 F1200
G1 X125.172 Y102.554 E.00153
G1 X125.174 Y102.554 E.00006
G1 E-1.12 F2400
;WIPE_START
G1 F4800
G1 X125.204 Y102.591 E-.02263
G1 X125.172 Y102.554 E-.02324
G1 X125.174 Y102.554 E-.00095
;WIPE_END
G1 E-.43318 F2400
G1 X132.516 Y111.025 F6000
G1 E1.6 F2400
G1 F1200
G1 X132.361 Y111.174 E.00674
G1 X132.182 Y111.254 E.00615
G1 X132.049 Y111.257 E.00417
G1 X131.866 Y111.205 E.00596
G1 X131.759 Y111.071 E.00538
G1 X131.719 Y110.9 E.00551
G1 X131.728 Y110.662 E.00747
G1 X131.775 Y110.501 E.00526
G1 X131.847 Y110.392 E.0041
G1 X131.932 Y110.323 E.00343
G1 X132.028 Y110.287 E.00321
G1 X132.145 Y110.285 E.00367
G1 X132.234 Y110.322 E.00302
G1 X132.321 Y110.44 E.0046
G1 X132.497 Y110.968 E.01745
G1 E-1.12 F2400
;WIPE_START
G1 F4800
G1 X132.516 Y111.025 E-.02854
G1 X132.361 Y111.174 E-.10213
G1 X132.182 Y111.254 E-.09313
G1 X132.049 Y111.257 E-.06319
G1 X131.866 Y111.205 E-.09037
G1 X131.759 Y111.071 E-.08145
G1 X131.749 Y111.028 E-.02119
;WIPE_END
G1 X115.813 Y109.696 F6000
G1 E1.6 F2400
G1 F1200
G1 X115.894 Y109.508 E.00642
G1 X116.238 Y109.062 E.01766
G1 X116.67 Y108.721 E.01726
G1 X117.165 Y108.499 E.01701
G1 X117.716 Y108.4 E.01755
G1 X118.264 Y108.422 E.0172
G1 X118.644 Y108.513 E.01225
G1 X118.991 Y108.669 E.01193
G1 X119.304 Y108.892 E.01205
G1 X119.568 Y109.178 E.0122
G1 X119.77 Y109.518 E.0124
G1 X119.893 Y109.895 E.01243
G1 X120.049 Y111.027 E.03583
G1 X119.523 Y110.986 E.01654
G1 X119.683 Y111.166 E.00755
G1 X119.829 Y111.393 E.00846
G1 X119.986 Y111.804 E.01379
G1 X120.041 Y112.057 E.00812
G1 X120.077 Y112.51 E.01425
G1 X120.04 Y112.985 E.01494
G1 X119.924 Y113.436 E.0146
G1 X119.722 Y113.851 E.01447
G1 X119.438 Y114.215 E.01448
G1 X119.09 Y114.51 E.0143
G1 X118.696 Y114.724 E.01406
G1 X118.265 Y114.851 E.01409
G1 X117.817 Y114.891 E.0141
G1 X117.476 Y114.867 E.01072
G1 X117.15 Y114.797 E.01045
G1 X116.827 Y114.675 E.01083
G1 X116.4 Y114.417 E.01564
G1 X116.029 Y114.058 E.01619
G1 X115.75 Y113.627 E.0161
G1 X115.59 Y113.231 E.01339
G1 X115.301 Y114.8 E.05002
G1 X111.55 Y114.8 E.11761
G1 X111.55 Y113.12 E.05268
G1 X111.235 Y114.8 E.05359
G1 X107.486 Y114.8 E.11755
G1 X107.486 Y112.836 E.06158
G1 X108.297 Y112.839 E.02543
G1 X107.909 Y112.533 E.01549
G1 X107.738 Y112.342 E.00804
G1 X107.507 Y111.988 E.01325
G1 X107.403 Y111.753 E.00806
G1 X107.287 Y111.33 E.01375
G1 X107.249 Y110.872 E.01441
G1 X107.282 Y110.433 E.0138
G1 X107.38 Y110.027 E.0131
G1 X107.467 Y109.803 E.00753
G1 X107.669 Y109.436 E.01313
G1 X107.973 Y109.061 E.01514
G1 X108.381 Y108.735 E.01637
G1 X108.86 Y108.513 E.01655
G1 X109.385 Y108.41 E.01677
G1 X109.657 Y108.397 E.00854
G1 X110.083 Y108.428 E.01339
G1 X110.496 Y108.529 E.01333
G1 X110.883 Y108.705 E.01333
G1 X111.229 Y108.958 E.01344
G1 X111.518 Y109.283 E.01364
G1 X111.678 Y109.584 E.01069
G1 X111.728 Y109.474 E.00379
G1 X112.029 Y109.073 E.01572
G1 X112.443 Y108.736 E.01674
G1 X112.924 Y108.513 E.01662
G1 X113.449 Y108.41 E.01677
G1 X113.721 Y108.397 E.00854
G1 X114.147 Y108.428 E.01339
G1 X114.56 Y108.529 E.01333
G1 X114.945 Y108.703 E.01325
G1 X115.29 Y108.952 E.01334
G1 X115.577 Y109.265 E.01331
G1 X115.784 Y109.643 E.01351
G1 X115.784 Y109.643 F6000
G1 X115.592 Y110.694
;TYPE:External perimeter
G1 F1200
G1 X115.032 Y110.8 E.01787
G1 X114.475 Y110.824 E.01748
G1 X114.288 Y110.263 E.01854
G1 X114.132 Y110.052 E.00823
G1 X113.948 Y109.942 E.00672
G1 X113.839 Y109.912 E.00354
G1 X113.569 Y109.916 E.00847
G1 X113.369 Y109.992 E.00671
G1 X113.193 Y110.136 E.00713
G1 X113.058 Y110.34 E.00767
G1 X112.981 Y110.601 E.00853
G1 X112.969 Y110.923 E.0101
G1 X112.998 Y111.101 E.00565
G1 X113.049 Y111.245 E.00479
G1 X113.18 Y111.433 E.00718
G1 X113.284 Y111.52 E.00425
G1 X113.402 Y111.581 E.00416
G1 X113.638 Y111.635 E.00759
G1 X113.921 Y111.617 E.00889
G1 X114.204 Y111.491 E.00971
G1 X114.53 Y111.177 E.01419
G1 X114.97 Y111.215 E.01385
G1 X115.497 Y111.344 E.01701
G1 X115.351 Y112.447 E.03489
G1 X114.987 Y114.423 E.063
G1 X111.927 Y114.423 E.09594
G1 X111.927 Y113.214 E.03791
G1 X113.743 Y113.221 E.05694
G1 X114.046 Y113.237 E.00951
G1 X114.124 Y113.02 E.00723
G1 X114.212 Y112.57 E.01438
G1 X114.113 Y112.614 E.0034
G1 X113.893 Y112.668 E.0071
G1 X113.755 Y112.763 E.00525
G1 X113.199 Y112.768 E.01743
