; generated by PrusaSlicer 2.6.0+win64 on 2023-07-20 at 14:15:09 UTC

; 

; external perimeters extrusion width = 0.42mm
; perimeters extrusion width = 0.44mm
; infill extrusion width = 0.44mm
; solid infill extrusion width = 0.44mm
; top infill extrusion width = 0.40mm
; support material extrusion width = 0.36mm
; first layer extrusion width = 0.42mm

;TYPE:Custom
; Ender 3 Custom Start G-code
G92 E0 ; Reset Extruder

M140 S80 ; set bed temp
M190 S80 ; wait for bed temp

G28 ; Home all axes
M104 S235 ; set extruder temp 
BED_MESH_CALIBRATE AREA_START=101.039,88.1585 AREA_END=129.959,138.482

G1 Z2.0 F3000 ; Move Z Axis up little to prevent scratching of Heat Bed
M109 S235 ; wait for extruder temp
G1 X0.1 Y20 Z0.3 F5000.0 ; Move to start position

G1 X0.1 Y200.0 Z0.3 F1500.0 E15 ; Draw the first line
G1 X0.4 Y200.0 Z0.3 F5000.0 ; Move to side a little
G1 X0.4 Y20 Z0.3 F1500.0 E30 ; Draw the second line
G92 E0 ; Reset Extruder
G1 Z2.0 F3000 ; Move Z Axis up little to prevent scratching of Heat Bed
G1 X5 Y20 Z0.3 F5000.0 ; Move over to prevent blob squish
G21 ; set units to millimeters
G90 ; use absolute coordinates
M83 ; use relative distances for extrusion
; Filament gcode
M107
;LAYER_CHANGE
;Z:0.2
;HEIGHT:0.2
;BEFORE_LAYER_CHANGE
G92 E0
;0.2


G1 E-1.6 F2400
G1 Z.2 F6000
;AFTER_LAYER_CHANGE
;0.2
G1 X104.695 Y89.716
G1 E1.6 F2400
M204 S500
;TYPE:Skirt/Brim
;WIDTH:0.42
G1 F1200
G1 X105.876 Y88.681 E.04628
G1 X107.283 Y88.347 E.04262
G1 X123.717 Y88.347 E.48436
G1 X125.237 Y88.741 E.04628
G1 X126.374 Y89.823 E.04626
G1 X126.835 Y91.194 E.04263
G1 X129.739 Y123.039 E.94246
G1 X129.77 Y124.313 E.03756
G1 X129.692 Y125.527 E.03585
G1 X129.312 Y127.615 E.06255
G1 X128.775 Y129.261 E.05103
G1 X128.222 Y130.491 E.03975
G1 X127.522 Y131.714 E.04153
G1 X126.788 Y132.755 E.03754
G1 X125.965 Y133.727 E.03754
G1 X124.985 Y134.685 E.04039
G1 X123.624 Y135.756 E.05104
G1 X122.535 Y136.439 E.03789
G1 X121.288 Y137.067 E.04115
G1 X120.102 Y137.531 E.03753
G1 X118.88 Y137.888 E.03752
G1 X117.512 Y138.151 E.04106
G1 X115.786 Y138.29 E.05104
G1 X114.447 Y138.254 E.03948
G1 X113.056 Y138.083 E.04131
G1 X111.812 Y137.809 E.03754
G1 X110.005 Y137.193 E.05627
G1 X108.187 Y136.277 E.06
G1 X106.603 Y135.181 E.05677
G1 X105.708 Y134.405 E.03491
G1 X104.877 Y133.552 E.0351
G1 X103.653 Y131.98 E.05872
G1 X102.637 Y130.206 E.06025
G1 X101.927 Y128.434 E.05626
G1 X101.442 Y126.482 E.05928
G1 X101.241 Y124.627 E.05499
G1 X101.277 Y122.835 E.05283
G1 X104.165 Y91.194 E.93643
G1 X104.675 Y89.772 E.04452
G1 X105.039 Y89.91 F6000
G1 F1200
G1 X105.06 Y89.852 E.00182
G1 X106.214 Y88.94 E.04335
G1 X107.283 Y88.724 E.03214
G1 X123.717 Y88.724 E.48436
G1 X125.134 Y89.117 E.04334
G1 X126.147 Y90.183 E.04334
G1 X126.46 Y91.228 E.03215
G1 X129.363 Y123.064 E.9422
G1 X129.393 Y124.304 E.03656
G1 X129.317 Y125.493 E.03511
G1 X128.949 Y127.514 E.06054
G1 X128.422 Y129.128 E.05004
G1 X127.883 Y130.326 E.03872
G1 X127.207 Y131.506 E.04008
G1 X126.493 Y132.52 E.03655
G1 X125.691 Y133.467 E.03658
G1 X124.738 Y134.4 E.03931
G1 X123.404 Y135.449 E.05002
G1 X122.344 Y136.114 E.03688
G1 X121.133 Y136.724 E.03996
G1 X119.978 Y137.175 E.03654
G1 X118.787 Y137.522 E.03656
G1 X117.465 Y137.777 E.03968
G1 X115.773 Y137.913 E.05003
G1 X114.468 Y137.878 E.03848
G1 X113.125 Y137.712 E.03988
G1 X111.913 Y137.446 E.03657
G1 X110.152 Y136.846 E.05483
G1 X108.385 Y135.957 E.0583
G1 X106.498 Y134.605 E.06842
G1 X105.101 Y133.237 E.05763
G1 X103.899 Y131.67 E.05821
G1 X102.957 Y129.998 E.05656
G1 X102.133 Y127.816 E.06874
G1 X101.744 Y125.981 E.05528
G1 X101.618 Y124.618 E.04034
G1 X101.658 Y122.809 E.05333
G1 X104.54 Y91.228 E.93466
G1 X105.017 Y89.966 E.03976
G1 X105.379 Y90.111 F6000
G1 F1200
G1 X105.425 Y89.996 E.00365
G1 X106.546 Y89.218 E.04022
G1 X107.283 Y89.101 E.02199
G1 X123.717 Y89.101 E.48436
G1 X125.024 Y89.493 E.04022
G1 X125.9 Y90.539 E.04021
G1 X126.084 Y91.262 E.02199
G1 X128.986 Y123.088 E.9419
G1 X129.016 Y124.296 E.03561
G1 X128.941 Y125.459 E.03435
G1 X128.586 Y127.413 E.05853
G1 X128.069 Y128.995 E.04905
G1 X127.544 Y130.16 E.03766
G1 X126.893 Y131.298 E.03864
G1 X126.198 Y132.286 E.0356
G1 X125.417 Y133.208 E.03561
G1 X124.492 Y134.115 E.03818
G1 X123.184 Y135.143 E.04903
G1 X122.153 Y135.789 E.03586
G1 X120.979 Y136.38 E.03874
G1 X119.854 Y136.819 E.03559
G1 X118.694 Y137.157 E.03561
G1 X117.418 Y137.403 E.0383
G1 X115.76 Y137.536 E.04902
G1 X114.489 Y137.502 E.03747
G1 X113.194 Y137.341 E.03846
G1 X112.014 Y137.082 E.03561
G1 X110.299 Y136.499 E.05339
G1 X108.584 Y135.636 E.05659
G1 X106.738 Y134.314 E.06692
G1 X105.38 Y132.984 E.05602
G1 X104.218 Y131.468 E.0563
G1 X103.299 Y129.84 E.0551
G1 X102.494 Y127.707 E.06719
G1 X102.116 Y125.922 E.05378
G1 X101.995 Y124.608 E.03889
G1 X102.033 Y122.841 E.05209
G1 X104.916 Y91.262 E.9346
G1 X105.356 Y90.167 E.03478
; printing object middle_section_1con_v1.stl id:0 copy 0
G1 E-1.12 F2400
;WIPE_START
G1 F4800
G1 X105.425 Y89.996 E-.08759
G1 X106.104 Y89.525 E-.39241
;WIPE_END
G1 X123.717 Y115.814 F6000
G1 E1.6 F2400
;TYPE:Support material
G1 F1200
G1 X122.895 Y115.079 E.0325
G1 X122.062 Y114.451 E.03075
G1 X121.625 Y114.166 E.01538
G1 X121.124 Y113.872 E.01712
G1 X120.185 Y113.406 E.0309
G1 X119.212 Y113.028 E.03077
G1 X118.714 Y112.872 E.01538
G1 X117.768 Y112.642 E.02869
G1 X117.194 Y112.542 E.01717
G1 X116.676 Y112.477 E.01539
G1 X115.625 Y112.418 E.03102
G1 X114.583 Y112.454 E.03073
G1 X114.065 Y112.507 E.01535
G1 X113.49 Y112.594 E.01714
G1 X112.537 Y112.802 E.02875
G1 X112.036 Y112.947 E.01537
G1 X111.055 Y113.303 E.03076
G1 X110.105 Y113.748 E.03092
G1 X109.598 Y114.031 E.01711
G1 X109.15 Y114.31 E.01556
G1 X108.303 Y114.919 E.03075
G1 X107.901 Y115.252 E.01539
G1 X107.283 Y115.814 E.02462
G1 X107.283 Y91.478 E.71726
G1 X123.717 Y91.478 E.48436
G1 X123.717 Y115.758 E.71561
G1 X123.042 Y114.982 F6000
G1 F1200
G1 X123.042 Y91.818 E.68271
G1 X122.623 Y91.818 E.01235
G1 X122.623 Y114.435 E.66659
G1 X122.204 Y114.137 E.01515
G1 X122.204 Y91.818 E.65781
G1 X121.785 Y91.818 E.01235
G1 X121.785 Y113.866 E.64982
G1 X121.366 Y113.619 E.01434
G1 X121.366 Y91.818 E.64254
G1 X120.947 Y91.818 E.01235
G1 X120.947 Y113.394 E.63591
G1 X120.528 Y113.191 E.01372
G1 X120.528 Y91.818 E.62993
G1 X120.109 Y91.818 E.01235
G1 X120.109 Y113.006 E.62447
G1 X119.69 Y112.84 E.01328
G1 X119.69 Y91.818 E.61958
G1 X119.271 Y91.818 E.01235
G1 X119.271 Y112.69 E.61516
G1 X118.852 Y112.559 E.01294
G1 X118.852 Y91.818 E.6113
G1 X118.433 Y91.818 E.01235
G1 X118.433 Y112.446 E.60797
G1 X118.014 Y112.348 E.01268
G1 X118.014 Y91.818 E.60508
G1 X117.595 Y91.818 E.01235
G1 X117.595 Y112.266 E.60266
G1 X117.176 Y112.197 E.01252
G1 X117.176 Y91.818 E.60063
G1 X116.757 Y91.818 E.01235
G1 X116.757 Y112.145 E.5991
G1 X116.338 Y112.11 E.01239
G1 X116.338 Y91.818 E.59807
G1 X115.919 Y91.818 E.01235
G1 X115.919 Y112.088 E.59742
G1 X115.5 Y112.08 E.01235
G1 X115.5 Y91.818 E.59718
G1 X115.081 Y91.818 E.01235
G1 X115.081 Y112.086 E.59736
G1 X114.662 Y112.109 E.01237
G1 X114.662 Y91.818 E.59804
G1 X114.243 Y91.818 E.01235
G1 X114.243 Y112.147 E.59916
G1 X113.824 Y112.199 E.01244
G1 X113.824 Y91.818 E.60069
G1 X113.405 Y91.818 E.01235
G1 X113.405 Y112.265 E.60264
G1 X112.986 Y112.346 E.01258
G1 X112.986 Y91.818 E.60502
G1 X112.567 Y91.818 E.01235
G1 X112.567 Y112.446 E.60797
G1 X112.148 Y112.561 E.01281
G1 X112.148 Y91.818 E.61136
G1 X111.729 Y91.818 E.01235
G1 X111.729 Y112.692 E.61522
G1 X111.31 Y112.839 E.01309
G1 X111.31 Y91.818 E.61955
G1 X110.891 Y91.818 E.01235
G1 X110.891 Y113.004 E.62442
G1 X110.472 Y113.189 E.0135
G1 X110.472 Y91.818 E.62987
G1 X110.053 Y91.818 E.01235
G1 X110.053 Y113.395 E.63594
G1 X109.634 Y113.621 E.01403
G1 X109.634 Y91.818 E.6426
G1 X109.215 Y91.818 E.01235
G1 X109.215 Y113.868 E.64988
G1 X108.796 Y114.14 E.01472
G1 X108.796 Y91.818 E.6579
G1 X108.377 Y91.818 E.01235
G1 X108.377 Y114.438 E.66668
G1 X107.958 Y114.764 E.01565
G1 X107.958 Y91.648 E.6813
G1 E-1.12 F2400
;WIPE_START
G1 F4800
G1 X107.958 Y92.659 E-.48
;WIPE_END
G1 X105.239 Y122.023 F6000
G1 E1.6 F2400
;TYPE:Perimeter
G1 F1200
G1 X105.431 Y121.211 E.02459
G1 X105.725 Y120.316 E.02777
G1 X106.098 Y119.452 E.02774
G1 X106.546 Y118.625 E.02772
G1 X107.067 Y117.842 E.02772
G1 X107.657 Y117.11 E.02771
G1 X108.31 Y116.433 E.02772
G1 X109.021 Y115.818 E.02771
G1 X109.827 Y115.241 E.02921
G1 X110.644 Y114.764 E.02788
G1 X111.054 Y114.56 E.0135
G1 X111.887 Y114.212 E.02661
G1 X112.819 Y113.917 E.02881
G1 X113.744 Y113.716 E.0279
G1 X114.684 Y113.599 E.02792
G1 X115.661 Y113.569 E.02881
G1 X116.563 Y113.621 E.02663
G1 X117.017 Y113.678 E.01349
G1 X117.947 Y113.858 E.02792
G1 X118.85 Y114.119 E.0277
G1 X119.727 Y114.46 E.02773
G1 X120.568 Y114.878 E.02768
G1 X121.411 Y115.399 E.02921
G1 X122.162 Y115.965 E.02772
G1 X122.859 Y116.596 E.02771
G1 X123.501 Y117.293 E.02793
G1 X123.788 Y117.649 E.01348
G1 X124.306 Y118.389 E.02662
G1 X124.795 Y119.236 E.02883
G1 X125.192 Y120.103 E.0281
G1 X125.517 Y121.032 E.02901
G1 X125.771 Y122.025 E.03021
G1 X125.313 Y121.715 E.0163
G1 X124.981 Y121.573 E.01064
G1 X124.491 Y121.455 E.01485
G1 X123.993 Y121.438 E.01469
G1 X123.636 Y121.481 E.0106
G1 X123.11 Y121.645 E.01624
G1 X122.658 Y121.896 E.01524
G1 X122.234 Y122.266 E.01659
G1 X121.9 Y122.719 E.01659
G1 X121.692 Y123.179 E.01488
G1 X121.6 Y123.523 E.0105
G1 X121.549 Y124.024 E.01484
G1 X121.61 Y124.58 E.01649
G1 X121.772 Y125.071 E.01524
G1 X122.053 Y125.556 E.01652
G1 X122.39 Y125.927 E.01477
G1 X122.67 Y126.153 E.01061
G1 X123.154 Y126.416 E.01623
G1 X123.65 Y126.565 E.01526
G1 X124.21 Y126.611 E.01656
G1 X124.768 Y126.534 E.0166
G1 X125.242 Y126.362 E.01486
G1 X125.505 Y126.215 E.00888
G1 X125.771 Y126.015 E.00981
G1 X125.632 Y126.597 E.01764
G1 X125.356 Y127.506 E.028
G1 X125.003 Y128.378 E.02773
G1 X124.57 Y129.22 E.02791
G1 X124.331 Y129.616 E.01363
G1 X124.044 Y130.044 E.01519
G1 X123.493 Y130.759 E.0266
G1 X123.19 Y131.103 E.01351
G1 X122.518 Y131.769 E.02788
G1 X121.793 Y132.369 E.02774
G1 X121.018 Y132.9 E.02769
G1 X120.152 Y133.383 E.02923
G1 X119.292 Y133.763 E.02771
G1 X118.395 Y134.066 E.0279
G1 X117.953 Y134.183 E.01348
G1 X117.067 Y134.357 E.02661
G1 X116.094 Y134.458 E.02883
G1 X115.147 Y134.469 E.02791
G1 X114.203 Y134.395 E.02791
G1 X113.745 Y134.327 E.01365
G1 X113.24 Y134.227 E.01517
G1 X112.367 Y133.995 E.02662
G1 X111.934 Y133.848 E.01348
G1 X111.06 Y133.485 E.02789
G1 X110.184 Y133.022 E.0292
G1 X109.397 Y132.508 E.0277
G1 X108.659 Y131.925 E.02772
G1 X107.976 Y131.279 E.02771
G1 X107.35 Y130.568 E.02792
G1 X107.071 Y130.205 E.01349
G1 X106.57 Y129.454 E.02661
G1 X106.1 Y128.596 E.02883
G1 X105.725 Y127.727 E.0279
G1 X105.431 Y126.832 E.02777
G1 X105.239 Y126.019 E.02462
G1 X105.384 Y126.144 E.00564
G1 X105.873 Y126.415 E.01648
G1 X106.371 Y126.565 E.01533
G1 X106.931 Y126.611 E.01656
G1 X107.489 Y126.534 E.0166
G1 X107.975 Y126.359 E.01522
G1 X108.452 Y126.065 E.01651
G1 X108.814 Y125.717 E.0148
G1 X109.032 Y125.431 E.0106
G1 X109.282 Y124.94 E.01624
G1 X109.417 Y124.441 E.01524
G1 X109.448 Y123.88 E.01656
G1 X109.355 Y123.325 E.01659
G1 X109.172 Y122.854 E.01489
G1 X108.988 Y122.549 E.0105
G1 X108.666 Y122.163 E.01482
G1 X108.224 Y121.819 E.01651
G1 X107.759 Y121.592 E.01525
G1 X107.215 Y121.455 E.01653
G1 X106.714 Y121.438 E.01477
G1 X106.357 Y121.481 E.0106
G1 X105.828 Y121.646 E.01633
G1 X105.382 Y121.901 E.01514
G1 X105.284 Y121.984 E.00379
G1 E-1.12 F2400
;WIPE_START
G1 F4800
G1 X105.431 Y121.211 E-.37376
G1 X105.501 Y120.999 E-.10624
;WIPE_END
G1 X122.65 Y125.652 F6000
G1 E1.6 F2400
;TYPE:External perimeter
G1 F1200
G1 X122.359 Y125.332 E.01275
G1 X122.118 Y124.916 E.01417
G1 X121.981 Y124.5 E.01291
G1 X121.928 Y124.022 E.01417
G1 X121.972 Y123.591 E.01277
G1 X122.048 Y123.306 E.00869
G1 X122.227 Y122.911 E.01278
G1 X122.513 Y122.523 E.01421
G1 X122.876 Y122.207 E.01418
G1 X123.259 Y121.993 E.01293
G1 X123.715 Y121.851 E.01408
G1 X124.009 Y121.816 E.00873
G1 X124.44 Y121.831 E.01271
G1 X124.862 Y121.933 E.0128
G1 X125.135 Y122.049 E.00874
G1 X125.502 Y122.29 E.01294
G1 X125.797 Y122.615 E.01294
G1 X125.928 Y122.832 E.00747
G1 X126.172 Y123.453 E.01966
G1 X126.248 Y123.906 E.01354
G1 X126.222 Y124.364 E.01352
G1 X126.115 Y124.763 E.01218
G1 X125.928 Y125.211 E.01431
G1 X125.826 Y125.386 E.00597
G1 X125.676 Y125.579 E.0072
G1 X125.501 Y125.752 E.00725
G1 X125.302 Y125.897 E.00726
G1 X125.085 Y126.018 E.00732
G1 X124.677 Y126.166 E.01279
G1 X124.2 Y126.232 E.01419
G1 X123.72 Y126.192 E.0142
G1 X123.3 Y126.066 E.01292
G1 X122.88 Y125.838 E.01409
G1 X122.697 Y125.69 E.00694
G1 X122.268 Y125.772 F6000
G1 E-1.12 F2400
;WIPE_START
G1 F4800
G1 X122.359 Y125.332 E-.23387
G1 X122.118 Y124.916 E-.22836
G1 X122.106 Y124.88 E-.01777
;WIPE_END
G1 X105.245 Y122.556 F6000
G1 E1.6 F2400
G1 F1200
G1 X105.408 Y122.374 E.0072
G1 X105.6 Y122.211 E.00742
G1 X105.979 Y121.994 E.01287
G1 X106.436 Y121.851 E.01411
G1 X106.73 Y121.816 E.00873
G1 X107.162 Y121.831 E.01274
G1 X107.629 Y121.948 E.01419
G1 X108.023 Y122.14 E.01292
G1 X108.402 Y122.436 E.01417
G1 X108.68 Y122.768 E.01276
G1 X108.832 Y123.021 E.0087
G1 X108.99 Y123.425 E.01279
G1 X109.069 Y123.901 E.01422
G1 X109.042 Y124.381 E.01417
G1 X108.928 Y124.804 E.01291
G1 X108.712 Y125.23 E.01408
G1 X108.532 Y125.466 E.00875
G1 X108.22 Y125.765 E.01274
G1 X107.811 Y126.017 E.01416
G1 X107.398 Y126.166 E.01294
G1 X106.921 Y126.232 E.01419
G1 X106.441 Y126.192 E.0142
G1 X106.02 Y126.066 E.01295
G1 X105.601 Y125.832 E.01414
G1 X105.408 Y125.668 E.00746
G1 X105.245 Y125.486 E.0072
G1 X105.106 Y125.279 E.00735
G1 X104.927 Y124.865 E.01329
G1 X104.799 Y124.477 E.01204
G1 X104.749 Y124.022 E.01349
G1 X104.792 Y123.608 E.01227
G1 X104.863 Y123.342 E.00811
G1 X105.106 Y122.764 E.01848
G1 X105.212 Y122.606 E.00561
G1 X105.148 Y122.332 F6000
G1 X104.614 Y123.024
G1 F1200
G1 X105.068 Y121.108 E.05803
G1 X105.372 Y120.182 E.02873
G1 X105.758 Y119.287 E.02873
G1 X106.223 Y118.431 E.02871
G1 X106.763 Y117.619 E.02874
G1 X107.374 Y116.86 E.02872
G1 X108.05 Y116.159 E.0287
G1 X108.787 Y115.521 E.02873
G1 X109.621 Y114.924 E.03023
G1 X110.464 Y114.432 E.02877
G1 X110.897 Y114.217 E.01425
G1 X111.753 Y113.859 E.02735
G1 X112.261 Y113.685 E.01583
G1 X112.726 Y113.551 E.01426
G1 X113.681 Y113.344 E.0288
G1 X114.65 Y113.223 E.02878
G1 X115.134 Y113.196 E.01429
G1 X115.671 Y113.192 E.01583
G1 X116.597 Y113.245 E.02734
G1 X117.076 Y113.305 E.01423
G1 X118.035 Y113.491 E.02879
G1 X118.971 Y113.761 E.02871
G1 X119.879 Y114.115 E.02872
G1 X120.752 Y114.548 E.02872
G1 X121.624 Y115.088 E.03023
G1 X122.402 Y115.674 E.02871
G1 X123.125 Y116.328 E.02873
G1 X123.787 Y117.046 E.02878
G1 X124.09 Y117.423 E.01426
G1 X124.622 Y118.182 E.02732
G1 X124.901 Y118.641 E.01583
G1 X125.132 Y119.067 E.01428
G1 X125.54 Y119.957 E.02886
G1 X125.712 Y120.41 E.01428
G1 X125.995 Y121.344 E.02876
G1 X126.353 Y122.836 E.04522
G1 X126.408 Y123.311 E.01409
G1 X126.428 Y124.296 E.02904
G1 X126.405 Y124.782 E.01434
G1 X126.353 Y125.206 E.01259
G1 X125.996 Y126.696 E.04516
G1 X125.712 Y127.632 E.02883
G1 X125.346 Y128.535 E.02872
G1 X124.899 Y129.404 E.0288
G1 X124.35 Y130.265 E.0301
G1 X123.784 Y130.999 E.02732
G1 X123.465 Y131.362 E.01424
G1 X122.771 Y132.049 E.02878
G1 X122.02 Y132.67 E.02872
G1 X121.216 Y133.221 E.02873
G1 X120.32 Y133.721 E.03024
G1 X119.429 Y134.115 E.02871
G1 X118.504 Y134.428 E.02878
G1 X118.037 Y134.551 E.01423
G1 X117.127 Y134.729 E.02733
G1 X116.111 Y134.835 E.03011
G1 X115.134 Y134.846 E.0288
G1 X114.161 Y134.769 E.02877
G1 X113.154 Y134.595 E.03012
G1 X112.258 Y134.356 E.02733
G1 X111.801 Y134.201 E.01422
G1 X110.899 Y133.827 E.02878
G1 X109.992 Y133.347 E.03024
G1 X109.176 Y132.815 E.02871
G1 X108.412 Y132.211 E.0287
G1 X107.704 Y131.541 E.02873
G1 X107.058 Y130.808 E.0288
G1 X106.764 Y130.425 E.01423
G1 X106.249 Y129.653 E.02735
G1 X105.981 Y129.189 E.01579
G1 X105.759 Y128.757 E.01432
G1 X105.372 Y127.861 E.02877
G1 X105.068 Y126.934 E.02875
G1 X104.614 Y125.018 E.05803
G1 X104.581 Y124.542 E.01406
G1 X104.579 Y123.554 E.02912
G1 X104.61 Y123.084 E.01388
G1 X104.989 Y122.883 F6000
G1 X104.911 Y122.678
;TYPE:Gap fill
;WIDTH:0.143248
