; generated by PrusaSlicer 2.6.0+win64 on 2023-08-10 at 17:44:42 UTC

; 

; external perimeters extrusion width = 0.42mm
; perimeters extrusion width = 0.44mm
; infill extrusion width = 0.44mm
; solid infill extrusion width = 0.44mm
; top infill extrusion width = 0.40mm
; first layer extrusion width = 0.42mm

; external perimeters extrusion width = 0.42mm
; perimeters extrusion width = 0.44mm
; infill extrusion width = 0.44mm
; solid infill extrusion width = 0.44mm
; top infill extrusion width = 0.40mm
; first layer extrusion width = 0.42mm

; external perimeters extrusion width = 0.42mm
; perimeters extrusion width = 0.44mm
; infill extrusion width = 0.44mm
; solid infill extrusion width = 0.44mm
; top infill extrusion width = 0.40mm
; first layer extrusion width = 0.42mm

; external perimeters extrusion width = 0.42mm
; perimeters extrusion width = 0.44mm
; infill extrusion width = 0.44mm
; solid infill extrusion width = 0.44mm
; top infill extrusion width = 0.40mm
; first layer extrusion width = 0.42mm

; external perimeters extrusion width = 0.42mm
; perimeters extrusion width = 0.44mm
; infill extrusion width = 0.44mm
; solid infill extrusion width = 0.44mm
; top infill extrusion width = 0.40mm
; first layer extrusion width = 0.42mm

; external perimeters extrusion width = 0.42mm
; perimeters extrusion width = 0.44mm
; infill extrusion width = 0.44mm
; solid infill extrusion width = 0.44mm
; top infill extrusion width = 0.40mm
; first layer extrusion width = 0.42mm

; external perimeters extrusion width = 0.42mm
; perimeters extrusion width = 0.44mm
; infill extrusion width = 0.44mm
; solid infill extrusion width = 0.44mm
; top infill extrusion width = 0.40mm
; first layer extrusion width = 0.42mm

; external perimeters extrusion width = 0.42mm
; perimeters extrusion width = 0.44mm
; infill extrusion width = 0.44mm
; solid infill extrusion width = 0.44mm
; top infill extrusion width = 0.40mm
; first layer extrusion width = 0.42mm

; external perimeters extrusion width = 0.42mm
; perimeters extrusion width = 0.44mm
; infill extrusion width = 0.44mm
; solid infill extrusion width = 0.44mm
; top infill extrusion width = 0.40mm
; first layer extrusion width = 0.42mm

; external perimeters extrusion width = 0.42mm
; perimeters extrusion width = 0.44mm
; infill extrusion width = 0.44mm
; solid infill extrusion width = 0.44mm
; top infill extrusion width = 0.40mm
; first layer extrusion width = 0.42mm

; external perimeters extrusion width = 0.42mm
; perimeters extrusion width = 0.44mm
; infill extrusion width = 0.44mm
; solid infill extrusion width = 0.44mm
; top infill extrusion width = 0.40mm
; first layer extrusion width = 0.42mm

; external perimeters extrusion width = 0.42mm
; perimeters extrusion width = 0.44mm
; infill extrusion width = 0.44mm
; solid infill extrusion width = 0.44mm
; top infill extrusion width = 0.40mm
; first layer extrusion width = 0.42mm

; external perimeters extrusion width = 0.42mm
; perimeters extrusion width = 0.44mm
; infill extrusion width = 0.44mm
; solid infill extrusion width = 0.44mm
; top infill extrusion width = 0.40mm
; first layer extrusion width = 0.42mm

; external perimeters extrusion width = 0.42mm
; perimeters extrusion width = 0.44mm
; infill extrusion width = 0.44mm
; solid infill extrusion width = 0.44mm
; top infill extrusion width = 0.40mm
; first layer extrusion width = 0.42mm

; external perimeters extrusion width = 0.42mm
; perimeters extrusion width = 0.44mm
; infill extrusion width = 0.44mm
; solid infill extrusion width = 0.44mm
; top infill extrusion width = 0.40mm
; first layer extrusion width = 0.42mm

; external perimeters extrusion width = 0.42mm
; perimeters extrusion width = 0.44mm
; infill extrusion width = 0.44mm
; solid infill extrusion width = 0.44mm
; top infill extrusion width = 0.40mm
; first layer extrusion width = 0.42mm

; external perimeters extrusion width = 0.42mm
; perimeters extrusion width = 0.44mm
; infill extrusion width = 0.44mm
; solid infill extrusion width = 0.44mm
; top infill extrusion width = 0.40mm
; first layer extrusion width = 0.42mm

; external perimeters extrusion width = 0.42mm
; perimeters extrusion width = 0.44mm
; infill extrusion width = 0.44mm
; solid infill extrusion width = 0.44mm
; top infill extrusion width = 0.40mm
; first layer extrusion width = 0.42mm

; external perimeters extrusion width = 0.42mm
; perimeters extrusion width = 0.44mm
; infill extrusion width = 0.44mm
; solid infill extrusion width = 0.44mm
; top infill extrusion width = 0.40mm
; first layer extrusion width = 0.42mm

; external perimeters extrusion width = 0.42mm
; perimeters extrusion width = 0.44mm
; infill extrusion width = 0.44mm
; solid infill extrusion width = 0.44mm
; top infill extrusion width = 0.40mm
; first layer extrusion width = 0.42mm

;TYPE:Custom
; Ender 3 Custom Start G-code
G92 E0 ; Reset Extruder

M140 S55 ; set bed temp
M104 S160 ; set extruder temp
M109 S160 ; wait for extruder temp
M190 S55 ; wait for bed temp

G28 ; Home all axes
M104 S210 ; set extruder temp 
BED_MESH_CALIBRATE AREA_START=83.7684,88.5669 AREA_END=143.763,126.207

G1 Z2.0 F3000 ; Move Z Axis up little to prevent scratching of Heat Bed
M109 S210 ; wait for extruder temp
G1 X0.1 Y20 Z0.3 F5000.0 ; Move to start position

G1 X0.1 Y200.0 Z0.3 F1500.0 E15 ; Draw the first line
G1 X0.4 Y200.0 Z0.3 F5000.0 ; Move to side a little
G1 X0.4 Y20 Z0.3 F1500.0 E30 ; Draw the second line
G92 E0 ; Reset Extruder
G1 Z2.0 F3000 ; Move Z Axis up little to prevent scratching of Heat Bed
G1 X5 Y20 Z0.3 F5000.0 ; Move over to prevent blob squish
G21 ; set units to millimeters
G90 ; use absolute coordinates
M83 ; use relative distances for extrusion
; Filament gcode
M107
;LAYER_CHANGE
;Z:0.2
;HEIGHT:0.2
;BEFORE_LAYER_CHANGE
G92 E0
;0.2


G1 E-1.6 F2400
G1 Z.2 F6000
;AFTER_LAYER_CHANGE
;0.2
G1 X87.857 Y91.701
G1 E1.6 F2400
M204 S500
;TYPE:Skirt/Brim
;WIDTH:0.42
G1 F1200
G1 X88.726 Y90.996 E.03298
G1 X89.656 Y90.382 E.03284
G1 X91.321 Y89.565 E.05466
G1 X93.099 Y89.026 E.05476
G1 X94.72 Y88.79 E.04828
G1 X131.692 Y88.755 E1.08968
G1 X132.884 Y88.805 E.03516
G1 X133.843 Y88.938 E.02854
G1 X135.87 Y89.494 E.06195
G1 X137.7 Y90.365 E.05973
G1 X139.14 Y91.376 E.05186
G1 X140.583 Y92.775 E.05924
G1 X141.374 Y93.79 E.03793
G1 X141.835 Y94.519 E.02542
G1 X142.681 Y96.304 E.05822
G1 X143.24 Y98.341 E.06226
G1 X143.425 Y100.341 E.0592
G1 X143.575 Y114.341 E.41265
G1 X143.503 Y115.668 E.03917
G1 X143.296 Y116.888 E.03647
G1 X142.676 Y118.864 E.06104
G1 X141.69 Y120.733 E.06228
G1 X140.467 Y122.296 E.05849
G1 X139.688 Y123.064 E.03224
G1 X138.815 Y123.771 E.03311
G1 X137.173 Y124.778 E.05677
G1 X136.08 Y125.257 E.03517
G1 X134.281 Y125.783 E.05524
G1 X132.523 Y126.003 E.05222
G1 X95.078 Y126.009 E1.10362
G1 X93.39 Y125.81 E.0501
G1 X92.295 Y125.542 E.03323
G1 X91.185 Y125.153 E.03467
G1 X89.854 Y124.506 E.04362
G1 X88.8 Y123.835 E.03683
G1 X87.851 Y123.075 E.03583
G1 X86.76 Y121.96 E.04598
G1 X86.154 Y121.19 E.02888
G1 X85.328 Y119.862 E.04609
G1 X84.772 Y118.665 E.0389
G1 X84.319 Y117.276 E.04306
G1 X84.013 Y115.506 E.05294
G1 X83.957 Y114.505 E.02955
G1 X83.986 Y99.578 E.43994
G1 X84.338 Y97.434 E.06404
G1 X84.956 Y95.672 E.05503
G1 X85.359 Y94.853 E.0269
G1 X86.243 Y93.467 E.04845
G1 X86.875 Y92.683 E.02968
G1 X87.815 Y91.743 E.03918
G1 X88.081 Y92.009 F6000
G1 F1200
G1 X88.938 Y91.308 E.03263
G1 X89.837 Y90.713 E.03177
G1 X91.454 Y89.918 E.05311
G1 X92.991 Y89.437 E.04747
G1 X94.739 Y89.166 E.05213
G1 X131.692 Y89.133 E1.08912
G1 X133.767 Y89.308 E.06137
G1 X135.748 Y89.851 E.06054
G1 X137.509 Y90.69 E.05749
G1 X138.893 Y91.661 E.04983
G1 X140.304 Y93.029 E.05792
G1 X141.07 Y94.013 E.03675
G1 X141.565 Y94.802 E.02745
G1 X142.414 Y96.673 E.06056
G1 X142.882 Y98.473 E.05482
G1 X143.048 Y100.345 E.05539
G1 X143.198 Y114.345 E.41265
G1 X143.13 Y115.614 E.03745
G1 X142.924 Y116.824 E.03618
G1 X142.331 Y118.712 E.05833
G1 X141.369 Y120.534 E.06073
G1 X140.198 Y122.031 E.05602
G1 X139.594 Y122.642 E.02532
G1 X138.603 Y123.459 E.03785
G1 X136.981 Y124.453 E.05607
G1 X135.395 Y125.098 E.05046
G1 X134.218 Y125.411 E.0359
G1 X132.355 Y125.634 E.0553
G1 X95.105 Y125.633 E1.09787
G1 X93.449 Y125.437 E.04915
G1 X92.304 Y125.154 E.03476
G1 X91.337 Y124.807 E.03028
G1 X90.03 Y124.173 E.04281
G1 X89.019 Y123.528 E.03534
G1 X88.102 Y122.794 E.03462
G1 X87.039 Y121.706 E.04483
G1 X86.452 Y120.958 E.02802
G1 X85.657 Y119.676 E.04446
G1 X85.128 Y118.539 E.03696
G1 X84.684 Y117.182 E.04208
G1 X84.387 Y115.46 E.0515
G1 X84.334 Y114.505 E.02819
G1 X84.363 Y99.604 E.43918
G1 X84.7 Y97.541 E.06161
G1 X85.307 Y95.81 E.05406
G1 X85.695 Y95.025 E.02581
G1 X86.183 Y94.209 E.02802
G1 X87.157 Y92.934 E.04729
G1 X88.039 Y92.052 E.03676
G1 X88.305 Y92.318 F6000
G1 F1200
G1 X89.15 Y91.62 E.0323
G1 X90.029 Y91.038 E.03107
G1 X91.587 Y90.27 E.05119
G1 X93.088 Y89.802 E.04634
G1 X94.758 Y89.543 E.04981
G1 X131.692 Y89.51 E1.08856
G1 X133.69 Y89.677 E.05909
G1 X135.628 Y90.208 E.05922
G1 X137.318 Y91.015 E.0552
G1 X138.647 Y91.947 E.04784
G1 X140.013 Y93.269 E.05603
G1 X140.766 Y94.236 E.03612
G1 X141.237 Y94.988 E.02615
G1 X142.054 Y96.785 E.05818
G1 X142.512 Y98.545 E.0536
G1 X142.671 Y100.349 E.05338
G1 X142.821 Y114.349 E.41265
G1 X142.744 Y115.641 E.03815
G1 X142.521 Y116.917 E.03818
G1 X142.276 Y117.78 E.02644
G1 X141.409 Y119.75 E.06344
G1 X140.675 Y120.874 E.03957
G1 X140.018 Y121.672 E.03047
G1 X139.333 Y122.37 E.02882
G1 X138.39 Y123.147 E.03601
G1 X136.804 Y124.12 E.05484
G1 X135.27 Y124.742 E.04879
G1 X134.141 Y125.042 E.03443
G1 X132.345 Y125.257 E.05331
G1 X95.131 Y125.257 E1.09681
G1 X93.508 Y125.065 E.04817
G1 X92.409 Y124.792 E.03338
G1 X91.488 Y124.462 E.02883
G1 X90.206 Y123.839 E.04201
G1 X89.238 Y123.221 E.03385
G1 X88.306 Y122.47 E.03528
G1 X87.318 Y121.453 E.04179
G1 X86.76 Y120.741 E.02666
G1 X85.985 Y119.491 E.04335
G1 X85.483 Y118.413 E.03505
G1 X85.05 Y117.087 E.04111
G1 X84.761 Y115.415 E.05001
G1 X84.739 Y99.63 E.46523
G1 X85.061 Y97.649 E.05915
G1 X85.658 Y95.948 E.05313
G1 X86.04 Y95.178 E.02533
G1 X86.862 Y93.897 E.04486
G1 X87.438 Y93.184 E.02701
G1 X88.262 Y92.361 E.03432
; printing object 6 id:6 copy 0
G1 E-1.12 F2400
;WIPE_START
G1 F4800
G1 X89.038 Y91.714 E-.48
;WIPE_END
G1 X133.168 Y100.214 F6000
G1 E1.6 F2400
;TYPE:External perimeter
G1 F1200
G1 X133.248 Y100.214 E.00236
G1 X133.248 Y100.794 E.01709
G1 X133.168 Y100.794 E.00236
G1 X133.168 Y100.274 E.01533
G1 X133.239 Y100.251 F6000
; stop printing object 6 id:6 copy 0
; printing object 5 id:5 copy 0
G1 E-1.12 F2400
;WIPE_START
G1 F4800
G1 X133.248 Y100.214 E-.0475
G1 X133.248 Y100.794 E-.2755
G1 X133.168 Y100.794 E-.038
G1 X133.168 Y100.543 E-.119
;WIPE_END
G1 X133.112 Y102.917 F6000
G1 E1.6 F2400
G1 F1200
G1 X133.112 Y103.497 E.01709
G1 X133.032 Y103.497 E.00236
G1 X133.032 Y102.917 E.01709
G1 X133.052 Y102.917 E.00059
G1 X133.094 Y103.316 F6000
; stop printing object 5 id:5 copy 0
; printing object 8 id:8 copy 0
G1 E-1.12 F2400
;WIPE_START
G1 F4800
G1 X133.112 Y103.497 E-.27697
G1 X133.032 Y103.497 E-.038
G1 X133.032 Y103.15 E-.16503
;WIPE_END
G1 X128.903 Y102.75 F6000
G1 E1.6 F2400
G1 F1200
G1 X128.823 Y102.75 E.00236
G1 X128.823 Y102.17 E.01709
G1 X128.903 Y102.17 E.00236
G1 X128.903 Y102.69 E.01533
G1 X128.832 Y102.713 F6000
; stop printing object 8 id:8 copy 0
; printing object 7 id:7 copy 0
G1 E-1.12 F2400
;WIPE_START
G1 F4800
G1 X128.823 Y102.75 E-.0475
G1 X128.823 Y102.17 E-.2755
G1 X128.903 Y102.17 E-.038
G1 X128.903 Y102.421 E-.119
;WIPE_END
G1 X128.958 Y104.766 F6000
G1 E1.6 F2400
G1 F1200
G1 X129.038 Y104.766 E.00236
G1 X129.038 Y105.346 E.01709
G1 X128.958 Y105.346 E.00236
G1 X128.958 Y104.826 E.01533
G1 X129.029 Y104.803 F6000
; stop printing object 7 id:7 copy 0
; printing object 2 id:2 copy 0
G1 E-1.12 F2400
;WIPE_START
G1 F4800
G1 X129.038 Y104.766 E-.0475
G1 X129.038 Y105.346 E-.2755
G1 X128.958 Y105.346 E-.038
G1 X128.958 Y105.095 E-.119
;WIPE_END
G1 X128.927 Y108.827 F6000
G1 E1.6 F2400
G1 F1200
G1 X128.927 Y109.407 E.01709
G1 X128.847 Y109.407 E.00236
G1 X128.847 Y108.827 E.01709
G1 X128.867 Y108.827 E.00059
G1 X128.909 Y109.227 F6000
; stop printing object 2 id:2 copy 0
; printing object 3 id:3 copy 0
G1 E-1.12 F2400
;WIPE_START
G1 F4800
G1 X128.927 Y109.407 E-.27697
G1 X128.847 Y109.407 E-.038
G1 X128.847 Y109.06 E-.16503
;WIPE_END
G1 X133.133 Y108.757 F6000
G1 E1.6 F2400
G1 F1200
G1 X133.213 Y108.757 E.00236
G1 X133.213 Y109.337 E.01709
G1 X133.133 Y109.337 E.00236
G1 X133.133 Y108.817 E.01533
G1 X133.204 Y108.794 F6000
; stop printing object 3 id:3 copy 0
; printing object 4 id:4 copy 0
G1 E-1.12 F2400
;WIPE_START
G1 F4800
G1 X133.213 Y108.757 E-.0475
G1 X133.213 Y109.337 E-.2755
G1 X133.133 Y109.337 E-.038
G1 X133.133 Y109.086 E-.119
;WIPE_END
G1 X133.131 Y111.406 F6000
G1 E1.6 F2400
G1 F1200
G1 X133.131 Y111.986 E.01709
G1 X133.051 Y111.986 E.00236
G1 X133.051 Y111.406 E.01709
G1 X133.071 Y111.406 E.00059
G1 X133.113 Y111.805 F6000
; stop printing object 4 id:4 copy 0
; printing object 1 id:1 copy 0
G1 E-1.12 F2400
;WIPE_START
G1 F4800
G1 X133.131 Y111.986 E-.27697
G1 X133.051 Y111.986 E-.038
G1 X133.051 Y111.639 E-.16503
;WIPE_END
G1 X128.973 Y113.376 F6000
G1 E1.6 F2400
G1 F1200
G1 X128.973 Y113.956 E.01709
G1 X128.893 Y113.956 E.00236
G1 X128.893 Y113.376 E.01709
G1 X128.913 Y113.376 E.00059
G1 X128.955 Y113.775 F6000
; stop printing object 1 id:1 copy 0
; printing object 9 id:9 copy 0
G1 E-1.12 F2400
;WIPE_START
G1 F4800
G1 X128.973 Y113.956 E-.27697
G1 X128.893 Y113.956 E-.038
G1 X128.893 Y113.609 E-.16503
;WIPE_END
G1 X118.116 Y113.319 F6000
G1 E1.6 F2400
G1 F1200
G1 X118.116 Y113.899 E.01709
G1 X118.036 Y113.899 E.00236
G1 X118.036 Y113.319 E.01709
G1 X118.056 Y113.319 E.00059
G1 X118.098 Y113.718 F6000
; stop printing object 9 id:9 copy 0
; printing object 11 id:10 copy 0
G1 E-1.12 F2400
;WIPE_START
G1 F4800
G1 X118.116 Y113.899 E-.27697
G1 X118.036 Y113.899 E-.038
G1 X118.036 Y113.552 E-.16503
;WIPE_END
G1 X118.022 Y111.084 F6000
G1 E1.6 F2400
G1 F1200
G1 X117.942 Y111.084 E.00236
G1 X117.942 Y110.504 E.01709
G1 X118.022 Y110.504 E.00236
G1 X118.022 Y111.024 E.01533
G1 X117.951 Y111.048 F6000
; stop printing object 11 id:10 copy 0
; printing object Shape-Box id:0 copy 0
G1 E-1.12 F2400
;WIPE_START
G1 F4800
G1 X117.942 Y111.084 E-.0475
G1 X117.942 Y110.504 E-.2755
G1 X118.022 Y110.504 E-.038
G1 X118.022 Y110.755 E-.119
;WIPE_END
G1 X114.168 Y110.734 F6000
G1 E1.6 F2400
;TYPE:Perimeter
G1 F1200
G1 X113.999 Y110.901 E.007
G1 X113.86 Y110.966 E.00452
G1 X113.692 Y110.975 E.00496
G1 X113.544 Y110.942 E.00447
G1 X113.467 Y110.89 E.00274
G1 X113.391 Y110.781 E.00392
G1 X113.349 Y110.604 E.00536
G1 X113.359 Y110.36 E.0072
G1 X113.407 Y110.194 E.00509
G1 X113.482 Y110.082 E.00397
G1 X113.57 Y110.01 E.00335
G1 X113.67 Y109.972 E.00315
G1 X113.793 Y109.97 E.00363
G1 X113.907 Y110.024 E.00372
G1 X113.967 Y110.106 E.00299
G1 X114.15 Y110.677 E.01767
G1 E-1.12 F2400
;WIPE_START
G1 F4800
G1 X113.999 Y110.901 E-.12832
G1 X113.86 Y110.966 E-.07289
G1 X113.692 Y110.975 E-.07991
G1 X113.544 Y110.942 E-.07203
G1 X113.467 Y110.89 E-.04413
G1 X113.391 Y110.781 E-.06312
G1 X113.381 Y110.741 E-.0196
;WIPE_END
G1 X109.691 Y103.958 F6000
G1 E1.6 F2400
G1 F1200
G1 X109.645 Y104.11 E.00468
G1 X109.559 Y104.21 E.00389
G1 X109.401 Y104.224 E.00467
G1 X109.329 Y104.183 E.00244
G1 X109.333 Y104.06 E.00363
G1 X109.395 Y104.022 E.00214
G1 X109.631 Y103.962 E.00718
G1 E-1.12 F2400
;WIPE_START
G1 F4800
G1 X109.645 Y104.11 E-.07061
G1 X109.559 Y104.21 E-.06265
G1 X109.401 Y104.224 E-.07534
G1 X109.329 Y104.183 E-.03936
G1 X109.333 Y104.06 E-.05846
G1 X109.395 Y104.022 E-.03454
G1 X109.631 Y103.962 E-.11567
;WIPE_END
G1 E-.02337 F2400
G1 X109.769 Y101.915 F6000
G1 E1.6 F2400
G1 F1200
G1 X109.803 Y102.038 E.00376
G1 X109.502 Y102.103 E.00908
G1 X109.35 Y102.109 E.00448
G1 X109.254 Y102.087 E.0029
G1 X109.135 Y101.99 E.00452
G1 X109.1 Y101.912 E.00252
G1 X109.09 Y101.782 E.00384
G1 X109.119 Y101.661 E.00367
G1 X109.223 Y101.518 E.00521
G1 X109.379 Y101.45 E.00502
G1 X109.508 Y101.449 E.0038
