; generated by PrusaSlicer 2.6.0+win64 on 2023-08-01 at 13:50:52 UTC

; 

; external perimeters extrusion width = 0.42mm
; perimeters extrusion width = 0.44mm
; infill extrusion width = 0.44mm
; solid infill extrusion width = 0.44mm
; top infill extrusion width = 0.40mm
; first layer extrusion width = 0.42mm

;TYPE:Custom
; Ender 3 Custom Start G-code
G92 E0 ; Reset Extruder

M140 S50 ; set bed temp
M190 S50 ; wait for bed temp

G28 ; Home all axes
M104 S205 ; set extruder temp 
BED_MESH_CALIBRATE AREA_START=40.5,40.5 AREA_END=190.5,190.5

G1 Z2.0 F3000 ; Move Z Axis up little to prevent scratching of Heat Bed
M109 S205 ; wait for extruder temp
G1 X0.1 Y20 Z0.3 F5000.0 ; Move to start position

G1 X0.1 Y200.0 Z0.3 F1500.0 E15 ; Draw the first line
G1 X0.4 Y200.0 Z0.3 F5000.0 ; Move to side a little
G1 X0.4 Y20 Z0.3 F1500.0 E30 ; Draw the second line
G92 E0 ; Reset Extruder
G1 Z2.0 F3000 ; Move Z Axis up little to prevent scratching of Heat Bed
G1 X5 Y20 Z0.3 F5000.0 ; Move over to prevent blob squish
G21 ; set units to millimeters
G90 ; use absolute coordinates
M83 ; use relative distances for extrusion
; Filament gcode
M107
;LAYER_CHANGE
;Z:0.2
;HEIGHT:0.2
;BEFORE_LAYER_CHANGE
G92 E0
;0.2


G1 E-1.6 F2400
G1 Z.2 F6000
;AFTER_LAYER_CHANGE
;0.2
; printing object CHEP_bed_level_print.stl id:0 copy 0
G1 X190.21 Y40.79
G1 E1.6 F2400
M204 S500
;TYPE:External perimeter
;WIDTH:0.42
G1 F1200
G1 X190.21 Y190.21 E4.40386
G1 X40.79 Y190.21 E4.40386
G1 X40.79 Y40.79 E4.40386
G1 X190.15 Y40.79 E4.40209
G1 X190.596 Y40.686 F6000
G1 X190.29 Y40.71
G1 F1200
G1 X190.29 Y190.29 E4.40858
G1 X40.71 Y190.29 E4.40858
G1 X40.71 Y40.71 E4.40858
G1 X190.23 Y40.71 E4.40681
G1 X190.186 Y41.096 F6000
G1 E-1.12 F2400
;WIPE_START
G1 F4800
G1 X190.23 Y41.721 E-.48
;WIPE_END
G1 X180.21 Y50.79 F6000
G1 E1.6 F2400
G1 F1200
G1 X180.21 Y180.21 E3.8144
G1 X50.79 Y180.21 E3.8144
G1 X50.79 Y50.79 E3.8144
G1 X180.15 Y50.79 E3.81263
G1 X180.596 Y50.686 F6000
G1 X180.29 Y50.71
G1 F1200
G1 X180.29 Y180.29 E3.81912
G1 X50.71 Y180.29 E3.81912
G1 X50.71 Y50.71 E3.81912
G1 X180.23 Y50.71 E3.81735
G1 X180.186 Y51.096 F6000
G1 E-1.12 F2400
;WIPE_START
G1 F4800
G1 X180.23 Y51.721 E-.48
;WIPE_END
G1 X170.21 Y60.79 F6000
G1 E1.6 F2400
G1 F1200
G1 X170.21 Y170.21 E3.22494
G1 X60.79 Y170.21 E3.22494
G1 X60.79 Y60.79 E3.22494
G1 X170.15 Y60.79 E3.22317
G1 X170.596 Y60.686 F6000
G1 X170.29 Y60.71
G1 F1200
G1 X170.29 Y170.29 E3.22966
G1 X60.71 Y170.29 E3.22966
G1 X60.71 Y60.71 E3.22966
G1 X170.23 Y60.71 E3.22789
G1 X170.186 Y61.096 F6000
G1 E-1.12 F2400
;WIPE_START
G1 F4800
G1 X170.231 Y61.721 E-.48
;WIPE_END
G1 X160.21 Y70.79 F6000
G1 E1.6 F2400
G1 F1200
G1 X160.21 Y160.21 E2.63548
G1 X70.79 Y160.21 E2.63548
G1 X70.79 Y70.79 E2.63548
G1 X160.15 Y70.79 E2.63371
G1 X160.596 Y70.686 F6000
G1 X160.29 Y70.71
G1 F1200
G1 X160.29 Y160.29 E2.64019
G1 X70.71 Y160.29 E2.64019
G1 X70.71 Y70.71 E2.64019
G1 X160.23 Y70.71 E2.63843
G1 X160.186 Y71.096 F6000
G1 E-1.12 F2400
;WIPE_START
G1 F4800
G1 X160.231 Y71.721 E-.48
;WIPE_END
G1 X150.21 Y80.79 F6000
G1 E1.6 F2400
G1 F1200
G1 X150.21 Y150.21 E2.04602
G1 X80.79 Y150.21 E2.04602
G1 X80.79 Y80.79 E2.04602
G1 X150.15 Y80.79 E2.04425
G1 X150.596 Y80.686 F6000
G1 X150.29 Y80.71
G1 F1200
G1 X150.29 Y150.29 E2.05073
G1 X80.71 Y150.29 E2.05073
G1 X80.71 Y80.71 E2.05073
G1 X150.23 Y80.71 E2.04897
G1 X150.186 Y81.096 F6000
G1 E-1.12 F2400
;WIPE_START
G1 F4800
G1 X150.231 Y81.721 E-.48
;WIPE_END
G1 X140.21 Y90.79 F6000
G1 E1.6 F2400
G1 F1200
G1 X140.21 Y140.21 E1.45656
G1 X90.79 Y140.21 E1.45656
G1 X90.79 Y90.79 E1.45656
G1 X140.15 Y90.79 E1.45479
G1 X140.596 Y90.686 F6000
G1 X140.29 Y90.71
G1 F1200
G1 X140.29 Y140.29 E1.46127
G1 X90.71 Y140.29 E1.46127
G1 X90.71 Y90.71 E1.46127
G1 X140.23 Y90.71 E1.4595
G1 X140.186 Y91.096 F6000
G1 E-1.12 F2400
;WIPE_START
G1 F4800
G1 X140.231 Y91.721 E-.48
;WIPE_END
G1 X130.21 Y100.79 F6000
G1 E1.6 F2400
G1 F1200
G1 X130.21 Y130.21 E.8671
G1 X100.79 Y130.21 E.8671
G1 X100.79 Y100.79 E.8671
G1 X130.15 Y100.79 E.86533
G1 X130.596 Y100.686 F6000
G1 X130.29 Y100.71
G1 F1200
G1 X130.29 Y130.29 E.87181
G1 X100.71 Y130.29 E.87181
G1 X100.71 Y100.71 E.87181
G1 X130.23 Y100.71 E.87004
G1 X130.186 Y101.096 F6000
; stop printing object CHEP_bed_level_print.stl id:0 copy 0
M106 S255
;LAYER_CHANGE
;Z:0.4
;HEIGHT:0.2
;BEFORE_LAYER_CHANGE
G92 E0
;0.4


G1 E-1.12 F2400
;WIPE_START
G1 F4800
G1 X130.232 Y101.721 E-.48
;WIPE_END
G1 Z.4 F6000
;AFTER_LAYER_CHANGE
;0.4
; printing object CHEP_bed_level_print.stl id:0 copy 0
G1 X190.21 Y40.79
G1 E1.6 F2400
G1 F1800
G1 X190.21 Y190.21 E4.40386
G1 X40.79 Y190.21 E4.40386
G1 X40.79 Y40.79 E4.40386
G1 X190.15 Y40.79 E4.40209
G1 X190.596 Y40.686 F6000
G1 X190.29 Y40.71
G1 F1800
G1 X190.29 Y190.29 E4.40858
G1 X40.71 Y190.29 E4.40858
G1 X40.71 Y40.71 E4.40858
G1 X190.23 Y40.71 E4.40681
G1 X190.186 Y41.096 F6000
G1 E-1.12 F2400
;WIPE_START
G1 F4800
G1 X190.23 Y41.721 E-.48
;WIPE_END
G1 X180.21 Y50.79 F6000
G1 E1.6 F2400
G1 F1800
G1 X180.21 Y180.21 E3.8144
G1 X50.79 Y180.21 E3.8144
G1 X50.79 Y50.79 E3.8144
G1 X180.15 Y50.79 E3.81263
G1 X180.596 Y50.686 F6000
G1 X180.29 Y50.71
G1 F1800
G1 X180.29 Y180.29 E3.81912
G1 X50.71 Y180.29 E3.81912
G1 X50.71 Y50.71 E3.81912
G1 X180.23 Y50.71 E3.81735
G1 X180.186 Y51.096 F6000
G1 E-1.12 F2400
;WIPE_START
G1 F4800
G1 X180.23 Y51.721 E-.48
;WIPE_END
G1 X170.21 Y60.79 F6000
G1 E1.6 F2400
G1 F1800
G1 X170.21 Y170.21 E3.22494
G1 X60.79 Y170.21 E3.22494
G1 X60.79 Y60.79 E3.22494
G1 X170.15 Y60.79 E3.22317
G1 X170.596 Y60.686 F6000
G1 X170.29 Y60.71
G1 F1800
G1 X170.29 Y170.29 E3.22966
G1 X60.71 Y170.29 E3.22966
G1 X60.71 Y60.71 E3.22966
G1 X170.23 Y60.71 E3.22789
G1 X170.186 Y61.096 F6000
G1 E-1.12 F2400
;WIPE_START
G1 F4800
G1 X170.231 Y61.721 E-.48
;WIPE_END
G1 X160.21 Y70.79 F6000
G1 E1.6 F2400
G1 F1800
G1 X160.21 Y160.21 E2.63548
G1 X70.79 Y160.21 E2.63548
G1 X70.79 Y70.79 E2.63548
G1 X160.15 Y70.79 E2.63371
G1 X160.596 Y70.686 F6000
G1 X160.29 Y70.71
G1 F1800
G1 X160.29 Y160.29 E2.64019
G1 X70.71 Y160.29 E2.64019
G1 X70.71 Y70.71 E2.64019
G1 X160.23 Y70.71 E2.63843
G1 X160.186 Y71.096 F6000
G1 E-1.12 F2400
;WIPE_START
G1 F4800
G1 X160.231 Y71.721 E-.48
;WIPE_END
G1 X150.21 Y80.79 F6000
G1 E1.6 F2400
G1 F1800
G1 X150.21 Y150.21 E2.04602
G1 X80.79 Y150.21 E2.04602
G1 X80.79 Y80.79 E2.04602
G1 X150.15 Y80.79 E2.04425
G1 X150.596 Y80.686 F6000
G1 X150.29 Y80.71
G1 F1800
G1 X150.29 Y150.29 E2.05073
G1 X80.71 Y150.29 E2.05073
G1 X80.71 Y80.71 E2.05073
G1 X150.23 Y80.71 E2.04897
G1 X150.186 Y81.096 F6000
G1 E-1.12 F2400
;WIPE_START
G1 F4800
G1 X150.231 Y81.721 E-.48
;WIPE_END
G1 X140.21 Y90.79 F6000
G1 E1.6 F2400
G1 F1800
G1 X140.21 Y140.21 E1.45656
G1 X90.79 Y140.21 E1.45656
G1 X90.79 Y90.79 E1.45656
G1 X140.15 Y90.79 E1.45479
G1 X140.596 Y90.686 F6000
G1 X140.29 Y90.71
G1 F1800
G1 X140.29 Y140.29 E1.46127
G1 X90.71 Y140.29 E1.46127
G1 X90.71 Y90.71 E1.46127
G1 X140.23 Y90.71 E1.4595
G1 X140.186 Y91.096 F6000
G1 E-1.12 F2400
;WIPE_START
G1 F4800
G1 X140.231 Y91.721 E-.48
;WIPE_END
G1 X130.21 Y100.79 F6000
G1 E1.6 F2400
G1 F1800
G1 X130.21 Y130.21 E.8671
G1 X100.79 Y130.21 E.8671
G1 X100.79 Y100.79 E.8671
G1 X130.15 Y100.79 E.86533
G1 X130.596 Y100.686 F6000
G1 X130.29 Y100.71
G1 F1800
G1 X130.29 Y130.29 E.87181
G1 X100.71 Y130.29 E.87181
G1 X100.71 Y100.71 E.87181
G1 X130.23 Y100.71 E.87004
G1 X130.186 Y101.096 F6000
; stop printing object CHEP_bed_level_print.stl id:0 copy 0
;LAYER_CHANGE
;Z:0.6
;HEIGHT:0.2
;BEFORE_LAYER_CHANGE
G92 E0
;0.6


G1 E-1.12 F2400
;WIPE_START
G1 F4800
G1 X130.232 Y101.721 E-.48
;WIPE_END
G1 Z.6 F6000
;AFTER_LAYER_CHANGE
;0.6
; printing object CHEP_bed_level_print.stl id:0 copy 0
G1 X190.21 Y40.79
G1 E1.6 F2400
G1 F1800
G1 X190.21 Y190.21 E4.40386
G1 X40.79 Y190.21 E4.40386
G1 X40.79 Y40.79 E4.40386
G1 X190.15 Y40.79 E4.40209
G1 X190.596 Y40.686 F6000
G1 X190.29 Y40.71
G1 F1800
G1 X190.29 Y190.29 E4.40858
G1 X40.71 Y190.29 E4.40858
G1 X40.71 Y40.71 E4.40858
G1 X190.23 Y40.71 E4.40681
G1 X190.186 Y41.096 F6000
G1 E-1.12 F2400
;WIPE_START
G1 F4800
G1 X190.23 Y41.721 E-.48
;WIPE_END
G1 X180.21 Y50.79 F6000
G1 E1.6 F2400
G1 F1800
G1 X180.21 Y180.21 E3.8144
G1 X50.79 Y180.21 E3.8144
G1 X50.79 Y50.79 E3.8144
G1 X180.15 Y50.79 E3.81263
G1 X180.596 Y50.686 F6000
G1 X180.29 Y50.71
G1 F1800
G1 X180.29 Y180.29 E3.81912
G1 X50.71 Y180.29 E3.81912
G1 X50.71 Y50.71 E3.81912
G1 X180.23 Y50.71 E3.81735
G1 X180.186 Y51.096 F6000
G1 E-1.12 F2400
;WIPE_START
G1 F4800
G1 X180.23 Y51.721 E-.48
;WIPE_END
G1 X170.21 Y60.79 F6000
G1 E1.6 F2400
G1 F1800
G1 X170.21 Y170.21 E3.22494
G1 X60.79 Y170.21 E3.22494
G1 X60.79 Y60.79 E3.22494
G1 X170.15 Y60.79 E3.22317
G1 X170.596 Y60.686 F6000
G1 X170.29 Y60.71
G1 F1800
G1 X170.29 Y170.29 E3.22966
G1 X60.71 Y170.29 E3.22966
G1 X60.71 Y60.71 E3.22966
G1 X170.23 Y60.71 E3.22789
G1 X170.186 Y61.096 F6000
G1 E-1.12 F2400
;WIPE_START
G1 F4800
G1 X170.231 Y61.721 E-.48
;WIPE_END
G1 X160.21 Y70.79 F6000
G1 E1.6 F2400
G1 F1800
G1 X160.21 Y160.21 E2.63548
G1 X70.79 Y160.21 E2.63548
G1 X70.79 Y70.79 E2.63548
G1 X160.15 Y70.79 E2.63371
G1 X160.596 Y70.686 F6000
G1 X160.29 Y70.71
G1 F1800
G1 X160.29 Y160.29 E2.64019
G1 X70.71 Y160.29 E2.64019
G1 X70.71 Y70.71 E2.64019
G1 X160.23 Y70.71 E2.63843
G1 X160.186 Y71.096 F6000
G1 E-1.12 F2400
;WIPE_START
G1 F4800
G1 X160.231 Y71.721 E-.48
;WIPE_END
G1 X150.21 Y80.79 F6000
G1 E1.6 F2400
G1 F1800
G1 X150.21 Y150.21 E2.04602
G1 X80.79 Y150.21 E2.04602
G1 X80.79 Y80.79 E2.04602
G1 X150.15 Y80.79 E2.04425
G1 X150.596 Y80.686 F6000
G1 X150.29 Y80.71
G1 F1800
G1 X150.29 Y150.29 E2.05073
G1 X80.71 Y150.29 E2.05073
G1 X80.71 Y80.71 E2.05073
G1 X150.23 Y80.71 E2.04897
G1 X150.186 Y81.096 F6000
G1 E-1.12 F2400
;WIPE_START
G1 F4800
G1 X150.231 Y81.721 E-.48
;WIPE_END
G1 X140.21 Y90.79 F6000
G1 E1.6 F2400
G1 F1800
G1 X140.21 Y140.21 E1.45656
G1 X90.79 Y140.21 E1.45656
G1 X90.79 Y90.79 E1.45656
G1 X140.15 Y90.79 E1.45479
G1 X140.596 Y90.686 F6000
G1 X140.29 Y90.71
G1 F1800
G1 X140.29 Y140.29 E1.46127
G1 X90.71 Y140.29 E1.46127
G1 X90.71 Y90.71 E1.46127
G1 X140.23 Y90.71 E1.4595
G1 X140.186 Y91.096 F6000
G1 E-1.12 F2400
;WIPE_START
G1 F4800
G1 X140.231 Y91.721 E-.48
;WIPE_END
G1 X130.21 Y100.79 F6000
G1 E1.6 F2400
G1 F1800
G1 X130.21 Y130.21 E.8671
G1 X100.79 Y130.21 E.8671
G1 X100.79 Y100.79 E.8671
G1 X130.15 Y100.79 E.86533
G1 X130.596 Y100.686 F6000
G1 X130.29 Y100.71
G1 F1800
G1 X130.29 Y130.29 E.87181
G1 X100.71 Y130.29 E.87181
G1 X100.71 Y100.71 E.87181
G1 X130.23 Y100.71 E.87004
G1 X130.186 Y101.096 F6000
; stop printing object CHEP_bed_level_print.stl id:0 copy 0
;LAYER_CHANGE
;Z:0.8
;HEIGHT:0.2
;BEFORE_LAYER_CHANGE
G92 E0
;0.8


G1 E-1.12 F2400
;WIPE_START
G1 F4800
G1 X130.232 Y101.721 E-.48
;WIPE_END
G1 Z.8 F6000
;AFTER_LAYER_CHANGE
;0.8
; printing object CHEP_bed_level_print.stl id:0 copy 0
G1 X190.21 Y40.79
G1 E1.6 F2400
G1 F1800
G1 X190.21 Y190.21 E4.40386
G1 X40.79 Y190.21 E4.40386
G1 X40.79 Y40.79 E4.40386
G1 X190.15 Y40.79 E4.40209
G1 X190.596 Y40.686 F6000
G1 X190.29 Y40.71
G1 F1800
G1 X190.29 Y190.29 E4.40858
G1 X40.71 Y190.29 E4.40858
G1 X40.71 Y40.71 E4.40858
G1 X190.23 Y40.71 E4.40681
G1 X190.186 Y41.096 F6000
G1 E-1.12 F2400
;WIPE_START
G1 F4800
G1 X190.23 Y41.721 E-.48
;WIPE_END
G1 X180.21 Y50.79 F6000
G1 E1.6 F2400
G1 F1800
G1 X180.21 Y180.21 E3.8144
G1 X50.79 Y180.21 E3.8144
G1 X50.79 Y50.79 E3.8144
G1 X180.15 Y50.79 E3.81263
G1 X180.596 Y50.686 F6000
G1 X180.29 Y50.71
G1 F1800
G1 X180.29 Y180.29 E3.81912
G1 X50.71 Y180.29 E3.81912
G1 X50.71 Y50.71 E3.81912
G1 X180.23 Y50.71 E3.81735
G1 X180.186 Y51.096 F6000
G1 E-1.12 F2400
;WIPE_START
G1 F4800
G1 X180.23 Y51.721 E-.48
;WIPE_END
G1 X170.21 Y60.79 F6000
G1 E1.6 F2400
G1 F1800
G1 X170.21 Y170.21 E3.22494
G1 X60.79 Y170.21 E3.22494
G1 X60.79 Y60.79 E3.22494
G1 X170.15 Y60.79 E3.22317
G1 X170.596 Y60.686 F6000
G1 X170.29 Y60.71
G1 F1800
G1 X170.29 Y170.29 E3.22966
G1 X60.71 Y170.29 E3.22966
G1 X60.71 Y60.71 E3.22966
G1 X170.23 Y60.71 E3.22789
G1 X170.186 Y61.096 F6000
G1 E-1.12 F2400
;WIPE_START
G1 F4800
G1 X170.231 Y61.721 E-.48
;WIPE_END
G1 X160.21 Y70.79 F6000
G1 E1.6 F2400
G1 F1800
G1 X160.21 Y160.21 E2.63548
G1 X70.79 Y160.21 E2.63548
G1 X70.79 Y70.79 E2.63548
G1 X160.15 Y70.79 E2.63371
G1 X160.596 Y70.686 F6000
G1 X160.29 Y70.71
G1 F1800
G1 X160.29 Y160.29 E2.64019
G1 X70.71 Y160.29 E2.64019
G1 X70.71 Y70.71 E2.64019
G1 X160.23 Y70.71 E2.63843
G1 X160.186 Y71.096 F6000
G1 E-1.12 F2400
;WIPE_START
G1 F4800
G1 X160.231 Y71.721 E-.48
;WIPE_END
G1 X150.21 Y80.79 F6000
G1 E1.6 F2400
G1 F1800
G1 X150.21 Y150.21 E2.04602
G1 X80.79 Y150.21 E2.04602
G1 X80.79 Y80.79 E2.04602
G1 X150.15 Y80.79 E2.04425
G1 X150.596 Y80.686 F6000
G1 X150.29 Y80.71
G1 F1800
G1 X150.29 Y150.29 E2.05073
G1 X80.71 Y150.29 E2.05073
G1 X80.71 Y80.71 E2.05073
G1 X150.23 Y80.71 E2.04897
G1 X150.186 Y81.096 F6000
G1 E-1.12 F2400
;WIPE_START
G1 F4800
G1 X150.231 Y81.721 E-.48
;WIPE_END
G1 X140.21 Y90.79 F6000
G1 E1.6 F2400
G1 F1800
G1 X140.21 Y140.21 E1.45656
G1 X90.79 Y140.21 E1.45656
G1 X90.79 Y90.79 E1.45656
G1 X140.15 Y90.79 E1.45479
G1 X140.596 Y90.686 F6000
G1 X140.29 Y90.71
G1 F1800
G1 X140.29 Y140.29 E1.46127
G1 X90.71 Y140.29 E1.46127
G1 X90.71 Y90.71 E1.46127
G1 X140.23 Y90.71 E1.4595
G1 X140.186 Y91.096 F6000
G1 E-1.12 F2400
;WIPE_START
G1 F4800
G1 X140.231 Y91.721 E-.48
;WIPE_END
G1 X130.21 Y100.79 F6000
G1 E1.6 F2400
G1 F1800
G1 X130.21 Y130.21 E.8671
G1 X100.79 Y130.21 E.8671
G1 X100.79 Y100.79 E.8671
G1 X130.15 Y100.79 E.86533
G1 X130.596 Y100.686 F6000
G1 X130.29 Y100.71
G1 F1800
G1 X130.29 Y130.29 E.87181
G1 X100.71 Y130.29 E.87181
G1 X100.71 Y100.71 E.87181
G1 X130.23 Y100.71 E.87004
G1 X130.186 Y101.096 F6000
; stop printing object CHEP_bed_level_print.stl id:0 copy 0
;LAYER_CHANGE
;Z:1
;HEIGHT:0.2
;BEFORE_LAYER_CHANGE
G92 E0
;1


G1 E-1.12 F2400
;WIPE_START
G1 F4800
G1 X130.232 Y101.721 E-.48
;WIPE_END
G1 Z1 F6000
;AFTER_LAYER_CHANGE
;1
; printing object CHEP_bed_level_print.stl id:0 copy 0
G1 X190.21 Y40.79
G1 E1.6 F2400
G1 F1800
G1 X190.21 Y190.21 E4.40386
G1 X40.79 Y190.21 E4.40386
G1 X40.79 Y40.79 E4.40386
G1 X190.15 Y40.79 E4.40209
G1 X190.596 Y40.686 F6000
G1 X190.29 Y40.71
G1 F1800
G1 X190.29 Y190.29 E4.40858
G1 X40.71 Y190.29 E4.40858
G1 X40.71 Y40.71 E4.40858
G1 X190.23 Y40.71 E4.40681
G1 X190.186 Y41.096 F6000
G1 E-1.12 F2400
;WIPE_START
G1 F4800
G1 X190.23 Y41.721 E-.48
;WIPE_END
G1 X180.21 Y50.79 F6000
G1 E1.6 F2400
G1 F1800
G1 X180.21 Y180.21 E3.8144
G1 X50.79 Y180.21 E3.8144
G1 X50.79 Y50.79 E3.8144
G1 X180.15 Y50.79 E3.81263
G1 X180.596 Y50.686 F6000
G1 X180.29 Y50.71
G1 F1800
G1 X180.29 Y180.29 E3.81912
G1 X50.71 Y180.29 E3.81912
G1 X50.71 Y50.71 E3.81912
G1 X180.23 Y50.71 E3.81735
G1 X180.186 Y51.096 F6000
G1 E-1.12 F2400
;WIPE_START
G1 F4800
G1 X180.23 Y51.721 E-.48
;WIPE_END
G1 X170.21 Y60.79 F6000
G1 E1.6 F2400
G1 F1800
G1 X170.21 Y170.21 E3.22494
G1 X60.79 Y170.21 E3.22494
G1 X60.79 Y60.79 E3.22494
G1 X170.15 Y60.79 E3.22317
G1 X170.596 Y60.686 F6000
G1 X170.29 Y60.71
G1 F1800
G1 X170.29 Y170.29 E3.22966
G1 X60.71 Y170.29 E3.22966
G1 X60.71 Y60.71 E3.22966
G1 X170.23 Y60.71 E3.22789
G1 X170.186 Y61.096 F6000
G1 E-1.12 F2400
;WIPE_START
G1 F4800
G1 X170.231 Y61.721 E-.48
;WIPE_END
G1 X160.21 Y70.79 F6000
G1 E1.6 F2400
G1 F1800
G1 X160.21 Y160.21 E2.63548
G1 X70.79 Y160.21 E2.63548
G1 X70.79 Y70.79 E2.63548
G1 X160.15 Y70.79 E2.63371
G1 X160.596 Y70.686 F6000
G1 X160.29 Y70.71
G1 F1800
G1 X160.29 Y160.29 E2.64019
G1 X70.71 Y160.29 E2.64019
G1 X70.71 Y70.71 E2.64019
G1 X160.23 Y70.71 E2.63843
G1 X160.186 Y71.096 F6000
G1 E-1.12 F2400
;WIPE_START
G1 F4800
G1 X160.231 Y71.721 E-.48
;WIPE_END
G1 X150.21 Y80.79 F6000
G1 E1.6 F2400
G1 F1800
G1 X150.21 Y150.21 E2.04602
G1 X80.79 Y150.21 E2.04602
G1 X80.79 Y80.79 E2.04602
G1 X150.15 Y80.79 E2.04425
G1 X150.596 Y80.686 F6000
G1 X150.29 Y80.71
G1 F1800
G1 X150.29 Y150.29 E2.05073
G1 X80.71 Y150.29 E2.05073
G1 X80.71 Y80.71 E2.05073
G1 X150.23 Y80.71 E2.04897
G1 X150.186 Y81.096 F6000
G1 E-1.12 F2400
;WIPE_START
G1 F4800
G1 X150.231 Y81.721 E-.48
;WIPE_END
G1 X140.21 Y90.79 F6000
G1 E1.6 F2400
G1 F1800
G1 X140.21 Y140.21 E1.45656
G1 X90.79 Y140.21 E1.45656
