; generated by PrusaSlicer 2.6.0+win64 on 2023-08-01 at 13:01:08 UTC

; 

; external perimeters extrusion width = 0.42mm
; perimeters extrusion width = 0.44mm
; infill extrusion width = 0.44mm
; solid infill extrusion width = 0.44mm
; top infill extrusion width = 0.40mm
; first layer extrusion width = 0.42mm

; external perimeters extrusion width = 0.42mm
; perimeters extrusion width = 0.44mm
; infill extrusion width = 0.44mm
; solid infill extrusion width = 0.44mm
; top infill extrusion width = 0.40mm
; first layer extrusion width = 0.42mm

; external perimeters extrusion width = 0.42mm
; perimeters extrusion width = 0.44mm
; infill extrusion width = 0.44mm
; solid infill extrusion width = 0.44mm
; top infill extrusion width = 0.40mm
; first layer extrusion width = 0.42mm

; external perimeters extrusion width = 0.42mm
; perimeters extrusion width = 0.44mm
; infill extrusion width = 0.44mm
; solid infill extrusion width = 0.44mm
; top infill extrusion width = 0.40mm
; first layer extrusion width = 0.42mm

; external perimeters extrusion width = 0.42mm
; perimeters extrusion width = 0.44mm
; infill extrusion width = 0.44mm
; solid infill extrusion width = 0.44mm
; top infill extrusion width = 0.40mm
; first layer extrusion width = 0.42mm

; external perimeters extrusion width = 0.42mm
; perimeters extrusion width = 0.44mm
; infill extrusion width = 0.44mm
; solid infill extrusion width = 0.44mm
; top infill extrusion width = 0.40mm
; first layer extrusion width = 0.42mm

; external perimeters extrusion width = 0.42mm
; perimeters extrusion width = 0.44mm
; infill extrusion width = 0.44mm
; solid infill extrusion width = 0.44mm
; top infill extrusion width = 0.40mm
; first layer extrusion width = 0.42mm

;TYPE:Custom
; Ender 3 Custom Start G-code
G92 E0 ; Reset Extruder

M140 S50 ; set bed temp
M190 S50 ; wait for bed temp

G28 ; Home all axes
M104 S205 ; set extruder temp 
BED_MESH_CALIBRATE AREA_START=83.7684,88.5669 AREA_END=143.763,126.207

G1 Z2.0 F3000 ; Move Z Axis up little to prevent scratching of Heat Bed
M109 S205 ; wait for extruder temp
G1 X0.1 Y20 Z0.3 F5000.0 ; Move to start position

G1 X0.1 Y200.0 Z0.3 F1500.0 E15 ; Draw the first line
G1 X0.4 Y200.0 Z0.3 F5000.0 ; Move to side a little
G1 X0.4 Y20 Z0.3 F1500.0 E30 ; Draw the second line
G92 E0 ; Reset Extruder
G1 Z2.0 F3000 ; Move Z Axis up little to prevent scratching of Heat Bed
G1 X5 Y20 Z0.3 F5000.0 ; Move over to prevent blob squish
G21 ; set units to millimeters
G90 ; use absolute coordinates
M83 ; use relative distances for extrusion
; Filament gcode
M107
;LAYER_CHANGE
;Z:0.2
;HEIGHT:0.2
;BEFORE_LAYER_CHANGE
G92 E0
;0.2


G1 E-1.6 F2400
G1 Z.2 F6000
;AFTER_LAYER_CHANGE
;0.2
G1 X87.857 Y91.701
G1 E1.6 F2400
M204 S500
;TYPE:Skirt/Brim
;WIDTH:0.42
G1 F1200
G1 X88.725 Y90.996 E.03296
G1 X89.656 Y90.382 E.03287
G1 X91.322 Y89.564 E.0547
G1 X93.099 Y89.026 E.05472
G1 X94.721 Y88.79 E.04831
G1 X131.692 Y88.755 E1.08965
G1 X132.884 Y88.805 E.03516
G1 X133.843 Y88.938 E.02854
G1 X135.87 Y89.494 E.06195
G1 X137.7 Y90.365 E.05973
G1 X139.14 Y91.376 E.05186
G1 X140.583 Y92.775 E.05924
G1 X141.374 Y93.79 E.03793
G1 X141.835 Y94.519 E.02542
G1 X142.681 Y96.304 E.05822
G1 X143.24 Y98.341 E.06226
G1 X143.425 Y100.341 E.0592
G1 X143.575 Y114.341 E.41265
G1 X143.503 Y115.668 E.03917
G1 X143.296 Y116.888 E.03647
G1 X142.676 Y118.864 E.06104
G1 X141.69 Y120.733 E.06228
G1 X140.467 Y122.296 E.05849
G1 X139.688 Y123.064 E.03224
G1 X138.815 Y123.771 E.03311
G1 X137.173 Y124.778 E.05677
G1 X136.08 Y125.257 E.03517
G1 X134.281 Y125.783 E.05524
G1 X132.523 Y126.003 E.05222
G1 X95.078 Y126.009 E1.10362
G1 X93.39 Y125.81 E.0501
G1 X92.295 Y125.542 E.03323
G1 X91.185 Y125.153 E.03467
G1 X89.854 Y124.506 E.04362
G1 X88.8 Y123.835 E.03683
G1 X87.851 Y123.075 E.03583
G1 X86.76 Y121.96 E.04598
G1 X86.154 Y121.19 E.02888
G1 X85.328 Y119.862 E.04609
G1 X84.772 Y118.665 E.0389
G1 X84.319 Y117.276 E.04306
G1 X84.013 Y115.506 E.05294
G1 X83.957 Y114.505 E.02955
G1 X83.987 Y99.578 E.43994
G1 X84.339 Y97.433 E.06407
G1 X84.956 Y95.673 E.05497
G1 X85.359 Y94.854 E.0269
G1 X86.242 Y93.468 E.04844
G1 X86.875 Y92.684 E.0297
G1 X87.814 Y91.744 E.03916
G1 X88.08 Y92.01 F6000
G1 F1200
G1 X88.937 Y91.308 E.03265
G1 X89.836 Y90.714 E.03176
G1 X91.455 Y89.917 E.05319
G1 X92.992 Y89.437 E.04746
G1 X94.74 Y89.166 E.05213
G1 X131.692 Y89.133 E1.08909
G1 X133.767 Y89.308 E.06137
G1 X135.748 Y89.851 E.06054
G1 X137.509 Y90.69 E.05749
G1 X138.893 Y91.661 E.04983
G1 X140.304 Y93.029 E.05792
G1 X141.07 Y94.013 E.03675
G1 X141.565 Y94.802 E.02745
G1 X142.414 Y96.673 E.06056
G1 X142.882 Y98.473 E.05482
G1 X143.048 Y100.345 E.05539
G1 X143.198 Y114.345 E.41265
G1 X143.13 Y115.614 E.03745
G1 X142.924 Y116.824 E.03618
G1 X142.331 Y118.712 E.05833
G1 X141.369 Y120.534 E.06073
G1 X140.198 Y122.031 E.05602
G1 X139.594 Y122.642 E.02532
G1 X138.603 Y123.459 E.03785
G1 X136.981 Y124.453 E.05607
G1 X135.395 Y125.098 E.05046
G1 X134.218 Y125.411 E.0359
G1 X132.355 Y125.634 E.0553
G1 X95.105 Y125.633 E1.09787
G1 X93.449 Y125.437 E.04915
G1 X92.304 Y125.154 E.03476
G1 X91.337 Y124.807 E.03028
G1 X90.03 Y124.173 E.04281
G1 X89.019 Y123.528 E.03534
G1 X88.102 Y122.794 E.03462
G1 X87.039 Y121.706 E.04483
G1 X86.452 Y120.958 E.02802
G1 X85.657 Y119.676 E.04446
G1 X85.128 Y118.539 E.03696
G1 X84.684 Y117.182 E.04208
G1 X84.387 Y115.46 E.0515
G1 X84.334 Y114.505 E.02819
G1 X84.363 Y99.603 E.43921
G1 X84.7 Y97.541 E.06158
G1 X85.307 Y95.811 E.05404
G1 X85.705 Y95.004 E.02652
G1 X86.553 Y93.681 E.04632
G1 X87.156 Y92.934 E.02829
G1 X88.038 Y92.052 E.03676
G1 X88.304 Y92.318 F6000
G1 F1200
G1 X89.149 Y91.62 E.0323
G1 X90.029 Y91.037 E.03111
G1 X91.588 Y90.27 E.05121
G1 X93.208 Y89.774 E.04993
G1 X94.758 Y89.543 E.04619
G1 X131.692 Y89.51 E1.08856
G1 X133.69 Y89.677 E.05909
G1 X135.628 Y90.208 E.05922
G1 X137.318 Y91.015 E.0552
G1 X138.647 Y91.947 E.04784
G1 X140.013 Y93.269 E.05603
G1 X140.766 Y94.236 E.03612
G1 X141.237 Y94.988 E.02615
G1 X142.054 Y96.785 E.05818
G1 X142.512 Y98.545 E.0536
G1 X142.671 Y100.349 E.05338
G1 X142.821 Y114.349 E.41265
G1 X142.744 Y115.641 E.03815
G1 X142.521 Y116.917 E.03818
G1 X142.276 Y117.78 E.02644
G1 X141.409 Y119.75 E.06344
G1 X140.675 Y120.874 E.03957
G1 X140.018 Y121.672 E.03047
G1 X139.333 Y122.37 E.02882
G1 X138.39 Y123.147 E.03601
G1 X136.804 Y124.12 E.05484
G1 X135.27 Y124.742 E.04879
G1 X134.141 Y125.042 E.03443
G1 X132.345 Y125.257 E.05331
G1 X95.131 Y125.257 E1.09681
G1 X93.508 Y125.065 E.04817
G1 X92.409 Y124.792 E.03338
G1 X91.488 Y124.462 E.02883
G1 X90.206 Y123.839 E.04201
G1 X89.238 Y123.221 E.03385
G1 X88.306 Y122.47 E.03528
G1 X87.318 Y121.453 E.04179
G1 X86.76 Y120.741 E.02666
G1 X85.985 Y119.491 E.04335
G1 X85.483 Y118.413 E.03505
G1 X85.05 Y117.087 E.04111
G1 X84.761 Y115.415 E.05001
G1 X84.739 Y99.629 E.46526
G1 X85.061 Y97.651 E.05907
G1 X85.658 Y95.948 E.05319
G1 X86.04 Y95.178 E.02533
G1 X86.862 Y93.897 E.04486
G1 X87.438 Y93.185 E.02699
G1 X88.262 Y92.361 E.03435
; printing object Shape-Box id:2 copy 0
G1 E-1.12 F2400
;WIPE_START
G1 F4800
G1 X89.038 Y91.713 E-.48
;WIPE_END
G1 X129.122 Y108.759 F6000
G1 E1.6 F2400
;TYPE:External perimeter
G1 F1200
G1 X129.202 Y108.759 E.00236
G1 X129.202 Y109.339 E.01709
G1 X129.122 Y109.339 E.00236
G1 X129.122 Y108.819 E.01533
G1 X129.193 Y108.795 F6000
; stop printing object Shape-Box id:2 copy 0
; printing object Shape-Box id:1 copy 0
G1 E-1.12 F2400
;WIPE_START
G1 F4800
G1 X129.202 Y108.759 E-.0475
G1 X129.202 Y109.339 E-.2755
G1 X129.122 Y109.339 E-.038
G1 X129.122 Y109.088 E-.119
;WIPE_END
G1 X129.256 Y113.367 F6000
G1 E1.6 F2400
G1 F1200
G1 X129.336 Y113.367 E.00236
G1 X129.336 Y113.947 E.01709
G1 X129.256 Y113.947 E.00236
G1 X129.256 Y113.427 E.01533
G1 X129.327 Y113.404 F6000
; stop printing object Shape-Box id:1 copy 0
; printing object Shape-Box id:3 copy 0
G1 E-1.12 F2400
;WIPE_START
G1 F4800
G1 X129.336 Y113.367 E-.0475
G1 X129.336 Y113.947 E-.2755
G1 X129.256 Y113.947 E-.038
G1 X129.256 Y113.696 E-.119
;WIPE_END
G1 X118.054 Y113.314 F6000
G1 E1.6 F2400
G1 F1200
G1 X118.054 Y113.894 E.01709
G1 X117.974 Y113.894 E.00236
G1 X117.974 Y113.314 E.01709
G1 X117.994 Y113.314 E.00059
G1 X118.035 Y113.713 F6000
; stop printing object Shape-Box id:3 copy 0
; printing object Shape-Box id:4 copy 0
G1 E-1.12 F2400
;WIPE_START
G1 F4800
G1 X118.054 Y113.894 E-.27697
G1 X117.974 Y113.894 E-.038
G1 X117.974 Y113.547 E-.16503
;WIPE_END
G1 X113.581 Y113.398 F6000
G1 E1.6 F2400
G1 F1200
G1 X113.581 Y113.978 E.01709
G1 X113.501 Y113.978 E.00236
G1 X113.501 Y113.398 E.01709
G1 X113.521 Y113.398 E.00059
G1 X113.563 Y113.797 F6000
; stop printing object Shape-Box id:4 copy 0
; printing object Shape-Box id:5 copy 0
G1 X113.606 Y111.825
G1 F1200
G1 X113.606 Y111.245 E.01709
G1 X113.686 Y111.245 E.00236
G1 X113.686 Y111.825 E.01709
G1 X113.666 Y111.825 E.00059
G1 X113.624 Y111.425 F6000
; stop printing object Shape-Box id:5 copy 0
; printing object Shape-Box id:6 copy 0
G1 E-1.12 F2400
;WIPE_START
G1 F4800
G1 X113.606 Y111.245 E-.27697
G1 X113.686 Y111.245 E-.038
G1 X113.686 Y111.592 E-.16503
;WIPE_END
G1 X113.625 Y109.352 F6000
G1 E1.6 F2400
G1 F1200
G1 X113.545 Y109.352 E.00236
G1 X113.545 Y108.772 E.01709
G1 X113.625 Y108.772 E.00236
G1 X113.625 Y109.292 E.01533
G1 X113.554 Y109.315 F6000
; stop printing object Shape-Box id:6 copy 0
; printing object Shape-Box id:0 copy 0
G1 E-1.12 F2400
;WIPE_START
G1 F4800
G1 X113.545 Y109.352 E-.0475
G1 X113.545 Y108.772 E-.2755
G1 X113.625 Y108.772 E-.038
G1 X113.625 Y109.023 E-.119
;WIPE_END
G1 X115.511 Y111.687 F6000
G1 E1.6 F2400
;TYPE:Perimeter
G1 F1200
G1 X115.536 Y111.678 E.00078
G1 X115.622 Y111.555 E.00442
G1 X115.636 Y111.845 E.00856
G1 X115.607 Y111.761 E.00262
G1 X115.558 Y111.724 E.00181
G1 E-1.12 F2400
;WIPE_START
G1 F4800
G1 X115.536 Y111.678 E-.02422
G1 X115.622 Y111.555 E-.07129
G1 X115.636 Y111.845 E-.13791
G1 X115.607 Y111.761 E-.04221
G1 X115.558 Y111.724 E-.02917
;WIPE_END
G1 E-.1752 F2400
G1 X119.825 Y110.743 F6000
G1 E1.6 F2400
G1 F1200
G1 X119.77 Y110.681 E.00244
G1 X119.823 Y110.684 E.00156
G1 E-1.12 F2400
;WIPE_START
G1 F4800
G1 X119.77 Y110.681 E-.02522
G1 X119.823 Y110.684 E-.02522
;WIPE_END
G1 E-.42956 F2400
G1 X124.644 Y110.514 F6000
G1 E1.6 F2400
G1 F1200
G1 X124.65 Y110.358 E.0046
G1 X124.699 Y110.192 E.0051
G1 X124.773 Y110.08 E.00396
G1 X124.861 Y110.008 E.00335
G1 X124.961 Y109.97 E.00315
G1 X125.084 Y109.968 E.00363
G1 X125.199 Y110.023 E.00376
G1 X125.259 Y110.105 E.00299
G1 X125.459 Y110.732 E.0194
G1 X125.29 Y110.899 E.007
G1 X125.186 Y110.953 E.00345
G1 X124.984 Y110.973 E.00598
G1 X124.835 Y110.94 E.0045
G1 X124.758 Y110.888 E.00274
G1 X124.682 Y110.779 E.00392
G1 X124.642 Y110.574 E.00616
G1 E-1.12 F2400
;WIPE_START
G1 F4800
G1 X124.65 Y110.358 E-.10267
G1 X124.699 Y110.192 E-.08221
G1 X124.773 Y110.08 E-.06376
G1 X124.861 Y110.008 E-.05401
G1 X124.961 Y109.97 E-.05081
G1 X125.084 Y109.968 E-.05843
G1 X125.199 Y110.023 E-.06055
G1 X125.208 Y110.036 E-.00756
;WIPE_END
G1 X132.281 Y112.578 F6000
G1 E1.6 F2400
G1 F1200
G1 X131.529 Y112.576 E.02216
G1 X131.557 Y112.46 E.00352
G1 X131.611 Y111.953 E.01503
G1 X131.833 Y112.229 E.01044
G1 X132.022 Y112.403 E.00757
G1 X132.231 Y112.544 E.00743
G1 E-1.12 F2400
;WIPE_START
G1 F4800
G1 X131.529 Y112.576 E-.3338
G1 X131.557 Y112.46 E-.05668
G1 X131.577 Y112.273 E-.08952
;WIPE_END
G1 X134.05 Y110.732 F6000
G1 E1.6 F2400
G1 F1200
G1 X133.881 Y110.899 E.007
G1 X133.742 Y110.965 E.00454
G1 X133.574 Y110.973 E.00496
G1 X133.426 Y110.94 E.00447
G1 X133.349 Y110.888 E.00274
G1 X133.273 Y110.779 E.00392
G1 X133.232 Y110.602 E.00535
G1 X133.241 Y110.358 E.0072
G1 X133.289 Y110.192 E.00509
G1 X133.364 Y110.08 E.00397
G1 X133.452 Y110.008 E.00335
G1 X133.552 Y109.97 E.00315
G1 X133.675 Y109.968 E.00363
G1 X133.789 Y110.023 E.00373
G1 X133.849 Y110.105 E.00299
G1 X134.032 Y110.675 E.01764
G1 E-1.12 F2400
;WIPE_START
G1 F4800
G1 X133.881 Y110.899 E-.12832
G1 X133.742 Y110.965 E-.07309
G1 X133.574 Y110.973 E-.07989
G1 X133.426 Y110.94 E-.07203
G1 X133.349 Y110.888 E-.04413
G1 X133.273 Y110.779 E-.06312
G1 X133.264 Y110.739 E-.01942
;WIPE_END
G1 X110.02 Y108.16 F6000
G1 E1.6 F2400
G1 F1200
G1 X110.013 Y110.853 E.07937
G1 X109.983 Y111.388 E.01579
G1 X109.95 Y111.636 E.00737
G1 X111.236 Y111.023 E.04199
G1 X111.272 Y113.079 E.06061
G1 X110.465 Y113.524 E.02716
G1 X110.122 Y113.786 E.01272
G1 X109.869 Y114.047 E.01071
G1 X109.487 Y114.638 E.02074
G1 X108.02 Y114.638 E.04324
G1 X108.02 Y108.16 E.19093
G1 X109.96 Y108.16 E.05718
G1 X109.642 Y108.538 F6000
;TYPE:External perimeter
G1 F1200
G1 X109.636 Y110.842 E.06791
G1 X109.608 Y111.353 E.01508
G1 X109.542 Y111.844 E.0146
G1 X109.546 Y112.387 E.016
G1 X109.97 Y112.127 E.01466
G1 X110.116 Y111.974 E.00623
G1 X110.869 Y111.615 E.02459
G1 X110.891 Y112.858 E.03664
G1 X110.259 Y113.207 E.02128
G1 X109.871 Y113.503 E.01438
G1 X109.573 Y113.811 E.01263
G1 X109.282 Y114.261 E.01579
G1 X108.397 Y114.261 E.02608
G1 X108.397 Y108.538 E.16867
G1 X109.582 Y108.538 E.03493
G1 X110.002 Y108.363 F6000
G1 E-1.12 F2400
;WIPE_START
G1 F4800
G1 X109.606 Y109.548 E-.48
;WIPE_END
G1 X107.519 Y109.686 F6000
G1 E1.6 F2400
;TYPE:Perimeter
G1 F1200
G1 X107.519 Y111.687 E.05898
G1 X104.228 Y111.687 E.097
G1 X104.228 Y109.686 E.05898
G1 X107.459 Y109.686 E.09523
G1 X107.142 Y110.063 F6000
;TYPE:External perimeter
G1 F1200
G1 X107.142 Y111.31 E.03675
G1 X104.605 Y111.31 E.07477
G1 X104.605 Y110.063 E.03675
G1 X107.082 Y110.063 E.073
G1 X107.537 Y110.002 F6000
G1 E-1.12 F2400
;WIPE_START
G1 F4800
G1 X107.131 Y111.072 E-.48
;WIPE_END
G1 X108.074 Y104.707 F6000
G1 E1.6 F2400
;TYPE:Perimeter
G1 F1200
G1 X108.074 Y106.096 E.04094
G1 X101.118 Y106.096 E.20501
G1 X101.118 Y99.639 E.19031
G1 X108.368 Y99.639 E.21368
G1 X108.368 Y100.561 E.02717
G1 X108.605 Y100.289 E.01063
G1 X108.976 Y99.995 E.01395
G1 X109.39 Y99.774 E.01383
G1 X109.839 Y99.629 E.01391
G1 X110.338 Y99.558 E.01486
G1 X111.017 Y99.575 E.02002
G1 X111.458 Y99.653 E.0132
G1 X111.69 Y99.72 E.00712
G1 X112.069 Y99.879 E.01211
G1 X112.277 Y100 E.00709
G1 X112.607 Y100.256 E.01231
G1 X113.007 Y100.715 E.01794
G1 X113.309 Y101.268 E.01857
G1 X113.506 Y101.858 E.01833
G1 X113.587 Y102.274 E.01249
G1 X113.627 Y102.7 E.01261
G1 X113.61 Y103.362 E.01952
G1 X113.489 Y104.007 E.01934
G1 X113.256 Y104.605 E.01892
G1 X112.916 Y105.124 E.01829
G1 X112.628 Y105.423 E.01224
G1 X112.443 Y105.577 E.00709
G1 X111.931 Y105.883 E.01758
G1 X111.358 Y106.087 E.01793
G1 X110.751 Y106.179 E.01809
G1 X110.091 Y106.155 E.01947
G1 X109.642 Y106.057 E.01354
G1 X109.228 Y105.893 E.01312
G1 X108.85 Y105.66 E.01309
G1 X108.521 Y105.366 E.013
G1 X108.247 Y105.021 E.01298
G1 X108.103 Y104.759 E.00881
G1 E-1.12 F2400
;WIPE_START
G1 F4800
G1 X108.081 Y105.769 E-.48
;WIPE_END
G1 X108.064 Y102.16 F6000
G1 E1.6 F2400
;TYPE:External perimeter
G1 F1200
G1 X108.215 Y101.637 E.01604
G1 X108.379 Y101.233 E.01285
G1 X108.597 Y100.873 E.0124
G1 X108.866 Y100.563 E.0121
G1 X109.184 Y100.311 E.01196
G1 X109.538 Y100.122 E.01183
G1 X109.924 Y99.998 E.01195
G1 X110.36 Y99.935 E.01298
G1 X110.979 Y99.951 E.01825
G1 X111.372 Y100.021 E.01177
G1 X111.565 Y100.076 E.00591
G1 X111.9 Y100.217 E.01071
G1 X112.065 Y100.314 E.00564
G1 X112.347 Y100.531 E.01049
G1 X112.696 Y100.931 E.01565
G1 X112.962 Y101.42 E.01641
G1 X113.14 Y101.954 E.01659
G1 X113.213 Y102.328 E.01123
G1 X113.25 Y102.713 E.0114
G1 X113.234 Y103.322 E.01796
G1 X113.125 Y103.903 E.01742
G1 X112.919 Y104.431 E.0167
G1 X112.62 Y104.888 E.0161
G1 X112.372 Y105.146 E.01055
G1 X112.224 Y105.268 E.00565
G1 X111.769 Y105.54 E.01562
G1 X111.265 Y105.72 E.01577
G1 X110.729 Y105.801 E.01598
G1 X110.139 Y105.779 E.0174
G1 X109.752 Y105.695 E.01167
G1 X109.398 Y105.555 E.01122
G1 X109.076 Y105.356 E.01116
G1 X108.796 Y105.106 E.01106
G1 X108.562 Y104.812 E.01107
G1 X108.376 Y104.475 E.01134
G1 X108.132 Y103.792 E.02138
G1 X109.392 Y103.495 E.03815
G1 X109.631 Y104.089 E.01887
G1 X109.731 Y104.246 E.00549
G1 X109.842 Y104.369 E.00488
G1 X109.964 Y104.462 E.00452
G1 X110.104 Y104.532 E.00461
G1 X110.266 Y104.58 E.00498
