; generated by PrusaSlicer 2.6.0+win64 on 2023-08-01 at 20:40:59 UTC

; 

; external perimeters extrusion width = 0.42mm
; perimeters extrusion width = 0.44mm
; infill extrusion width = 0.44mm
; solid infill extrusion width = 0.44mm
; top infill extrusion width = 0.40mm
; first layer extrusion width = 0.42mm

; external perimeters extrusion width = 0.42mm
; perimeters extrusion width = 0.44mm
; infill extrusion width = 0.44mm
; solid infill extrusion width = 0.44mm
; top infill extrusion width = 0.40mm
; first layer extrusion width = 0.42mm

; external perimeters extrusion width = 0.42mm
; perimeters extrusion width = 0.44mm
; infill extrusion width = 0.44mm
; solid infill extrusion width = 0.44mm
; top infill extrusion width = 0.40mm
; first layer extrusion width = 0.42mm

; external perimeters extrusion width = 0.42mm
; perimeters extrusion width = 0.44mm
; infill extrusion width = 0.44mm
; solid infill extrusion width = 0.44mm
; top infill extrusion width = 0.40mm
; first layer extrusion width = 0.42mm

; external perimeters extrusion width = 0.42mm
; perimeters extrusion width = 0.44mm
; infill extrusion width = 0.44mm
; solid infill extrusion width = 0.44mm
; top infill extrusion width = 0.40mm
; first layer extrusion width = 0.42mm

; external perimeters extrusion width = 0.42mm
; perimeters extrusion width = 0.44mm
; infill extrusion width = 0.44mm
; solid infill extrusion width = 0.44mm
; top infill extrusion width = 0.40mm
; first layer extrusion width = 0.42mm

; external perimeters extrusion width = 0.42mm
; perimeters extrusion width = 0.44mm
; infill extrusion width = 0.44mm
; solid infill extrusion width = 0.44mm
; top infill extrusion width = 0.40mm
; first layer extrusion width = 0.42mm

;TYPE:Custom
; Ender 3 Custom Start G-code
G92 E0 ; Reset Extruder

M140 S50 ; set bed temp
M190 S50 ; wait for bed temp

G28 ; Home all axes
M104 S205 ; set extruder temp 
BED_MESH_CALIBRATE AREA_START=83.7985,88.597 AREA_END=143.733,126.177

G1 Z2.0 F3000 ; Move Z Axis up little to prevent scratching of Heat Bed
M109 S205 ; wait for extruder temp
G1 X0.1 Y20 Z0.3 F5000.0 ; Move to start position

G1 X0.1 Y200.0 Z0.3 F1500.0 E15 ; Draw the first line
G1 X0.4 Y200.0 Z0.3 F5000.0 ; Move to side a little
G1 X0.4 Y20 Z0.3 F1500.0 E30 ; Draw the second line
G92 E0 ; Reset Extruder
G1 Z2.0 F3000 ; Move Z Axis up little to prevent scratching of Heat Bed
G1 X5 Y20 Z0.3 F5000.0 ; Move over to prevent blob squish
G21 ; set units to millimeters
G90 ; use absolute coordinates
M83 ; use relative distances for extrusion
; Filament gcode
M107
;LAYER_CHANGE
;Z:0.24
;HEIGHT:0.24
;BEFORE_LAYER_CHANGE
G92 E0
;0.24


G1 E-1.6 F2400
G1 Z.24 F6000
;AFTER_LAYER_CHANGE
;0.24
G1 X87.872 Y91.722
G1 E1.6 F2400
M204 S500
;TYPE:Skirt/Brim
;WIDTH:0.42
G1 F1200
G1 X88.738 Y91.019 E.03855
G1 X89.683 Y90.397 E.0391
G1 X91.333 Y89.588 E.06351
G1 X93.103 Y89.052 E.06392
G1 X94.725 Y88.815 E.05666
G1 X131.691 Y88.781 E1.27764
G1 X132.881 Y88.831 E.04117
G1 X133.838 Y88.964 E.03339
G1 X135.863 Y89.519 E.07257
G1 X137.685 Y90.386 E.06974
G1 X139.123 Y91.395 E.06072
G1 X140.576 Y92.806 E.07
G1 X141.354 Y93.806 E.04379
G1 X141.869 Y94.627 E.0335
G1 X142.749 Y96.568 E.07366
G1 X143.227 Y98.404 E.06557
G1 X143.399 Y100.341 E.06721
G1 X143.549 Y114.341 E.4839
G1 X143.478 Y115.665 E.04583
G1 X143.271 Y116.882 E.04267
G1 X142.652 Y118.854 E.07144
G1 X141.669 Y120.718 E.07283
G1 X140.448 Y122.279 E.0685
G1 X139.671 Y123.044 E.03769
G1 X138.8 Y123.75 E.03875
G1 X137.164 Y124.754 E.06634
G1 X136.054 Y125.24 E.04188
G1 X134.374 Y125.739 E.06057
G1 X132.522 Y125.977 E.06454
G1 X95.08 Y125.984 E1.29409
G1 X93.396 Y125.784 E.05861
G1 X92.207 Y125.492 E.04232
G1 X91.195 Y125.129 E.03716
G1 X89.867 Y124.484 E.05103
G1 X88.83 Y123.825 E.04247
G1 X87.943 Y123.122 E.03912
G1 X86.78 Y121.943 E.05724
G1 X86.176 Y121.176 E.03374
G1 X85.352 Y119.852 E.0539
G1 X84.796 Y118.656 E.04559
G1 X84.344 Y117.268 E.05045
G1 X84.038 Y115.503 E.06191
G1 X83.983 Y114.503 E.03461
G1 X84.012 Y99.578 E.51585
G1 X84.363 Y97.44 E.07488
G1 X84.979 Y95.683 E.06435
G1 X85.393 Y94.842 E.0324
G1 X86.264 Y93.481 E.05585
G1 X86.893 Y92.702 E.03461
G1 X87.83 Y91.764 E.04582
G1 X88.09 Y92.025 F6000
G1 F1200
G1 X88.959 Y91.313 E.03883
G1 X89.859 Y90.72 E.03725
G1 X91.463 Y89.932 E.06177
G1 X93.134 Y89.421 E.06039
G1 X94.743 Y89.183 E.05622
G1 X131.691 Y89.15 E1.27702
G1 X133.763 Y89.324 E.07187
G1 X135.743 Y89.867 E.07096
G1 X137.498 Y90.704 E.0672
G1 X138.853 Y91.649 E.0571
G1 X140.292 Y93.041 E.0692
G1 X141.058 Y94.026 E.04313
G1 X141.549 Y94.809 E.03194
G1 X142.398 Y96.678 E.07095
G1 X142.865 Y98.474 E.06414
G1 X143.031 Y100.345 E.06492
G1 X143.181 Y114.345 E.4839
G1 X143.099 Y115.705 E.04709
G1 X142.871 Y116.999 E.04541
G1 X142.622 Y117.877 E.03154
G1 X142.315 Y118.705 E.03052
G1 X141.722 Y119.927 E.04695
G1 X140.968 Y121.082 E.04767
G1 X140.286 Y121.911 E.0371
G1 X139.582 Y122.631 E.0348
G1 X138.592 Y123.445 E.0443
G1 X136.973 Y124.438 E.06564
G1 X135.389 Y125.082 E.0591
G1 X134.199 Y125.397 E.04255
G1 X132.355 Y125.617 E.06419
G1 X95.106 Y125.616 E1.28742
G1 X93.453 Y125.42 E.05753
G1 X92.311 Y125.138 E.04066
G1 X91.343 Y124.791 E.03554
G1 X90.039 Y124.158 E.0501
G1 X89.027 Y123.513 E.04148
G1 X88.059 Y122.731 E.04301
G1 X87.052 Y121.695 E.04993
G1 X86.465 Y120.946 E.03289
G1 X85.673 Y119.671 E.05188
G1 X85.144 Y118.533 E.04337
G1 X84.701 Y117.176 E.04934
G1 X84.404 Y115.458 E.06026
G1 X84.351 Y114.503 E.03306
G1 X84.38 Y99.603 E.51498
G1 X84.716 Y97.547 E.072
G1 X85.322 Y95.818 E.06332
G1 X85.721 Y95.012 E.03108
G1 X86.566 Y93.693 E.05414
G1 X87.168 Y92.947 E.03313
G1 X88.047 Y92.067 E.04299
G1 X88.308 Y92.327 F6000
G1 F1200
G1 X89.165 Y91.618 E.03844
G1 X90.739 Y90.663 E.06363
G1 X92.341 Y90.015 E.05973
G1 X93.939 Y89.643 E.05671
G1 X95.374 Y89.521 E.04978
G1 X131.691 Y89.518 E1.25521
G1 X133.688 Y89.685 E.06926
G1 X135.623 Y90.216 E.06935
G1 X137.311 Y91.022 E.06465
G1 X138.616 Y91.931 E.05497
G1 X140.008 Y93.275 E.06688
G1 X140.761 Y94.244 E.04241
G1 X141.228 Y94.991 E.03045
G1 X142.046 Y96.788 E.06824
G1 X142.503 Y98.544 E.06271
G1 X142.662 Y100.349 E.06263
G1 X142.812 Y114.349 E.4839
G1 X142.735 Y115.643 E.0448
G1 X142.513 Y116.913 E.04456
G1 X142.256 Y117.817 E.03248
G1 X141.401 Y119.747 E.07296
G1 X140.667 Y120.87 E.04637
G1 X140.01 Y121.667 E.0357
G1 X139.326 Y122.365 E.03378
G1 X138.385 Y123.141 E.04216
G1 X136.8 Y124.113 E.06426
G1 X135.267 Y124.734 E.05717
G1 X134.138 Y125.034 E.04038
G1 X132.346 Y125.248 E.06238
G1 X95.132 Y125.249 E1.28621
G1 X93.51 Y125.056 E.05646
G1 X92.414 Y124.784 E.03903
G1 X91.491 Y124.454 E.03388
G1 X90.211 Y123.832 E.04919
G1 X89.241 Y123.213 E.03977
G1 X88.312 Y122.464 E.04124
G1 X87.325 Y121.447 E.04898
G1 X86.766 Y120.734 E.03131
G1 X85.994 Y119.489 E.05063
G1 X85.491 Y118.41 E.04115
G1 X85.057 Y117.083 E.04826
G1 X84.77 Y115.414 E.05853
G1 X84.748 Y99.628 E.5456
G1 X85.069 Y97.652 E.06919
G1 X85.665 Y95.953 E.06223
G1 X86.048 Y95.181 E.02979
G1 X86.868 Y93.904 E.05245
G1 X87.443 Y93.192 E.03163
G1 X88.265 Y92.37 E.04018
; printing object Shape-Box id:2 copy 0
G1 E-1.12 F2400
;WIPE_START
G1 F4800
G1 X89.04 Y91.722 E-.48
;WIPE_END
G1 X129.122 Y108.759 F6000
G1 E1.6 F2400
;TYPE:External perimeter
G1 F1200
G1 X129.202 Y108.759 E.00277
G1 X129.202 Y109.339 E.02005
G1 X129.122 Y109.339 E.00277
G1 X129.122 Y108.819 E.01797
G1 X129.193 Y108.795 F6000
; stop printing object Shape-Box id:2 copy 0
; printing object Shape-Box id:1 copy 0
G1 E-1.12 F2400
;WIPE_START
G1 F4800
G1 X129.202 Y108.759 E-.0475
G1 X129.202 Y109.339 E-.2755
G1 X129.122 Y109.339 E-.038
G1 X129.122 Y109.088 E-.119
;WIPE_END
G1 X129.256 Y113.367 F6000
G1 E1.6 F2400
G1 F1200
G1 X129.336 Y113.367 E.00277
G1 X129.336 Y113.947 E.02005
G1 X129.256 Y113.947 E.00277
G1 X129.256 Y113.427 E.01797
G1 X129.327 Y113.404 F6000
; stop printing object Shape-Box id:1 copy 0
; printing object Shape-Box id:3 copy 0
G1 E-1.12 F2400
;WIPE_START
G1 F4800
G1 X129.336 Y113.367 E-.0475
G1 X129.336 Y113.947 E-.2755
G1 X129.256 Y113.947 E-.038
G1 X129.256 Y113.696 E-.119
;WIPE_END
G1 X118.054 Y113.314 F6000
G1 E1.6 F2400
G1 F1200
G1 X118.054 Y113.894 E.02005
G1 X117.974 Y113.894 E.00277
G1 X117.974 Y113.314 E.02005
G1 X117.994 Y113.314 E.00069
G1 X118.035 Y113.713 F6000
; stop printing object Shape-Box id:3 copy 0
; printing object Shape-Box id:4 copy 0
G1 E-1.12 F2400
;WIPE_START
G1 F4800
G1 X118.054 Y113.894 E-.27697
G1 X117.974 Y113.894 E-.038
G1 X117.974 Y113.547 E-.16503
;WIPE_END
G1 X113.581 Y113.398 F6000
G1 E1.6 F2400
G1 F1200
G1 X113.581 Y113.978 E.02005
G1 X113.501 Y113.978 E.00277
G1 X113.501 Y113.398 E.02005
G1 X113.521 Y113.398 E.00069
G1 X113.563 Y113.797 F6000
; stop printing object Shape-Box id:4 copy 0
; printing object Shape-Box id:5 copy 0
G1 X113.606 Y111.825
G1 F1200
G1 X113.606 Y111.245 E.02005
G1 X113.686 Y111.245 E.00277
G1 X113.686 Y111.825 E.02005
G1 X113.666 Y111.825 E.00069
G1 X113.624 Y111.425 F6000
; stop printing object Shape-Box id:5 copy 0
; printing object Shape-Box id:6 copy 0
G1 E-1.12 F2400
;WIPE_START
G1 F4800
G1 X113.606 Y111.245 E-.27697
G1 X113.686 Y111.245 E-.038
G1 X113.686 Y111.592 E-.16503
;WIPE_END
G1 X113.625 Y109.352 F6000
G1 E1.6 F2400
G1 F1200
G1 X113.545 Y109.352 E.00277
G1 X113.545 Y108.772 E.02005
G1 X113.625 Y108.772 E.00277
G1 X113.625 Y109.292 E.01797
G1 X113.554 Y109.315 F6000
; stop printing object Shape-Box id:6 copy 0
; printing object Shape-Box id:0 copy 0
G1 E-1.12 F2400
;WIPE_START
G1 F4800
G1 X113.545 Y109.352 E-.0475
G1 X113.545 Y108.772 E-.2755
G1 X113.625 Y108.772 E-.038
G1 X113.625 Y109.023 E-.119
;WIPE_END
G1 X115.493 Y111.684 F6000
G1 E1.6 F2400
;TYPE:Perimeter
G1 F1200
G1 X115.531 Y111.671 E.00139
G1 X115.629 Y111.529 E.00596
G1 X115.647 Y111.903 E.01294
G1 X115.599 Y111.767 E.00498
G1 X115.54 Y111.721 E.00259
G1 E-1.12 F2400
;WIPE_START
G1 F4800
G1 X115.531 Y111.671 E-.02413
G1 X115.629 Y111.529 E-.08195
G1 X115.647 Y111.903 E-.17786
G1 X115.599 Y111.767 E-.06851
G1 X115.54 Y111.721 E-.03554
;WIPE_END
G1 E-.09201 F2400
G1 X118.147 Y109.963 F6000
G1 E1.6 F2400
G1 F1200
G1 X118.028 Y109.967 E.00412
G1 X118.088 Y109.954 E.00212
G1 X119.833 Y110.75 F6000
G1 F1200
G1 X119.833 Y110.763 E.00045
G1 X119.752 Y110.672 E.00421
G1 X119.833 Y110.677 E.0028
G1 X119.833 Y110.69 E.00045
G1 E-1.12 F2400
;WIPE_START
G1 F4800
G1 X119.833 Y110.763 E-.03468
G1 X119.752 Y110.672 E-.05787
G1 X119.833 Y110.677 E-.03855
G1 X119.833 Y110.69 E-.00617
;WIPE_END
G1 E-.34273 F2400
G1 X124.635 Y110.522 F6000
G1 E1.6 F2400
G1 F1200
G1 X124.641 Y110.357 E.00571
G1 X124.691 Y110.189 E.00606
G1 X124.767 Y110.074 E.00476
G1 X124.857 Y110 E.00403
G1 X124.959 Y109.961 E.00377
G1 X125.086 Y109.96 E.00439
G1 X125.204 Y110.016 E.00451
G1 X125.264 Y110.098 E.00351
G1 X125.462 Y110.736 E.02309
G1 X125.291 Y110.907 E.00836
G1 X125.188 Y110.961 E.00402
G1 X124.983 Y110.982 E.00712
G1 X124.832 Y110.948 E.00535
G1 X124.752 Y110.894 E.00334
G1 X124.674 Y110.783 E.00469
G1 X124.633 Y110.582 E.00709
G1 E-1.12 F2400
;WIPE_START
G1 F4800
G1 X124.641 Y110.357 E-.10694
G1 X124.691 Y110.189 E-.08326
G1 X124.767 Y110.074 E-.06548
G1 X124.857 Y110 E-.05535
G1 X124.959 Y109.961 E-.05187
G1 X125.086 Y109.96 E-.06033
G1 X125.194 Y110.011 E-.05677
;WIPE_END
G1 X132.309 Y112.587 F6000
G1 E1.6 F2400
G1 F1200
G1 X131.518 Y112.584 E.02734
G1 X131.548 Y112.459 E.00444
G1 X131.605 Y111.932 E.01832
G1 X131.84 Y112.223 E.01293
G1 X132.027 Y112.396 E.0088
G1 X132.259 Y112.553 E.00968
G1 E-1.12 F2400
;WIPE_START
G1 F4800
G1 X131.518 Y112.584 E-.35228
G1 X131.548 Y112.459 E-.06106
G1 X131.563 Y112.319 E-.06666
;WIPE_END
G1 X134.027 Y110.651 F6000
G1 E1.6 F2400
G1 F1200
G1 X134.053 Y110.736 E.00307
G1 X133.882 Y110.907 E.00836
G1 X133.779 Y110.961 E.00402
G1 X133.574 Y110.982 E.00712
G1 X133.423 Y110.948 E.00535
G1 X133.342 Y110.894 E.00336
G1 X133.265 Y110.783 E.00467
G1 X133.223 Y110.603 E.00639
G1 X133.232 Y110.357 E.00851
G1 X133.281 Y110.189 E.00605
G1 X133.358 Y110.074 E.00478
G1 X133.448 Y110 E.00403
G1 X133.55 Y109.961 E.00377
G1 X133.677 Y109.96 E.00439
G1 X133.795 Y110.016 E.00451
G1 X133.855 Y110.098 E.00351
G1 X134.009 Y110.594 E.01795
G1 E-1.12 F2400
;WIPE_START
G1 F4800
G1 X134.053 Y110.736 E-.07061
G1 X133.882 Y110.907 E-.11487
G1 X133.779 Y110.961 E-.05524
G1 X133.574 Y110.982 E-.09788
G1 X133.423 Y110.948 E-.07352
G1 X133.342 Y110.894 E-.04624
G1 X133.316 Y110.857 E-.02164
;WIPE_END
G1 X110.011 Y108.169 F6000
G1 E1.6 F2400
G1 F1200
G1 X110.005 Y110.852 E.09273
G1 X109.975 Y111.387 E.01852
G1 X109.94 Y111.65 E.00917
G1 X111.227 Y111.036 E.04928
G1 X111.263 Y113.074 E.07045
G1 X110.461 Y113.517 E.03167
G1 X110.116 Y113.78 E.01499
G1 X109.862 Y114.041 E.01259
G1 X109.482 Y114.629 E.0242
G1 X108.029 Y114.629 E.05022
G1 X108.029 Y108.169 E.22327
G1 X109.951 Y108.169 E.06643
G1 X109.642 Y108.538 F6000
;TYPE:External perimeter
G1 F1200
G1 X109.636 Y110.842 E.07963
G1 X109.608 Y111.352 E.01765
G1 X109.543 Y111.844 E.01715
G1 X109.546 Y112.387 E.01877
G1 X109.97 Y112.127 E.01719
G1 X110.116 Y111.974 E.00731
G1 X110.869 Y111.615 E.02883
G1 X110.891 Y112.858 E.04297
G1 X110.259 Y113.207 E.02495
G1 X109.871 Y113.503 E.01687
G1 X109.573 Y113.811 E.01481
G1 X109.282 Y114.261 E.01852
G1 X108.397 Y114.261 E.03059
G1 X108.397 Y108.538 E.1978
G1 X109.582 Y108.538 E.04096
G1 X110.002 Y108.363 F6000
G1 E-1.12 F2400
;WIPE_START
G1 F4800
G1 X109.606 Y109.548 E-.48
;WIPE_END
G1 X107.51 Y109.694 F6000
G1 E1.6 F2400
;TYPE:Perimeter
G1 F1200
G1 X107.51 Y111.679 E.06861
G1 X104.236 Y111.679 E.11316
G1 X104.236 Y109.694 E.06861
G1 X107.45 Y109.694 E.11108
G1 E-1.12 F2400
;WIPE_START
G1 F4800
G1 X107.481 Y110.704 E-.48
;WIPE_END
G1 X104.605 Y110.063 F6000
G1 E1.6 F2400
;TYPE:External perimeter
G1 F1200
G1 X107.142 Y110.063 E.08769
G1 X107.142 Y111.31 E.0431
G1 X104.605 Y111.31 E.08769
G1 X104.605 Y110.123 E.04103
G1 X104.46 Y109.69 F6000
G1 E-1.12 F2400
;WIPE_START
G1 F4800
G1 X105.615 Y110.099 E-.48
;WIPE_END
G1 X108.065 Y104.674 F6000
G1 E1.6 F2400
;TYPE:Perimeter
G1 F1200
G1 X108.065 Y106.087 E.04884
G1 X101.127 Y106.087 E.23979
G1 X101.127 Y99.648 E.22255
G1 X108.36 Y99.648 E.24999
G1 X108.36 Y100.583 E.03232
G1 X108.611 Y100.296 E.01318
G1 X108.981 Y100.002 E.01633
G1 X109.393 Y99.782 E.01614
G1 X109.841 Y99.637 E.01627
G1 X110.343 Y99.566 E.01752
G1 X111.016 Y99.584 E.02327
G1 X111.456 Y99.661 E.01544
G1 X111.688 Y99.728 E.00835
G1 X112.065 Y99.887 E.01414
G1 X112.272 Y100.007 E.00827
G1 X112.601 Y100.262 E.01439
G1 X113 Y100.719 E.02097
G1 X113.302 Y101.272 E.02178
G1 X113.497 Y101.86 E.02141
G1 X113.579 Y102.275 E.01462
G1 X113.619 Y102.7 E.01475
G1 X113.602 Y103.361 E.02285
G1 X113.481 Y104.005 E.02265
G1 X113.248 Y104.601 E.02212
G1 X112.91 Y105.118 E.02135
G1 X112.623 Y105.417 E.01432
G1 X112.438 Y105.57 E.0083
G1 X111.927 Y105.875 E.02057
G1 X111.355 Y106.079 E.02099
G1 X110.75 Y106.17 E.02115
G1 X110.092 Y106.146 E.02276
G1 X109.645 Y106.049 E.01581
G1 X109.232 Y105.885 E.01536
G1 X108.855 Y105.653 E.0153
G1 X108.527 Y105.36 E.0152
G1 X108.254 Y105.017 E.01515
G1 X108.094 Y104.726 E.01148
G1 X108.132 Y103.792 F6000
;TYPE:External perimeter
G1 F1200
G1 X109.392 Y103.495 E.04474
G1 X109.631 Y104.089 E.02213
G1 X109.731 Y104.246 E.00643
G1 X109.842 Y104.369 E.00573
G1 X109.964 Y104.462 E.0053
G1 X110.104 Y104.532 E.00541
G1 X110.266 Y104.58 E.00584
G1 X110.455 Y104.606 E.00659
G1 X110.682 Y104.605 E.00785
G1 X110.904 Y104.576 E.00774
G1 X111.2 Y104.479 E.01077
G1 X111.36 Y104.385 E.00641
G1 X111.503 Y104.265 E.00645
G1 X111.623 Y104.126 E.00635
G1 X111.72 Y103.967 E.00644
G1 X111.798 Y103.781 E.00697
G1 X111.859 Y103.574 E.00746
G1 X111.931 Y103.133 E.01544
G1 X111.929 Y102.616 E.01787
G1 X111.845 Y102.109 E.01776
G1 X111.774 Y101.889 E.00799
G1 X111.688 Y101.709 E.00689
G1 X111.52 Y101.485 E.00968
G1 X111.309 Y101.318 E.0093
G1 X111.147 Y101.235 E.00629
G1 X110.802 Y101.139 E.01238
G1 X110.493 Y101.13 E.01068
G1 X110.286 Y101.163 E.00724
G1 X110.099 Y101.226 E.00682
G1 X109.936 Y101.318 E.00647
G1 X109.716 Y101.521 E.01035
G1 X109.545 Y101.803 E.0114
G1 X109.46 Y102.041 E.00873
