; generated by PrusaSlicer 2.6.0+win64 on 2023-07-24 at 14:39:23 UTC

; 

; external perimeters extrusion width = 0.42mm
; perimeters extrusion width = 0.44mm
; infill extrusion width = 0.44mm
; solid infill extrusion width = 0.44mm
; top infill extrusion width = 0.40mm
; support material extrusion width = 0.36mm
; first layer extrusion width = 0.42mm

;TYPE:Custom
; Ender 3 Custom Start G-code
G92 E0 ; Reset Extruder

M140 S80 ; set bed temp
M190 S80 ; wait for bed temp

G28 ; Home all axes
M104 S235 ; set extruder temp 
BED_MESH_CALIBRATE AREA_START=101.088,80.3676 AREA_END=129.914,150.632

G1 Z2.0 F3000 ; Move Z Axis up little to prevent scratching of Heat Bed
M109 S235 ; wait for extruder temp
G1 X0.1 Y20 Z0.3 F5000.0 ; Move to start position

G1 X0.1 Y200.0 Z0.3 F1500.0 E15 ; Draw the first line
G1 X0.4 Y200.0 Z0.3 F5000.0 ; Move to side a little
G1 X0.4 Y20 Z0.3 F1500.0 E30 ; Draw the second line
G92 E0 ; Reset Extruder
G1 Z2.0 F3000 ; Move Z Axis up little to prevent scratching of Heat Bed
G1 X5 Y20 Z0.3 F5000.0 ; Move over to prevent blob squish
G21 ; set units to millimeters
G90 ; use absolute coordinates
M83 ; use relative distances for extrusion
; Filament gcode
M107
;LAYER_CHANGE
;Z:0.22
;HEIGHT:0.22
;BEFORE_LAYER_CHANGE
G92 E0
;0.22


G1 E-1.6 F2400
G1 Z.22 F6000
;AFTER_LAYER_CHANGE
;0.22
G1 X104.73 Y81.91
G1 E1.6 F2400
M204 S500
;TYPE:Skirt/Brim
;WIDTH:0.42
G1 F1200
G1 X105.912 Y80.881 E.05023
G1 X107.303 Y80.554 E.0458
G1 X123.697 Y80.554 E.52545
G1 X125.214 Y80.948 E.05024
G1 X126.348 Y82.029 E.05021
G1 X126.802 Y83.384 E.0458
G1 X129.659 Y114.101 E.98877
G1 X129.727 Y115.425 E.04249
G1 X129.659 Y116.899 E.04729
G1 X126.802 Y147.616 E.98877
G1 X126.27 Y149.09 E.05023
G1 X125.088 Y150.119 E.05023
G1 X123.697 Y150.446 E.0458
G1 X107.303 Y150.446 E.52545
G1 X105.786 Y150.052 E.05024
G1 X104.652 Y148.971 E.05021
G1 X104.198 Y147.616 E.0458
G1 X101.276 Y115.821 E1.02337
G1 X101.319 Y114.347 E.04726
G1 X104.198 Y83.384 E.99669
G1 X104.709 Y81.967 E.04828
G1 X105.069 Y82.103 F6000
G1 F1200
G1 X105.091 Y82.046 E.00196
G1 X106.246 Y81.138 E.04709
G1 X107.303 Y80.927 E.03455
G1 X123.697 Y80.927 E.52545
G1 X125.112 Y81.32 E.04707
G1 X126.123 Y82.385 E.04707
G1 X126.431 Y83.418 E.03455
G1 X129.288 Y114.136 E.9888
G1 X129.355 Y115.434 E.04166
G1 X129.288 Y116.864 E.04588
G1 X126.431 Y147.582 E.9888
G1 X125.909 Y148.954 E.04705
G1 X124.754 Y149.862 E.04709
G1 X123.697 Y150.073 E.03455
G1 X107.303 Y150.073 E.52545
G1 X105.888 Y149.681 E.04706
G1 X104.877 Y148.615 E.04709
G1 X104.569 Y147.582 E.03455
G1 X101.653 Y115.948 E1.01821
G1 X101.69 Y114.381 E.05024
G1 X104.569 Y83.418 E.99669
G1 X105.048 Y82.159 E.04317
G1 X105.404 Y82.304 F6000
G1 F1200
G1 X105.451 Y82.189 E.00398
G1 X106.573 Y81.415 E.04369
G1 X107.303 Y81.3 E.02369
G1 X123.697 Y81.3 E.52545
G1 X125.003 Y81.691 E.04369
G1 X125.878 Y82.737 E.04371
G1 X126.06 Y83.453 E.02368
G1 X128.917 Y114.17 E.98877
G1 X128.982 Y115.443 E.04085
G1 X128.917 Y116.83 E.0445
G1 X126.06 Y147.547 E.98877
G1 X125.549 Y148.811 E.0437
G1 X124.427 Y149.585 E.04369
G1 X123.697 Y149.7 E.02369
G1 X107.303 Y149.7 E.52545
G1 X105.997 Y149.309 E.04369
G1 X105.122 Y148.263 E.04371
G1 X104.94 Y147.547 E.02368
G1 X102.023 Y115.867 E1.01968
G1 X102.061 Y114.416 E.04652
G1 X104.94 Y83.453 E.99669
G1 X105.382 Y82.359 E.03782
; printing object middle_section_2con_v1.stl id:0 copy 0
G1 E-1.12 F2400
;WIPE_START
G1 F4800
G1 X105.451 Y82.189 E-.08715
G1 X106.132 Y81.719 E-.39285
;WIPE_END
G1 X112.936 Y91.87 F6000
G1 E1.6 F2400
;TYPE:Support material interface
;WIDTH:0.36
G1 F1200
G1 X112.936 Y86.619 E.14121
G1 X113.449 Y86.619 E.0138
G1 X113.449 Y91.87 E.14121
G1 X113.962 Y91.87 E.0138
G1 X113.962 Y86.619 E.14121
G1 X114.474 Y86.619 E.01377
G1 X114.474 Y91.87 E.14121
G1 X114.987 Y91.87 E.0138
G1 X114.987 Y86.619 E.14121
G1 X115.5 Y86.619 E.0138
G1 X115.5 Y91.87 E.14121
G1 X116.013 Y91.87 E.0138
G1 X116.013 Y86.619 E.14121
G1 X116.526 Y86.619 E.0138
G1 X116.526 Y91.87 E.14121
G1 X117.038 Y91.87 E.01377
G1 X117.038 Y86.619 E.14121
G1 X117.551 Y86.619 E.0138
G1 X117.551 Y91.87 E.14121
G1 X118.064 Y91.87 E.0138
G1 X118.064 Y86.619 E.14121
G1 E-1.12 F2400
;WIPE_START
G1 F4800
G1 X118.064 Y87.63 E-.48
;WIPE_END
G1 X123.697 Y107.336 F6000
G1 E1.6 F2400
;TYPE:Support material
;WIDTH:0.42
G1 F1200
G1 X123.077 Y106.753 E.02728
G1 X122.636 Y106.391 E.01829
G1 X122.165 Y106.04 E.01883
G1 X121.692 Y105.724 E.01823
G1 X121.195 Y105.427 E.01856
G1 X120.685 Y105.155 E.01853
G1 X120.152 Y104.904 E.01888
G1 X119.626 Y104.689 E.01821
G1 X119.071 Y104.493 E.01887
G1 X118.516 Y104.328 E.01856
G1 X117.954 Y104.191 E.01854
G1 X117.386 Y104.083 E.01853
G1 X116.813 Y104.003 E.01854
G1 X116.237 Y103.952 E.01853
G1 X115.659 Y103.929 E.01854
G1 X115.081 Y103.936 E.01853
G1 X114.504 Y103.971 E.01853
G1 X113.929 Y104.035 E.01854
G1 X113.358 Y104.128 E.01854
G1 X112.792 Y104.249 E.01855
G1 X112.234 Y104.399 E.01852
G1 X111.617 Y104.599 E.02079
G1 X111.078 Y104.807 E.01852
G1 X110.549 Y105.041 E.01854
G1 X110.032 Y105.301 E.01855
G1 X109.53 Y105.587 E.01852
G1 X109.042 Y105.898 E.01855
G1 X108.57 Y106.233 E.01855
G1 X108.116 Y106.59 E.01851
G1 X107.68 Y106.971 E.01856
G1 X107.303 Y107.333 E.01675
G1 X107.303 Y83.672 E.75837
G1 X123.697 Y83.672 E.52545
G1 X123.697 Y107.281 E.7567
G1 X112.508 Y92.236 F6000
G1 F1200
G1 X112.508 Y86.252 E.1918
G1 X118.492 Y86.252 E.1918
G1 X118.492 Y92.236 E.1918
G1 X112.564 Y92.236 E.19
G1 X122.956 Y106.436 F6000
G1 F1200
G1 X122.956 Y84.008 E.71885
G1 X122.542 Y84.008 E.01327
G1 X122.542 Y105.901 E.7017
G1 X122.127 Y105.611 E.01623
G1 X122.127 Y84.008 E.6924
G1 X121.713 Y84.008 E.01327
G1 X121.713 Y105.345 E.68388
G1 X121.299 Y105.101 E.0154
G1 X121.299 Y84.008 E.67606
G1 X120.885 Y84.008 E.01327
G1 X120.885 Y104.881 E.66901
G1 X120.47 Y104.683 E.01474
G1 X120.47 Y84.008 E.66266
G1 X120.056 Y84.008 E.01327
G1 X120.056 Y104.502 E.65686
G1 X119.642 Y104.338 E.01427
G1 X119.642 Y84.008 E.6516
G1 X119.228 Y84.008 E.01327
G1 X119.228 Y104.192 E.64692
G1 X118.814 Y104.066 E.01387
G1 X118.814 Y84.008 E.64289
G1 X118.399 Y84.008 E.0133
G1 X118.399 Y85.917 E.06119
G1 X117.985 Y85.917 E.01327
G1 X117.985 Y84.008 E.06119
G1 X117.571 Y84.008 E.01327
G1 X117.571 Y85.917 E.06119
G1 X117.157 Y85.917 E.01327
G1 X117.157 Y84.008 E.06119
G1 X116.743 Y84.008 E.01327
G1 X116.743 Y85.917 E.06119
G1 X116.328 Y85.917 E.0133
G1 X116.328 Y84.008 E.06119
G1 X115.914 Y84.008 E.01327
G1 X115.914 Y85.917 E.06119
G1 X115.5 Y85.917 E.01327
G1 X115.5 Y84.008 E.06119
G1 X115.086 Y84.008 E.01327
G1 X115.086 Y85.917 E.06119
G1 X114.672 Y85.917 E.01327
G1 X114.672 Y84.008 E.06119
G1 X114.257 Y84.008 E.0133
G1 X114.257 Y85.917 E.06119
G1 X113.843 Y85.917 E.01327
G1 X113.843 Y84.008 E.06119
G1 X113.429 Y84.008 E.01327
G1 X113.429 Y85.917 E.06119
G1 X113.015 Y85.917 E.01327
G1 X113.015 Y84.008 E.06119
G1 X112.601 Y84.008 E.01327
G1 X112.601 Y86.084 E.06654
G1 E-1.12 F2400
;WIPE_START
G1 F4800
G1 X112.601 Y85.073 E-.48
;WIPE_END
G1 X118.399 Y104.127 F6000
G1 E1.6 F2400
G1 F1200
G1 X118.399 Y92.572 E.37035
G1 X117.985 Y92.572 E.01327
G1 X117.985 Y103.855 E.36164
G1 X117.571 Y103.776 E.01351
G1 X117.571 Y92.572 E.3591
G1 X117.157 Y92.572 E.01327
G1 X117.157 Y103.712 E.35705
G1 X116.743 Y103.659 E.01338
G1 X116.743 Y92.572 E.35535
G1 X116.328 Y92.572 E.0133
G1 X116.328 Y103.623 E.3542
G1 X115.914 Y103.603 E.01328
G1 X115.914 Y92.572 E.35356
G1 X115.5 Y92.572 E.01327
G1 X115.5 Y103.595 E.3533
G1 X115.086 Y103.6 E.01327
G1 X115.086 Y92.572 E.35346
G1 X114.672 Y92.572 E.01327
G1 X114.672 Y103.624 E.35423
G1 X114.257 Y103.66 E.01335
G1 X114.257 Y92.572 E.35539
G1 X113.843 Y92.572 E.01327
G1 X113.843 Y103.709 E.35696
G1 X113.429 Y103.776 E.01344
G1 X113.429 Y92.572 E.3591
G1 X113.015 Y92.572 E.01327
G1 X113.015 Y103.858 E.36173
G1 X112.601 Y103.952 E.01361
G1 X112.601 Y92.404 E.37013
G1 X112.186 Y104.238 F6000
G1 F1200
G1 X112.186 Y84.008 E.6484
G1 X111.772 Y84.008 E.01327
G1 X111.772 Y104.194 E.64699
G1 X111.358 Y104.339 E.01406
G1 X111.358 Y84.008 E.65164
G1 X110.944 Y84.008 E.01327
G1 X110.944 Y104.499 E.65676
G1 X110.53 Y104.681 E.01449
G1 X110.53 Y84.008 E.6626
G1 X110.115 Y84.008 E.0133
G1 X110.115 Y104.883 E.66907
G1 X109.701 Y105.103 E.01503
G1 X109.701 Y84.008 E.67612
G1 X109.287 Y84.008 E.01327
G1 X109.287 Y105.344 E.68385
G1 X108.873 Y105.608 E.01574
G1 X108.873 Y84.008 E.69231
G1 X108.458 Y84.008 E.0133
G1 X108.458 Y105.899 E.70164
G1 X108.044 Y106.219 E.01677
G1 X108.044 Y83.84 E.71728
G1 E-1.12 F2400
;WIPE_START
G1 F4800
G1 X108.044 Y84.851 E-.48
;WIPE_END
G1 X118.064 Y139.13 F6000
G1 E1.6 F2400
;TYPE:Support material interface
;WIDTH:0.36
G1 F1200
G1 X118.064 Y144.381 E.14121
G1 X117.551 Y144.381 E.0138
G1 X117.551 Y139.13 E.14121
G1 X117.038 Y139.13 E.0138
G1 X117.038 Y144.381 E.14121
G1 X116.526 Y144.381 E.01377
G1 X116.526 Y139.13 E.14121
G1 X116.013 Y139.13 E.0138
G1 X116.013 Y144.381 E.14121
G1 X115.5 Y144.381 E.0138
G1 X115.5 Y139.13 E.14121
G1 X114.987 Y139.13 E.0138
G1 X114.987 Y144.381 E.14121
G1 X114.474 Y144.381 E.0138
G1 X114.474 Y139.13 E.14121
G1 X113.962 Y139.13 E.01377
G1 X113.962 Y144.381 E.14121
G1 X113.449 Y144.381 E.0138
G1 X113.449 Y139.13 E.14121
G1 X112.936 Y139.13 E.0138
G1 X112.936 Y144.381 E.14121
G1 E-1.12 F2400
;WIPE_START
G1 F4800
G1 X112.936 Y143.37 E-.48
;WIPE_END
G1 X123.697 Y147.328 F6000
G1 E1.6 F2400
;TYPE:Support material
;WIDTH:0.42
G1 F1200
G1 X107.303 Y147.328 E.52545
G1 X107.303 Y123.667 E.75837
G1 X107.68 Y124.029 E.01675
G1 X108.116 Y124.41 E.01856
G1 X108.57 Y124.767 E.01851
G1 X109.042 Y125.102 E.01855
G1 X109.53 Y125.413 E.01855
G1 X110.032 Y125.699 E.01852
G1 X110.549 Y125.959 E.01855
G1 X111.078 Y126.193 E.01854
G1 X111.617 Y126.401 E.01852
G1 X112.234 Y126.601 E.02079
G1 X112.792 Y126.751 E.01852
G1 X113.358 Y126.872 E.01855
G1 X113.929 Y126.965 E.01854
G1 X114.504 Y127.029 E.01854
G1 X115.081 Y127.064 E.01853
G1 X115.659 Y127.071 E.01853
G1 X116.237 Y127.048 E.01854
G1 X116.813 Y126.997 E.01853
G1 X117.386 Y126.917 E.01854
G1 X117.954 Y126.809 E.01853
G1 X118.516 Y126.672 E.01854
G1 X119.071 Y126.507 E.01856
G1 X119.626 Y126.311 E.01887
G1 X120.152 Y126.096 E.01821
G1 X120.685 Y125.845 E.01888
G1 X121.195 Y125.573 E.01853
G1 X121.692 Y125.276 E.01856
G1 X122.165 Y124.96 E.01823
G1 X122.636 Y124.609 E.01883
G1 X123.077 Y124.247 E.01829
G1 X123.697 Y123.664 E.02728
G1 X123.697 Y147.272 E.75667
G1 X112.508 Y144.748 F6000
G1 F1200
G1 X112.508 Y138.764 E.1918
G1 X118.492 Y138.764 E.1918
G1 X118.492 Y144.748 E.1918
G1 X112.564 Y144.748 E.19
G1 X122.956 Y147.16 F6000
G1 F1200
G1 X122.956 Y124.782 E.71724
G1 X122.542 Y125.099 E.01671
G1 X122.542 Y146.992 E.7017
G1 X122.127 Y146.992 E.0133
G1 X122.127 Y125.389 E.6924
G1 X121.713 Y125.655 E.01577
G1 X121.713 Y146.992 E.68388
G1 X121.299 Y146.992 E.01327
G1 X121.299 Y125.899 E.67606
G1 X120.885 Y126.119 E.01503
G1 X120.885 Y146.992 E.66901
G1 X120.47 Y146.992 E.0133
G1 X120.47 Y126.317 E.66266
G1 X120.056 Y126.498 E.01448
G1 X120.056 Y146.992 E.65686
G1 X119.642 Y146.992 E.01327
G1 X119.642 Y126.662 E.6516
G1 X119.228 Y126.808 E.01407
G1 X119.228 Y146.992 E.64692
G1 X118.814 Y146.992 E.01327
G1 X118.814 Y126.934 E.64289
G1 X118.399 Y127.046 E.01378
G1 X118.399 Y138.428 E.36481
G1 X117.985 Y138.428 E.01327
G1 X117.985 Y127.145 E.36164
G1 X117.571 Y127.224 E.01351
G1 X117.571 Y138.428 E.3591
G1 X117.157 Y138.428 E.01327
G1 X117.157 Y127.288 E.35705
G1 X116.743 Y127.341 E.01338
G1 X116.743 Y138.428 E.35535
G1 X116.328 Y138.428 E.0133
G1 X116.328 Y127.377 E.3542
G1 X115.914 Y127.397 E.01328
G1 X115.914 Y138.428 E.35356
G1 X115.5 Y138.428 E.01327
G1 X115.5 Y127.405 E.3533
G1 X115.086 Y127.4 E.01327
G1 X115.086 Y138.428 E.35346
G1 X114.672 Y138.428 E.01327
G1 X114.672 Y127.376 E.35423
G1 X114.257 Y127.34 E.01335
G1 X114.257 Y138.428 E.35539
G1 X113.843 Y138.428 E.01327
G1 X113.843 Y127.291 E.35696
G1 X113.429 Y127.224 E.01344
G1 X113.429 Y138.428 E.3591
G1 X113.015 Y138.428 E.01327
G1 X113.015 Y127.142 E.36173
G1 X112.601 Y127.048 E.01361
G1 X112.601 Y138.596 E.37013
G1 E-1.12 F2400
;WIPE_START
G1 F4800
G1 X112.601 Y137.585 E-.48
;WIPE_END
G1 X118.399 Y147.16 F6000
G1 E1.6 F2400
G1 F1200
G1 X118.399 Y145.083 E.06657
G1 X117.985 Y145.083 E.01327
G1 X117.985 Y146.992 E.06119
G1 X117.571 Y146.992 E.01327
G1 X117.571 Y145.083 E.06119
G1 X117.157 Y145.083 E.01327
G1 X117.157 Y146.992 E.06119
G1 X116.743 Y146.992 E.01327
G1 X116.743 Y145.083 E.06119
G1 X116.328 Y145.083 E.0133
G1 X116.328 Y146.992 E.06119
G1 X115.914 Y146.992 E.01327
G1 X115.914 Y145.083 E.06119
G1 X115.5 Y145.083 E.01327
G1 X115.5 Y146.992 E.06119
G1 X115.086 Y146.992 E.01327
G1 X115.086 Y145.083 E.06119
G1 X114.672 Y145.083 E.01327
G1 X114.672 Y146.992 E.06119
G1 X114.257 Y146.992 E.0133
G1 X114.257 Y145.083 E.06119
G1 X113.843 Y145.083 E.01327
G1 X113.843 Y146.992 E.06119
G1 X113.429 Y146.992 E.01327
G1 X113.429 Y145.083 E.06119
G1 X113.015 Y145.083 E.01327
G1 X113.015 Y146.992 E.06119
G1 X112.601 Y146.992 E.01327
G1 X112.601 Y144.916 E.06654
G1 X112.186 Y147.16 F6000
G1 F1200
G1 X112.186 Y126.936 E.64821
G1 X111.772 Y126.806 E.01391
G1 X111.772 Y146.992 E.64699
G1 X111.358 Y146.992 E.01327
G1 X111.358 Y126.661 E.65164
G1 X110.944 Y126.501 E.01423
G1 X110.944 Y146.992 E.65676
G1 X110.53 Y146.992 E.01327
G1 X110.53 Y126.319 E.6626
G1 X110.115 Y126.117 E.01479
G1 X110.115 Y146.992 E.66907
G1 X109.701 Y146.992 E.01327
G1 X109.701 Y125.897 E.67612
G1 X109.287 Y125.656 E.01535
G1 X109.287 Y146.992 E.68385
G1 X108.873 Y146.992 E.01327
G1 X108.873 Y125.392 E.69231
G1 X108.458 Y125.101 E.01625
G1 X108.458 Y146.992 E.70164
G1 X108.044 Y146.992 E.01327
G1 X108.044 Y124.567 E.71875
G1 E-1.12 F2400
;WIPE_START
G1 F4800
G1 X108.044 Y125.578 E-.48
;WIPE_END
G1 X124.534 Y117.665 F6000
G1 E1.6 F2400
;TYPE:External perimeter
G1 F1200
G1 X124.266 Y117.697 E.00865
G1 X123.805 Y117.674 E.01479
G1 X123.485 Y117.601 E.01052
G1 X123.06 Y117.417 E.01484
G1 X122.834 Y117.271 E.00862
G1 X122.627 Y117.098 E.00865
G1 X122.327 Y116.746 E.01482
G1 X122.161 Y116.464 E.01049
G1 X122.003 Y116.027 E.01489
G1 X121.951 Y115.716 E.01011
G1 X121.939 Y115.5 E.00693
G1 X121.955 Y115.231 E.00864
G1 X122.06 Y114.78 E.01484
G1 X122.19 Y114.48 E.01048
G1 X122.449 Y114.089 E.01503
G1 X122.787 Y113.766 E.01498
G1 X123.058 Y113.583 E.01048
G1 X123.484 Y113.4 E.01486
G1 X123.745 Y113.335 E.00862
G1 X124.013 Y113.303 E.00865
G1 X124.474 Y113.326 E.01479
G1 X124.794 Y113.399 E.01052
G1 X125.22 Y113.586 E.01491
G1 X125.448 Y113.74 E.00882
G1 X125.643 Y113.924 E.00859
G1 X125.78 Y114.093 E.00697
G1 X125.912 Y114.322 E.00847
G1 X126.121 Y114.805 E.01687
G1 X126.18 Y115.004 E.00665
G1 X126.229 Y115.303 E.00971
G1 X126.226 Y115.746 E.0142
G1 X126.179 Y116.004 E.00841
G1 X126.031 Y116.41 E.01385
G1 X125.911 Y116.679 E.00944
G1 X125.78 Y116.907 E.00843
G1 X125.643 Y117.076 E.00697
G1 X125.448 Y117.26 E.00859
G1 X125.22 Y117.414 E.00882
G1 X124.796 Y117.6 E.01484
G1 X124.592 Y117.65 E.00673
G1 X124.447 Y117.92 F6000
G1 X125.734 Y117.502
;TYPE:Perimeter
G1 F1200
G1 X125.587 Y118.14 E.02098
G1 X125.294 Y119.078 E.0315
G1 X125.103 Y119.563 E.01671
G1 X124.861 Y120.092 E.01865
G1 X124.649 Y120.501 E.01477
G1 X124.355 Y121.004 E.01867
G1 X124.069 Y121.44 E.01671
G1 X123.762 Y121.861 E.0167
G1 X123.433 Y122.266 E.01672
G1 X123.089 Y122.65 E.01652
G1 X122.371 Y123.342 E.03196
G1 X121.929 Y123.709 E.01841
G1 X121.511 Y124.02 E.0167
G1 X121.077 Y124.31 E.01673
G1 X120.63 Y124.578 E.0167
G1 X120.169 Y124.823 E.01673
G1 X119.697 Y125.045 E.01672
G1 X118.78 Y125.396 E.03147
G1 X118.162 Y125.58 E.02067
G1 X117.716 Y125.689 E.01472
G1 X116.686 Y125.859 E.03346
G1 X116.166 Y125.906 E.01673
G1 X115.646 Y125.926 E.01668
G1 X114.603 Y125.888 E.03345
G1 X114.084 Y125.83 E.01674
G1 X113.569 Y125.746 E.01672
G1 X113.059 Y125.637 E.01672
G1 X112.555 Y125.502 E.01672
G1 X112.058 Y125.342 E.01673
G1 X111.57 Y125.158 E.01672
G1 X111.093 Y124.949 E.01669
G1 X110.573 Y124.689 E.01863
G1 X110.12 Y124.432 E.01669
G1 X109.68 Y124.152 E.01672
G1 X109.255 Y123.85 E.01671
G1 X108.845 Y123.527 E.01673
G1 X108.451 Y123.184 E.01674
