; generated by PrusaSlicer 2.7.1+win64 on 2024-02-21 at 10:01:32 UTC


;
;

;
;
; 

; external perimeters extrusion width = 0.42mm
; perimeters extrusion width = 0.44mm
; infill extrusion width = 0.44mm
; solid infill extrusion width = 0.44mm
; top infill extrusion width = 0.40mm
; first layer extrusion width = 0.42mm


; printing object Shape-Box id:0 copy 0
; stop printing object Shape-Box id:0 copy 0

;TYPE:Custom
; Ender 3 Custom Start G-code
G92 E0 ; Reset Extruder

M140 S55 ; set bed temp
M104 S160 ; set extruder temp
M109 S160 ; wait for extruder temp
M190 S55 ; wait for bed temp

G28 ; Home all axes
M104 S210 ; set extruder temp 
BED_MESH_CALIBRATE AREA_START=83.7684,88.5669 AREA_END=143.763,126.207

G1 Z2.0 F3000 ; Move Z Axis up little to prevent scratching of Heat Bed
M109 S210 ; wait for extruder temp
G1 X0.1 Y20 Z0.3 F5000.0 ; Move to start position

G1 X0.1 Y200.0 Z0.3 F1500.0 E15 ; Draw the first line
G1 X0.4 Y200.0 Z0.3 F5000.0 ; Move to side a little
G1 X0.4 Y20 Z0.3 F1500.0 E30 ; Draw the second line
G92 E0 ; Reset Extruder
G1 Z2.0 F3000 ; Move Z Axis up little to prevent scratching of Heat Bed
G1 X5 Y20 Z0.3 F5000.0 ; Move over to prevent blob squish
G21 ; set units to millimeters
G90 ; use absolute coordinates
M83 ; use relative distances for extrusion
; Filament gcode
M107
;LAYER_CHANGE
;Z:0.2
;HEIGHT:0.2
;BEFORE_LAYER_CHANGE
G92 E0
;0.2


G1 E-1.6 F2400
G1 Z.2 F6000
;AFTER_LAYER_CHANGE
;0.2
G1 X87.857 Y91.701
G1 Z.2
G1 E1.6 F2400
M204 S500
;TYPE:Skirt/Brim
;WIDTH:0.42
G1 F1200
G1 X88.725 Y90.996 E.03296
G1 X89.656 Y90.382 E.03287
G1 X91.322 Y89.564 E.0547
G1 X93.099 Y89.026 E.05472
G1 X94.721 Y88.79 E.04831
G1 X132.884 Y88.805 E1.12478
G1 X133.843 Y88.938 E.02854
G1 X135.87 Y89.494 E.06195
G1 X137.7 Y90.365 E.05973
G1 X139.14 Y91.376 E.05186
G1 X140.583 Y92.775 E.05924
G1 X141.374 Y93.79 E.03793
G1 X141.835 Y94.519 E.02542
G1 X142.681 Y96.304 E.05822
G1 X143.24 Y98.341 E.06226
G1 X143.425 Y100.341 E.0592
G1 X143.575 Y114.341 E.41265
G1 X143.503 Y115.668 E.03917
G1 X143.296 Y116.888 E.03647
G1 X142.676 Y118.864 E.06104
G1 X141.69 Y120.733 E.06228
G1 X140.467 Y122.296 E.05849
G1 X139.688 Y123.064 E.03224
G1 X138.815 Y123.771 E.03311
G1 X137.173 Y124.778 E.05677
G1 X136.08 Y125.257 E.03517
G1 X134.281 Y125.783 E.05524
G1 X132.523 Y126.003 E.05222
G1 X95.078 Y126.009 E1.10362
G1 X93.39 Y125.81 E.0501
G1 X92.295 Y125.542 E.03323
G1 X91.185 Y125.153 E.03467
G1 X89.854 Y124.506 E.04362
G1 X88.8 Y123.835 E.03683
G1 X87.851 Y123.075 E.03583
G1 X86.76 Y121.96 E.04598
G1 X86.154 Y121.19 E.02888
G1 X85.328 Y119.862 E.04609
G1 X84.772 Y118.665 E.0389
G1 X84.319 Y117.276 E.04306
G1 X84.013 Y115.506 E.05294
G1 X83.957 Y114.505 E.02955
G1 X83.987 Y99.578 E.43994
G1 X84.339 Y97.433 E.06407
G1 X84.956 Y95.673 E.05497
G1 X85.359 Y94.854 E.0269
G1 X86.242 Y93.468 E.04844
G1 X86.875 Y92.684 E.0297
G1 X87.814 Y91.744 E.03916
G1 X88.08 Y92.01 F6000
G1 F1200
G1 X88.109 Y91.982 E.00119
G1 X88.937 Y91.308 E.03147
G1 X89.836 Y90.714 E.03176
G1 X91.455 Y89.917 E.05319
G1 X92.992 Y89.437 E.04746
G1 X94.74 Y89.166 E.05213
G1 X131.692 Y89.133 E1.08909
G1 X133.767 Y89.308 E.06137
G1 X135.748 Y89.851 E.06054
G1 X137.509 Y90.69 E.05749
G1 X138.893 Y91.661 E.04983
G1 X140.304 Y93.029 E.05792
G1 X141.07 Y94.013 E.03675
G1 X141.565 Y94.802 E.02745
G1 X142.414 Y96.673 E.06056
G1 X142.882 Y98.473 E.05482
G1 X143.048 Y100.345 E.05539
G1 X143.198 Y114.345 E.41265
G1 X143.13 Y115.614 E.03745
G1 X142.924 Y116.824 E.03618
G1 X142.331 Y118.712 E.05833
G1 X141.369 Y120.534 E.06073
G1 X140.198 Y122.031 E.05602
G1 X139.594 Y122.642 E.02532
G1 X138.603 Y123.459 E.03785
G1 X136.981 Y124.453 E.05607
G1 X135.395 Y125.098 E.05046
G1 X134.218 Y125.411 E.0359
G1 X132.355 Y125.634 E.0553
G1 X95.105 Y125.633 E1.09787
G1 X93.449 Y125.437 E.04915
G1 X92.304 Y125.154 E.03476
G1 X91.337 Y124.807 E.03028
G1 X90.03 Y124.173 E.04281
G1 X89.019 Y123.528 E.03534
G1 X88.102 Y122.794 E.03462
G1 X87.039 Y121.706 E.04483
G1 X86.452 Y120.958 E.02802
G1 X85.657 Y119.676 E.04446
G1 X85.128 Y118.539 E.03696
G1 X84.684 Y117.182 E.04208
G1 X84.387 Y115.46 E.0515
G1 X84.334 Y114.505 E.02819
G1 X84.363 Y99.603 E.43921
G1 X84.7 Y97.541 E.06158
G1 X85.307 Y95.811 E.05404
G1 X85.705 Y95.004 E.02652
G1 X86.553 Y93.681 E.04632
G1 X87.156 Y92.934 E.02829
G1 X88.038 Y92.052 E.03676
G1 X88.304 Y92.318 F6000
G1 F1200
G1 X88.361 Y92.262 E.00236
G1 X89.149 Y91.62 E.02996
G1 X90.029 Y91.037 E.03111
G1 X91.588 Y90.27 E.05121
G1 X93.208 Y89.774 E.04993
G1 X94.758 Y89.543 E.04619
G1 X131.692 Y89.51 E1.08856
G1 X133.69 Y89.677 E.05909
G1 X135.628 Y90.208 E.05922
G1 X137.318 Y91.015 E.0552
G1 X138.647 Y91.947 E.04784
G1 X140.013 Y93.269 E.05603
G1 X140.766 Y94.236 E.03612
G1 X141.237 Y94.988 E.02615
G1 X142.054 Y96.785 E.05818
G1 X142.512 Y98.545 E.0536
G1 X142.671 Y100.349 E.05338
G1 X142.821 Y114.349 E.41265
G1 X142.744 Y115.641 E.03815
G1 X142.521 Y116.917 E.03818
G1 X142.276 Y117.78 E.02644
G1 X141.409 Y119.75 E.06344
G1 X140.675 Y120.874 E.03957
G1 X140.018 Y121.672 E.03047
G1 X139.333 Y122.37 E.02882
G1 X138.39 Y123.147 E.03601
G1 X136.804 Y124.12 E.05484
G1 X135.27 Y124.742 E.04879
G1 X134.141 Y125.042 E.03443
G1 X132.345 Y125.257 E.05331
G1 X95.131 Y125.257 E1.09681
G1 X93.508 Y125.065 E.04817
G1 X92.409 Y124.792 E.03338
G1 X91.488 Y124.462 E.02883
G1 X90.206 Y123.839 E.04201
G1 X89.238 Y123.221 E.03385
G1 X88.306 Y122.47 E.03528
G1 X87.318 Y121.453 E.04179
G1 X86.76 Y120.741 E.02666
G1 X85.985 Y119.491 E.04335
G1 X85.483 Y118.413 E.03505
G1 X85.05 Y117.087 E.04111
G1 X84.761 Y115.415 E.05001
G1 X84.739 Y99.629 E.46526
G1 X85.061 Y97.651 E.05907
G1 X85.658 Y95.949 E.05316
G1 X86.04 Y95.178 E.02536
G1 X86.862 Y93.897 E.04486
G1 X87.438 Y93.185 E.02699
G1 X88.262 Y92.361 E.03435
; printing object Shape-Box id:0 copy 0
G1 E-1.12 F2400
;WIPE_START
G1 F4800
G1 X88.304 Y92.318 E-.02855
G1 X88.361 Y92.262 E-.03796
G1 X89.036 Y91.712 E-.41349
;WIPE_END
G1 X129.043 Y104.522 F6000
G1 E1.6 F2400
;TYPE:Perimeter
G1 F1200
G1 X128.974 Y104.499 E.00214
G1 X128.902 Y104.445 E.00265
G1 X128.775 Y104.269 E.0064
G1 X128.733 Y104.147 E.0038
G1 X128.709 Y103.984 E.00486
G1 X128.709 Y103.79 E.00572
G1 X128.733 Y103.627 E.00486
G1 X128.823 Y103.42 E.00665
G1 X128.953 Y103.304 E.00514
G1 X129.121 Y103.255 E.00516
G1 X129.335 Y103.274 E.00633
G1 X129.491 Y103.359 E.00524
G1 X129.614 Y103.517 E.0059
G1 X129.674 Y103.752 E.00715
G1 X129.673 Y103.927 E.00516
G1 X129.647 Y104.092 E.00492
G1 X129.602 Y104.222 E.00405
G1 X129.538 Y104.33 E.0037
G1 X129.452 Y104.425 E.00378
G1 X129.288 Y104.527 E.00569
G1 X129.115 Y104.545 E.00513
G1 X129.1 Y104.54 E.00047
G1 X128.921 Y104.89 F6000
;TYPE:External perimeter
G1 F1200
G1 X128.779 Y104.824 E.00462
G1 X128.646 Y104.724 E.0049
G1 X128.523 Y104.588 E.0054
G1 X128.429 Y104.426 E.00552
G1 X128.365 Y104.236 E.00591
G1 X128.332 Y104.012 E.00667
G1 X128.332 Y103.762 E.00737
G1 X128.364 Y103.539 E.00664
G1 X128.427 Y103.352 E.00582
G1 X128.517 Y103.196 E.00531
G1 X128.635 Y103.068 E.00513
G1 X128.767 Y102.973 E.00479
G1 X128.915 Y102.91 E.00474
G1 X129.085 Y102.878 E.0051
G1 X129.264 Y102.877 E.00528
G1 X129.443 Y102.91 E.00536
G1 X129.596 Y102.974 E.00489
G1 X129.736 Y103.071 E.00502
G1 X129.86 Y103.2 E.00527
G1 X129.954 Y103.35 E.00522
G1 X130.018 Y103.523 E.00544
G1 X130.051 Y103.722 E.00595
G1 X130.05 Y103.956 E.0069
G1 X130.015 Y104.184 E.0068
G1 X129.945 Y104.382 E.00619
G1 X129.843 Y104.555 E.00592
G1 X129.708 Y104.704 E.00593
G1 X129.562 Y104.815 E.00541
G1 X129.41 Y104.886 E.00494
G1 X129.246 Y104.922 E.00495
G1 X129.076 Y104.922 E.00501
G1 X128.98 Y104.902 E.00289
G1 X129.553 Y103.888 F6000
;TYPE:Solid infill
;WIDTH:0.495415
G1 F1200
G1 X129.22 Y103.555 E.01666
G1 X129.15 Y103.549 E.00248
G1 X129.064 Y103.594 E.00343
G1 X129.014 Y103.708 E.0044
G1 X129.001 Y103.976 E.00949
G1 X129.363 Y104.338 E.01811
G1 E-1.12 F2400
;WIPE_START
G1 F4800
G1 X129.001 Y103.976 E-.24317
G1 X129.014 Y103.708 E-.12745
G1 X129.064 Y103.594 E-.05913
G1 X129.15 Y103.549 E-.0461
G1 X129.159 Y103.55 E-.00415
;WIPE_END
G1 X134.026 Y111.429 F6000
G1 E1.6 F2400
;TYPE:Perimeter
;WIDTH:0.42
G1 F1200
G1 X133.898 Y111.59 E.00606
G1 X133.742 Y111.678 E.00528
G1 X133.54 Y111.696 E.00598
G1 X133.449 Y111.679 E.00273
G1 X133.307 Y111.597 E.00483
G1 X133.191 Y111.44 E.00575
G1 X133.128 Y111.169 E.0082
G1 X133.129 Y110.975 E.00572
G1 X133.153 Y110.804 E.00509
G1 X133.195 Y110.677 E.00394
G1 X133.321 Y110.499 E.00643
G1 X133.457 Y110.414 E.00473
G1 X133.636 Y110.402 E.00529
G1 X133.821 Y110.478 E.00589
G1 X133.966 Y110.639 E.00639
G1 X134.07 Y110.916 E.00872
G1 X134.085 Y111.197 E.00829
G1 X134.041 Y111.371 E.00529
G1 X134.365 Y111.598 F6000
;TYPE:External perimeter
G1 F1200
G1 X134.27 Y111.748 E.00523
G1 X134.144 Y111.878 E.00534
G1 X134.004 Y111.976 E.00504
G1 X133.853 Y112.041 E.00485
G1 X133.685 Y112.074 E.00505
G1 X133.503 Y112.074 E.00536
G1 X133.336 Y112.041 E.00502
G1 X133.189 Y111.977 E.00473
G1 X133.055 Y111.881 E.00486
G1 X132.937 Y111.752 E.00515
G1 X132.846 Y111.598 E.00527
G1 X132.784 Y111.415 E.00569
G1 X132.751 Y111.197 E.0065
G1 X132.751 Y110.948 E.00734
G1 X132.785 Y110.718 E.00685
G1 X132.849 Y110.523 E.00605
G1 X132.942 Y110.359 E.00556
G1 X133.063 Y110.222 E.00539
G1 X133.196 Y110.12 E.00494
G1 X133.335 Y110.054 E.00454
G1 X133.485 Y110.022 E.00452
G1 X133.678 Y110.025 E.00569
G1 X133.786 Y110.048 E.00325
G1 X134.014 Y110.151 E.00737
G1 X134.101 Y110.216 E.0032
G1 X134.278 Y110.423 E.00803
G1 X134.34 Y110.536 E.0038
G1 X134.437 Y110.825 E.00898
G1 X134.459 Y110.96 E.00403
G1 X134.463 Y111.225 E.00781
G1 X134.43 Y111.425 E.00597
G1 X134.386 Y111.541 E.00366
G1 X133.958 Y111.08 F6000
;TYPE:Solid infill
;WIDTH:0.495415
G1 F1200
G1 X133.575 Y110.697 E.01916
G1 X133.525 Y110.714 E.00187
G1 X133.457 Y110.809 E.00413
G1 X133.419 Y110.996 E.00675
G1 X133.432 Y111.194 E.00702
G1 X133.765 Y111.527 E.01666
G1 E-1.12 F2400
;WIPE_START
G1 F4800
G1 X133.432 Y111.194 E-.22369
G1 X133.419 Y110.996 E-.09425
G1 X133.457 Y110.809 E-.09064
G1 X133.525 Y110.714 E-.05549
G1 X133.556 Y110.703 E-.01593
;WIPE_END
G1 X129.613 Y111.429 F6000
G1 E1.6 F2400
;TYPE:Perimeter
;WIDTH:0.42
G1 F1200
G1 X129.486 Y111.59 E.00604
G1 X129.329 Y111.678 E.0053
G1 X129.127 Y111.696 E.00598
G1 X129.036 Y111.679 E.00273
G1 X128.894 Y111.597 E.00483
G1 X128.778 Y111.44 E.00575
G1 X128.716 Y111.169 E.00819
G1 X128.716 Y110.975 E.00572
G1 X128.741 Y110.804 E.00509
G1 X128.783 Y110.677 E.00394
G1 X128.909 Y110.499 E.00643
G1 X129.045 Y110.414 E.00473
G1 X129.224 Y110.402 E.00529
G1 X129.388 Y110.469 E.00522
G1 X129.544 Y110.62 E.0064
G1 X129.658 Y110.916 E.00935
G1 X129.673 Y111.197 E.00829
G1 X129.628 Y111.371 E.0053
G1 X128.783 Y110.12 F6000
;TYPE:External perimeter
G1 F1200
G1 X128.923 Y110.054 E.00456
G1 X129.073 Y110.022 E.00452
G1 X129.266 Y110.025 E.00569
G1 X129.373 Y110.048 E.00323
G1 X129.594 Y110.148 E.00715
G1 X129.788 Y110.317 E.00758
G1 X129.862 Y110.417 E.00367
G1 X129.928 Y110.536 E.00401
G1 X130.025 Y110.825 E.00898
G1 X130.047 Y110.96 E.00403
G1 X130.05 Y111.225 E.00781
G1 X130.017 Y111.425 E.00597
G1 X129.953 Y111.598 E.00544
G1 X129.858 Y111.748 E.00523
G1 X129.732 Y111.878 E.00534
G1 X129.592 Y111.976 E.00504
G1 X129.44 Y112.041 E.00487
G1 X129.273 Y112.074 E.00502
G1 X129.091 Y112.074 E.00536
G1 X128.924 Y112.041 E.00502
G1 X128.777 Y111.977 E.00473
G1 X128.643 Y111.881 E.00486
G1 X128.524 Y111.752 E.00517
G1 X128.434 Y111.598 E.00526
G1 X128.372 Y111.415 E.00569
G1 X128.339 Y111.197 E.0065
G1 X128.339 Y110.948 E.00734
G1 X128.372 Y110.718 E.00685
G1 X128.436 Y110.523 E.00605
G1 X128.529 Y110.359 E.00556
G1 X128.651 Y110.222 E.00541
G1 X128.736 Y110.156 E.00317
G1 X129.546 Y111.087 F6000
;TYPE:Solid infill
;WIDTH:0.495415
G1 F1200
G1 X129.156 Y110.697 E.01951
G1 X129.112 Y110.714 E.00167
G1 X129.045 Y110.809 E.00411
G1 X129.007 Y110.996 E.00675
G1 X129.022 Y111.203 E.00734
G1 X129.348 Y111.529 E.01631
G1 E-1.12 F2400
;WIPE_START
G1 F4800
G1 X129.022 Y111.203 E-.21899
G1 X129.007 Y110.996 E-.09858
G1 X129.045 Y110.809 E-.09064
G1 X129.112 Y110.714 E-.05522
G1 X129.145 Y110.702 E-.01657
;WIPE_END
G1 X124.463 Y112.542 F6000
G1 E1.6 F2400
;TYPE:Perimeter
;WIDTH:0.42
G1 F1200
G1 X124.592 Y112.425 E.00513
G1 X124.761 Y112.376 E.00519
G1 X124.975 Y112.395 E.00633
G1 X125.13 Y112.481 E.00522
G1 X125.253 Y112.638 E.00588
G1 X125.313 Y112.874 E.00718
G1 X125.313 Y113.048 E.00513
G1 X125.287 Y113.213 E.00492
G1 X125.242 Y113.343 E.00405
G1 X125.177 Y113.452 E.00374
G1 X125.091 Y113.547 E.00378
G1 X124.928 Y113.649 E.00567
G1 X124.755 Y113.667 E.00513
G1 X124.613 Y113.62 E.00441
G1 X124.542 Y113.566 E.00263
G1 X124.414 Y113.391 E.00639
G1 X124.373 Y113.268 E.00382
G1 X124.349 Y113.105 E.00486
G1 X124.348 Y112.911 E.00572
G1 X124.372 Y112.749 E.00483
G1 X124.439 Y112.597 E.0049
G1 X124.157 Y112.317 F6000
;TYPE:External perimeter
G1 F1200
G1 X124.274 Y112.189 E.00511
G1 X124.407 Y112.094 E.00482
G1 X124.555 Y112.031 E.00474
G1 X124.725 Y111.999 E.0051
G1 X124.904 Y111.999 E.00528
G1 X125.083 Y112.032 E.00536
G1 X125.236 Y112.096 E.00489
G1 X125.376 Y112.192 E.005
G1 X125.5 Y112.321 E.00527
G1 X125.594 Y112.472 E.00524
G1 X125.657 Y112.644 E.0054
G1 X125.69 Y112.843 E.00595
G1 X125.69 Y113.078 E.00693
G1 X125.654 Y113.305 E.00677
G1 X125.585 Y113.503 E.00618
G1 X125.482 Y113.676 E.00593
G1 X125.348 Y113.825 E.00591
G1 X125.202 Y113.936 E.00541
G1 X125.049 Y114.008 E.00498
G1 X124.886 Y114.044 E.00492
G1 X124.716 Y114.044 E.00501
G1 X124.561 Y114.011 E.00467
G1 X124.419 Y113.946 E.0046
G1 X124.285 Y113.845 E.00495
G1 X124.163 Y113.709 E.00538
G1 X124.069 Y113.548 E.00549
G1 X124.005 Y113.357 E.00594
G1 X123.971 Y113.133 E.00668
G1 X123.971 Y112.884 E.00734
G1 X124.004 Y112.661 E.00664
G1 X124.066 Y112.474 E.00581
G1 X124.127 Y112.369 E.00358
G1 X125.192 Y113.009 F6000
;TYPE:Solid infill
;WIDTH:0.495415
G1 F1200
G1 X124.859 Y112.676 E.01666
G1 X124.789 Y112.67 E.00248
G1 X124.704 Y112.716 E.00342
G1 X124.654 Y112.829 E.00437
G1 X124.641 Y113.098 E.00952
G1 X125.003 Y113.46 E.01811
G1 E-1.12 F2400
;WIPE_START
G1 F4800
G1 X124.641 Y113.098 E-.24317
G1 X124.654 Y112.829 E-.12792
G1 X124.704 Y112.716 E-.05869
G1 X124.789 Y112.67 E-.04591
G1 X124.798 Y112.671 E-.00431
;WIPE_END
G1 X103.509 Y111.474 F6000
G1 E1.6 F2400
;TYPE:External perimeter
;WIDTH:0.42
G1 F1200
G1 X103.465 Y111.538 E.00229
G1 X102.417 Y113.047 E.05415
G1 X102.417 Y111.474 E.04636
G1 X103.449 Y111.474 E.03042
G1 E-1.12 F2400
;WIPE_START
G1 F4800
G1 X103.509 Y111.474 E-.0285
G1 X103.465 Y111.538 E-.03689
G1 X102.967 Y112.255 E-.41461
;WIPE_END
G1 X103.457 Y102.353 F6000
G1 E1.6 F2400
G1 F1200
G1 X102.365 Y103.925 E.05641
G1 X102.365 Y102.353 E.04633
G1 X103.397 Y102.353 E.03042
G1 E-1.12 F2400
;WIPE_START
G1 F4800
G1 X103.457 Y102.353 E-.0285
G1 X102.915 Y103.134 E-.4515
;WIPE_END
G1 X98.121 Y104.446 F6000
G1 E1.6 F2400
;TYPE:Perimeter
G1 F1200
G1 X98.025 Y104.423 E.00291
G1 X97.908 Y104.299 E.00502
G1 X97.849 Y104.18 E.00391
G1 X97.777 Y103.897 E.00861
G1 X97.715 Y103.209 E.02036
G1 X97.715 Y102.622 E.0173
G1 X97.781 Y101.915 E.02093
G1 X97.849 Y101.646 E.00818
G1 X97.916 Y101.511 E.00444
G1 X98.032 Y101.396 E.00481
G1 X98.157 Y101.382 E.00371
G1 X98.194 Y101.397 E.00118
G1 X98.309 Y101.509 E.00473
G1 X98.373 Y101.64 E.0043
G1 X98.442 Y101.918 E.00844
G1 X98.492 Y102.343 E.01261
G1 X98.505 Y103.218 E.02579
G1 X98.491 Y103.468 E.00738
G1 X98.402 Y104.065 E.01779
G1 X98.316 Y104.298 E.00732
G1 X98.257 Y104.388 E.00317
G1 X98.177 Y104.423 E.00257
G1 X98.119 Y104.826 F6000
;TYPE:External perimeter
G1 F1200
G1 X97.972 Y104.808 E.00436
G1 X97.789 Y104.722 E.00596
G1 X97.595 Y104.518 E.0083
G1 X97.493 Y104.312 E.00677
G1 X97.407 Y103.971 E.01037
G1 X97.376 Y103.757 E.00637
G1 X97.338 Y103.222 E.01581
G1 X97.338 Y102.604 E.01821
G1 X97.408 Y101.851 E.02229
G1 X97.493 Y101.515 E.01021
G1 X97.598 Y101.302 E.007
G1 X97.718 Y101.161 E.00546
G1 X97.843 Y101.066 E.00463
G1 X97.963 Y101.017 E.00382
G1 X98.246 Y101.012 E.00834
G1 X98.381 Y101.066 E.00429
G1 X98.507 Y101.161 E.00465
G1 X98.626 Y101.299 E.00537
G1 X98.729 Y101.51 E.00692
