; generated by PrusaSlicer 2.7.2+win64 on 2024-03-06 at 18:11:51 UTC


;
;

;
;
; 

; external perimeters extrusion width = 0.42mm
; perimeters extrusion width = 0.44mm
; infill extrusion width = 0.44mm
; solid infill extrusion width = 0.44mm
; top infill extrusion width = 0.40mm
; first layer extrusion width = 0.42mm


; printing object Shape-Box id:0 copy 0
; stop printing object Shape-Box id:0 copy 0

;TYPE:Custom
; Ender 3 Custom Start G-code
G92 E0 ; Reset Extruder

M140 S55 ; set bed temp
M104 S160 ; set extruder temp
M109 S160 ; wait for extruder temp
M190 S55 ; wait for bed temp

G28 ; Home all axes
M104 S210 ; set extruder temp 
BED_MESH_CALIBRATE AREA_START=83.7684,88.5669 AREA_END=143.763,126.207

G1 Z2.0 F3000 ; Move Z Axis up little to prevent scratching of Heat Bed
M109 S210 ; wait for extruder temp
G1 X0.1 Y20 Z0.3 F5000.0 ; Move to start position

G1 X0.1 Y200.0 Z0.3 F1500.0 E15 ; Draw the first line
G1 X0.4 Y200.0 Z0.3 F5000.0 ; Move to side a little
G1 X0.4 Y20 Z0.3 F1500.0 E30 ; Draw the second line
G92 E0 ; Reset Extruder
G1 Z2.0 F3000 ; Move Z Axis up little to prevent scratching of Heat Bed
G1 X5 Y20 Z0.3 F5000.0 ; Move over to prevent blob squish
G21 ; set units to millimeters
G90 ; use absolute coordinates
M83 ; use relative distances for extrusion
; Filament gcode
M107
;LAYER_CHANGE
;Z:0.2
;HEIGHT:0.2
G1 E-1.6 F2400
G1 Z.2 F6000
G1 X87.857 Y91.701
G1 Z.2
G1 E1.6 F2400
M204 S500
;TYPE:Skirt/Brim
;WIDTH:0.42
G1 F1200
G1 X88.725 Y90.996 E.03296
G1 X89.656 Y90.382 E.03287
G1 X91.322 Y89.564 E.0547
G1 X93.099 Y89.026 E.05472
G1 X94.721 Y88.79 E.04831
G1 X132.884 Y88.805 E1.12478
G1 X133.843 Y88.938 E.02854
G1 X135.87 Y89.494 E.06195
G1 X137.7 Y90.365 E.05973
G1 X139.14 Y91.376 E.05186
G1 X140.583 Y92.775 E.05924
G1 X141.374 Y93.79 E.03793
G1 X141.835 Y94.519 E.02542
G1 X142.681 Y96.304 E.05822
G1 X143.24 Y98.341 E.06226
G1 X143.425 Y100.341 E.0592
G1 X143.575 Y114.341 E.41265
G1 X143.503 Y115.668 E.03917
G1 X143.296 Y116.888 E.03647
G1 X142.676 Y118.864 E.06104
G1 X141.69 Y120.733 E.06228
G1 X140.467 Y122.296 E.05849
G1 X139.688 Y123.064 E.03224
G1 X138.815 Y123.771 E.03311
G1 X137.173 Y124.778 E.05677
G1 X136.08 Y125.257 E.03517
G1 X134.281 Y125.783 E.05524
G1 X132.523 Y126.003 E.05222
G1 X95.078 Y126.009 E1.10362
G1 X93.39 Y125.81 E.0501
G1 X92.295 Y125.542 E.03323
G1 X91.185 Y125.153 E.03467
G1 X89.854 Y124.506 E.04362
G1 X88.8 Y123.835 E.03683
G1 X87.851 Y123.075 E.03583
G1 X86.76 Y121.96 E.04598
G1 X86.154 Y121.19 E.02888
G1 X85.328 Y119.862 E.04609
G1 X84.772 Y118.665 E.0389
G1 X84.319 Y117.276 E.04306
G1 X84.013 Y115.506 E.05294
G1 X83.957 Y114.505 E.02955
G1 X83.987 Y99.578 E.43994
G1 X84.339 Y97.433 E.06407
G1 X84.956 Y95.673 E.05497
G1 X85.359 Y94.854 E.0269
G1 X86.242 Y93.468 E.04844
G1 X86.875 Y92.684 E.0297
G1 X87.814 Y91.744 E.03916
G1 X87.814 Y91.744 F6000
G1 X88.08 Y92.01
G1 F1200
G1 X88.109 Y91.982 E.00119
G1 X88.937 Y91.308 E.03147
G1 X89.836 Y90.714 E.03176
G1 X91.455 Y89.917 E.05319
G1 X92.992 Y89.437 E.04746
G1 X94.74 Y89.166 E.05213
G1 X131.692 Y89.133 E1.08909
G1 X133.767 Y89.308 E.06137
G1 X135.748 Y89.851 E.06054
G1 X137.509 Y90.69 E.05749
G1 X138.893 Y91.661 E.04983
G1 X140.304 Y93.029 E.05792
G1 X141.07 Y94.013 E.03675
G1 X141.565 Y94.802 E.02745
G1 X142.414 Y96.673 E.06056
G1 X142.882 Y98.473 E.05482
G1 X143.048 Y100.345 E.05539
G1 X143.198 Y114.345 E.41265
G1 X143.13 Y115.614 E.03745
G1 X142.924 Y116.824 E.03618
G1 X142.331 Y118.712 E.05833
G1 X141.369 Y120.534 E.06073
G1 X140.198 Y122.031 E.05602
G1 X139.594 Y122.642 E.02532
G1 X138.603 Y123.459 E.03785
G1 X136.981 Y124.453 E.05607
G1 X135.395 Y125.098 E.05046
G1 X134.218 Y125.411 E.0359
G1 X132.355 Y125.634 E.0553
G1 X95.105 Y125.633 E1.09787
G1 X93.449 Y125.437 E.04915
G1 X92.304 Y125.154 E.03476
G1 X91.337 Y124.807 E.03028
G1 X90.03 Y124.173 E.04281
G1 X89.019 Y123.528 E.03534
G1 X88.102 Y122.794 E.03462
G1 X87.039 Y121.706 E.04483
G1 X86.452 Y120.958 E.02802
G1 X85.657 Y119.676 E.04446
G1 X85.128 Y118.539 E.03696
G1 X84.684 Y117.182 E.04208
G1 X84.387 Y115.46 E.0515
G1 X84.334 Y114.505 E.02819
G1 X84.363 Y99.603 E.43921
G1 X84.7 Y97.541 E.06158
G1 X85.307 Y95.811 E.05404
G1 X85.705 Y95.004 E.02652
G1 X86.553 Y93.681 E.04632
G1 X87.156 Y92.934 E.02829
G1 X88.038 Y92.052 E.03676
G1 X88.038 Y92.052 F6000
G1 X88.304 Y92.318
G1 F1200
G1 X88.361 Y92.262 E.00236
G1 X89.149 Y91.62 E.02996
G1 X90.029 Y91.037 E.03111
G1 X91.588 Y90.27 E.05121
G1 X93.208 Y89.774 E.04993
G1 X94.758 Y89.543 E.04619
G1 X131.692 Y89.51 E1.08856
G1 X133.69 Y89.677 E.05909
G1 X135.628 Y90.208 E.05922
G1 X137.318 Y91.015 E.0552
G1 X138.647 Y91.947 E.04784
G1 X140.013 Y93.269 E.05603
G1 X140.766 Y94.236 E.03612
G1 X141.237 Y94.988 E.02615
G1 X142.054 Y96.785 E.05818
G1 X142.512 Y98.545 E.0536
G1 X142.671 Y100.349 E.05338
G1 X142.821 Y114.349 E.41265
G1 X142.744 Y115.641 E.03815
G1 X142.521 Y116.917 E.03818
G1 X142.276 Y117.78 E.02644
G1 X141.409 Y119.75 E.06344
G1 X140.675 Y120.874 E.03957
G1 X140.018 Y121.672 E.03047
G1 X139.333 Y122.37 E.02882
G1 X138.39 Y123.147 E.03601
G1 X136.804 Y124.12 E.05484
G1 X135.27 Y124.742 E.04879
G1 X134.141 Y125.042 E.03443
G1 X132.345 Y125.257 E.05331
G1 X95.131 Y125.257 E1.09681
G1 X93.508 Y125.065 E.04817
G1 X92.409 Y124.792 E.03338
G1 X91.488 Y124.462 E.02883
G1 X90.206 Y123.839 E.04201
G1 X89.238 Y123.221 E.03385
G1 X88.306 Y122.47 E.03528
G1 X87.318 Y121.453 E.04179
G1 X86.76 Y120.741 E.02666
G1 X85.985 Y119.491 E.04335
G1 X85.483 Y118.413 E.03505
G1 X85.05 Y117.087 E.04111
G1 X84.761 Y115.415 E.05001
G1 X84.739 Y99.629 E.46526
G1 X85.061 Y97.651 E.05907
G1 X85.658 Y95.949 E.05316
G1 X86.04 Y95.178 E.02536
G1 X86.862 Y93.897 E.04486
G1 X87.438 Y93.185 E.02699
G1 X88.262 Y92.361 E.03435
; printing object Shape-Box id:0 copy 0
G1 E-1.12 F2400
;WIPE_START
G1 F4800
G1 X88.304 Y92.318 E-.02855
G1 X88.361 Y92.262 E-.03796
G1 X89.036 Y91.712 E-.41349
;WIPE_END
G1 X118.042 Y102.345 F6000
G1 E1.6 F2400
;TYPE:Perimeter
G1 F1200
G1 X117.977 Y102.426 E.00306
G1 X117.846 Y102.514 E.00465
G1 X117.692 Y102.554 E.00469
G1 X117.512 Y102.545 E.00531
G1 X117.355 Y102.486 E.00494
G1 X117.218 Y102.318 E.00639
G1 X117.169 Y102.11 E.0063
G1 X117.18 Y101.838 E.00802
G1 X117.235 Y101.647 E.00586
G1 X117.323 Y101.515 E.00468
G1 X117.429 Y101.428 E.00404
G1 X117.55 Y101.382 E.00382
G1 X117.701 Y101.38 E.00445
G1 X117.846 Y101.45 E.00475
G1 X117.92 Y101.557 E.00383
G1 X117.959 Y101.662 E.0033
G1 X118.088 Y102.289 E.01887
G1 X118.08 Y102.299 E.00038
G1 E-1.12 F2400
;WIPE_START
G1 F4800
G1 X118.042 Y102.345 E-.02834
G1 X117.977 Y102.426 E-.04933
G1 X117.846 Y102.514 E-.07496
G1 X117.692 Y102.554 E-.07558
G1 X117.512 Y102.545 E-.08561
G1 X117.355 Y102.486 E-.07967
G1 X117.24 Y102.345 E-.08651
;WIPE_END
G1 X124.029 Y104.383 F6000
G1 E1.6 F2400
G1 F1200
G1 X124.129 Y104.397 E.00298
G1 X124.416 Y104.357 E.00854
G1 X124.374 Y104.395 E.00167
G1 X124.294 Y104.435 E.00264
G1 X124.184 Y104.451 E.00328
G1 X124.118 Y104.44 E.00197
G1 X124.079 Y104.416 E.00135
G1 E-1.12 F2400
;WIPE_START
G1 F4800
G1 X124.029 Y104.383 E-.02846
G1 X124.129 Y104.397 E-.04796
G1 X124.416 Y104.357 E-.13764
G1 X124.374 Y104.395 E-.0269
G1 X124.294 Y104.435 E-.04249
G1 X124.184 Y104.451 E-.0528
G1 X124.118 Y104.44 E-.03178
G1 X124.079 Y104.416 E-.02175
;WIPE_END
G1 E-.09022 F2400
G1 X129.049 Y101.454 F6000
G1 E1.6 F2400
G1 F1200
G1 X128.895 Y101.441 E.00455
G1 X128.606 Y101.456 E.00853
G1 X128.696 Y101.404 E.00306
G1 X128.807 Y101.375 E.00338
G1 X128.976 Y101.396 E.00502
G1 X129.002 Y101.417 E.00099
G1 E-1.12 F2400
;WIPE_START
G1 F4800
G1 X129.049 Y101.454 E-.02841
G1 X128.895 Y101.441 E-.07341
G1 X128.606 Y101.456 E-.13746
G1 X128.696 Y101.404 E-.04937
G1 X128.807 Y101.375 E-.05449
G1 X128.976 Y101.396 E-.08089
G1 X129.002 Y101.417 E-.01588
;WIPE_END
G1 E-.04009 F2400
G1 X115.887 Y109.766 F6000
G1 E1.6 F2400
G1 F1200
G1 X115.906 Y109.794 E.001
G1 X116.085 Y110.225 E.01375
G1 X116.171 Y110.682 E.01371
G1 X116.174 Y111.102 E.01238
G1 X116.123 Y111.435 E.00993
G1 X116.067 Y111.654 E.00666
G1 X115.845 Y112.062 E.01369
G1 X115.655 Y112.334 E.00978
G1 X115.561 Y112.37 E.00297
G1 X115.724 Y112.519 E.00651
G1 X115.924 Y113.076 E.01744
G1 X115.958 Y113.401 E.00963
G1 X115.924 Y113.823 E.01248
G1 X115.807 Y114.211 E.01194
G1 X115.7 Y114.428 E.00713
G1 X115.467 Y114.756 E.01186
G1 X115.166 Y115.04 E.0122
G1 X114.961 Y115.181 E.00733
G1 X114.595 Y115.354 E.01193
G1 X114.359 Y115.426 E.00727
G1 X113.938 Y115.493 E.01256
G1 X113.495 Y115.492 E.01306
G1 X113.248 Y115.463 E.00733
G1 X112.846 Y115.36 E.01223
G1 X112.63 Y115.269 E.00691
G1 X112.423 Y115.156 E.00695
G1 X112.091 Y114.898 E.01239
G1 X111.821 Y114.59 E.01207
G1 X111.715 Y114.423 E.00583
G1 X111.715 Y115.406 E.02897
G1 X106.819 Y115.406 E.1443
G1 X106.819 Y113.948 E.04297
G1 X107.349 Y113.316 E.02431
G1 X107.58 Y112.987 E.01185
G1 X107.815 Y112.609 E.01312
G1 X108.161 Y111.965 E.02155
G1 X108.355 Y111.536 E.01388
G1 X108.52 Y111.104 E.01363
G1 X108.746 Y110.34 E.02348
G1 X108.862 Y109.659 E.02036
G1 X108.954 Y108.663 E.02948
G1 X111.002 Y108.663 E.06036
G1 X110.909 Y109.954 E.03815
G1 X110.793 Y110.612 E.01969
G1 X110.537 Y111.559 E.02891
G1 X110.361 Y112.045 E.01523
G1 X110.159 Y112.518 E.01516
G1 X109.918 Y112.99 E.01562
G1 X109.636 Y113.426 E.0153
G1 X110.12 Y113.396 E.01429
G1 X111.448 Y113.389 E.03914
G1 X111.481 Y113.069 E.00948
G1 X111.564 Y112.816 E.00785
G1 X111.696 Y112.487 E.01045
G1 X111.814 Y112.392 E.00446
G1 X111.388 Y111.774 E.02212
G1 X111.278 Y111.416 E.01104
G1 X111.225 Y111.078 E.01008
G1 X111.229 Y110.665 E.01217
G1 X111.316 Y110.213 E.01357
G1 X111.496 Y109.786 E.01366
G1 X111.761 Y109.405 E.01368
G1 X112.106 Y109.075 E.01407
G1 X112.512 Y108.822 E.0141
G1 X112.967 Y108.656 E.01427
G1 X113.467 Y108.577 E.01492
G1 X113.952 Y108.577 E.01429
G1 X114.435 Y108.656 E.01442
G1 X114.888 Y108.822 E.01422
G1 X115.295 Y109.076 E.01414
G1 X115.641 Y109.408 E.01413
G1 X115.853 Y109.717 E.01104
G1 X115.853 Y109.717 F6000
G1 X115.573 Y109.975
;TYPE:External perimeter
G1 F1200
G1 X115.721 Y110.333 E.01142
G1 X115.794 Y110.719 E.01158
G1 X115.797 Y111.075 E.01049
G1 X115.713 Y111.515 E.0132
G1 X115.524 Y111.864 E.0117
G1 X115.413 Y112.023 E.00572
G1 X115.262 Y112.08 E.00476
G1 X114.952 Y112.322 E.01159
G1 X115.4 Y112.733 E.01792
G1 X115.554 Y113.161 E.01341
G1 X115.579 Y113.406 E.00726
G1 X115.551 Y113.753 E.01026
G1 X115.455 Y114.072 E.00982
G1 X115.375 Y114.234 E.00533
G1 X115.181 Y114.508 E.00989
G1 X114.929 Y114.746 E.01022
G1 X114.773 Y114.853 E.00558
G1 X114.459 Y115.002 E.01024
G1 X114.275 Y115.057 E.00566
G1 X113.908 Y115.116 E.01096
G1 X113.517 Y115.115 E.01152
G1 X113.318 Y115.092 E.0059
G1 X112.967 Y115.002 E.01068
G1 X112.794 Y114.929 E.00553
G1 X112.631 Y114.84 E.00547
G1 X112.351 Y114.623 E.01044
G1 X112.124 Y114.363 E.01017
G1 X112.027 Y114.21 E.00534
G1 X111.894 Y113.902 E.00989
G1 X111.831 Y113.569 E.00999
G1 X111.825 Y113.381 E.00554
G1 X111.851 Y113.15 E.00685
G1 X111.919 Y112.945 E.00637
G1 X112.009 Y112.719 E.00717
G1 X112.183 Y112.579 E.00658
G1 X112.293 Y112.45 E.005
G1 X112.461 Y112.31 E.00645
G1 X112.215 Y112.131 E.00897
G1 X112.058 Y112.083 E.00484
G1 X111.731 Y111.608 E.017
G1 X111.646 Y111.331 E.00854
G1 X111.602 Y111.05 E.00838
G1 X111.606 Y110.703 E.01023
G1 X111.679 Y110.322 E.01143
G1 X111.828 Y109.969 E.01129
G1 X112.049 Y109.652 E.01139
G1 X112.338 Y109.375 E.0118
G1 X112.679 Y109.163 E.01183
G1 X113.062 Y109.022 E.01203
G1 X113.497 Y108.954 E.01298
G1 X113.921 Y108.955 E.0125
G1 X114.339 Y109.023 E.01248
G1 X114.721 Y109.163 E.01199
G1 X115.062 Y109.375 E.01183
G1 X115.352 Y109.654 E.01186
G1 X115.539 Y109.926 E.00973
G1 E-1.12 F2400
;WIPE_START
G1 F4800
G1 X115.573 Y109.975 E-.02833
G1 X115.721 Y110.333 E-.18401
G1 X115.794 Y110.719 E-.1866
G1 X115.795 Y110.889 E-.08106
;WIPE_END
G1 X110.597 Y109.04 F6000
G1 E1.6 F2400
G1 F1200
G1 X110.535 Y109.908 E.02565
G1 X110.424 Y110.53 E.01862
G1 X110.177 Y111.446 E.02796
G1 X110.01 Y111.907 E.01445
G1 X109.817 Y112.358 E.01446
G1 X109.591 Y112.802 E.01468
G1 X109.321 Y113.22 E.01467
G1 X109.024 Y113.561 E.01333
G1 X108.809 Y113.867 E.01102
G1 X109.236 Y113.867 E.01258
G1 X109.674 Y113.802 E.01305
G1 X110.133 Y113.773 E.01356
G1 X111.338 Y113.766 E.03552
G1 X111.338 Y115.029 E.03722
G1 X107.196 Y115.029 E.12208
G1 X107.196 Y114.085 E.02782
G1 X107.648 Y113.546 E.02073
G1 X108.142 Y112.798 E.02642
G1 X108.5 Y112.132 E.02229
G1 X108.703 Y111.681 E.01458
G1 X108.878 Y111.226 E.01437
G1 X109.114 Y110.426 E.02458
G1 X109.236 Y109.708 E.02146
G1 X109.298 Y109.04 E.01977
G1 X110.537 Y109.04 E.03652
G1 E-1.12 F2400
;WIPE_START
G1 F4800
G1 X110.597 Y109.04 E-.0285
G1 X110.535 Y109.908 E-.41335
G1 X110.521 Y109.987 E-.03815
;WIPE_END
G1 X116.694 Y109.04 F6000
G1 E1.6 F2400
;TYPE:Perimeter
G1 F1200
G1 X116.694 Y108.663 E.01111
G1 X118.738 Y108.663 E.06024
G1 X118.731 Y111.732 E.09045
G1 X118.678 Y112.407 E.01996
G1 X120.052 Y111.737 E.04505
G1 X120.076 Y113.852 E.06234
G1 X119.236 Y114.315 E.02827
G1 X118.863 Y114.6 E.01384
G1 X118.574 Y114.898 E.01223
G1 X118.49 Y115.011 E.00415
G1 X118.209 Y115.499 E.0166
G1 X116.694 Y115.499 E.04465
G1 X116.694 Y109.1 E.1886
G1 X116.694 Y109.1 F6000
G1 X117.071 Y109.04
;TYPE:External perimeter
G1 F1200
G1 X118.36 Y109.04 E.03799
G1 X118.354 Y111.721 E.07902
G1 X118.325 Y112.208 E.01438
G1 X118.259 Y112.675 E.0139
G1 X118.263 Y113.175 E.01474
G1 X118.738 Y112.859 E.01681
G1 X118.907 Y112.709 E.00666
G1 X119.682 Y112.335 E.02536
G1 X119.696 Y113.631 E.0382
G1 X119.03 Y113.998 E.02241
G1 X118.612 Y114.317 E.0155
G1 X118.286 Y114.653 E.0138
G1 X118.174 Y114.804 E.00554
G1 X117.991 Y115.122 E.01081
G1 X117.071 Y115.122 E.02712
G1 X117.071 Y109.1 E.17749
G1 E-1.12 F2400
;WIPE_START
G1 F4800
G1 X117.071 Y109.04 E-.0285
G1 X118.021 Y109.04 E-.4515
;WIPE_END
G1 X123.759 Y108.815 F6000
G1 E1.6 F2400
;TYPE:Perimeter
G1 F1200
G1 X124.074 Y108.681 E.01009
G1 X124.437 Y108.597 E.01098
G1 X124.667 Y108.574 E.00681
G1 X125.08 Y108.579 E.01217
G1 X125.358 Y108.62 E.00828
G1 X125.823 Y108.769 E.01439
G1 X126.252 Y109.032 E.01483
G1 X126.601 Y109.383 E.01459
G1 X126.785 Y109.652 E.00961
G1 X126.945 Y109.976 E.01065
G1 X127.151 Y109.593 E.01282
G1 X127.458 Y109.233 E.01394
G1 X127.836 Y108.938 E.01413
G1 X128.268 Y108.728 E.01416
G1 X128.728 Y108.609 E.014
G1 X129.014 Y108.577 E.00848
G1 X129.486 Y108.577 E.01391
G1 X129.969 Y108.656 E.01442
G1 X130.422 Y108.822 E.01422
G1 X130.829 Y109.076 E.01414
G1 X131.175 Y109.408 E.01413
G1 X131.44 Y109.794 E.0138
G1 X131.619 Y110.225 E.01375
G1 X131.705 Y110.682 E.01371
G1 X131.708 Y111.102 E.01238
G1 X131.657 Y111.435 E.00993
G1 X131.601 Y111.654 E.00666
G1 X131.379 Y112.062 E.01369
G1 X131.189 Y112.334 E.00978
G1 X131.095 Y112.37 E.00297
G1 X131.258 Y112.519 E.00651
G1 X131.458 Y113.076 E.01744
G1 X131.492 Y113.401 E.00963
G1 X131.476 Y113.592 E.00565
G1 X131.707 Y113.316 E.01061
G1 X132.174 Y112.609 E.02497
G1 X132.52 Y111.965 E.02155
G1 X132.713 Y111.536 E.01386
G1 X132.879 Y111.104 E.01364
G1 X133.104 Y110.34 E.02347
G1 X133.221 Y109.659 E.02037
G1 X133.313 Y108.663 E.02948
G1 X135.361 Y108.663 E.06036
G1 X135.268 Y109.954 E.03815
G1 X135.151 Y110.612 E.0197
G1 X134.896 Y111.559 E.02891
G1 X134.72 Y112.045 E.01523
G1 X134.517 Y112.518 E.01517
G1 X134.276 Y112.99 E.01562
G1 X133.995 Y113.426 E.01529
G1 X134.479 Y113.396 E.01429
G1 X136.074 Y113.387 E.04701
G1 X136.074 Y115.406 E.05951
G1 X131.178 Y115.406 E.1443
G1 X131.178 Y114.507 E.0265
G1 X131.001 Y114.756 E.009
G1 X130.7 Y115.04 E.0122
G1 X130.495 Y115.181 E.00733
G1 X130.129 Y115.354 E.01193
G1 X129.893 Y115.426 E.00727
G1 X129.472 Y115.493 E.01256
G1 X129.029 Y115.492 E.01306
G1 X128.782 Y115.463 E.00733
G1 X128.38 Y115.36 E.01223
G1 X128.164 Y115.269 E.00691
G1 X127.957 Y115.156 E.00695
G1 X127.625 Y114.898 E.01239
G1 X127.355 Y114.59 E.01207
G1 X127.226 Y114.387 E.00709
G1 X127.065 Y114.012 E.01203
G1 X127.037 Y113.864 E.00444
G1 X126.835 Y114.326 E.01486
G1 X126.519 Y114.777 E.01623
G1 X126.122 Y115.127 E.0156
G1 X125.926 Y115.245 E.00674
G1 X125.579 Y115.393 E.01112
G1 X125.035 Y115.495 E.01631
