; generated by PrusaSlicer 2.7.4+win64 on 2024-04-10 at 15:24:36 UTC

; 

; external perimeters extrusion width = 0.42mm
; perimeters extrusion width = 0.44mm
; infill extrusion width = 0.44mm
; solid infill extrusion width = 0.44mm
; top infill extrusion width = 0.40mm
; first layer extrusion width = 0.42mm


; printing object Shape-Box id:0 copy 0
; stop printing object Shape-Box id:0 copy 0

;TYPE:Custom
; Ender 3 Custom Start G-code
G92 E0 ; Reset Extruder

M140 S55 ; set bed temp
M104 S160 ; set extruder temp
M109 S160 ; wait for extruder temp
M190 S55 ; wait for bed temp

G28 ; Home all axes
M104 S210 ; set extruder temp 
BED_MESH_CALIBRATE AREA_START=83.7684,88.5669 AREA_END=143.763,126.207

G1 Z2.0 F3000 ; Move Z Axis up little to prevent scratching of Heat Bed
M109 S210 ; wait for extruder temp
G1 X0.1 Y20 Z0.3 F5000.0 ; Move to start position

G1 X0.1 Y200.0 Z0.3 F1500.0 E15 ; Draw the first line
G1 X0.4 Y200.0 Z0.3 F5000.0 ; Move to side a little
G1 X0.4 Y20 Z0.3 F1500.0 E30 ; Draw the second line
G92 E0 ; Reset Extruder
G1 Z2.0 F3000 ; Move Z Axis up little to prevent scratching of Heat Bed
G1 X5 Y20 Z0.3 F5000.0 ; Move over to prevent blob squish
G21 ; set units to millimeters
G90 ; use absolute coordinates
M83 ; use relative distances for extrusion
; Filament gcode
M107
;LAYER_CHANGE
;Z:0.2
;HEIGHT:0.2
G1 E-1.6 F2400
G1 Z.2 F6000
G1 X87.857 Y91.701
G1 Z.2
G1 E1.6 F2400
M204 S500
;TYPE:Skirt/Brim
;WIDTH:0.42
G1 F1200
G1 X88.725 Y90.996 E.03506
G1 X89.656 Y90.382 E.03497
G1 X91.322 Y89.564 E.05819
G1 X93.099 Y89.026 E.05821
G1 X94.721 Y88.79 E.05139
G1 X132.884 Y88.805 E1.19657
G1 X133.843 Y88.938 E.03036
G1 X135.87 Y89.494 E.0659
G1 X137.7 Y90.365 E.06355
G1 X139.14 Y91.376 E.05517
G1 X140.583 Y92.775 E.06302
G1 X141.374 Y93.79 E.04035
G1 X141.835 Y94.519 E.02704
G1 X142.681 Y96.304 E.06194
G1 X143.24 Y98.341 E.06623
G1 X143.425 Y100.341 E.06298
G1 X143.575 Y114.341 E.43899
G1 X143.503 Y115.668 E.04167
G1 X143.296 Y116.888 E.0388
G1 X142.676 Y118.864 E.06493
G1 X141.69 Y120.733 E.06626
G1 X140.467 Y122.296 E.06223
G1 X139.688 Y123.064 E.0343
G1 X138.815 Y123.771 E.03522
G1 X137.173 Y124.778 E.06039
G1 X136.08 Y125.257 E.03742
G1 X134.281 Y125.783 E.05877
G1 X132.523 Y126.003 E.05555
G1 X95.078 Y126.009 E1.17406
G1 X93.39 Y125.81 E.05329
G1 X92.295 Y125.542 E.03535
G1 X91.185 Y125.153 E.03688
G1 X89.854 Y124.506 E.0464
G1 X88.8 Y123.835 E.03918
G1 X87.851 Y123.075 E.03812
G1 X86.76 Y121.96 E.04891
G1 X86.154 Y121.19 E.03072
G1 X85.328 Y119.862 E.04904
G1 X84.772 Y118.665 E.04138
G1 X84.319 Y117.276 E.04581
G1 X84.013 Y115.506 E.05632
G1 X83.957 Y114.505 E.03143
G1 X83.987 Y99.578 E.46803
G1 X84.339 Y97.433 E.06815
G1 X84.956 Y95.673 E.05848
G1 X85.359 Y94.854 E.02862
G1 X86.242 Y93.468 E.05153
G1 X86.875 Y92.684 E.03159
G1 X87.814 Y91.744 E.04166
G1 X87.814 Y91.744 F6000
G1 X88.08 Y92.01
G1 F1200
G1 X88.109 Y91.982 E.00126
G1 X88.937 Y91.308 E.03348
G1 X89.836 Y90.714 E.03378
G1 X91.455 Y89.917 E.05658
G1 X92.992 Y89.437 E.05049
G1 X94.74 Y89.166 E.05546
G1 X131.692 Y89.133 E1.1586
G1 X133.767 Y89.308 E.06529
G1 X135.748 Y89.851 E.0644
G1 X137.509 Y90.69 E.06116
G1 X138.893 Y91.661 E.05301
G1 X140.304 Y93.029 E.06162
G1 X141.07 Y94.013 E.0391
G1 X141.565 Y94.802 E.0292
G1 X142.414 Y96.673 E.06442
G1 X142.882 Y98.473 E.05831
G1 X143.048 Y100.345 E.05893
G1 X143.198 Y114.345 E.43899
G1 X143.13 Y115.614 E.03985
G1 X142.924 Y116.824 E.03848
G1 X142.331 Y118.712 E.06205
G1 X141.369 Y120.534 E.0646
G1 X140.198 Y122.031 E.05959
G1 X139.594 Y122.642 E.02694
G1 X138.603 Y123.459 E.04027
G1 X136.981 Y124.453 E.05965
G1 X135.395 Y125.098 E.05368
G1 X134.218 Y125.411 E.03819
G1 X132.355 Y125.634 E.05883
G1 X95.105 Y125.633 E1.16795
G1 X93.449 Y125.437 E.05229
G1 X92.304 Y125.154 E.03698
G1 X91.337 Y124.807 E.03221
G1 X90.03 Y124.173 E.04555
G1 X89.019 Y123.528 E.0376
G1 X88.102 Y122.794 E.03683
G1 X87.039 Y121.706 E.04769
G1 X86.452 Y120.958 E.02981
G1 X85.657 Y119.676 E.0473
G1 X85.128 Y118.539 E.03932
G1 X84.684 Y117.182 E.04477
G1 X84.387 Y115.46 E.05479
G1 X84.334 Y114.505 E.02999
G1 X84.363 Y99.603 E.46724
G1 X84.7 Y97.541 E.06551
G1 X85.307 Y95.811 E.05748
G1 X85.705 Y95.004 E.02821
G1 X86.553 Y93.681 E.04927
G1 X87.156 Y92.934 E.0301
G1 X88.038 Y92.052 E.03911
G1 X88.038 Y92.052 F6000
G1 X88.304 Y92.318
G1 F1200
G1 X88.361 Y92.262 E.00251
G1 X89.149 Y91.62 E.03187
G1 X90.029 Y91.037 E.0331
G1 X91.588 Y90.27 E.05448
G1 X93.208 Y89.774 E.05312
G1 X94.758 Y89.543 E.04914
G1 X131.692 Y89.51 E1.15804
G1 X133.69 Y89.677 E.06286
G1 X135.628 Y90.208 E.063
G1 X137.318 Y91.015 E.05872
G1 X138.647 Y91.947 E.0509
G1 X140.013 Y93.269 E.0596
G1 X140.766 Y94.236 E.03843
G1 X141.237 Y94.988 E.02782
G1 X142.054 Y96.785 E.06189
G1 X142.512 Y98.545 E.05702
G1 X142.671 Y100.349 E.05678
G1 X142.821 Y114.349 E.43899
G1 X142.744 Y115.641 E.04058
G1 X142.521 Y116.917 E.04061
G1 X142.276 Y117.78 E.02813
G1 X141.409 Y119.75 E.06749
G1 X140.675 Y120.874 E.04209
G1 X140.018 Y121.672 E.03241
G1 X139.333 Y122.37 E.03066
G1 X138.39 Y123.147 E.03831
G1 X136.804 Y124.12 E.05834
G1 X135.27 Y124.742 E.0519
G1 X134.141 Y125.042 E.03663
G1 X132.345 Y125.257 E.05671
G1 X95.131 Y125.257 E1.16682
G1 X93.508 Y125.065 E.05124
G1 X92.409 Y124.792 E.03551
G1 X91.488 Y124.462 E.03068
G1 X90.206 Y123.839 E.04469
G1 X89.238 Y123.221 E.03601
G1 X88.306 Y122.47 E.03753
G1 X87.318 Y121.453 E.04446
G1 X86.76 Y120.741 E.02836
G1 X85.985 Y119.491 E.04611
G1 X85.483 Y118.413 E.03729
G1 X85.05 Y117.087 E.04374
G1 X84.761 Y115.415 E.0532
G1 X84.739 Y99.629 E.49496
G1 X85.061 Y97.651 E.06284
G1 X85.658 Y95.949 E.05655
G1 X86.04 Y95.178 E.02698
G1 X86.862 Y93.897 E.04772
G1 X87.438 Y93.185 E.02871
G1 X88.262 Y92.361 E.03654
G1 E-1.12 F2400
;WIPE_START
G1 F4800
G1 X88.304 Y92.318 E-.02855
G1 X88.361 Y92.262 E-.03796
G1 X89.036 Y91.712 E-.41349
;WIPE_END
; printing object Shape-Box id:0 copy 0
G1 X114.105 Y111.025 F6000
G1 E1.6 F2400
;TYPE:Perimeter
G1 F1200
G1 X113.95 Y111.174 E.00674
G1 X113.771 Y111.254 E.00615
G1 X113.638 Y111.257 E.00417
G1 X113.455 Y111.205 E.00596
G1 X113.348 Y111.071 E.00538
G1 X113.308 Y110.9 E.00551
G1 X113.317 Y110.662 E.00747
G1 X113.364 Y110.501 E.00526
G1 X113.436 Y110.392 E.0041
G1 X113.521 Y110.323 E.00343
G1 X113.617 Y110.287 E.00321
G1 X113.734 Y110.285 E.00367
G1 X113.823 Y110.322 E.00302
G1 X113.91 Y110.44 E.0046
G1 X114.086 Y110.968 E.01745
G1 E-1.12 F2400
;WIPE_START
G1 F4800
G1 X114.105 Y111.025 E-.02854
G1 X113.95 Y111.174 E-.10213
G1 X113.771 Y111.254 E-.09313
G1 X113.638 Y111.257 E-.06319
G1 X113.455 Y111.205 E-.09037
G1 X113.348 Y111.071 E-.08145
G1 X113.338 Y111.028 E-.02119
;WIPE_END
G1 X111.609 Y112.106 F6000
G1 E1.6 F2400
G1 F1200
G1 X110.004 Y111.941 E.05059
G1 X110.955 Y111.118 E.03943
G1 X111.28 Y110.781 E.01468
G1 X111.273 Y110.872 E.00286
G1 X111.311 Y111.33 E.01441
G1 X111.427 Y111.753 E.01375
G1 X111.532 Y111.988 E.00807
G1 X111.576 Y112.055 E.00251
G1 X111.576 Y112.055 F6000
G1 X112.321 Y112.839
G1 F1200
G1 X111.862 Y112.837 E.01439
G1 X111.913 Y112.51 E.01038
G1 X111.934 Y112.533 E.00098
G1 X112.274 Y112.802 E.01359
G1 E-1.12 F2400
;WIPE_START
G1 F4800
G1 X112.321 Y112.839 E-.02841
G1 X111.862 Y112.837 E-.21803
G1 X111.913 Y112.51 E-.1572
G1 X111.934 Y112.533 E-.01479
G1 X112.036 Y112.613 E-.06157
;WIPE_END
G1 X109.922 Y112.015 F6000
G1 E1.6 F2400
G1 F1200
G1 X109.837 Y112.855 E.02647
G1 X109.812 Y112.912 E.00195
G1 X109.726 Y112.98 E.00344
G1 X109.57 Y113.004 E.00495
G1 X109.484 Y112.997 E.00271
G1 X109.411 Y112.973 E.00241
G1 X109.341 Y112.913 E.00289
G1 X109.318 Y112.813 E.00322
G1 X109.341 Y112.711 E.00328
G1 X109.468 Y112.491 E.00796
G1 X109.597 Y112.335 E.00635
G1 X109.879 Y112.057 E.01242
G1 E-1.12 F2400
;WIPE_START
G1 F4800
G1 X109.922 Y112.015 E-.02855
G1 X109.837 Y112.855 E-.40104
G1 X109.812 Y112.912 E-.02956
G1 X109.778 Y112.939 E-.02085
;WIPE_END
G1 X96.845 Y112.086 F6000
G1 E1.6 F2400
G1 F1200
G1 X95.711 Y111.928 E.0359
G1 X96.647 Y111.118 E.03881
G1 X97.019 Y110.733 E.01679
G1 X97.015 Y111.027 E.00922
G1 X97.093 Y111.482 E.01447
G1 X97.258 Y111.902 E.01415
G1 X97.443 Y112.169 E.01018
G1 X96.905 Y112.094 E.01703
G1 E-1.12 F2400
;WIPE_START
G1 F4800
G1 X96.845 Y112.086 E-.02875
G1 X95.904 Y111.955 E-.45125
;WIPE_END
G1 X95.01 Y112.813 F6000
G1 E1.6 F2400
G1 F1200
G1 X95.034 Y112.711 E.00329
G1 X95.16 Y112.491 E.00795
G1 X95.289 Y112.335 E.00635
G1 X95.624 Y112.005 E.01474
G1 X95.532 Y112.852 E.02671
G1 X95.504 Y112.912 E.00208
G1 X95.441 Y112.969 E.00266
G1 X95.262 Y113.004 E.00572
G1 X95.103 Y112.973 E.00508
G1 X95.024 Y112.899 E.00339
G1 X95.02 Y112.872 E.00086
G1 E-1.12 F2400
;WIPE_START
G1 F4800
G1 X95.01 Y112.813 E-.02842
G1 X95.034 Y112.711 E-.04977
G1 X95.16 Y112.491 E-.12043
G1 X95.289 Y112.335 E-.09615
G1 X95.567 Y112.061 E-.18523
;WIPE_END
G1 X102.108 Y104.437 F6000
G1 E1.6 F2400
G1 F1200
G1 X101.572 Y104.436 E.01681
G1 X101.636 Y104.017 E.01329
G1 X101.85 Y104.258 E.01011
G1 X102.058 Y104.403 E.00795
G1 E-1.12 F2400
;WIPE_START
G1 F4800
G1 X102.108 Y104.437 E-.02872
G1 X101.572 Y104.436 E-.2546
G1 X101.635 Y104.027 E-.19668
;WIPE_END
G1 X103.879 Y102.623 F6000
G1 E1.6 F2400
G1 F1200
G1 X103.724 Y102.772 E.00674
G1 X103.544 Y102.853 E.00619
G1 X103.411 Y102.856 E.00417
G1 X103.229 Y102.803 E.00594
G1 X103.121 Y102.669 E.0054
G1 X103.082 Y102.499 E.00547
G1 X103.091 Y102.26 E.0075
G1 X103.138 Y102.099 E.00526
G1 X103.21 Y101.991 E.00407
G1 X103.294 Y101.922 E.00341
G1 X103.39 Y101.885 E.00323
G1 X103.508 Y101.884 E.0037
G1 X103.597 Y101.921 E.00302
G1 X103.684 Y102.038 E.00457
G1 X103.86 Y102.566 E.01745
G1 E-1.12 F2400
;WIPE_START
G1 F4800
G1 X103.879 Y102.623 E-.02854
G1 X103.724 Y102.772 E-.10213
G1 X103.544 Y102.853 E-.09376
G1 X103.411 Y102.856 E-.06319
G1 X103.229 Y102.803 E-.09004
G1 X103.121 Y102.669 E-.08175
G1 X103.111 Y102.627 E-.02059
;WIPE_END
G1 X115.773 Y109.696 F6000
G1 E1.6 F2400
G1 F1200
G1 X115.855 Y109.508 E.00643
G1 X116.199 Y109.062 E.01766
G1 X116.63 Y108.721 E.01723
G1 X117.126 Y108.499 E.01704
G1 X117.677 Y108.4 E.01755
G1 X118.225 Y108.422 E.0172
G1 X118.604 Y108.513 E.01222
G1 X118.951 Y108.669 E.01193
G1 X119.264 Y108.892 E.01205
G1 X119.528 Y109.178 E.0122
G1 X119.73 Y109.518 E.0124
G1 X119.854 Y109.895 E.01244
G1 X120.009 Y111.027 E.03582
G1 X119.484 Y110.986 E.01651
G1 X119.644 Y111.166 E.00755
G1 X119.79 Y111.393 E.00846
G1 X119.947 Y111.804 E.01379
G1 X120.002 Y112.057 E.00812
G1 X120.037 Y112.51 E.01425
G1 X120.001 Y112.985 E.01494
G1 X119.884 Y113.436 E.01461
G1 X119.683 Y113.851 E.01446
G1 X119.399 Y114.215 E.01448
G1 X119.051 Y114.51 E.0143
G1 X118.657 Y114.724 E.01406
G1 X118.226 Y114.851 E.01409
G1 X117.778 Y114.891 E.0141
G1 X117.437 Y114.867 E.01072
G1 X117.11 Y114.797 E.01049
G1 X116.788 Y114.675 E.0108
G1 X116.361 Y114.417 E.01564
G1 X115.99 Y114.058 E.01619
G1 X115.711 Y113.627 E.0161
G1 X115.551 Y113.231 E.01339
G1 X115.261 Y114.8 E.05003
G1 X111.511 Y114.8 E.11758
G1 X111.511 Y113.917 E.02769
G1 X111.303 Y114.199 E.01099
G1 X110.994 Y114.47 E.01289
G1 X110.789 Y114.6 E.00761
G1 X110.414 Y114.764 E.01283
G1 X109.996 Y114.86 E.01345
G1 X109.566 Y114.89 E.01352
G1 X109.317 Y114.881 E.00781
G1 X108.89 Y114.815 E.01355
G1 X108.478 Y114.67 E.01369
G1 X108.106 Y114.445 E.01363
G1 X107.794 Y114.151 E.01344
G1 X107.564 Y113.824 E.01254
G1 X107.459 Y113.609 E.0075
G1 X107.343 Y113.227 E.01252
G1 X107.305 Y112.823 E.01272
G1 X107.353 Y112.358 E.01466
G1 X107.482 Y111.948 E.01348
G1 X107.709 Y111.536 E.01475
G1 X108.099 Y111.056 E.01939
G1 X108.583 Y110.595 E.02096
G1 X108.803 Y110.426 E.0087
G1 X107.301 Y110.454 E.0471
G1 X107.3 Y108.484 E.06177
G1 X112.02 Y108.484 E.14799
G1 X111.989 Y109.072 E.01846
G1 X112.406 Y108.735 E.01681
G1 X112.885 Y108.513 E.01655
G1 X113.41 Y108.41 E.01677
G1 X113.682 Y108.397 E.00854
G1 X114.108 Y108.428 E.01339
G1 X114.521 Y108.529 E.01333
G1 X114.906 Y108.703 E.01325
G1 X115.251 Y108.952 E.01334
G1 X115.537 Y109.265 E.01329
G1 X115.744 Y109.643 E.01351
G1 X115.744 Y109.643 F6000
G1 X115.553 Y110.694
;TYPE:External perimeter
G1 F1200
G1 X114.992 Y110.8 E.0179
G1 X114.436 Y110.824 E.01745
G1 X114.249 Y110.263 E.01854
G1 X114.092 Y110.052 E.00825
G1 X113.908 Y109.942 E.00672
G1 X113.799 Y109.912 E.00354
G1 X113.53 Y109.916 E.00844
G1 X113.33 Y109.992 E.00671
G1 X113.154 Y110.136 E.00713
G1 X113.019 Y110.34 E.00767
G1 X112.942 Y110.601 E.00853
G1 X112.93 Y110.923 E.0101
G1 X112.958 Y111.101 E.00565
G1 X113.01 Y111.245 E.0048
G1 X113.141 Y111.433 E.00718
G1 X113.244 Y111.52 E.00423
G1 X113.362 Y111.581 E.00416
G1 X113.598 Y111.635 E.00759
G1 X113.882 Y111.617 E.00892
G1 X114.164 Y111.491 E.00968
G1 X114.491 Y111.177 E.01421
G1 X114.931 Y111.215 E.01385
G1 X115.458 Y111.344 E.01701
G1 X115.312 Y112.447 E.03489
G1 X114.947 Y114.423 E.063
G1 X111.888 Y114.423 E.09591
G1 X111.888 Y113.214 E.03791
G1 X113.704 Y113.221 E.05694
G1 X114.007 Y113.237 E.00951
G1 X114.085 Y113.02 E.00723
G1 X114.173 Y112.57 E.01438
G1 X114.073 Y112.614 E.00343
G1 X113.853 Y112.668 E.0071
G1 X113.715 Y112.763 E.00525
G1 X113.159 Y112.768 E.01743
G1 X112.8 Y112.665 E.01171
G1 X112.478 Y112.495 E.01142
G1 X112.196 Y112.26 E.01151
G1 X112.063 Y112.112 E.00624
G1 X111.864 Y111.807 E.01142
G1 X111.783 Y111.626 E.00622
G1 X111.684 Y111.264 E.01177
G1 X111.651 Y110.87 E.0124
G1 X111.68 Y110.492 E.01189
G1 X111.766 Y110.14 E.01136
G1 X111.835 Y109.962 E.00599
G1 X112.008 Y109.647 E.01127
G1 X112.265 Y109.331 E.01277
G1 X112.606 Y109.058 E.0137
G1 X113.002 Y108.874 E.01369
G1 X113.455 Y108.785 E.01448
G1 X113.677 Y108.775 E.00697
G1 X114.049 Y108.802 E.01169
G1 X114.397 Y108.887 E.01123
G1 X114.716 Y109.031 E.01097
G1 X114.999 Y109.235 E.01094
G1 X115.232 Y109.49 E.01083
G1 X115.405 Y109.785 E.01072
G1 X115.521 Y110.119 E.01109
G1 X115.55 Y110.635 E.0162
G1 E-1.12 F2400
;WIPE_START
G1 F4800
G1 X115.553 Y110.694 E-.02806
G1 X114.992 Y110.8 E-.27119
G1 X114.612 Y110.817 E-.18075
;WIPE_END
G1 X118.507 Y110.61 F6000
G1 E1.6 F2400
G1 F1200
G1 X118.422 Y110.283 E.01059
G1 X118.265 Y110.07 E.0083
G1 X118.207 Y110.014 E.00253
G1 X118.044 Y109.932 E.00572
G1 X117.832 Y109.902 E.00671
G1 X117.638 Y109.925 E.00613
G1 X117.405 Y110.039 E.00813
G1 X117.261 Y110.158 E.00586
G1 X117.052 Y110.42 E.01051
G1 X116.913 Y110.97 E.01779
G1 X117.256 Y110.777 E.01234
G1 X117.639 Y110.644 E.01271
G1 X117.876 Y110.635 E.00744
G1 X118.364 Y110.731 E.01559
G1 X118.528 Y110.791 E.00548
G1 X119.094 Y111.115 E.02045
G1 X119.342 Y111.394 E.0117
G1 X119.452 Y111.564 E.00635
G1 X119.585 Y111.912 E.01168
G1 X119.628 Y112.112 E.00641
G1 X119.659 Y112.51 E.01252
G1 X119.627 Y112.923 E.01299
G1 X119.529 Y113.305 E.01237
G1 X119.361 Y113.651 E.01206
G1 X119.125 Y113.953 E.01202
G1 X118.837 Y114.197 E.01184
G1 X118.512 Y114.373 E.01159
G1 X118.155 Y114.479 E.01168
G1 X117.774 Y114.513 E.01199
G1 X117.49 Y114.493 E.00893
G1 X117.217 Y114.434 E.00876
G1 X116.953 Y114.334 E.00885
G1 X116.592 Y114.116 E.01322
G1 X116.283 Y113.817 E.01348
G1 X116.045 Y113.449 E.01374
G1 X115.921 Y113.156 E.00998
G1 X115.802 Y112.638 E.01666
G1 X115.77 Y112.221 E.01311
G1 X115.804 Y111.541 E.02135
G1 X115.798 Y111.312 E.00718
G1 X115.839 Y110.877 E.0137
G1 X115.984 Y110.156 E.02306
G1 X116.182 Y109.701 E.01556
G1 X116.469 Y109.329 E.01473
G1 X116.827 Y109.046 E.01431
G1 X117.238 Y108.862 E.01412
G1 X117.703 Y108.779 E.01481
G1 X118.173 Y108.798 E.01475
G1 X118.482 Y108.872 E.00996
G1 X118.763 Y108.998 E.00966
G1 X119.014 Y109.176 E.00965
G1 X119.224 Y109.404 E.00972
G1 X119.385 Y109.675 E.00988
G1 X119.485 Y109.98 E.01006
G1 X119.572 Y110.615 E.0201
G1 X118.962 Y110.567 E.01919
G1 X118.566 Y110.604 E.01247
G1 E-1.12 F2400
;WIPE_START
G1 F4800
G1 X118.507 Y110.61 E-.02817
G1 X118.422 Y110.283 E-.16049
G1 X118.265 Y110.07 E-.12569
G1 X118.207 Y110.014 E-.0383
G1 X118.044 Y109.932 E-.08667
G1 X117.959 Y109.92 E-.04068
;WIPE_END
G1 X111.622 Y108.861 F6000
G1 E1.6 F2400
G1 F1200
G1 X111.592 Y109.439 E.01815
G1 X111.52 Y109.703 E.00858
G1 X111.432 Y109.907 E.00697
G1 X111.207 Y110.278 E.0136
G1 X111.059 Y110.467 E.00753
G1 X110.695 Y110.844 E.01643
G1 X109.689 Y111.714 E.0417
G1 X109.319 Y112.08 E.01632
