; generated by PrusaSlicer 2.6.0+win64 on 2023-08-23 at 15:39:42 UTC

; 

; external perimeters extrusion width = 0.42mm
; perimeters extrusion width = 0.44mm
; infill extrusion width = 0.44mm
; solid infill extrusion width = 0.44mm
; top infill extrusion width = 0.40mm
; first layer extrusion width = 0.42mm

; external perimeters extrusion width = 0.42mm
; perimeters extrusion width = 0.44mm
; infill extrusion width = 0.44mm
; solid infill extrusion width = 0.44mm
; top infill extrusion width = 0.40mm
; first layer extrusion width = 0.42mm

; external perimeters extrusion width = 0.42mm
; perimeters extrusion width = 0.44mm
; infill extrusion width = 0.44mm
; solid infill extrusion width = 0.44mm
; top infill extrusion width = 0.40mm
; first layer extrusion width = 0.42mm

; external perimeters extrusion width = 0.42mm
; perimeters extrusion width = 0.44mm
; infill extrusion width = 0.44mm
; solid infill extrusion width = 0.44mm
; top infill extrusion width = 0.40mm
; first layer extrusion width = 0.42mm

; external perimeters extrusion width = 0.42mm
; perimeters extrusion width = 0.44mm
; infill extrusion width = 0.44mm
; solid infill extrusion width = 0.44mm
; top infill extrusion width = 0.40mm
; first layer extrusion width = 0.42mm

; external perimeters extrusion width = 0.42mm
; perimeters extrusion width = 0.44mm
; infill extrusion width = 0.44mm
; solid infill extrusion width = 0.44mm
; top infill extrusion width = 0.40mm
; first layer extrusion width = 0.42mm

; external perimeters extrusion width = 0.42mm
; perimeters extrusion width = 0.44mm
; infill extrusion width = 0.44mm
; solid infill extrusion width = 0.44mm
; top infill extrusion width = 0.40mm
; first layer extrusion width = 0.42mm

;TYPE:Custom
; Ender 3 Custom Start G-code
G92 E0 ; Reset Extruder

M140 S55 ; set bed temp
M104 S160 ; set extruder temp
M109 S160 ; wait for extruder temp
M190 S55 ; wait for bed temp

G28 ; Home all axes
M104 S210 ; set extruder temp 
BED_MESH_CALIBRATE AREA_START=83.7684,88.5669 AREA_END=143.763,126.207

G1 Z2.0 F3000 ; Move Z Axis up little to prevent scratching of Heat Bed
M109 S210 ; wait for extruder temp
G1 X0.1 Y20 Z0.3 F5000.0 ; Move to start position

G1 X0.1 Y200.0 Z0.3 F1500.0 E15 ; Draw the first line
G1 X0.4 Y200.0 Z0.3 F5000.0 ; Move to side a little
G1 X0.4 Y20 Z0.3 F1500.0 E30 ; Draw the second line
G92 E0 ; Reset Extruder
G1 Z2.0 F3000 ; Move Z Axis up little to prevent scratching of Heat Bed
G1 X5 Y20 Z0.3 F5000.0 ; Move over to prevent blob squish
G21 ; set units to millimeters
G90 ; use absolute coordinates
M83 ; use relative distances for extrusion
; Filament gcode
M107
;LAYER_CHANGE
;Z:0.2
;HEIGHT:0.2
;BEFORE_LAYER_CHANGE
G92 E0
;0.2


G1 E-1.6 F2400
G1 Z.2 F6000
;AFTER_LAYER_CHANGE
;0.2
G1 X87.857 Y91.701
G1 E1.6 F2400
M204 S500
;TYPE:Skirt/Brim
;WIDTH:0.42
G1 F1200
G1 X88.725 Y90.996 E.03296
G1 X89.656 Y90.382 E.03287
G1 X91.322 Y89.564 E.0547
G1 X93.099 Y89.026 E.05472
G1 X94.721 Y88.79 E.04831
G1 X131.692 Y88.755 E1.08965
G1 X132.884 Y88.805 E.03516
G1 X133.843 Y88.938 E.02854
G1 X135.87 Y89.494 E.06195
G1 X137.7 Y90.365 E.05973
G1 X139.14 Y91.376 E.05186
G1 X140.583 Y92.775 E.05924
G1 X141.374 Y93.79 E.03793
G1 X141.835 Y94.519 E.02542
G1 X142.681 Y96.304 E.05822
G1 X143.24 Y98.341 E.06226
G1 X143.425 Y100.341 E.0592
G1 X143.575 Y114.341 E.41265
G1 X143.503 Y115.668 E.03917
G1 X143.296 Y116.888 E.03647
G1 X142.676 Y118.864 E.06104
G1 X141.69 Y120.733 E.06228
G1 X140.467 Y122.296 E.05849
G1 X139.688 Y123.064 E.03224
G1 X138.815 Y123.771 E.03311
G1 X137.173 Y124.778 E.05677
G1 X136.08 Y125.257 E.03517
G1 X134.281 Y125.783 E.05524
G1 X132.523 Y126.003 E.05222
G1 X95.078 Y126.009 E1.10362
G1 X93.39 Y125.81 E.0501
G1 X92.295 Y125.542 E.03323
G1 X91.185 Y125.153 E.03467
G1 X89.854 Y124.506 E.04362
G1 X88.8 Y123.835 E.03683
G1 X87.851 Y123.075 E.03583
G1 X86.76 Y121.96 E.04598
G1 X86.154 Y121.19 E.02888
G1 X85.328 Y119.862 E.04609
G1 X84.772 Y118.665 E.0389
G1 X84.319 Y117.276 E.04306
G1 X84.013 Y115.506 E.05294
G1 X83.957 Y114.505 E.02955
G1 X83.987 Y99.578 E.43994
G1 X84.339 Y97.433 E.06407
G1 X84.956 Y95.673 E.05497
G1 X85.359 Y94.854 E.0269
G1 X86.242 Y93.468 E.04844
G1 X86.875 Y92.684 E.0297
G1 X87.814 Y91.744 E.03916
G1 X88.08 Y92.01 F6000
G1 F1200
G1 X88.937 Y91.308 E.03265
G1 X89.836 Y90.714 E.03176
G1 X91.455 Y89.917 E.05319
G1 X92.992 Y89.437 E.04746
G1 X94.74 Y89.166 E.05213
G1 X131.692 Y89.133 E1.08909
G1 X133.767 Y89.308 E.06137
G1 X135.748 Y89.851 E.06054
G1 X137.509 Y90.69 E.05749
G1 X138.893 Y91.661 E.04983
G1 X140.304 Y93.029 E.05792
G1 X141.07 Y94.013 E.03675
G1 X141.565 Y94.802 E.02745
G1 X142.414 Y96.673 E.06056
G1 X142.882 Y98.473 E.05482
G1 X143.048 Y100.345 E.05539
G1 X143.198 Y114.345 E.41265
G1 X143.13 Y115.614 E.03745
G1 X142.924 Y116.824 E.03618
G1 X142.331 Y118.712 E.05833
G1 X141.369 Y120.534 E.06073
G1 X140.198 Y122.031 E.05602
G1 X139.594 Y122.642 E.02532
G1 X138.603 Y123.459 E.03785
G1 X136.981 Y124.453 E.05607
G1 X135.395 Y125.098 E.05046
G1 X134.218 Y125.411 E.0359
G1 X132.355 Y125.634 E.0553
G1 X95.105 Y125.633 E1.09787
G1 X93.449 Y125.437 E.04915
G1 X92.304 Y125.154 E.03476
G1 X91.337 Y124.807 E.03028
G1 X90.03 Y124.173 E.04281
G1 X89.019 Y123.528 E.03534
G1 X88.102 Y122.794 E.03462
G1 X87.039 Y121.706 E.04483
G1 X86.452 Y120.958 E.02802
G1 X85.657 Y119.676 E.04446
G1 X85.128 Y118.539 E.03696
G1 X84.684 Y117.182 E.04208
G1 X84.387 Y115.46 E.0515
G1 X84.334 Y114.505 E.02819
G1 X84.363 Y99.603 E.43921
G1 X84.7 Y97.541 E.06158
G1 X85.307 Y95.811 E.05404
G1 X85.705 Y95.004 E.02652
G1 X86.553 Y93.681 E.04632
G1 X87.156 Y92.934 E.02829
G1 X88.038 Y92.052 E.03676
G1 X88.304 Y92.318 F6000
G1 F1200
G1 X89.149 Y91.62 E.0323
G1 X90.029 Y91.037 E.03111
G1 X91.588 Y90.27 E.05121
G1 X93.208 Y89.774 E.04993
G1 X94.758 Y89.543 E.04619
G1 X131.692 Y89.51 E1.08856
G1 X133.69 Y89.677 E.05909
G1 X135.628 Y90.208 E.05922
G1 X137.318 Y91.015 E.0552
G1 X138.647 Y91.947 E.04784
G1 X140.013 Y93.269 E.05603
G1 X140.766 Y94.236 E.03612
G1 X141.237 Y94.988 E.02615
G1 X142.054 Y96.785 E.05818
G1 X142.512 Y98.545 E.0536
G1 X142.671 Y100.349 E.05338
G1 X142.821 Y114.349 E.41265
G1 X142.744 Y115.641 E.03815
G1 X142.521 Y116.917 E.03818
G1 X142.276 Y117.78 E.02644
G1 X141.409 Y119.75 E.06344
G1 X140.675 Y120.874 E.03957
G1 X140.018 Y121.672 E.03047
G1 X139.333 Y122.37 E.02882
G1 X138.39 Y123.147 E.03601
G1 X136.804 Y124.12 E.05484
G1 X135.27 Y124.742 E.04879
G1 X134.141 Y125.042 E.03443
G1 X132.345 Y125.257 E.05331
G1 X95.131 Y125.257 E1.09681
G1 X93.508 Y125.065 E.04817
G1 X92.409 Y124.792 E.03338
G1 X91.488 Y124.462 E.02883
G1 X90.206 Y123.839 E.04201
G1 X89.238 Y123.221 E.03385
G1 X88.306 Y122.47 E.03528
G1 X87.318 Y121.453 E.04179
G1 X86.76 Y120.741 E.02666
G1 X85.985 Y119.491 E.04335
G1 X85.483 Y118.413 E.03505
G1 X85.05 Y117.087 E.04111
G1 X84.761 Y115.415 E.05001
G1 X84.739 Y99.629 E.46526
G1 X85.061 Y97.651 E.05907
G1 X85.658 Y95.949 E.05316
G1 X86.04 Y95.178 E.02536
G1 X86.862 Y93.897 E.04486
G1 X87.438 Y93.185 E.02699
G1 X88.262 Y92.361 E.03435
; printing object 2 id:2 copy 0
G1 E-1.12 F2400
;WIPE_START
G1 F4800
G1 X89.038 Y91.713 E-.48
;WIPE_END
G1 X128.864 Y104.474 F6000
G1 E1.6 F2400
;TYPE:External perimeter
G1 F1200
G1 X128.944 Y104.474 E.00236
G1 X128.944 Y105.054 E.01709
G1 X128.864 Y105.054 E.00236
G1 X128.864 Y104.534 E.01533
G1 X128.935 Y104.51 F6000
; stop printing object 2 id:2 copy 0
; printing object 10 id:6 copy 0
G1 E-1.12 F2400
;WIPE_START
G1 F4800
G1 X128.944 Y104.474 E-.0475
G1 X128.944 Y105.054 E-.2755
G1 X128.864 Y105.054 E-.038
G1 X128.864 Y104.803 E-.119
;WIPE_END
G1 X124.626 Y104.516 F6000
G1 E1.6 F2400
G1 F1200
G1 X124.626 Y105.096 E.01709
G1 X124.546 Y105.096 E.00236
G1 X124.546 Y104.516 E.01709
G1 X124.566 Y104.516 E.00059
G1 X124.608 Y104.916 F6000
; stop printing object 10 id:6 copy 0
; printing object 3 id:3 copy 0
G1 E-1.12 F2400
;WIPE_START
G1 F4800
G1 X124.626 Y105.096 E-.27697
G1 X124.546 Y105.096 E-.038
G1 X124.546 Y104.749 E-.16503
;WIPE_END
G1 X124.474 Y109.105 F6000
G1 E1.6 F2400
G1 F1200
G1 X124.474 Y109.685 E.01709
G1 X124.394 Y109.685 E.00236
G1 X124.394 Y109.105 E.01709
G1 X124.414 Y109.105 E.00059
G1 X124.456 Y109.505 F6000
; stop printing object 3 id:3 copy 0
; printing object 1 id:1 copy 0
G1 E-1.12 F2400
;WIPE_START
G1 F4800
G1 X124.474 Y109.685 E-.27697
G1 X124.394 Y109.685 E-.038
G1 X124.394 Y109.338 E-.16503
;WIPE_END
G1 X128.874 Y109.202 F6000
G1 E1.6 F2400
G1 F1200
G1 X128.954 Y109.202 E.00236
G1 X128.954 Y109.782 E.01709
G1 X128.874 Y109.782 E.00236
G1 X128.874 Y109.262 E.01533
G1 X128.945 Y109.239 F6000
; stop printing object 1 id:1 copy 0
; printing object Shape-Box id:0 copy 0
G1 E-1.12 F2400
;WIPE_START
G1 F4800
G1 X128.954 Y109.202 E-.0475
G1 X128.954 Y109.782 E-.2755
G1 X128.874 Y109.782 E-.038
G1 X128.874 Y109.531 E-.119
;WIPE_END
G1 X109.894 Y106.473 F6000
G1 E1.6 F2400
;TYPE:Perimeter
G1 F1200
G1 X109.724 Y106.64 E.00702
G1 X109.585 Y106.706 E.00454
G1 X109.418 Y106.715 E.00493
G1 X109.269 Y106.681 E.0045
G1 X109.192 Y106.629 E.00274
G1 X109.116 Y106.52 E.00392
G1 X109.075 Y106.343 E.00535
G1 X109.084 Y106.099 E.0072
G1 X109.133 Y105.933 E.0051
G1 X109.208 Y105.821 E.00397
G1 X109.295 Y105.749 E.00333
G1 X109.395 Y105.711 E.00315
G1 X109.519 Y105.71 E.00365
G1 X109.633 Y105.764 E.00372
G1 X109.693 Y105.846 E.00299
G1 X109.875 Y106.416 E.01764
G1 E-1.12 F2400
;WIPE_START
G1 F4800
G1 X109.724 Y106.64 E-.12832
G1 X109.585 Y106.706 E-.07309
G1 X109.418 Y106.715 E-.07944
G1 X109.269 Y106.681 E-.07259
G1 X109.192 Y106.629 E-.04413
G1 X109.116 Y106.52 E-.06312
G1 X109.107 Y106.48 E-.01931
;WIPE_END
G1 X104.724 Y106.73 F6000
G1 E1.6 F2400
;TYPE:External perimeter
G1 F1200
G1 X104.129 Y109.912 E.09541
G1 X101.034 Y109.912 E.09122
G1 X101.034 Y108.695 E.03587
G1 X103.182 Y108.715 E.06331
G1 X103.26 Y108.494 E.00691
G1 X103.351 Y108.031 E.01391
G1 X103.245 Y108.078 E.00342
G1 X103.021 Y108.133 E.0068
G1 X102.881 Y108.228 E.00499
G1 X102.32 Y108.233 E.01654
G1 X101.956 Y108.129 E.01116
G1 X101.631 Y107.957 E.01084
G1 X101.345 Y107.719 E.01097
G1 X101.21 Y107.569 E.00595
G1 X101.009 Y107.261 E.01084
G1 X100.928 Y107.077 E.00593
G1 X100.827 Y106.711 E.01119
G1 X100.794 Y106.312 E.0118
G1 X100.823 Y105.93 E.01129
G1 X100.91 Y105.573 E.01083
G1 X100.979 Y105.393 E.00568
G1 X101.155 Y105.074 E.01074
G1 X101.415 Y104.754 E.01215
G1 X101.76 Y104.478 E.01302
G1 X102.155 Y104.295 E.01283
G1 X102.38 Y104.236 E.00686
G1 X102.627 Y104.202 E.00735
G1 X102.844 Y104.191 E.0064
G1 X103.221 Y104.219 E.01114
G1 X103.573 Y104.305 E.01068
G1 X103.895 Y104.451 E.01042
G1 X104.181 Y104.657 E.01039
G1 X104.418 Y104.912 E.01026
G1 X104.598 Y105.206 E.01016
G1 X104.72 Y105.535 E.01034
G1 X104.83 Y106.206 E.02004
G1 X103.61 Y106.27 E.03601
G1 X103.423 Y105.686 E.01807
G1 X103.275 Y105.485 E.00736
G1 X103.08 Y105.366 E.00673
G1 X102.969 Y105.337 E.00338
G1 X102.694 Y105.341 E.00811
G1 X102.489 Y105.418 E.00645
G1 X102.31 Y105.565 E.00683
G1 X102.172 Y105.772 E.00733
G1 X102.094 Y106.038 E.00817
G1 X102.082 Y106.366 E.00967
G1 X102.111 Y106.548 E.00543
G1 X102.163 Y106.695 E.0046
G1 X102.297 Y106.886 E.00688
G1 X102.403 Y106.975 E.00408
G1 X102.523 Y107.038 E.00399
G1 X102.764 Y107.092 E.00728
G1 X103.063 Y107.072 E.00883
G1 X103.334 Y106.949 E.00877
G1 X103.663 Y106.624 E.01363
G1 X104.103 Y106.647 E.01299
G1 X104.665 Y106.722 E.01671
G1 X105.119 Y106.792 F6000
G1 X103.279 Y106.473
;TYPE:Perimeter
G1 F1200
G1 X103.11 Y106.64 E.007
G1 X102.971 Y106.706 E.00454
G1 X102.803 Y106.715 E.00496
G1 X102.654 Y106.681 E.0045
G1 X102.577 Y106.629 E.00274
G1 X102.501 Y106.52 E.00392
G1 X102.46 Y106.343 E.00535
G1 X102.469 Y106.099 E.0072
G1 X102.518 Y105.933 E.0051
G1 X102.593 Y105.821 E.00397
G1 X102.681 Y105.749 E.00335
G1 X102.781 Y105.711 E.00315
G1 X102.904 Y105.71 E.00363
G1 X103.018 Y105.764 E.00372
G1 X103.078 Y105.846 E.00299
G1 X103.261 Y106.416 E.01764
G1 E-1.12 F2400
;WIPE_START
G1 F4800
G1 X103.11 Y106.64 E-.12832
G1 X102.971 Y106.706 E-.07309
G1 X102.803 Y106.715 E-.07991
G1 X102.654 Y106.681 E-.07259
G1 X102.577 Y106.629 E-.04413
G1 X102.501 Y106.52 E-.06312
G1 X102.492 Y106.481 E-.01884
;WIPE_END
G1 X100.778 Y107.596 F6000
G1 E1.6 F2400
G1 F1200
G1 X98.921 Y107.406 E.05502
G1 X99.903 Y106.556 E.03828
G1 X100.297 Y106.149 E.0167
G1 X100.442 Y105.963 E.00695
G1 X100.416 Y106.314 E.01037
G1 X100.454 Y106.777 E.01369
G1 X100.571 Y107.205 E.01308
G1 X100.677 Y107.442 E.00765
G1 X100.745 Y107.546 E.00366
G1 X101.509 Y108.319 F6000
G1 F1200
G1 X100.819 Y108.317 E.02034
G1 X100.902 Y107.786 E.01584
G1 X101.083 Y107.992 E.00808
G1 X101.456 Y108.291 E.01409
G1 E-1.12 F2400
;WIPE_START
G1 F4800
G1 X100.819 Y108.317 E-.30283
G1 X100.877 Y107.948 E-.17717
;WIPE_END
G1 X98.875 Y107.447 F6000
G1 E1.6 F2400
G1 F1200
G1 X98.771 Y108.368 E.02732
G1 X98.691 Y108.449 E.00336
G1 X98.603 Y108.478 E.00273
G1 X98.417 Y108.479 E.00548
G1 X98.338 Y108.453 E.00245
G1 X98.255 Y108.375 E.00336
G1 X98.239 Y108.283 E.00275
G1 X98.312 Y108.075 E.0065
G1 X98.525 Y107.792 E.01044
G1 X98.832 Y107.489 E.01271
G1 X97.754 Y105.851 F6000
G1 F1200
G1 X97.509 Y106.042 E.00916
G1 X97.02 Y106.507 E.01989
G1 X96.625 Y106.994 E.01848
G1 X96.48 Y107.258 E.00888
G1 X96.325 Y106.849 E.01289
G1 X96.18 Y106.619 E.00801
G1 X96.005 Y106.422 E.00777
G1 X96.55 Y106.462 E.01611
G1 X96.467 Y105.878 E.01739
G1 X97.694 Y105.854 E.03617
G1 X96.59 Y105.5 F6000
;TYPE:External perimeter
G1 F1200
G1 X96.589 Y104.279 E.03599
G1 X100.582 Y104.279 E.11769
G1 X100.551 Y104.86 E.01715
G1 X100.478 Y105.127 E.00816
G1 X100.39 Y105.333 E.0066
G1 X100.162 Y105.709 E.01296
G1 X100.012 Y105.901 E.00718
G1 X99.643 Y106.282 E.01563
G1 X98.623 Y107.165 E.03976
G1 X98.247 Y107.536 E.01557
G1 X98.089 Y107.726 E.00728
G1 X97.983 Y107.891 E.00578
G1 X97.871 Y108.175 E.009
G1 X97.86 Y108.29 E.0034
G1 X97.885 Y108.47 E.00536
G1 X97.924 Y108.56 E.00289
G1 X97.984 Y108.646 E.00309
G1 X98.128 Y108.77 E.0056
G1 X98.353 Y108.852 E.00706
G1 X98.667 Y108.852 E.00925
G1 X98.801 Y108.816 E.00409
G1 X98.906 Y108.764 E.00345
G1 X99.049 Y108.635 E.00568
G1 X99.112 Y108.535 E.00348
G1 X99.156 Y108.413 E.00382
G1 X99.216 Y107.815 E.01771
G1 X100.495 Y107.946 E.03789
G1 X100.387 Y108.634 E.02053
G1 X100.269 Y108.978 E.01072
G1 X100.182 Y109.146 E.00558
G1 X99.976 Y109.426 E.01025
G1 X99.717 Y109.653 E.01015
G1 X99.56 Y109.752 E.00547
G1 X99.239 Y109.893 E.01033
G1 X98.88 Y109.975 E.01085
G1 X98.494 Y110.002 E.0114
G1 X98.285 Y109.995 E.00616
G1 X97.91 Y109.936 E.01119
G1 X97.563 Y109.815 E.01083
G1 X97.256 Y109.629 E.01058
G1 X96.998 Y109.385 E.01047
G1 X96.804 Y109.11 E.00992
G1 X96.725 Y108.948 E.00531
G1 X96.628 Y108.628 E.00986
G1 X96.596 Y108.285 E.01015
G1 X96.606 Y108.097 E.00555
G1 X96.635 Y107.91 E.00558
G1 X96.745 Y107.559 E.01084
G1 X96.94 Y107.205 E.01191
G1 X97.298 Y106.764 E.01674
G1 X97.756 Y106.328 E.01864
G1 X98.25 Y105.943 E.01846
G1 X98.54 Y105.777 E.00985
G1 X98.947 Y105.402 E.01631
G1 X98.409 Y105.398 E.01586
G1 X97.916 Y105.464 E.01466
G1 X97.405 Y105.493 E.01508
G1 X96.65 Y105.499 E.02225
G1 X96.19 Y105.503 F6000
G1 X96.111 Y106.051
G1 F1200
G1 X95.491 Y106.006 E.01832
G1 X95.037 Y106.042 E.01342
G1 X94.943 Y105.719 E.00991
G1 X94.727 Y105.442 E.01035
G1 X94.56 Y105.357 E.00552
G1 X94.339 Y105.325 E.00658
G1 X94.073 Y105.376 E.00798
G1 X93.912 Y105.467 E.00545
G1 X93.765 Y105.587 E.00559
G1 X93.549 Y105.862 E.01031
G1 X93.507 Y105.977 E.00361
G1 X93.41 Y106.42 E.01337
G1 X93.575 Y106.312 E.00581
G1 X93.762 Y106.221 E.00613
G1 X94.15 Y106.083 E.01214
G1 X94.389 Y106.075 E.00705
G1 X94.577 Y106.098 E.00558
G1 X95.043 Y106.231 E.01428
G1 X95.625 Y106.562 E.01973
G1 X95.877 Y106.846 E.01119
G1 X95.986 Y107.019 E.00603
G1 X96.12 Y107.371 E.0111
G1 X96.163 Y107.573 E.00609
G1 X96.194 Y107.976 E.01191
G1 X96.162 Y108.394 E.01236
G1 X96.062 Y108.781 E.01178
G1 X95.893 Y109.13 E.01143
G1 X95.654 Y109.436 E.01144
G1 X95.362 Y109.683 E.01127
G1 X95.034 Y109.862 E.01101
G1 X94.672 Y109.968 E.01112
G1 X94.287 Y110.002 E.01139
G1 X94 Y109.983 E.00848
G1 X93.724 Y109.923 E.00832
G1 X93.46 Y109.823 E.00832
