; generated by PrusaSlicer 2.7.4+win64 on 2024-04-11 at 09:28:50 UTC

; 

; external perimeters extrusion width = 0.42mm
; perimeters extrusion width = 0.44mm
; infill extrusion width = 0.44mm
; solid infill extrusion width = 0.44mm
; top infill extrusion width = 0.40mm
; first layer extrusion width = 0.42mm


; printing object Shape-Box id:0 copy 0
; stop printing object Shape-Box id:0 copy 0

;TYPE:Custom
; Ender 3 Custom Start G-code
G92 E0 ; Reset Extruder

M140 S55 ; set bed temp
M104 S160 ; set extruder temp
M109 S160 ; wait for extruder temp
M190 S55 ; wait for bed temp

G28 ; Home all axes
M104 S210 ; set extruder temp 
BED_MESH_CALIBRATE AREA_START=83.7684,88.5669 AREA_END=143.763,126.207

G1 Z2.0 F3000 ; Move Z Axis up little to prevent scratching of Heat Bed
M109 S210 ; wait for extruder temp
G1 X0.1 Y20 Z0.3 F5000.0 ; Move to start position

G1 X0.1 Y200.0 Z0.3 F1500.0 E15 ; Draw the first line
G1 X0.4 Y200.0 Z0.3 F5000.0 ; Move to side a little
G1 X0.4 Y20 Z0.3 F1500.0 E30 ; Draw the second line
G92 E0 ; Reset Extruder
G1 Z2.0 F3000 ; Move Z Axis up little to prevent scratching of Heat Bed
G1 X5 Y20 Z0.3 F5000.0 ; Move over to prevent blob squish
G21 ; set units to millimeters
G90 ; use absolute coordinates
M83 ; use relative distances for extrusion
; Filament gcode
M107
;LAYER_CHANGE
;Z:0.2
;HEIGHT:0.2
G1 E-1.6 F2400
G1 Z.2 F6000
G1 X87.857 Y91.701
G1 Z.2
G1 E1.6 F2400
M204 S500
;TYPE:Skirt/Brim
;WIDTH:0.42
G1 F1200
G1 X88.725 Y90.996 E.03506
G1 X89.656 Y90.382 E.03497
G1 X91.322 Y89.564 E.05819
G1 X93.099 Y89.026 E.05821
G1 X94.721 Y88.79 E.05139
G1 X132.884 Y88.805 E1.19657
G1 X133.843 Y88.938 E.03036
G1 X135.87 Y89.494 E.0659
G1 X137.7 Y90.365 E.06355
G1 X139.14 Y91.376 E.05517
G1 X140.583 Y92.775 E.06302
G1 X141.374 Y93.79 E.04035
G1 X141.835 Y94.519 E.02704
G1 X142.681 Y96.304 E.06194
G1 X143.24 Y98.341 E.06623
G1 X143.425 Y100.341 E.06298
G1 X143.575 Y114.341 E.43899
G1 X143.503 Y115.668 E.04167
G1 X143.296 Y116.888 E.0388
G1 X142.676 Y118.864 E.06493
G1 X141.69 Y120.733 E.06626
G1 X140.467 Y122.296 E.06223
G1 X139.688 Y123.064 E.0343
G1 X138.815 Y123.771 E.03522
G1 X137.173 Y124.778 E.06039
G1 X136.08 Y125.257 E.03742
G1 X134.281 Y125.783 E.05877
G1 X132.523 Y126.003 E.05555
G1 X95.078 Y126.009 E1.17406
G1 X93.39 Y125.81 E.05329
G1 X92.295 Y125.542 E.03535
G1 X91.185 Y125.153 E.03688
G1 X89.854 Y124.506 E.0464
G1 X88.8 Y123.835 E.03918
G1 X87.851 Y123.075 E.03812
G1 X86.76 Y121.96 E.04891
G1 X86.154 Y121.19 E.03072
G1 X85.328 Y119.862 E.04904
G1 X84.772 Y118.665 E.04138
G1 X84.319 Y117.276 E.04581
G1 X84.013 Y115.506 E.05632
G1 X83.957 Y114.505 E.03143
G1 X83.987 Y99.578 E.46803
G1 X84.339 Y97.433 E.06815
G1 X84.956 Y95.673 E.05848
G1 X85.359 Y94.854 E.02862
G1 X86.242 Y93.468 E.05153
G1 X86.875 Y92.684 E.03159
G1 X87.814 Y91.744 E.04166
G1 X87.814 Y91.744 F6000
G1 X88.08 Y92.01
G1 F1200
G1 X88.109 Y91.982 E.00126
G1 X88.937 Y91.308 E.03348
G1 X89.836 Y90.714 E.03378
G1 X91.455 Y89.917 E.05658
G1 X92.992 Y89.437 E.05049
G1 X94.74 Y89.166 E.05546
G1 X131.692 Y89.133 E1.1586
G1 X133.767 Y89.308 E.06529
G1 X135.748 Y89.851 E.0644
G1 X137.509 Y90.69 E.06116
G1 X138.893 Y91.661 E.05301
G1 X140.304 Y93.029 E.06162
G1 X141.07 Y94.013 E.0391
G1 X141.565 Y94.802 E.0292
G1 X142.414 Y96.673 E.06442
G1 X142.882 Y98.473 E.05831
G1 X143.048 Y100.345 E.05893
G1 X143.198 Y114.345 E.43899
G1 X143.13 Y115.614 E.03985
G1 X142.924 Y116.824 E.03848
G1 X142.331 Y118.712 E.06205
G1 X141.369 Y120.534 E.0646
G1 X140.198 Y122.031 E.05959
G1 X139.594 Y122.642 E.02694
G1 X138.603 Y123.459 E.04027
G1 X136.981 Y124.453 E.05965
G1 X135.395 Y125.098 E.05368
G1 X134.218 Y125.411 E.03819
G1 X132.355 Y125.634 E.05883
G1 X95.105 Y125.633 E1.16795
G1 X93.449 Y125.437 E.05229
G1 X92.304 Y125.154 E.03698
G1 X91.337 Y124.807 E.03221
G1 X90.03 Y124.173 E.04555
G1 X89.019 Y123.528 E.0376
G1 X88.102 Y122.794 E.03683
G1 X87.039 Y121.706 E.04769
G1 X86.452 Y120.958 E.02981
G1 X85.657 Y119.676 E.0473
G1 X85.128 Y118.539 E.03932
G1 X84.684 Y117.182 E.04477
G1 X84.387 Y115.46 E.05479
G1 X84.334 Y114.505 E.02999
G1 X84.363 Y99.603 E.46724
G1 X84.7 Y97.541 E.06551
G1 X85.307 Y95.811 E.05748
G1 X85.705 Y95.004 E.02821
G1 X86.553 Y93.681 E.04927
G1 X87.156 Y92.934 E.0301
G1 X88.038 Y92.052 E.03911
G1 X88.038 Y92.052 F6000
G1 X88.304 Y92.318
G1 F1200
G1 X88.361 Y92.262 E.00251
G1 X89.149 Y91.62 E.03187
G1 X90.029 Y91.037 E.0331
G1 X91.588 Y90.27 E.05448
G1 X93.208 Y89.774 E.05312
G1 X94.758 Y89.543 E.04914
G1 X131.692 Y89.51 E1.15804
G1 X133.69 Y89.677 E.06286
G1 X135.628 Y90.208 E.063
G1 X137.318 Y91.015 E.05872
G1 X138.647 Y91.947 E.0509
G1 X140.013 Y93.269 E.0596
G1 X140.766 Y94.236 E.03843
G1 X141.237 Y94.988 E.02782
G1 X142.054 Y96.785 E.06189
G1 X142.512 Y98.545 E.05702
G1 X142.671 Y100.349 E.05678
G1 X142.821 Y114.349 E.43899
G1 X142.744 Y115.641 E.04058
G1 X142.521 Y116.917 E.04061
G1 X142.276 Y117.78 E.02813
G1 X141.409 Y119.75 E.06749
G1 X140.675 Y120.874 E.04209
G1 X140.018 Y121.672 E.03241
G1 X139.333 Y122.37 E.03066
G1 X138.39 Y123.147 E.03831
G1 X136.804 Y124.12 E.05834
G1 X135.27 Y124.742 E.0519
G1 X134.141 Y125.042 E.03663
G1 X132.345 Y125.257 E.05671
G1 X95.131 Y125.257 E1.16682
G1 X93.508 Y125.065 E.05124
G1 X92.409 Y124.792 E.03551
G1 X91.488 Y124.462 E.03068
G1 X90.206 Y123.839 E.04469
G1 X89.238 Y123.221 E.03601
G1 X88.306 Y122.47 E.03753
G1 X87.318 Y121.453 E.04446
G1 X86.76 Y120.741 E.02836
G1 X85.985 Y119.491 E.04611
G1 X85.483 Y118.413 E.03729
G1 X85.05 Y117.087 E.04374
G1 X84.761 Y115.415 E.0532
G1 X84.739 Y99.629 E.49496
G1 X85.061 Y97.651 E.06284
G1 X85.658 Y95.948 E.05658
G1 X86.04 Y95.178 E.02695
G1 X86.862 Y93.897 E.04772
G1 X87.438 Y93.185 E.02871
G1 X88.262 Y92.361 E.03654
G1 E-1.12 F2400
;WIPE_START
G1 F4800
G1 X88.304 Y92.318 E-.02855
G1 X88.361 Y92.262 E-.03796
G1 X89.036 Y91.712 E-.41349
;WIPE_END
; printing object Shape-Box id:0 copy 0
G1 X103.786 Y107.814 F6000
G1 E1.6 F2400
;TYPE:Perimeter
G1 F1200
G1 X103.702 Y108.655 E.0265
G1 X103.676 Y108.711 E.00194
G1 X103.591 Y108.779 E.00341
G1 X103.434 Y108.803 E.00498
G1 X103.349 Y108.796 E.00267
G1 X103.275 Y108.772 E.00244
G1 X103.206 Y108.712 E.00287
G1 X103.182 Y108.612 E.00322
G1 X103.206 Y108.511 E.00325
G1 X103.332 Y108.29 E.00798
G1 X103.461 Y108.135 E.00632
G1 X103.744 Y107.856 E.01246
G1 E-1.12 F2400
;WIPE_START
G1 F4800
G1 X103.786 Y107.814 E-.02821
G1 X103.702 Y108.655 E-.40146
G1 X103.676 Y108.711 E-.02933
G1 X103.641 Y108.739 E-.021
;WIPE_END
G1 X101.968 Y106.241 F6000
G1 E1.6 F2400
G1 F1200
G1 X102.653 Y106.226 E.02148
G1 X102.612 Y106.257 E.00161
G1 X102.183 Y106.636 E.01795
G1 X101.87 Y106.96 E.01412
G1 X101.538 Y107.424 E.01789
G1 X101.46 Y107.194 E.00761
G1 X101.166 Y106.786 E.01577
G1 X101.682 Y106.826 E.01623
G1 X101.603 Y106.249 E.01826
G1 X101.908 Y106.243 E.00956
G1 E-1.12 F2400
;WIPE_START
G1 F4800
G1 X101.968 Y106.241 E-.02852
G1 X102.653 Y106.226 E-.32545
G1 X102.612 Y106.257 E-.02442
G1 X102.452 Y106.399 E-.10161
;WIPE_END
G1 X124.393 Y106.824 F6000
G1 E1.6 F2400
G1 F1200
G1 X124.238 Y106.973 E.00674
G1 X124.059 Y107.053 E.00615
G1 X123.926 Y107.056 E.00417
G1 X123.744 Y107.004 E.00593
G1 X123.636 Y106.87 E.0054
G1 X123.596 Y106.699 E.00551
G1 X123.605 Y106.461 E.00747
G1 X123.652 Y106.3 E.00526
G1 X123.724 Y106.192 E.00407
G1 X123.809 Y106.122 E.00345
G1 X123.905 Y106.086 E.00321
G1 X124.022 Y106.085 E.00367
G1 X124.111 Y106.122 E.00302
G1 X124.198 Y106.239 E.00457
G1 X124.374 Y106.767 E.01745
G1 E-1.12 F2400
;WIPE_START
G1 F4800
G1 X124.393 Y106.824 E-.02854
G1 X124.238 Y106.973 E-.10213
G1 X124.059 Y107.053 E-.09313
G1 X123.926 Y107.056 E-.06319
G1 X123.744 Y107.004 E-.08991
G1 X123.636 Y106.87 E-.08175
G1 X123.626 Y106.826 E-.02135
;WIPE_END
G1 X131.728 Y106.6 F6000
G1 E1.6 F2400
G1 F1200
G1 X131.733 Y106.461 E.00436
G1 X131.78 Y106.3 E.00526
G1 X131.852 Y106.192 E.00407
G1 X131.937 Y106.122 E.00345
G1 X132.033 Y106.086 E.00321
G1 X132.15 Y106.085 E.00367
G1 X132.239 Y106.122 E.00302
G1 X132.326 Y106.239 E.00457
G1 X132.521 Y106.824 E.01933
G1 X132.366 Y106.973 E.00674
G1 X132.187 Y107.053 E.00615
G1 X132.054 Y107.056 E.00417
G1 X131.871 Y107.004 E.00596
G1 X131.764 Y106.87 E.00538
G1 X131.724 Y106.699 E.00551
G1 X131.726 Y106.66 E.00122
G1 E-1.12 F2400
;WIPE_START
G1 F4800
G1 X131.728 Y106.6 E-.02852
G1 X131.733 Y106.461 E-.06607
G1 X131.78 Y106.3 E-.07967
G1 X131.852 Y106.192 E-.06165
G1 X131.937 Y106.122 E-.0523
G1 X132.033 Y106.086 E-.0487
G1 X132.15 Y106.085 E-.05558
G1 X132.239 Y106.122 E-.04578
G1 X132.292 Y106.192 E-.04173
;WIPE_END
G1 X114.315 Y104.283 F6000
G1 E1.6 F2400
G1 F1200
G1 X114.308 Y106.948 E.08356
G1 X114.278 Y107.477 E.01661
G1 X114.247 Y107.703 E.00715
G1 X115.512 Y107.103 E.0439
G1 X115.55 Y109.147 E.0641
G1 X114.75 Y109.588 E.02864
G1 X114.412 Y109.846 E.01333
G1 X114.164 Y110.102 E.01118
G1 X113.785 Y110.688 E.02188
G1 X112.324 Y110.688 E.04581
G1 X112.324 Y104.283 E.20082
G1 X114.255 Y104.283 E.06055
G1 X114.255 Y104.283 F6000
G1 X113.937 Y104.66
;TYPE:External perimeter
G1 F1200
G1 X113.931 Y106.936 E.07136
G1 X113.903 Y107.44 E.01583
G1 X113.837 Y107.924 E.01532
G1 X113.841 Y108.454 E.01662
G1 X114.254 Y108.201 E.01519
G1 X114.398 Y108.049 E.00656
G1 X115.146 Y107.694 E.02596
G1 X115.169 Y108.927 E.03867
G1 X114.543 Y109.272 E.02241
G1 X114.161 Y109.563 E.01506
G1 X113.868 Y109.866 E.01322
G1 X113.58 Y110.311 E.01662
G1 X112.702 Y110.311 E.02753
G1 X112.702 Y104.66 E.17718
G1 X113.877 Y104.66 E.03684
G1 E-1.12 F2400
;WIPE_START
G1 F4800
G1 X113.937 Y104.66 E-.0285
G1 X113.935 Y105.611 E-.4515
;WIPE_END
G1 X110.94 Y104.615 F6000
G1 E1.6 F2400
;TYPE:Perimeter
G1 F1200
G1 X110.972 Y104.634 E.00117
G1 X111.302 Y104.966 E.01468
G1 X111.475 Y105.218 E.00958
G1 X111.613 Y105.481 E.00931
G1 X111.727 Y105.774 E.00986
G1 X111.874 Y106.377 E.01946
G1 X111.944 Y107.067 E.02175
G1 X111.94 Y107.902 E.02618
G1 X111.872 Y108.534 E.01993
G1 X111.737 Y109.09 E.01794
G1 X111.523 Y109.58 E.01676
G1 X111.224 Y110.005 E.01629
G1 X110.83 Y110.353 E.01648
G1 X110.347 Y110.586 E.01681
G1 X109.822 Y110.684 E.01675
G1 X109.353 Y110.676 E.01471
G1 X108.839 Y110.557 E.01654
G1 X108.376 Y110.312 E.01642
G1 X107.998 Y109.958 E.01624
G1 X107.718 Y109.531 E.01601
G1 X107.518 Y109.052 E.01628
G1 X107.382 Y108.501 E.01779
G1 X107.317 Y107.825 E.02129
G1 X107.322 Y106.982 E.02643
G1 X107.39 Y106.353 E.01984
G1 X107.525 Y105.796 E.01797
G1 X107.738 Y105.308 E.01669
G1 X108.036 Y104.882 E.0163
G1 X108.43 Y104.533 E.0165
G1 X108.914 Y104.3 E.01684
G1 X109.453 Y104.201 E.01718
G1 X109.863 Y104.206 E.01286
G1 X110.127 Y104.245 E.00837
G1 X110.566 Y104.386 E.01446
G1 X110.889 Y104.583 E.01186
G1 X110.889 Y104.583 F6000
G1 X110.736 Y104.932
;TYPE:External perimeter
G1 F1200
G1 X111.01 Y105.207 E.01217
G1 X111.152 Y105.413 E.00784
G1 X111.269 Y105.637 E.00792
G1 X111.367 Y105.888 E.00845
G1 X111.501 Y106.441 E.01784
G1 X111.567 Y107.086 E.02033
G1 X111.563 Y107.881 E.02493
G1 X111.5 Y108.469 E.01854
G1 X111.378 Y108.969 E.01614
G1 X111.192 Y109.394 E.01455
G1 X110.941 Y109.752 E.01371
G1 X110.619 Y110.036 E.01346
G1 X110.229 Y110.224 E.01357
G1 X109.79 Y110.307 E.01401
G1 X109.399 Y110.3 E.01226
G1 X108.973 Y110.201 E.01371
G1 X108.597 Y110.002 E.01334
G1 X108.288 Y109.714 E.01324
G1 X108.052 Y109.353 E.01352
G1 X107.877 Y108.933 E.01427
G1 X107.755 Y108.437 E.01602
G1 X107.694 Y107.808 E.01981
G1 X107.699 Y107.004 E.02521
G1 X107.762 Y106.418 E.01848
G1 X107.884 Y105.917 E.01617
G1 X108.068 Y105.493 E.01449
G1 X108.32 Y105.135 E.01373
G1 X108.641 Y104.85 E.01346
G1 X109.032 Y104.661 E.01362
G1 X109.484 Y104.579 E.0144
G1 X109.834 Y104.583 E.01097
G1 X110.041 Y104.614 E.00656
G1 X110.408 Y104.731 E.01208
G1 X110.685 Y104.901 E.01019
G1 E-1.12 F2400
;WIPE_START
G1 F4800
G1 X110.736 Y104.932 E-.02835
G1 X111.01 Y105.207 E-.1844
G1 X111.152 Y105.413 E-.11884
G1 X111.269 Y105.637 E-.12004
G1 X111.291 Y105.693 E-.02837
;WIPE_END
G1 X118.379 Y104.283 F6000
G1 E1.6 F2400
;TYPE:Perimeter
G1 F1200
G1 X118.372 Y106.948 E.08356
G1 X118.342 Y107.477 E.01661
G1 X118.311 Y107.703 E.00715
G1 X119.576 Y107.103 E.0439
G1 X119.614 Y109.147 E.0641
G1 X118.814 Y109.588 E.02864
G1 X118.476 Y109.846 E.01333
G1 X118.228 Y110.102 E.01118
G1 X117.849 Y110.688 E.02188
G1 X116.388 Y110.688 E.04581
G1 X116.388 Y104.283 E.20082
G1 X118.319 Y104.283 E.06055
G1 X118.319 Y104.283 F6000
G1 X118.001 Y104.66
;TYPE:External perimeter
G1 F1200
G1 X117.995 Y106.936 E.07136
G1 X117.967 Y107.44 E.01583
G1 X117.901 Y107.924 E.01532
G1 X117.905 Y108.454 E.01662
G1 X118.318 Y108.201 E.01519
G1 X118.462 Y108.049 E.00656
G1 X119.21 Y107.694 E.02596
G1 X119.233 Y108.927 E.03867
G1 X118.607 Y109.272 E.02241
G1 X118.225 Y109.563 E.01506
G1 X117.932 Y109.866 E.01322
G1 X117.644 Y110.311 E.01662
G1 X116.765 Y110.311 E.02756
G1 X116.765 Y104.66 E.17718
G1 X117.941 Y104.66 E.03687
G1 E-1.12 F2400
;WIPE_START
G1 F4800
G1 X118.001 Y104.66 E-.0285
G1 X117.999 Y105.611 E-.4515
;WIPE_END
G1 X112.305 Y117.09 F6000
G1 E1.6 F2400
;TYPE:Perimeter
G1 F1200
G1 X112.616 Y116.801 E.01331
G1 X112.955 Y116.592 E.01249
G1 X113.31 Y116.452 E.01197
G1 X113.745 Y116.37 E.01388
G1 X114.117 Y116.369 E.01166
G1 X114.581 Y116.459 E.01482
G1 X115.032 Y116.658 E.01546
G1 X115.309 Y116.85 E.01057
G1 X115.582 Y117.111 E.01184
G1 X115.847 Y117.486 E.0144
G1 X116.046 Y117.975 E.01655
G1 X116.116 Y118.385 E.01304
G1 X116.108 Y118.807 E.01323
G1 X116.009 Y119.249 E.0142
G1 X115.835 Y119.637 E.01333
G1 X115.584 Y119.99 E.01358
G1 X115.249 Y120.302 E.01435
G1 X114.907 Y120.513 E.0126
G1 X114.581 Y120.643 E.011
G1 X114.181 Y120.728 E.01282
G1 X113.686 Y120.729 E.01552
G1 X113.28 Y120.643 E.01301
G1 X112.839 Y120.45 E.01509
G1 X112.487 Y120.197 E.01359
G1 X112.242 Y119.944 E.01104
G1 X111.988 Y119.559 E.01446
G1 X111.835 Y119.184 E.0127
G1 X111.749 Y118.734 E.01436
G1 X111.767 Y118.22 E.01613
G1 X111.858 Y117.85 E.01195
G1 X112.021 Y117.482 E.01262
G1 X112.266 Y117.134 E.01334
G1 X112.266 Y117.134 F6000
G1 X112.198 Y119.076
;TYPE:External perimeter
G1 F1200
G1 X112.127 Y118.705 E.01184
G1 X112.143 Y118.273 E.01355
G1 X112.216 Y117.973 E.00968
G1 X112.351 Y117.668 E.01046
G1 X112.567 Y117.362 E.01174
G1 X112.845 Y117.103 E.01191
G1 X113.125 Y116.931 E.0103
G1 X113.415 Y116.816 E.00978
G1 X113.781 Y116.747 E.01168
G1 X114.082 Y116.746 E.00944
G1 X114.467 Y116.821 E.0123
G1 X114.847 Y116.988 E.01301
G1 X115.07 Y117.143 E.00852
G1 X115.295 Y117.359 E.00978
G1 X115.514 Y117.668 E.01188
G1 X115.681 Y118.079 E.01391
G1 X115.738 Y118.413 E.01062
G1 X115.732 Y118.761 E.01091
G1 X115.649 Y119.13 E.01186
G1 X115.506 Y119.449 E.01096
G1 X115.299 Y119.741 E.01122
G1 X115.019 Y120.001 E.01198
G1 X114.737 Y120.175 E.01039
G1 X114.471 Y120.281 E.00898
G1 X114.141 Y120.351 E.01058
G1 X113.726 Y120.351 E.01301
G1 X113.395 Y120.282 E.0106
G1 X113.027 Y120.121 E.01259
G1 X112.735 Y119.911 E.01128
G1 X112.537 Y119.706 E.00894
G1 X112.323 Y119.382 E.01217
G1 X112.221 Y119.132 E.00847
G1 E-1.12 F2400
;WIPE_START
G1 F4800
G1 X112.198 Y119.076 E-.02876
G1 X112.127 Y118.705 E-.17942
G1 X112.143 Y118.273 E-.20534
G1 X112.176 Y118.137 E-.06648
;WIPE_END
G1 X129.927 Y110.601 F6000
G1 E1.6 F2400
;TYPE:Perimeter
G1 F1200
G1 X125.665 Y110.603 E.13363
G1 X125.665 Y109.976 E.01966
G1 X125.548 Y110.599 E.01988
G1 X121.799 Y110.599 E.11755
G1 X121.799 Y108.635 E.06158
G1 X122.609 Y108.638 E.0254
G1 X122.222 Y108.332 E.01547
G1 X122.051 Y108.141 E.00804
G1 X121.82 Y107.787 E.01325
G1 X121.715 Y107.553 E.00804
G1 X121.599 Y107.13 E.01375
G1 X121.561 Y106.671 E.01444
G1 X121.594 Y106.232 E.0138
G1 X121.693 Y105.827 E.01307
G1 X121.78 Y105.602 E.00756
G1 X121.982 Y105.235 E.01313
G1 X122.286 Y104.861 E.01511
G1 X122.694 Y104.534 E.01639
G1 X123.173 Y104.312 E.01655
G1 X123.698 Y104.209 E.01677
G1 X123.97 Y104.196 E.00854
G1 X124.396 Y104.228 E.01339
G1 X124.809 Y104.328 E.01332
G1 X125.194 Y104.503 E.01326
G1 X125.537 Y104.75 E.01325
G1 X125.822 Y105.057 E.01313
G1 X126.039 Y105.411 E.01302
G1 X126.185 Y105.806 E.0132
G1 X126.363 Y106.904 E.03488
G1 X126.235 Y106.914 E.00403
G1 X125.854 Y108.959 E.06522
G1 X126.158 Y108.597 E.01482
