; generated by PrusaSlicer 2.7.1+win64 on 2024-01-21 at 15:09:26 UTC


;
;

;
;
; 

; external perimeters extrusion width = 0.42mm
; perimeters extrusion width = 0.44mm
; infill extrusion width = 0.44mm
; solid infill extrusion width = 0.44mm
; top infill extrusion width = 0.40mm
; first layer extrusion width = 0.42mm


; printing object NewVersion_CityTileTray.STL id:0 copy 0
; stop printing object NewVersion_CityTileTray.STL id:0 copy 0

;TYPE:Custom
; Ender 3 Custom Start G-code
G92 E0 ; Reset Extruder

M140 S50 ; set bed temp
M104 S160 ; set extruder temp
M109 S160 ; wait for extruder temp
M190 S50 ; wait for bed temp

G28 ; Home all axes
M104 S205 ; set extruder temp 
BED_MESH_CALIBRATE AREA_START=64.3931,18.6853 AREA_END=166.607,212.315

G1 Z2.0 F3000 ; Move Z Axis up little to prevent scratching of Heat Bed
M109 S205 ; wait for extruder temp
G1 X0.1 Y20 Z0.3 F5000.0 ; Move to start position

G1 X0.1 Y200.0 Z0.3 F1500.0 E15 ; Draw the first line
G1 X0.4 Y200.0 Z0.3 F5000.0 ; Move to side a little
G1 X0.4 Y20 Z0.3 F1500.0 E30 ; Draw the second line
G92 E0 ; Reset Extruder
G1 Z2.0 F3000 ; Move Z Axis up little to prevent scratching of Heat Bed
G1 X5 Y20 Z0.3 F5000.0 ; Move over to prevent blob squish
G21 ; set units to millimeters
G90 ; use absolute coordinates
M83 ; use relative distances for extrusion
; Filament gcode
M107 ; disable fan
;LAYER_CHANGE
;Z:0.28
;HEIGHT:0.28
;BEFORE_LAYER_CHANGE
G92 E0
;0.28


G1 E-1.6 F2400 ; retract
G1 Z.28 F6000 ; move to next layer (0)
;AFTER_LAYER_CHANGE
;0.28
G1 X65.224 Y23.127 ; move to print after unknown position
G1 Z.28 ; move to print after unknown position
G1 E1.6 F2400 ;  ; unretract
M204 S500 ; adjust acceleration
;TYPE:Skirt/Brim
;WIDTH:0.42
G1 F1200
G1 X65.408 Y22.608 E.02169 ; skirt
G1 X65.819 Y21.891 E.03255 ; skirt
G1 X66.481 Y21.059 E.04187 ; skirt
G1 X67.078 Y20.513 E.03186 ; skirt
G1 X67.964 Y19.922 E.04194 ; skirt
G1 X68.95 Y19.477 E.0426 ; skirt
G1 X69.831 Y19.214 E.03621 ; skirt
G1 X71.859 Y18.945 E.08057 ; skirt
G1 X159.203 Y18.874 E3.43992 ; skirt
G1 X160.798 Y19.086 E.06337 ; skirt
G1 X162.089 Y19.474 E.05309 ; skirt
G1 X163.317 Y20.111 E.05448 ; skirt
G1 X164.345 Y20.969 E.05274 ; skirt
G1 X165.157 Y22.033 E.05271 ; skirt
G1 X165.73 Y23.242 E.05269 ; skirt
G1 X166.114 Y24.706 E.05961 ; skirt
G1 X166.263 Y26.151 E.05721 ; skirt
G1 X166.427 Y204.756 E7.03411 ; skirt
G1 X166.162 Y206.784 E.08055 ; skirt
G1 X165.592 Y208.392 E.06719 ; skirt
G1 X165.181 Y209.109 E.03255 ; skirt
G1 X164.519 Y209.941 E.04187 ; skirt
G1 X163.922 Y210.487 E.03186 ; skirt
G1 X163.036 Y211.078 E.04194 ; skirt
G1 X162.05 Y211.523 E.0426 ; skirt
G1 X161.169 Y211.786 E.03621 ; skirt
G1 X159.141 Y212.055 E.08057 ; skirt
G1 X72.037 Y212.135 E3.43047 ; skirt
G1 X70.008 Y211.87 E.08059 ; skirt
G1 X68.4 Y211.3 E.06719 ; skirt
G1 X67.683 Y210.889 E.03255 ; skirt
G1 X66.851 Y210.227 E.04187 ; skirt
G1 X66.305 Y209.63 E.03186 ; skirt
G1 X65.715 Y208.744 E.04192 ; skirt
G1 X65.27 Y207.758 E.0426 ; skirt
G1 X65.006 Y206.877 E.03622 ; skirt
G1 X64.737 Y204.849 E.08057 ; skirt
G1 X64.573 Y26.244 E7.03411 ; skirt
G1 X64.838 Y24.216 E.08055 ; skirt
G1 X65.204 Y23.183 E.04316 ; skirt
G1 X65.541 Y23.302 F6000 ; move to first skirt point
G1 F1200
G1 X65.727 Y22.774 E.02205 ; skirt
G1 X66.123 Y22.083 E.03137 ; skirt
G1 X66.747 Y21.302 E.03937 ; skirt
G1 X67.296 Y20.799 E.02932 ; skirt
G1 X68.131 Y20.241 E.03955 ; skirt
G1 X69.065 Y19.818 E.04038 ; skirt
G1 X69.922 Y19.562 E.03523 ; skirt
G1 X71.859 Y19.305 E.07695 ; skirt
G1 X159.176 Y19.233 E3.43886 ; skirt
G1 X160.73 Y19.439 E.06174 ; skirt
G1 X161.949 Y19.805 E.05013 ; skirt
G1 X163.125 Y20.415 E.05218 ; skirt
G1 X164.079 Y21.212 E.04896 ; skirt
G1 X164.853 Y22.225 E.05021 ; skirt
G1 X165.39 Y23.357 E.04934 ; skirt
G1 X165.761 Y24.775 E.05773 ; skirt
G1 X165.903 Y26.151 E.05448 ; skirt
G1 X166.067 Y204.756 E7.03411 ; skirt
G1 X165.814 Y206.693 E.07693 ; skirt
G1 X165.273 Y208.226 E.06402 ; skirt
G1 X164.877 Y208.917 E.03137 ; skirt
G1 X164.253 Y209.698 E.03937 ; skirt
G1 X163.704 Y210.201 E.02932 ; skirt
G1 X162.869 Y210.759 E.03955 ; skirt
G1 X161.935 Y211.182 E.04038 ; skirt
G1 X161.078 Y211.438 E.03523 ; skirt
G1 X159.141 Y211.695 E.07695 ; skirt
G1 X72.036 Y211.775 E3.43051 ; skirt
G1 X70.099 Y211.522 E.07693 ; skirt
G1 X68.566 Y210.981 E.06402 ; skirt
G1 X67.875 Y210.585 E.03137 ; skirt
G1 X67.094 Y209.961 E.03937 ; skirt
G1 X66.591 Y209.412 E.02932 ; skirt
G1 X66.034 Y208.577 E.03953 ; skirt
G1 X65.61 Y207.643 E.0404 ; skirt
G1 X65.354 Y206.785 E.03526 ; skirt
G1 X65.097 Y204.849 E.07692 ; skirt
G1 X64.933 Y26.244 E7.03411 ; skirt
G1 X65.186 Y24.307 E.07693 ; skirt
G1 X65.521 Y23.359 E.0396 ; skirt
G1 X65.858 Y23.477 F6000 ; move to first skirt point
G1 F1200
G1 X66.047 Y22.94 E.02242 ; skirt
G1 X66.427 Y22.275 E.03016 ; skirt
G1 X67.013 Y21.544 E.0369 ; skirt
G1 X67.515 Y21.085 E.02679 ; skirt
G1 X68.297 Y20.56 E.03709 ; skirt
G1 X69.181 Y20.159 E.03823 ; skirt
G1 X70.014 Y19.91 E.03424 ; skirt
G1 X71.859 Y19.665 E.0733 ; skirt
G1 X159.148 Y19.592 E3.43776 ; skirt
G1 X160.662 Y19.793 E.06015 ; skirt
G1 X161.809 Y20.137 E.04716 ; skirt
G1 X162.933 Y20.719 E.04985 ; skirt
G1 X163.814 Y21.455 E.04521 ; skirt
G1 X164.549 Y22.418 E.04771 ; skirt
G1 X165.049 Y23.473 E.04598 ; skirt
G1 X165.408 Y24.844 E.05582 ; skirt
G1 X165.543 Y26.151 E.05175 ; skirt
G1 X165.707 Y204.756 E7.03411 ; skirt
G1 X165.466 Y206.602 E.07332 ; skirt
G1 X164.953 Y208.06 E.06087 ; skirt
G1 X164.573 Y208.725 E.03016 ; skirt
G1 X163.987 Y209.456 E.0369 ; skirt
G1 X163.485 Y209.915 E.02679 ; skirt
G1 X162.703 Y210.44 E.03709 ; skirt
G1 X161.819 Y210.841 E.03823 ; skirt
G1 X160.986 Y211.09 E.03424 ; skirt
G1 X159.141 Y211.335 E.0733 ; skirt
G1 X72.036 Y211.415 E3.43051 ; skirt
G1 X70.19 Y211.174 E.07332 ; skirt
G1 X68.732 Y210.661 E.06087 ; skirt
G1 X68.067 Y210.281 E.03016 ; skirt
G1 X67.336 Y209.695 E.0369 ; skirt
G1 X66.877 Y209.193 E.02679 ; skirt
G1 X66.353 Y208.411 E.03707 ; skirt
G1 X65.951 Y207.527 E.03825 ; skirt
G1 X65.702 Y206.694 E.03424 ; skirt
G1 X65.457 Y204.849 E.0733 ; skirt
G1 X65.293 Y26.244 E7.03411 ; skirt
G1 X65.534 Y24.398 E.07332 ; skirt
G1 X65.838 Y23.534 E.03607 ; skirt
; printing object NewVersion_CityTileTray.STL id:0 copy 0
G1 E-1.12 F2400 ; retract
;WIPE_START
G1 F4800
G1 X65.858 Y23.477 E-.02869 ; wipe and retract
G1 X66.047 Y22.94 E-.27041 ; wipe and retract
G1 X66.236 Y22.61 E-.1809 ; wipe and retract
;WIPE_END
G1 X112.66 Y77.637 F6000 ; move to first perimeter point
G1 E1.6 F2400 ;  ; unretract
;TYPE:Perimeter
G1 F1200
G1 X114.521 Y77.44 E.0737 ; perimeter
G1 X115.929 Y77.438 E.05545 ; perimeter
G1 X116.409 Y77.438 E.0189 ; perimeter
G1 X118.287 Y77.634 E.07436 ; perimeter
G1 X120.135 Y78.024 E.07438 ; perimeter
G1 X121.931 Y78.606 E.07435 ; perimeter
G1 X123.657 Y79.373 E.07439 ; perimeter
G1 X125.293 Y80.315 E.07435 ; perimeter
G1 X126.822 Y81.424 E.07439 ; perimeter
G1 X128.226 Y82.686 E.07435 ; perimeter
G1 X129.163 Y83.725 E.0551 ; perimeter
G1 X129.491 Y84.088 E.01927 ; perimeter
G1 X130.603 Y85.615 E.0744 ; perimeter
G1 X131.548 Y87.25 E.07437 ; perimeter
G1 X132.318 Y88.974 E.07436 ; perimeter
G1 X132.903 Y90.769 E.07435 ; perimeter
G1 X133.297 Y92.616 E.07438 ; perimeter
G1 X133.496 Y94.494 E.07438 ; perimeter
G1 X133.535 Y136.473 E1.65329 ; perimeter
G1 X133.339 Y138.351 E.07436 ; perimeter
G1 X132.949 Y140.199 E.07438 ; perimeter
G1 X132.367 Y141.995 E.07435 ; perimeter
G1 X131.6 Y143.721 E.07439 ; perimeter
G1 X130.658 Y145.357 E.07435 ; perimeter
G1 X129.549 Y146.886 E.07439 ; perimeter
G1 X128.287 Y148.29 E.07435 ; perimeter
G1 X127.923 Y148.618 E.0193 ; perimeter
G1 X126.885 Y149.555 E.05507 ; perimeter
G1 X125.358 Y150.666 E.07437 ; perimeter
G1 X123.723 Y151.612 E.07439 ; perimeter
G1 X121.999 Y152.382 E.07436 ; perimeter
G1 X120.204 Y152.967 E.07435 ; perimeter
G1 X118.357 Y153.361 E.07438 ; perimeter
G1 X116.479 Y153.56 E.07438 ; perimeter
G1 X114.591 Y153.562 E.07436 ; perimeter
G1 X112.713 Y153.366 E.07436 ; perimeter
G1 X110.865 Y152.976 E.07438 ; perimeter
G1 X109.069 Y152.394 E.07435 ; perimeter
G1 X107.343 Y151.627 E.07439 ; perimeter
G1 X105.707 Y150.685 E.07435 ; perimeter
G1 X104.178 Y149.576 E.07439 ; perimeter
G1 X102.774 Y148.314 E.07435 ; perimeter
G1 X101.837 Y147.275 E.0551 ; perimeter
G1 X101.509 Y146.912 E.01927 ; perimeter
G1 X100.398 Y145.385 E.07437 ; perimeter
G1 X99.452 Y143.751 E.07436 ; perimeter
G1 X98.682 Y142.026 E.0744 ; perimeter
G1 X98.097 Y140.231 E.07435 ; perimeter
G1 X97.703 Y138.384 E.07438 ; perimeter
G1 X97.504 Y136.506 E.07438 ; perimeter
G1 X97.465 Y94.527 E1.65329 ; perimeter
G1 X97.661 Y92.649 E.07436 ; perimeter
G1 X98.051 Y90.801 E.07438 ; perimeter
G1 X98.633 Y89.005 E.07435 ; perimeter
G1 X99.4 Y87.279 E.07439 ; perimeter
G1 X100.342 Y85.643 E.07435 ; perimeter
G1 X101.451 Y84.114 E.07439 ; perimeter
G1 X102.713 Y82.71 E.07435 ; perimeter
G1 X104.115 Y81.445 E.07437 ; perimeter
G1 X105.642 Y80.334 E.07437 ; perimeter
G1 X107.277 Y79.388 E.07439 ; perimeter
G1 X109.001 Y78.618 E.07436 ; perimeter
G1 X110.796 Y78.033 E.07435 ; perimeter
G1 X112.601 Y77.648 E.07269 ; perimeter
G1 X112.7 Y77.995 F6000 ; move to first perimeter point
;TYPE:External perimeter
G1 F1200
G1 X114.54 Y77.8 E.07287 ; perimeter
G1 X115.93 Y77.798 E.05474 ; perimeter
G1 X116.391 Y77.798 E.01816 ; perimeter
G1 X118.231 Y77.99 E.07286 ; perimeter
G1 X120.042 Y78.373 E.0729 ; perimeter
G1 X121.802 Y78.943 E.07286 ; perimeter
G1 X123.494 Y79.694 E.07291 ; perimeter
G1 X125.097 Y80.618 E.07287 ; perimeter
G1 X126.595 Y81.704 E.07287 ; perimeter
G1 X127.972 Y82.941 E.0729 ; perimeter
G1 X128.896 Y83.966 E.05435 ; perimeter
G1 X129.211 Y84.315 E.01852 ; perimeter
G1 X130.3 Y85.812 E.07291 ; perimeter
G1 X131.227 Y87.413 E.07286 ; perimeter
G1 X131.981 Y89.103 E.07288 ; perimeter
G1 X132.555 Y90.863 E.07291 ; perimeter
G1 X132.941 Y92.673 E.07289 ; perimeter
G1 X133.137 Y94.513 E.07288 ; perimeter
G1 X133.175 Y136.455 E1.65183 ; perimeter
G1 X132.983 Y138.295 E.07286 ; perimeter
G1 X132.6 Y140.106 E.0729 ; perimeter
G1 X132.03 Y141.866 E.07286 ; perimeter
G1 X131.279 Y143.558 E.07291 ; perimeter
G1 X130.355 Y145.161 E.07287 ; perimeter
G1 X129.269 Y146.659 E.07287 ; perimeter
G1 X128.032 Y148.036 E.0729 ; perimeter
G1 X126.658 Y149.275 E.07286 ; perimeter
G1 X125.161 Y150.364 E.07291 ; perimeter
G1 X123.56 Y151.291 E.07286 ; perimeter
G1 X121.87 Y152.045 E.07288 ; perimeter
G1 X120.11 Y152.619 E.07291 ; perimeter
G1 X118.3 Y153.005 E.07289 ; perimeter
G1 X116.46 Y153.2 E.07287 ; perimeter
G1 X114.609 Y153.202 E.0729 ; perimeter
G1 X112.769 Y153.01 E.07286 ; perimeter
G1 X110.958 Y152.627 E.0729 ; perimeter
G1 X109.198 Y152.057 E.07286 ; perimeter
G1 X107.506 Y151.306 E.07291 ; perimeter
G1 X105.903 Y150.382 E.07287 ; perimeter
G1 X104.405 Y149.296 E.07287 ; perimeter
G1 X103.028 Y148.059 E.0729 ; perimeter
G1 X101.789 Y146.685 E.07286 ; perimeter
G1 X100.7 Y145.188 E.07291 ; perimeter
G1 X99.773 Y143.587 E.07286 ; perimeter
G1 X99.019 Y141.897 E.07288 ; perimeter
G1 X98.445 Y140.137 E.07291 ; perimeter
G1 X98.059 Y138.327 E.07289 ; perimeter
G1 X97.863 Y136.487 E.07288 ; perimeter
G1 X97.825 Y94.545 E1.65183 ; perimeter
G1 X98.017 Y92.705 E.07286 ; perimeter
G1 X98.4 Y90.894 E.0729 ; perimeter
G1 X98.97 Y89.134 E.07286 ; perimeter
G1 X99.721 Y87.442 E.07291 ; perimeter
G1 X100.645 Y85.839 E.07287 ; perimeter
G1 X101.731 Y84.341 E.07287 ; perimeter
G1 X102.968 Y82.964 E.0729 ; perimeter
G1 X104.342 Y81.725 E.07286 ; perimeter
G1 X105.839 Y80.636 E.07291 ; perimeter
G1 X107.44 Y79.709 E.07286 ; perimeter
G1 X109.13 Y78.955 E.07288 ; perimeter
G1 X110.89 Y78.381 E.07291 ; perimeter
G1 X112.641 Y78.007 E.07052 ; perimeter
G1 E-1.12 F2400 ; retract
;WIPE_START
G1 F4800
G1 X112.7 Y77.995 E-.0286 ; wipe and retract
G1 X113.645 Y77.895 E-.4514 ; wipe and retract
;WIPE_END
G1 X161.28 Y23.259 F6000 ; move to first perimeter point
G1 E1.6 F2400 ;  ; unretract
;TYPE:Perimeter
G1 F1200
G1 X161.598 Y23.524 E.0163 ; perimeter
G1 X161.864 Y23.843 E.01636 ; perimeter
G1 X161.968 Y24.007 E.00765 ; perimeter
G1 X162.186 Y24.47 E.02015 ; perimeter
G1 X162.364 Y25.065 E.02446 ; perimeter
G1 X162.429 Y25.396 E.01328 ; perimeter
G1 X162.513 Y26.188 E.03137 ; perimeter
G1 X162.677 Y204.733 E7.03175 ; perimeter
G1 X162.648 Y205.114 E.01505 ; perimeter
G1 X162.526 Y205.867 E.03004 ; perimeter
G1 X162.45 Y206.16 E.01192 ; perimeter
G1 X162.248 Y206.696 E.02256 ; perimeter
G1 X162.149 Y206.887 E.00847 ; perimeter
G1 X161.901 Y207.244 E.01712 ; perimeter
G1 X161.622 Y207.524 E.01557 ; perimeter
G1 X161.274 Y207.766 E.01669 ; perimeter
G1 X160.822 Y207.978 E.01966 ; perimeter
G1 X160.236 Y208.154 E.0241 ; perimeter
G1 X159.493 Y208.275 E.02965 ; perimeter
G1 X159.112 Y208.305 E.01505 ; perimeter
G1 X72.059 Y208.385 E3.42846 ; perimeter
G1 X71.678 Y208.356 E.01505 ; perimeter
G1 X70.925 Y208.234 E.03004 ; perimeter
G1 X70.632 Y208.158 E.01192 ; perimeter
G1 X70.096 Y207.955 E.02257 ; perimeter
G1 X69.905 Y207.856 E.00847 ; perimeter
G1 X69.548 Y207.609 E.0171 ; perimeter
G1 X69.268 Y207.33 E.01557 ; perimeter
G1 X69.027 Y206.982 E.01667 ; perimeter
G1 X68.814 Y206.53 E.01968 ; perimeter
G1 X68.639 Y205.944 E.02409 ; perimeter
G1 X68.517 Y205.201 E.02965 ; perimeter
G1 X68.487 Y204.82 E.01505 ; perimeter
G1 X68.323 Y26.267 E7.03207 ; perimeter
G1 X68.352 Y25.886 E.01505 ; perimeter
G1 X68.474 Y25.133 E.03004 ; perimeter
G1 X68.55 Y24.84 E.01192 ; perimeter
G1 X68.752 Y24.304 E.02256 ; perimeter
G1 X68.851 Y24.113 E.00847 ; perimeter
G1 X69.099 Y23.756 E.01712 ; perimeter
G1 X69.378 Y23.476 E.01557 ; perimeter
G1 X69.726 Y23.234 E.01669 ; perimeter
G1 X70.178 Y23.022 E.01966 ; perimeter
G1 X70.764 Y22.846 E.0241 ; perimeter
G1 X71.507 Y22.725 E.02965 ; perimeter
G1 X71.888 Y22.695 E.01505 ; perimeter
G1 X158.968 Y22.618 E3.42953 ; perimeter
G1 X159.725 Y22.698 E.02998 ; perimeter
G1 X160.057 Y22.762 E.01332 ; perimeter
G1 X160.652 Y22.938 E.02444 ; perimeter
G1 X161.116 Y23.156 E.02019 ; perimeter
G1 X161.229 Y23.227 E.00526 ; perimeter
G1 X161.492 Y22.967 F6000 ; move to first perimeter point
;TYPE:External perimeter
G1 F1200
G1 X161.854 Y23.269 E.01857 ; perimeter
G1 X162.156 Y23.63 E.01854 ; perimeter
G1 X162.284 Y23.833 E.00945 ; perimeter
G1 X162.523 Y24.341 E.02211 ; perimeter
G1 X162.714 Y24.978 E.02619 ; perimeter
G1 X162.785 Y25.343 E.01464 ; perimeter
G1 X162.873 Y26.169 E.03271 ; perimeter
G1 X163.037 Y204.747 E7.03305 ; perimeter
G1 X163.005 Y205.157 E.0162 ; perimeter
G1 X162.879 Y205.941 E.03127 ; perimeter
G1 X162.793 Y206.269 E.01335 ; perimeter
G1 X162.577 Y206.843 E.02415 ; perimeter
G1 X162.457 Y207.073 E.01022 ; perimeter
G1 X162.179 Y207.476 E.01928 ; perimeter
G1 X161.854 Y207.801 E.0181 ; perimeter
G1 X161.455 Y208.078 E.01913 ; perimeter
G1 X160.951 Y208.315 E.02193 ; perimeter
G1 X160.317 Y208.505 E.02607 ; perimeter
G1 X159.536 Y208.632 E.03116 ; perimeter
G1 X159.126 Y208.665 E.0162 ; perimeter
G1 X72.046 Y208.745 E3.42953 ; perimeter
G1 X71.635 Y208.713 E.01624 ; perimeter
G1 X70.851 Y208.587 E.03127 ; perimeter
G1 X70.523 Y208.501 E.01335 ; perimeter
G1 X69.949 Y208.285 E.02415 ; perimeter
G1 X69.719 Y208.165 E.01022 ; perimeter
G1 X69.316 Y207.886 E.0193 ; perimeter
G1 X68.991 Y207.562 E.01807 ; perimeter
G1 X68.714 Y207.163 E.01913 ; perimeter
G1 X68.477 Y206.659 E.02193 ; perimeter
G1 X68.287 Y206.025 E.02607 ; perimeter
G1 X68.16 Y205.244 E.03116 ; perimeter
G1 X68.127 Y204.834 E.0162 ; perimeter
G1 X67.963 Y26.253 E7.03317 ; perimeter
G1 X67.995 Y25.843 E.0162 ; perimeter
G1 X68.121 Y25.059 E.03127 ; perimeter
G1 X68.207 Y24.731 E.01335 ; perimeter
G1 X68.423 Y24.157 E.02415 ; perimeter
G1 X68.543 Y23.927 E.01022 ; perimeter
G1 X68.821 Y23.524 E.01928 ; perimeter
G1 X69.146 Y23.199 E.0181 ; perimeter
G1 X69.545 Y22.922 E.01913 ; perimeter
G1 X70.049 Y22.685 E.02193 ; perimeter
G1 X70.683 Y22.495 E.02607 ; perimeter
G1 X71.464 Y22.368 E.03116 ; perimeter
G1 X71.874 Y22.335 E.0162 ; perimeter
G1 X158.987 Y22.258 E3.43083 ; perimeter
G1 X159.778 Y22.341 E.03132 ; perimeter
