; generated by PrusaSlicer 2.7.4+win64 on 2024-04-11 at 17:24:23 UTC

; 

; external perimeters extrusion width = 0.42mm
; perimeters extrusion width = 0.44mm
; infill extrusion width = 0.44mm
; solid infill extrusion width = 0.44mm
; top infill extrusion width = 0.40mm
; first layer extrusion width = 0.42mm


; printing object Shape-Box id:0 copy 0
; stop printing object Shape-Box id:0 copy 0

;TYPE:Custom
; Ender 3 Custom Start G-code
G92 E0 ; Reset Extruder

M140 S55 ; set bed temp
M104 S160 ; set extruder temp
M109 S160 ; wait for extruder temp
M190 S55 ; wait for bed temp

G28 ; Home all axes
M104 S210 ; set extruder temp 
BED_MESH_CALIBRATE AREA_START=83.7684,88.5669 AREA_END=143.763,126.207

G1 Z2.0 F3000 ; Move Z Axis up little to prevent scratching of Heat Bed
M109 S210 ; wait for extruder temp
G1 X0.1 Y20 Z0.3 F5000.0 ; Move to start position

G1 X0.1 Y200.0 Z0.3 F1500.0 E15 ; Draw the first line
G1 X0.4 Y200.0 Z0.3 F5000.0 ; Move to side a little
G1 X0.4 Y20 Z0.3 F1500.0 E30 ; Draw the second line
G92 E0 ; Reset Extruder
G1 Z2.0 F3000 ; Move Z Axis up little to prevent scratching of Heat Bed
G1 X5 Y20 Z0.3 F5000.0 ; Move over to prevent blob squish
G21 ; set units to millimeters
G90 ; use absolute coordinates
M83 ; use relative distances for extrusion
; Filament gcode
M107
;LAYER_CHANGE
;Z:0.2
;HEIGHT:0.2
G1 E-1.6 F2400
G1 Z.2 F6000
G1 X87.857 Y91.701
G1 Z.2
G1 E1.6 F2400
M204 S500
;TYPE:Skirt/Brim
;WIDTH:0.42
G1 F1200
G1 X88.725 Y90.996 E.03506
G1 X89.656 Y90.382 E.03497
G1 X91.322 Y89.564 E.05819
G1 X93.099 Y89.026 E.05821
G1 X94.721 Y88.79 E.05139
G1 X132.884 Y88.805 E1.19657
G1 X133.843 Y88.938 E.03036
G1 X135.87 Y89.494 E.0659
G1 X137.7 Y90.365 E.06355
G1 X139.14 Y91.376 E.05517
G1 X140.583 Y92.775 E.06302
G1 X141.374 Y93.79 E.04035
G1 X141.835 Y94.519 E.02704
G1 X142.681 Y96.304 E.06194
G1 X143.24 Y98.341 E.06623
G1 X143.425 Y100.341 E.06298
G1 X143.575 Y114.341 E.43899
G1 X143.503 Y115.668 E.04167
G1 X143.296 Y116.888 E.0388
G1 X142.676 Y118.864 E.06493
G1 X141.69 Y120.733 E.06626
G1 X140.467 Y122.296 E.06223
G1 X139.688 Y123.064 E.0343
G1 X138.815 Y123.771 E.03522
G1 X137.173 Y124.778 E.06039
G1 X136.08 Y125.257 E.03742
G1 X134.281 Y125.783 E.05877
G1 X132.523 Y126.003 E.05555
G1 X95.078 Y126.009 E1.17406
G1 X93.39 Y125.81 E.05329
G1 X92.295 Y125.542 E.03535
G1 X91.185 Y125.153 E.03688
G1 X89.854 Y124.506 E.0464
G1 X88.8 Y123.835 E.03918
G1 X87.851 Y123.075 E.03812
G1 X86.76 Y121.96 E.04891
G1 X86.154 Y121.19 E.03072
G1 X85.328 Y119.862 E.04904
G1 X84.772 Y118.665 E.04138
G1 X84.319 Y117.276 E.04581
G1 X84.013 Y115.506 E.05632
G1 X83.957 Y114.505 E.03143
G1 X83.987 Y99.578 E.46803
G1 X84.339 Y97.433 E.06815
G1 X84.956 Y95.673 E.05848
G1 X85.359 Y94.854 E.02862
G1 X86.242 Y93.468 E.05153
G1 X86.875 Y92.684 E.03159
G1 X87.814 Y91.744 E.04166
G1 X87.814 Y91.744 F6000
G1 X88.08 Y92.01
G1 F1200
G1 X88.109 Y91.982 E.00126
G1 X88.937 Y91.308 E.03348
G1 X89.836 Y90.714 E.03378
G1 X91.455 Y89.917 E.05658
G1 X92.992 Y89.437 E.05049
G1 X94.74 Y89.166 E.05546
G1 X131.692 Y89.133 E1.1586
G1 X133.767 Y89.308 E.06529
G1 X135.748 Y89.851 E.0644
G1 X137.509 Y90.69 E.06116
G1 X138.893 Y91.661 E.05301
G1 X140.304 Y93.029 E.06162
G1 X141.07 Y94.013 E.0391
G1 X141.565 Y94.802 E.0292
G1 X142.414 Y96.673 E.06442
G1 X142.882 Y98.473 E.05831
G1 X143.048 Y100.345 E.05893
G1 X143.198 Y114.345 E.43899
G1 X143.13 Y115.614 E.03985
G1 X142.924 Y116.824 E.03848
G1 X142.331 Y118.712 E.06205
G1 X141.369 Y120.534 E.0646
G1 X140.198 Y122.031 E.05959
G1 X139.594 Y122.642 E.02694
G1 X138.603 Y123.459 E.04027
G1 X136.981 Y124.453 E.05965
G1 X135.395 Y125.098 E.05368
G1 X134.218 Y125.411 E.03819
G1 X132.355 Y125.634 E.05883
G1 X95.105 Y125.633 E1.16795
G1 X93.449 Y125.437 E.05229
G1 X92.304 Y125.154 E.03698
G1 X91.337 Y124.807 E.03221
G1 X90.03 Y124.173 E.04555
G1 X89.019 Y123.528 E.0376
G1 X88.102 Y122.794 E.03683
G1 X87.039 Y121.706 E.04769
G1 X86.452 Y120.958 E.02981
G1 X85.657 Y119.676 E.0473
G1 X85.128 Y118.539 E.03932
G1 X84.684 Y117.182 E.04477
G1 X84.387 Y115.46 E.05479
G1 X84.334 Y114.505 E.02999
G1 X84.363 Y99.603 E.46724
G1 X84.7 Y97.541 E.06551
G1 X85.307 Y95.811 E.05748
G1 X85.705 Y95.004 E.02821
G1 X86.553 Y93.681 E.04927
G1 X87.156 Y92.934 E.0301
G1 X88.038 Y92.052 E.03911
G1 X88.038 Y92.052 F6000
G1 X88.304 Y92.318
G1 F1200
G1 X88.361 Y92.262 E.00251
G1 X89.149 Y91.62 E.03187
G1 X90.029 Y91.037 E.0331
G1 X91.588 Y90.27 E.05448
G1 X93.208 Y89.774 E.05312
G1 X94.758 Y89.543 E.04914
G1 X131.692 Y89.51 E1.15804
G1 X133.69 Y89.677 E.06286
G1 X135.628 Y90.208 E.063
G1 X137.318 Y91.015 E.05872
G1 X138.647 Y91.947 E.0509
G1 X140.013 Y93.269 E.0596
G1 X140.766 Y94.236 E.03843
G1 X141.237 Y94.988 E.02782
G1 X142.054 Y96.785 E.06189
G1 X142.512 Y98.545 E.05702
G1 X142.671 Y100.349 E.05678
G1 X142.821 Y114.349 E.43899
G1 X142.744 Y115.641 E.04058
G1 X142.521 Y116.917 E.04061
G1 X142.276 Y117.78 E.02813
G1 X141.409 Y119.75 E.06749
G1 X140.675 Y120.874 E.04209
G1 X140.018 Y121.672 E.03241
G1 X139.333 Y122.37 E.03066
G1 X138.39 Y123.147 E.03831
G1 X136.804 Y124.12 E.05834
G1 X135.27 Y124.742 E.0519
G1 X134.141 Y125.042 E.03663
G1 X132.345 Y125.257 E.05671
G1 X95.131 Y125.257 E1.16682
G1 X93.508 Y125.065 E.05124
G1 X92.409 Y124.792 E.03551
G1 X91.488 Y124.462 E.03068
G1 X90.206 Y123.839 E.04469
G1 X89.238 Y123.221 E.03601
G1 X88.306 Y122.47 E.03753
G1 X87.318 Y121.453 E.04446
G1 X86.76 Y120.741 E.02836
G1 X85.985 Y119.491 E.04611
G1 X85.483 Y118.413 E.03729
G1 X85.05 Y117.087 E.04374
G1 X84.761 Y115.415 E.0532
G1 X84.739 Y99.629 E.49496
G1 X85.061 Y97.651 E.06284
G1 X85.658 Y95.948 E.05658
G1 X86.04 Y95.178 E.02695
G1 X86.862 Y93.897 E.04772
G1 X87.438 Y93.185 E.02871
G1 X88.262 Y92.361 E.03654
G1 E-1.12 F2400
;WIPE_START
G1 F4800
G1 X88.304 Y92.318 E-.02855
G1 X88.361 Y92.262 E-.03796
G1 X89.036 Y91.712 E-.41349
;WIPE_END
; printing object Shape-Box id:0 copy 0
G1 X111.908 Y104.436 F6000
G1 E1.6 F2400
;TYPE:Perimeter
G1 F1200
G1 X111.933 Y104.104 E.01044
G1 X111.958 Y104.131 E.00115
G1 X112.345 Y104.437 E.01547
G1 X111.968 Y104.436 E.01182
G1 E-1.12 F2400
;WIPE_START
G1 F4800
G1 X111.908 Y104.436 E-.0285
G1 X111.933 Y104.104 E-.15815
G1 X111.958 Y104.131 E-.01748
G1 X112.345 Y104.437 E-.23435
G1 X112.258 Y104.437 E-.04152
;WIPE_END
G1 X113.336 Y102.399 F6000
G1 E1.6 F2400
G1 F1200
G1 X113.341 Y102.26 E.00436
G1 X113.388 Y102.099 E.00526
G1 X113.46 Y101.991 E.00407
G1 X113.545 Y101.922 E.00343
G1 X113.641 Y101.885 E.00323
G1 X113.758 Y101.884 E.00367
G1 X113.847 Y101.921 E.00302
G1 X113.934 Y102.038 E.00457
G1 X114.129 Y102.623 E.01933
G1 X113.974 Y102.772 E.00674
G1 X113.795 Y102.853 E.00616
G1 X113.662 Y102.856 E.00417
G1 X113.479 Y102.803 E.00597
G1 X113.372 Y102.669 E.00538
G1 X113.332 Y102.499 E.00548
G1 X113.334 Y102.459 E.00126
G1 E-1.12 F2400
;WIPE_START
G1 F4800
G1 X113.336 Y102.399 E-.02852
G1 X113.341 Y102.26 E-.06607
G1 X113.388 Y102.099 E-.07967
G1 X113.46 Y101.991 E-.06165
G1 X113.545 Y101.922 E-.052
G1 X113.641 Y101.885 E-.04887
G1 X113.758 Y101.884 E-.05558
G1 X113.847 Y101.921 E-.04578
G1 X113.9 Y101.992 E-.04186
;WIPE_END
G1 X103.875 Y111.025 F6000
G1 E1.6 F2400
G1 F1200
G1 X103.72 Y111.174 E.00674
G1 X103.541 Y111.254 E.00615
G1 X103.408 Y111.257 E.00417
G1 X103.225 Y111.205 E.00596
G1 X103.118 Y111.071 E.00538
G1 X103.078 Y110.9 E.00551
G1 X103.087 Y110.662 E.00747
G1 X103.134 Y110.501 E.00526
G1 X103.206 Y110.392 E.0041
G1 X103.291 Y110.323 E.00343
G1 X103.387 Y110.287 E.00321
G1 X103.504 Y110.285 E.00367
G1 X103.593 Y110.322 E.00302
G1 X103.68 Y110.44 E.0046
G1 X103.856 Y110.968 E.01745
G1 E-1.12 F2400
;WIPE_START
G1 F4800
G1 X103.875 Y111.025 E-.02854
G1 X103.72 Y111.174 E-.10213
G1 X103.541 Y111.254 E-.09313
G1 X103.408 Y111.257 E-.06319
G1 X103.225 Y111.205 E-.09037
G1 X103.118 Y111.071 E-.08145
G1 X103.108 Y111.028 E-.02119
;WIPE_END
G1 X102.092 Y112.839 F6000
G1 E1.6 F2400
G1 F1200
G1 X101.334 Y112.836 E.02377
G1 X101.444 Y112.194 E.02042
G1 X101.529 Y112.331 E.00506
G1 X101.701 Y112.528 E.0082
G1 X102.045 Y112.801 E.01377
G1 E-1.12 F2400
;WIPE_START
G1 F4800
G1 X102.092 Y112.839 E-.02871
G1 X101.334 Y112.836 E-.36005
G1 X101.366 Y112.647 E-.09124
;WIPE_END
G1 X99.811 Y111.025 F6000
G1 E1.6 F2400
G1 F1200
G1 X99.646 Y111.184 E.00718
G1 X99.541 Y111.237 E.00369
G1 X99.394 Y111.258 E.00466
G1 X99.248 Y111.239 E.00462
G1 X99.115 Y111.165 E.00477
G1 X99.045 Y111.051 E.00419
G1 X99.023 Y110.965 E.00278
G1 X99.015 Y110.734 E.00725
G1 X99.052 Y110.546 E.00601
G1 X99.115 Y110.425 E.00428
G1 X99.2 Y110.341 E.00375
G1 X99.331 Y110.285 E.00447
G1 X99.454 Y110.289 E.00386
G1 X99.563 Y110.356 E.00401
G1 X99.613 Y110.428 E.00275
G1 X99.792 Y110.968 E.01784
G1 E-1.12 F2400
;WIPE_START
G1 F4800
G1 X99.811 Y111.025 E-.02854
G1 X99.646 Y111.184 E-.10884
G1 X99.541 Y111.237 E-.05587
G1 X99.394 Y111.258 E-.07053
G1 X99.248 Y111.239 E-.06993
G1 X99.115 Y111.165 E-.0723
G1 X99.045 Y111.051 E-.06354
G1 X99.04 Y111.03 E-.01045
;WIPE_END
G1 X96.986 Y110.781 F6000
G1 E1.6 F2400
G1 F1200
G1 X96.979 Y110.872 E.00286
G1 X97.017 Y111.33 E.01441
G1 X97.133 Y111.753 E.01375
G1 X97.238 Y111.988 E.00807
G1 X97.315 Y112.106 E.00442
G1 X95.71 Y111.941 E.05059
G1 X96.661 Y111.118 E.03943
G1 X96.944 Y110.824 E.01279
G1 E-1.12 F2400
;WIPE_START
G1 F4800
G1 X96.986 Y110.781 E-.02855
G1 X96.979 Y110.872 E-.04335
G1 X97.017 Y111.33 E-.2183
G1 X97.123 Y111.716 E-.1898
;WIPE_END
G1 X97.568 Y112.837 F6000
G1 E1.6 F2400
G1 F1200
G1 X97.619 Y112.51 E.01038
G1 X97.64 Y112.533 E.00098
G1 X98.027 Y112.839 E.01547
G1 X97.628 Y112.837 E.01251
G1 E-1.12 F2400
;WIPE_START
G1 F4800
G1 X97.568 Y112.837 E-.0285
G1 X97.619 Y112.51 E-.1572
G1 X97.64 Y112.533 E-.01479
G1 X98.027 Y112.839 E-.23435
G1 X97.932 Y112.839 E-.04516
;WIPE_END
G1 X95.628 Y112.015 F6000
G1 E1.6 F2400
G1 F1200
G1 X95.543 Y112.855 E.02647
G1 X95.518 Y112.912 E.00195
G1 X95.432 Y112.98 E.00344
G1 X95.276 Y113.004 E.00495
G1 X95.191 Y112.997 E.00267
G1 X95.117 Y112.973 E.00244
G1 X95.047 Y112.913 E.00289
G1 X95.024 Y112.813 E.00322
G1 X95.047 Y112.711 E.00328
G1 X95.174 Y112.491 E.00796
G1 X95.303 Y112.335 E.00635
G1 X95.585 Y112.057 E.01242
G1 E-1.12 F2400
;WIPE_START
G1 F4800
G1 X95.628 Y112.015 E-.02855
G1 X95.543 Y112.855 E-.40104
G1 X95.518 Y112.912 E-.02956
G1 X95.484 Y112.939 E-.02085
;WIPE_END
G1 X130.182 Y112.837 F6000
G1 E1.6 F2400
G1 F1200
G1 X130.244 Y112.425 E.01306
G1 X130.288 Y112.485 E.00233
G1 X130.477 Y112.673 E.00836
G1 X130.718 Y112.839 E.00918
G1 X130.242 Y112.837 E.01492
G1 E-1.12 F2400
;WIPE_START
G1 F4800
G1 X130.182 Y112.837 E-.0285
G1 X130.244 Y112.425 E-.1979
G1 X130.288 Y112.485 E-.03534
G1 X130.477 Y112.673 E-.12663
G1 X130.636 Y112.782 E-.09163
;WIPE_END
G1 X131.697 Y110.801 F6000
G1 E1.6 F2400
G1 F1200
G1 X131.702 Y110.662 E.00436
G1 X131.75 Y110.501 E.00527
G1 X131.822 Y110.392 E.0041
G1 X131.906 Y110.323 E.00341
G1 X132.002 Y110.287 E.00321
G1 X132.12 Y110.285 E.0037
G1 X132.209 Y110.322 E.00302
G1 X132.296 Y110.44 E.0046
G1 X132.49 Y111.025 E.01932
G1 X132.335 Y111.174 E.00674
G1 X132.156 Y111.254 E.00615
G1 X132.023 Y111.257 E.00417
G1 X131.841 Y111.205 E.00593
G1 X131.733 Y111.071 E.0054
G1 X131.694 Y110.9 E.0055
G1 X131.695 Y110.861 E.00122
G1 E-1.12 F2400
;WIPE_START
G1 F4800
G1 X131.697 Y110.801 E-.02852
G1 X131.702 Y110.662 E-.06607
G1 X131.75 Y110.501 E-.0798
G1 X131.822 Y110.392 E-.06205
G1 X131.906 Y110.323 E-.05164
G1 X132.002 Y110.287 E-.0487
G1 X132.12 Y110.285 E-.05606
G1 X132.209 Y110.322 E-.04578
G1 X132.26 Y110.392 E-.04138
;WIPE_END
G1 X111.625 Y113.717 F6000
G1 E1.6 F2400
G1 F1200
G1 X111.57 Y113.838 E.00417
G1 X111.287 Y114.211 E.01468
G1 X110.938 Y114.509 E.01439
G1 X110.542 Y114.724 E.01413
G1 X110.111 Y114.851 E.01409
G1 X109.663 Y114.891 E.0141
G1 X109.323 Y114.867 E.01069
G1 X108.996 Y114.797 E.01049
G1 X108.683 Y114.679 E.01049
G1 X108.391 Y114.516 E.01049
G1 X108.107 Y114.3 E.01119
G1 X107.771 Y113.919 E.01593
G1 X107.515 Y113.455 E.01662
G1 X107.35 Y112.911 E.01782
G1 X107.285 Y112.477 E.01376
G1 X107.252 Y111.779 E.02191
G1 X107.284 Y111.044 E.02307
G1 X107.385 Y110.405 E.02028
G1 X107.504 Y110.002 E.01318
G1 X107.745 Y109.497 E.01754
G1 X108.086 Y109.06 E.01738
G1 X108.516 Y108.721 E.01717
G1 X109.012 Y108.499 E.01704
G1 X109.563 Y108.4 E.01755
G1 X110.11 Y108.422 E.01716
G1 X110.49 Y108.513 E.01225
G1 X110.837 Y108.669 E.01193
G1 X111.151 Y108.893 E.01209
G1 X111.416 Y109.182 E.01229
G1 X111.613 Y109.523 E.01235
G1 X111.638 Y109.597 E.00245
G1 X111.748 Y109.365 E.00805
G1 X111.95 Y109.104 E.01035
G1 X112.17 Y108.89 E.00962
G1 X112.421 Y108.712 E.00965
G1 X112.693 Y108.573 E.00958
G1 X112.983 Y108.473 E.00962
G1 X113.319 Y108.411 E.01071
G1 X113.839 Y108.407 E.0163
G1 X114.334 Y108.507 E.01583
G1 X114.775 Y108.705 E.01516
G1 X115.01 Y108.865 E.00891
G1 X115.36 Y109.199 E.01517
G1 X115.537 Y109.445 E.0095
G1 X115.691 Y109.768 E.01122
G1 X116.09 Y109.738 E.01255
G1 X116.085 Y108.484 E.03932
G1 X118.077 Y108.484 E.06246
G1 X118.077 Y109.683 E.03759
G1 X120.251 Y109.683 E.06816
G1 X120.251 Y111.152 E.04606
G1 X117.634 Y114.868 E.14251
G1 X116.086 Y114.868 E.04854
G1 X116.095 Y111.533 E.10457
G1 X115.977 Y111.51 E.00377
G1 X115.993 Y111.872 E.01136
G1 X115.974 Y112.256 E.01205
G1 X115.925 Y112.621 E.01155
G1 X115.769 Y113.238 E.01995
G1 X115.646 Y113.542 E.01028
G1 X115.499 Y113.814 E.00969
G1 X115.325 Y114.059 E.00942
G1 X115.138 Y114.265 E.00872
G1 X114.751 Y114.568 E.01541
G1 X114.289 Y114.779 E.01592
G1 X113.792 Y114.879 E.0159
G1 X113.334 Y114.884 E.01436
G1 X112.95 Y114.825 E.01218
G1 X112.6 Y114.705 E.0116
G1 X112.404 Y114.604 E.00691
G1 X112.104 Y114.387 E.01161
G1 X111.838 Y114.1 E.01227
G1 X111.654 Y113.769 E.01187
G1 X111.813 Y112.687 F6000
;TYPE:External perimeter
G1 F1200
G1 X112.409 Y112.72 E.01872
G1 X112.875 Y112.683 E.01466
G1 X112.955 Y112.981 E.00967
G1 X113.141 Y113.226 E.00964
G1 X113.348 Y113.348 E.00753
G1 X113.557 Y113.386 E.00666
G1 X113.758 Y113.357 E.00637
G1 X113.825 Y113.331 E.00225
G1 X114.031 Y113.19 E.00783
G1 X114.354 Y112.809 E.01566
G1 X114.436 Y112.518 E.00948
G1 X114.466 Y112.32 E.00628
G1 X114.265 Y112.445 E.00742
G1 X113.914 Y112.589 E.0119
G1 X113.707 Y112.652 E.00678
G1 X113.48 Y112.655 E.00712
G1 X113.151 Y112.597 E.01047
G1 X112.843 Y112.501 E.01012
G1 X112.274 Y112.172 E.02061
G1 X112.026 Y111.895 E.01166
G1 X111.916 Y111.727 E.0063
G1 X111.783 Y111.382 E.01159
G1 X111.742 Y111.183 E.00637
G1 X111.719 Y110.786 E.01247
G1 X111.849 Y110.031 E.02402
G1 X112.071 Y109.564 E.01621
G1 X112.232 Y109.356 E.00825
G1 X112.412 Y109.181 E.00787
G1 X112.618 Y109.035 E.00792
G1 X112.841 Y108.92 E.00787
G1 X113.079 Y108.838 E.00789
G1 X113.355 Y108.788 E.00879
G1 X113.803 Y108.784 E.01405
G1 X114.218 Y108.868 E.01328
G1 X114.59 Y109.035 E.01279
G1 X114.773 Y109.159 E.00693
G1 X115.074 Y109.448 E.01308
G1 X115.214 Y109.642 E.0075
G1 X115.322 Y109.858 E.00757
G1 X115.408 Y110.096 E.00793
G1 X115.459 Y110.357 E.00834
G1 X115.54 Y111.172 E.02568
G1 X115.599 Y111.492 E.0102
G1 X115.616 Y111.871 E.0119
G1 X115.598 Y112.222 E.01102
G1 X115.555 Y112.55 E.01037
G1 X115.41 Y113.12 E.01844
G1 X115.304 Y113.381 E.00883
G1 X115.178 Y113.614 E.00831
G1 X115.031 Y113.822 E.00799
G1 X114.881 Y113.988 E.00701
G1 X114.554 Y114.244 E.01302
G1 X114.172 Y114.418 E.01316
G1 X113.753 Y114.502 E.0134
G1 X113.361 Y114.507 E.01229
G1 X113.04 Y114.457 E.01019
G1 X112.749 Y114.357 E.00965
G1 X112.602 Y114.281 E.00519
G1 X112.355 Y114.103 E.00955
G1 X112.143 Y113.874 E.00978
G1 X111.984 Y113.603 E.00985
G1 X111.882 Y113.298 E.01008
G1 X111.819 Y112.746 E.01742
G1 E-1.12 F2400
;WIPE_START
G1 F4800
G1 X111.813 Y112.687 E-.02817
G1 X112.409 Y112.72 E-.28353
G1 X112.762 Y112.692 E-.1683
;WIPE_END
G1 X115.833 Y110.136 F6000
G1 E1.6 F2400
G1 F1200
G1 X116.469 Y110.087 E.02
G1 X116.464 Y108.861 E.03844
G1 X117.7 Y108.861 E.03875
G1 X117.7 Y110.06 E.03759
G1 X119.874 Y110.06 E.06816
G1 X119.874 Y111.032 E.03048
G1 X117.438 Y114.491 E.13265
G1 X116.464 Y114.491 E.03054
G1 X116.473 Y111.215 E.10272
G1 X115.898 Y111.11 E.01833
G1 X115.837 Y110.196 E.02872
G1 E-1.12 F2400
;WIPE_START
G1 F4800
G1 X115.833 Y110.136 E-.02856
