; generated by PrusaSlicer 2.6.0-alpha6+MacOS-x64 on 2023-04-27 at 20:29:30 UTC

; 

; external perimeters extrusion width = 0.40mm
; perimeters extrusion width = 0.40mm
; infill extrusion width = 0.40mm
; solid infill extrusion width = 0.40mm
; top infill extrusion width = 0.40mm
; first layer extrusion width = 0.40mm

;TYPE:Custom
; Ender 3 Custom Start G-code
G92 E0 ; Reset Extruder

M140 S50 ; set bed temp
M190 S50 ; wait for bed temp

G28 ; Home all axes
M104 S210 ; set extruder temp 
BED_MESH_CALIBRATE AREA_START=90.6415,100.593 AREA_END=148.021,136.951

G1 Z2.0 F3000 ; Move Z Axis up little to prevent scratching of Heat Bed
M109 S210 ; wait for extruder temp
G1 X0.1 Y20 Z0.3 F5000.0 ; Move to start position

G1 X0.1 Y200.0 Z0.3 F1500.0 E15 ; Draw the first line
G1 X0.4 Y200.0 Z0.3 F5000.0 ; Move to side a little
G1 X0.4 Y20 Z0.3 F1500.0 E30 ; Draw the second line
G92 E0 ; Reset Extruder
G1 Z2.0 F3000 ; Move Z Axis up little to prevent scratching of Heat Bed
G1 X5 Y20 Z0.3 F5000.0 ; Move over to prevent blob squish
G21 ; set units to millimeters
G90 ; use absolute coordinates
M83 ; use relative distances for extrusion
; Filament gcode
M107
;LAYER_CHANGE
;Z:0.28
;HEIGHT:0.28
TIMELAPSE_TAKE_FRAME
;BEFORE_LAYER_CHANGE
G92 E0
;0.28


G1 E-5 F3600
G1 Z.28 F4800
;AFTER_LAYER_CHANGE
;0.28
G1 X94.58 Y103.775
G1 E5 F2400
M204 S500
;TYPE:Skirt/Brim
;WIDTH:0.4
G1 F1440
G1 X95.518 Y103.018 E.0477
G1 X96.529 Y102.361 E.04771
G1 X97.98 Y101.649 E.06395
G1 X99.891 Y101.052 E.07922
G1 X101.483 Y100.809 E.06372
G1 X136.379 Y100.768 E1.38081
G1 X137.58 Y100.85 E.04763
G1 X138.771 Y101.052 E.0478
G1 X140.682 Y101.649 E.07922
G1 X142.133 Y102.361 E.06395
G1 X143.768 Y103.503 E.07891
G1 X144.649 Y104.32 E.04754
G1 X145.445 Y105.231 E.04787
G1 X146.359 Y106.585 E.06464
G1 X147.189 Y108.378 E.07818
G1 X147.63 Y109.962 E.06506
G1 X147.803 Y111.157 E.04778
G1 X147.851 Y112.146 E.03918
G1 X147.851 Y125.399 E.52441
G1 X147.803 Y126.387 E.03914
G1 X147.63 Y127.582 E.04778
G1 X147.189 Y129.166 E.06506
G1 X146.722 Y130.273 E.04754
G1 X146.136 Y131.331 E.04786
G1 X145.445 Y132.314 E.04755
G1 X144.649 Y133.224 E.04784
G1 X143.145 Y134.527 E.07874
G1 X142.133 Y135.184 E.04774
G1 X140.679 Y135.897 E.06408
G1 X138.771 Y136.493 E.0791
G1 X137.179 Y136.735 E.06372
G1 X101.483 Y136.735 E1.41246
G1 X99.891 Y136.493 E.06372
G1 X98.732 Y136.173 E.04758
G1 X97.604 Y135.734 E.0479
G1 X96.529 Y135.184 E.04778
G1 X95.518 Y134.527 E.04771
G1 X94.58 Y133.769 E.04772
G1 X93.721 Y132.913 E.04799
G1 X92.963 Y131.977 E.04766
G1 X92.304 Y130.96 E.04795
G1 X91.473 Y129.166 E.07823
G1 X91.126 Y128.008 E.04783
G1 X90.859 Y126.387 E.06501
G1 X90.859 Y111.157 E.60264
G1 X91.032 Y109.962 E.04778
G1 X91.333 Y108.793 E.04777
G1 X91.761 Y107.659 E.04796
G1 X92.304 Y106.584 E.04766
G1 X92.963 Y105.567 E.04795
G1 X93.721 Y104.631 E.04766
G1 X94.538 Y103.818 E.04561
G1 X94.777 Y104.059 F4800
G1 F1440
G1 X95.727 Y103.286 E.04846
G1 X96.709 Y102.649 E.04632
G1 X98.098 Y101.968 E.06121
G1 X99.976 Y101.381 E.07786
G1 X101.501 Y101.149 E.06104
G1 X136.362 Y101.108 E1.37942
G1 X137.529 Y101.186 E.04628
G1 X138.686 Y101.381 E.04643
G1 X140.564 Y101.968 E.07786
G1 X141.953 Y102.649 E.06121
G1 X143.559 Y103.771 E.07752
G1 X144.414 Y104.565 E.04617
G1 X145.185 Y105.45 E.04644
G1 X146.058 Y106.744 E.06177
G1 X146.874 Y108.505 E.0768
G1 X147.295 Y110.018 E.06214
G1 X147.464 Y111.176 E.04631
G1 X147.511 Y112.146 E.03843
G1 X147.511 Y125.399 E.52441
G1 X147.464 Y126.369 E.03843
G1 X147.295 Y127.527 E.04631
G1 X146.874 Y129.04 E.06214
G1 X146.422 Y130.114 E.04611
G1 X145.854 Y131.141 E.04644
G1 X145.185 Y132.095 E.04611
G1 X144.414 Y132.979 E.04641
G1 X142.936 Y134.258 E.07734
G1 X141.953 Y134.896 E.04637
G1 X140.562 Y135.578 E.0613
G1 X138.686 Y136.164 E.07777
G1 X137.162 Y136.396 E.061
G1 X102.301 Y136.436 E1.37942
G1 X100.342 Y136.238 E.07791
G1 X99.203 Y135.964 E.04636
G1 X98.101 Y135.578 E.0462
G1 X97.04 Y135.079 E.04639
G1 X95.727 Y134.258 E.06128
G1 X94.815 Y133.524 E.04632
G1 X93.981 Y132.694 E.04656
G1 X93.245 Y131.787 E.04622
G1 X92.604 Y130.801 E.04654
G1 X91.789 Y129.04 E.07678
G1 X91.454 Y127.917 E.04637
G1 X91.199 Y126.369 E.06208
G1 X91.199 Y111.176 E.60118
G1 X91.368 Y110.017 E.04635
G1 X91.661 Y108.884 E.04631
G1 X92.077 Y107.785 E.0465
G1 X92.604 Y106.743 E.0462
G1 X93.245 Y105.757 E.04654
G1 X93.981 Y104.85 E.04622
G1 X94.735 Y104.101 E.04205
G1 X94.974 Y104.342 F4800
G1 F1440
G1 X95.936 Y103.554 E.04921
G1 X96.889 Y102.937 E.04492
G1 X98.216 Y102.287 E.05847
G1 X100.061 Y101.71 E.07649
G1 X101.518 Y101.488 E.05832
G1 X136.345 Y101.447 E1.37808
G1 X137.477 Y101.522 E.04489
G1 X138.601 Y101.71 E.04509
G1 X140.447 Y102.287 E.07653
G1 X141.773 Y102.937 E.05843
G1 X143.35 Y104.039 E.07613
G1 X144.179 Y104.81 E.0448
G1 X144.925 Y105.668 E.04499
G1 X145.758 Y106.902 E.05891
G1 X146.558 Y108.631 E.07538
G1 X146.959 Y110.073 E.05922
G1 X147.171 Y112.146 E.08245
G1 X147.171 Y125.399 E.52441
G1 X146.96 Y127.472 E.08245
G1 X146.558 Y128.914 E.05923
G1 X146.121 Y129.955 E.04467
G1 X145.573 Y130.951 E.04498
G1 X144.925 Y131.876 E.04469
G1 X144.179 Y132.734 E.04499
G1 X142.727 Y133.99 E.07597
G1 X141.773 Y134.607 E.04496
G1 X140.444 Y135.259 E.05858
G1 X138.601 Y135.834 E.07639
G1 X137.145 Y136.056 E.05828
G1 X102.318 Y136.097 E1.37808
G1 X100.393 Y135.902 E.07656
G1 X99.288 Y135.635 E.04498
G1 X98.218 Y135.259 E.04488
G1 X97.189 Y134.774 E.04501
G1 X95.936 Y133.99 E.05849
G1 X95.051 Y133.279 E.04492
G1 X94.242 Y132.475 E.04513
G1 X93.527 Y131.597 E.0448
G1 X92.905 Y130.642 E.0451
G1 X92.104 Y128.914 E.07536
G1 X91.781 Y127.826 E.04491
G1 X91.538 Y126.35 E.05919
G1 X91.538 Y111.194 E.59971
G1 X91.703 Y110.073 E.04484
G1 X91.988 Y108.975 E.04489
G1 X92.392 Y107.911 E.04503
G1 X92.905 Y106.902 E.04479
G1 X93.527 Y105.948 E.04506
G1 X94.242 Y105.069 E.04484
G1 X94.931 Y104.384 E.03844
; printing object NO_TXT_Kostka.stl id:0 copy 0
G1 E-3.5 F3600
;WIPE_START
G1 F3840
G1 X95.936 Y103.554 E-1.16087
G1 X96.256 Y103.347 E-.33913
;WIPE_END
G1 X102.361 Y121.726 F4800
G1 E5 F2400
;TYPE:Perimeter
;WIDTH:0.455477
G1 F1440
G1 X102.202 Y121.69 E.0075
G1 X102.139 Y121.448 E.01151
G1 X102.2 Y121.23 E.01042
G1 X102.348 Y121.173 E.0073
G1 X102.473 Y121.221 E.00616
G1 X102.54 Y121.452 E.01107
G1 X102.476 Y121.678 E.01081
G1 X102.416 Y121.703 E.00299
G1 X102.327 Y122.109 F4800
;TYPE:External perimeter
;WIDTH:0.4
G1 F1440
G1 X102.18 Y122.079 E.00594
G1 X101.991 Y121.992 E.00823
G1 X101.865 Y121.838 E.00787
G1 X101.78 Y121.531 E.0126
G1 X101.796 Y121.27 E.01035
G1 X101.921 Y120.973 E.01275
G1 X102.085 Y120.845 E.00823
G1 X102.241 Y120.819 E.00626
G1 X102.477 Y120.824 E.00934
G1 X102.672 Y120.91 E.00843
G1 X102.82 Y121.087 E.00913
G1 X102.897 Y121.36 E.01122
G1 X102.872 Y121.725 E.01448
G1 X102.757 Y121.928 E.00923
G1 X102.583 Y122.056 E.00855
G1 X102.386 Y122.097 E.00796
G1 X102.252 Y121.979 F4800
G1 E-3.5 F3600
;WIPE_START
G1 F3840
G1 X102.18 Y122.079 E-.18417
G1 X101.991 Y121.992 E-.18531
G1 X101.865 Y121.838 E-.17721
G1 X101.78 Y121.531 E-.28371
G1 X101.796 Y121.27 E-.23289
G1 X101.921 Y120.973 E-.28699
G1 X102.054 Y120.87 E-.14972
;WIPE_END
G1 X102.428 Y116.353 F4800
G1 E5 F2400
;TYPE:Perimeter
;WIDTH:0.461851
G1 F1440
G1 X102.308 Y116.336 E.00567
G1 X102.198 Y115.952 E.01868
;WIDTH:0.463685
G1 X102.167 Y115.321 E.02968
G1 X102.175 Y114.857 E.0218
;WIDTH:0.447468
G1 X102.246 Y114.427 E.01965
G1 X102.334 Y114.278 E.0078
G1 X102.424 Y114.285 E.00407
G1 X102.545 Y114.587 E.01467
G1 X102.562 Y114.856 E.01215
;WIDTH:0.461851
G1 X102.584 Y115.638 E.03659
G1 X102.504 Y116.194 E.02627
G1 X102.454 Y116.299 E.00544
G1 X102.376 Y116.745 F4800
;TYPE:External perimeter
;WIDTH:0.4
G1 F1440
G1 X102.151 Y116.694 E.00913
G1 X102.067 Y116.618 E.00448
G1 X101.962 Y116.473 E.00708
G1 X101.83 Y116.013 E.01894
G1 X101.795 Y115.324 E.0273
G1 X101.819 Y114.77 E.02194
G1 X101.921 Y114.254 E.02081
G1 X102.084 Y114.012 E.01155
G1 X102.207 Y113.929 E.00587
G1 X102.566 Y113.931 E.01421
G1 X102.733 Y114.073 E.00867
G1 X102.914 Y114.544 E.01997
G1 X102.956 Y115.658 E.04411
G1 X102.871 Y116.247 E.02355
G1 X102.792 Y116.48 E.00974
G1 X102.602 Y116.694 E.01132
G1 X102.434 Y116.732 E.00682
G1 X102.252 Y116.55 F4800
G1 E-3.5 F3600
;WIPE_START
G1 F3840
G1 X102.151 Y116.694 E-.25431
G1 X102.067 Y116.618 E-.10089
G1 X101.962 Y116.473 E-.15944
G1 X101.83 Y116.013 E-.42622
G1 X101.798 Y115.386 E-.55914
;WIPE_END
G1 X115.488 Y115.763 F4800
G1 E5 F2400
;WIDTH:0.424744
G1 F1440
G1 X115.488 Y114.988 E.0329
G1 X116.015 Y114.988 E.02237
G1 X115.521 Y115.713 E.03724
G1 X115.488 Y115.363 F4800
G1 E-3.5 F3600
;WIPE_START
G1 F3840
G1 X115.488 Y114.988 E-.64637
G1 X116.015 Y114.988 E-.46936
G1 X115.772 Y115.345 E-.38427
;WIPE_END
G1 X109.828 Y114.587 F4800
G1 E5 F2400
;TYPE:Perimeter
;WIDTH:0.402348
G1 F1440
G1 X109.66 Y114.556 E.00681
;WIDTH:0.402226
G1 X109.568 Y114.45 E.00559
G1 X109.608 Y114.301 E.00614
G1 X109.766 Y114.248 E.00664
;WIDTH:0.402348
G1 X109.992 Y114.295 E.0092
G1 X110.037 Y114.382 E.0039
G1 X110.004 Y114.528 E.00596
G1 X109.885 Y114.568 E.005
G1 X109.792 Y114.939 F4800
;TYPE:External perimeter
;WIDTH:0.4
G1 F1440
G1 X109.486 Y114.849 E.01262
G1 X109.314 Y114.701 E.00898
G1 X109.236 Y114.525 E.00762
G1 X109.233 Y114.324 E.00795
G1 X109.31 Y114.133 E.00815
G1 X109.451 Y113.997 E.00775
G1 X109.64 Y113.924 E.00802
G1 X109.95 Y113.923 E.01227
G1 X110.239 Y114.042 E.01237
G1 X110.35 Y114.195 E.00748
G1 X110.373 Y114.512 E.01258
G1 X110.289 Y114.715 E.00869
G1 X110.129 Y114.849 E.00826
G1 X109.85 Y114.923 E.01142
G1 X109.646 Y114.654 F4800
G1 X109.934 Y116.727
G1 F1440
G1 X109.615 Y116.721 E.01262
G1 X109.445 Y116.605 E.00814
G1 X109.385 Y116.392 E.00876
G1 X109.447 Y116.162 E.00943
G1 X109.615 Y116.037 E.00829
G1 X109.789 Y116.01 E.00697
G1 X110.04 Y116.066 E.01018
G1 X110.204 Y116.214 E.00874
G1 X110.225 Y116.458 E.00969
G1 X110.129 Y116.648 E.00842
G1 X109.99 Y116.705 E.00594
G1 X109.714 Y116.496 F4800
G1 E-3.5 F3600
;WIPE_START
G1 F3840
G1 X109.615 Y116.721 E-.33429
G1 X109.445 Y116.605 E-.1833
G1 X109.385 Y116.392 E-.19709
G1 X109.447 Y116.162 E-.21216
G1 X109.615 Y116.037 E-.1865
G1 X109.789 Y116.01 E-.15682
G1 X110.04 Y116.066 E-.22904
G1 X110.041 Y116.067 E-.0008
;WIPE_END
G1 X109.828 Y121.485 F4800
G1 E5 F2400
;TYPE:Perimeter
;WIDTH:0.402346
G1 F1440
G1 X109.634 Y121.438 E.00795
;WIDTH:0.402227
G1 X109.562 Y121.318 E.00557
G1 X109.608 Y121.199 E.00508
G1 X109.766 Y121.146 E.00664
;WIDTH:0.402346
G1 X109.992 Y121.193 E.0092
G1 X110.037 Y121.28 E.0039
G1 X110.004 Y121.426 E.00596
G1 X109.885 Y121.466 E.005
G1 X109.885 Y121.821 F4800
;TYPE:External perimeter
;WIDTH:0.4
G1 F1440
G1 X109.645 Y121.808 E.00951
G1 X109.373 Y121.68 E.0119
G1 X109.258 Y121.52 E.0078
G1 X109.213 Y121.323 E.008
G1 X109.233 Y121.222 E.00407
G1 X109.31 Y121.031 E.00815
G1 X109.451 Y120.895 E.00775
G1 X109.64 Y120.822 E.00802
G1 X109.95 Y120.821 E.01227
G1 X110.239 Y120.94 E.01237
G1 X110.35 Y121.093 E.00748
G1 X110.373 Y121.409 E.01254
G1 X110.289 Y121.613 E.00873
G1 X110.153 Y121.733 E.00718
G1 X109.942 Y121.802 E.00878
G1 X109.74 Y121.629 F4800
G1 X109.934 Y123.625
G1 F1440
G1 X109.615 Y123.619 E.01262
G1 X109.445 Y123.503 E.00814
G1 X109.385 Y123.29 E.00876
G1 X109.447 Y123.06 E.00943
G1 X109.615 Y122.935 E.00829
G1 X109.789 Y122.908 E.00697
G1 X110.04 Y122.964 E.01018
G1 X110.204 Y123.112 E.00874
G1 X110.225 Y123.356 E.00969
G1 X110.129 Y123.545 E.00839
G1 X109.99 Y123.602 E.00594
G1 X109.714 Y123.394 F4800
G1 E-3.5 F3600
;WIPE_START
G1 F3840
G1 X109.615 Y123.619 E-.33433
G1 X109.445 Y123.503 E-.1833
G1 X109.385 Y123.29 E-.19709
G1 X109.447 Y123.06 E-.21216
G1 X109.615 Y122.935 E-.1865
G1 X109.789 Y122.908 E-.15682
G1 X110.04 Y122.964 E-.22904
G1 X110.041 Y122.965 E-.00076
;WIPE_END
G1 X115.488 Y122.661 F4800
G1 E5 F2400
;WIDTH:0.424744
G1 F1440
G1 X115.488 Y121.886 E.0329
G1 X116.015 Y121.886 E.02237
G1 X115.521 Y122.611 E.03724
G1 X115.488 Y122.261 F4800
G1 E-3.5 F3600
;WIPE_START
G1 F3840
G1 X115.488 Y121.886 E-.64637
G1 X116.015 Y121.886 E-.46936
G1 X115.772 Y122.243 E-.38427
;WIPE_END
G1 X128.736 Y123.271 F4800
G1 E5 F2400
;TYPE:Perimeter
;WIDTH:0.436743
G1 F1440
G1 X128.63 Y123.185 E.00599
G1 X128.587 Y122.897 E.01277
G1 X128.626 Y122.786 E.00516
G1 X128.755 Y122.696 E.0069
G1 X128.899 Y122.749 E.00673
G1 X128.967 Y122.933 E.0086
G1 X128.891 Y123.252 E.01438
G1 X128.795 Y123.264 E.00424
G1 X128.657 Y123.63 F4800
;TYPE:External perimeter
;WIDTH:0.4
G1 F1440
G1 X128.455 Y123.536 E.00882
G1 X128.378 Y123.443 E.00478
G1 X128.256 Y123.197 E.01087
G1 X128.229 Y122.836 E.01432
G1 X128.312 Y122.601 E.00986
G1 X128.458 Y122.436 E.00872
G1 X128.669 Y122.342 E.00914
G1 X129.004 Y122.377 E.01333
G1 X129.096 Y122.449 E.00462
G1 X129.29 Y122.704 E.01268
G1 X129.331 Y122.934 E.00924
G1 X129.253 Y123.363 E.01725
G1 X129.131 Y123.533 E.00828
G1 X128.94 Y123.629 E.00846
G1 X128.717 Y123.63 E.00882
G1 X128.591 Y123.417 F4800
G1 E-3.5 F3600
;WIPE_START
G1 F3840
G1 X128.455 Y123.536 E-.24791
G1 X128.378 Y123.443 E-.10753
G1 X128.256 Y123.197 E-.24456
G1 X128.229 Y122.836 E-.32241
G1 X128.312 Y122.601 E-.22197
G1 X128.458 Y122.436 E-.19622
G1 X128.621 Y122.363 E-.1594
;WIPE_END
G1 X122.913 Y122.661 F4800
G1 E5 F2400
;WIDTH:0.424742
G1 F1440
G1 X122.913 Y121.886 E.0329
G1 X123.44 Y121.886 E.02237
G1 X122.947 Y122.611 E.03722
G1 X122.913 Y122.261 F4800
G1 E-3.5 F3600
;WIPE_START
G1 F3840
G1 X122.913 Y121.886 E-.64641
G1 X123.44 Y121.886 E-.46936
G1 X123.197 Y122.243 E-.38423
;WIPE_END
G1 X122.913 Y115.763 F4800
G1 E5 F2400
;WIDTH:0.424743
G1 F1440
G1 X122.913 Y114.988 E.0329
G1 X123.44 Y114.988 E.02237
G1 X122.947 Y115.713 E.03722
G1 X122.913 Y115.363 F4800
G1 E-3.5 F3600
;WIPE_START
G1 F3840
G1 X122.913 Y114.988 E-.64641
G1 X123.44 Y114.988 E-.46936
G1 X123.197 Y115.345 E-.38423
;WIPE_END
G1 X128.736 Y116.374 F4800
G1 E5 F2400
;TYPE:Perimeter
;WIDTH:0.436743
G1 F1440
G1 X128.63 Y116.288 E.00599
G1 X128.587 Y116 E.01277
G1 X128.626 Y115.889 E.00516
G1 X128.755 Y115.798 E.00692
G1 X128.899 Y115.851 E.00673
G1 X128.967 Y116.036 E.00864
G1 X128.891 Y116.355 E.01438
G1 X128.795 Y116.366 E.00424
G1 X128.657 Y116.732 F4800
;TYPE:External perimeter
;WIDTH:0.4
G1 F1440
G1 X128.455 Y116.638 E.00882
G1 X128.378 Y116.546 E.00475
G1 X128.256 Y116.299 E.0109
G1 X128.229 Y115.938 E.01432
G1 X128.312 Y115.703 E.00986
G1 X128.458 Y115.539 E.00869
G1 X128.669 Y115.444 E.00916
G1 X129.004 Y115.48 E.01333
G1 X129.096 Y115.551 E.0046
G1 X129.29 Y115.806 E.01268
G1 X129.331 Y116.037 E.00928
G1 X129.253 Y116.465 E.01721
G1 X129.131 Y116.635 E.00828
G1 X128.94 Y116.731 E.00846
G1 X128.717 Y116.732 E.00882
G1 X128.591 Y116.52 F4800
G1 E-3.5 F3600
;WIPE_START
G1 F3840
G1 X128.455 Y116.638 E-.24791
G1 X128.378 Y116.546 E-.10685
G1 X128.256 Y116.299 E-.24536
G1 X128.229 Y115.938 E-.32241
G1 X128.312 Y115.703 E-.22197
G1 X128.458 Y115.539 E-.19556
G1 X128.622 Y115.465 E-.15994
;WIPE_END
G1 X102.219 Y123.572 F4800
G1 E5 F2400
;WIDTH:0.447565
G1 F1440
G1 X101.986 Y123.505 E.01094
G1 X101.824 Y123.168 E.01687
;WIDTH:0.422675
G1 X101.699 Y123.05 E.00726
;WIDTH:0.430453
G1 X101.904 Y123.15 E.00983
;WIDTH:0.437192
G1 X102.408 Y123.187 E.02218
G1 X102.877 Y123.078 E.02114
;WIDTH:0.436198
G1 X102.72 Y123.407 E.01596
G1 X102.504 Y123.548 E.01129
;WIDTH:0.447565
G1 X102.279 Y123.567 E.01019
G1 E-3.5 F3600
;WIPE_START
G1 F3840
G1 X101.986 Y123.505 E-.26673
G1 X101.824 Y123.168 E-.33302
G1 X101.699 Y123.05 E-.1531
G1 X101.904 Y123.15 E-.20314
G1 X102.408 Y123.187 E-.45008
G1 X102.511 Y123.163 E-.09393
;WIPE_END
G1 X107.755 Y123.12 F4800
G1 E5 F2400
;TYPE:Perimeter
;WIDTH:0.4
G1 F1440
G1 X107.315 Y123.088 E.01746
G1 X106.727 Y123.103 E.02327
G1 X107.16 Y122.431 E.03163
G1 X107.371 Y121.953 E.02067
G1 X107.53 Y121.463 E.02038
G1 X107.527 Y121.561 E.00388
G1 X107.667 Y122.152 E.02403
G1 X107.892 Y122.527 E.0173
G1 X107.841 Y122.656 E.00549
G1 X107.766 Y123.061 E.0163
G1 X107.468 Y122.677 F4800
;WIDTH:0.475989
G1 F1440
G1 X107.416 Y122.677 E.00252
G1 X107.39 Y122.722 E.00252
G1 X107.416 Y122.767 E.00252
G1 X107.468 Y122.767 E.00252
G1 X107.494 Y122.722 E.00252
G1 E-3.5 F3600
;WIPE_START
