; generated by PrusaSlicer 2.6.0-alpha6+MacOS-x64 on 2023-04-27 at 19:23:50 UTC

; 

; external perimeters extrusion width = 0.40mm
; perimeters extrusion width = 0.40mm
; infill extrusion width = 0.40mm
; solid infill extrusion width = 0.40mm
; top infill extrusion width = 0.40mm
; first layer extrusion width = 0.40mm

;TYPE:Custom
; Ender 3 Custom Start G-code
G92 E0 ; Reset Extruder

M140 S50 ; set bed temp
M190 S50 ; wait for bed temp

G28 ; Home all axes
M104 S210 ; set extruder temp 
BED_MESH_CALIBRATE AREA_START=90.5214,100.473 AREA_END=148.141,137.071

G1 Z2.0 F3000 ; Move Z Axis up little to prevent scratching of Heat Bed
M109 S210 ; wait for extruder temp
G1 X0.1 Y20 Z0.3 F5000.0 ; Move to start position

G1 X0.1 Y200.0 Z0.3 F1500.0 E15 ; Draw the first line
G1 X0.4 Y200.0 Z0.3 F5000.0 ; Move to side a little
G1 X0.4 Y20 Z0.3 F1500.0 E30 ; Draw the second line
G92 E0 ; Reset Extruder
G1 Z2.0 F3000 ; Move Z Axis up little to prevent scratching of Heat Bed
G1 X5 Y20 Z0.3 F5000.0 ; Move over to prevent blob squish
G21 ; set units to millimeters
G90 ; use absolute coordinates
M83 ; use relative distances for extrusion
; Filament gcode
M107
;LAYER_CHANGE
;Z:0.12
;HEIGHT:0.12
TIMELAPSE_TAKE_FRAME
;BEFORE_LAYER_CHANGE
G92 E0
;0.12


G1 E-5 F3600
G1 Z.12 F4800
;AFTER_LAYER_CHANGE
;0.12
G1 X94.509 Y103.701
G1 E5 F2400
M204 S500
;TYPE:Skirt/Brim
;WIDTH:0.4
G1 F1440
G1 X95.455 Y102.936 E.02272
G1 X96.474 Y102.273 E.0227
G1 X97.945 Y101.553 E.03058
G1 X99.866 Y100.952 E.03758
G1 X101.478 Y100.706 E.03045
G1 X136.384 Y100.666 E.65174
G1 X138.387 Y100.868 E.03759
G1 X139.554 Y101.147 E.0224
G1 X140.71 Y101.55 E.02286
G1 X142.188 Y102.273 E.03072
G1 X143.831 Y103.422 E.03743
G1 X144.721 Y104.246 E.02265
G1 X145.524 Y105.164 E.02277
G1 X146.45 Y106.536 E.03091
G1 X147.285 Y108.34 E.03712
G1 X147.732 Y109.946 E.03113
G1 X147.906 Y111.152 E.02275
G1 X147.954 Y112.146 E.01858
G1 X147.954 Y125.399 E.24745
G1 X147.906 Y126.393 E.01858
G1 X147.732 Y127.599 E.02275
G1 X147.285 Y129.204 E.03111
G1 X146.813 Y130.321 E.02264
G1 X146.221 Y131.389 E.0228
G1 X145.524 Y132.38 E.02262
G1 X144.721 Y133.299 E.02279
G1 X143.208 Y134.608 E.03735
G1 X142.188 Y135.271 E.02271
G1 X140.715 Y135.993 E.03063
G1 X138.797 Y136.592 E.03752
G1 X137.184 Y136.838 E.03047
G1 X102.278 Y136.879 E.65174
G1 X101.067 Y136.797 E.02266
G1 X99.866 Y136.592 E.02275
G1 X97.964 Y135.999 E.0372
G1 X96.853 Y135.481 E.02289
G1 X95.802 Y134.851 E.02288
G1 X94.832 Y134.123 E.02264
G1 X93.942 Y133.299 E.02265
G1 X92.894 Y132.056 E.03036
G1 X91.854 Y130.329 E.03764
G1 X91.378 Y129.204 E.02281
G1 X91.027 Y128.036 E.02277
G1 X90.76 Y126.418 E.03062
G1 X90.709 Y125.415 E.01875
G1 X90.756 Y111.168 E.26601
G1 X90.926 Y109.971 E.02257
G1 X91.227 Y108.791 E.02274
G1 X91.656 Y107.645 E.02285
G1 X92.201 Y106.559 E.02269
G1 X92.864 Y105.531 E.02284
G1 X93.777 Y104.414 E.02694
G1 X94.466 Y103.743 E.01796
G1 X94.727 Y104.011 F4800
G1 F1440
G1 X95.685 Y103.232 E.02305
G1 X96.673 Y102.591 E.02199
G1 X98.074 Y101.904 E.02913
G1 X99.959 Y101.314 E.03688
G1 X101.497 Y101.08 E.02905
G1 X136.365 Y101.039 E.65103
G1 X138.331 Y101.238 E.0369
G1 X139.46 Y101.51 E.02168
G1 X140.581 Y101.901 E.02217
G1 X141.99 Y102.591 E.02929
G1 X143.601 Y103.717 E.0367
G1 X144.462 Y104.516 E.02193
G1 X145.238 Y105.405 E.02203
G1 X146.119 Y106.711 E.02941
G1 X146.937 Y108.479 E.03637
G1 X147.363 Y110.006 E.0296
G1 X147.532 Y111.172 E.022
G1 X147.58 Y112.146 E.01821
G1 X147.58 Y125.399 E.24745
G1 X147.532 Y126.372 E.01819
G1 X147.363 Y127.538 E.022
G1 X146.937 Y129.065 E.0296
G1 X146.482 Y130.146 E.0219
G1 X145.911 Y131.179 E.02204
G1 X145.238 Y132.139 E.02189
G1 X144.462 Y133.029 E.02205
G1 X142.978 Y134.313 E.03664
G1 X141.99 Y134.954 E.02199
G1 X140.585 Y135.642 E.02921
G1 X138.703 Y136.23 E.03681
G1 X137.165 Y136.464 E.02905
G1 X102.297 Y136.505 E.65103
G1 X101.123 Y136.427 E.02197
G1 X99.959 Y136.23 E.02204
G1 X98.093 Y135.648 E.0365
G1 X97.017 Y135.144 E.02219
G1 X96.001 Y134.534 E.02213
G1 X95.062 Y133.828 E.02194
G1 X94.201 Y133.029 E.02193
G1 X93.204 Y131.845 E.0289
G1 X92.184 Y130.154 E.03687
G1 X91.725 Y129.065 E.02207
G1 X91.387 Y127.935 E.02202
G1 X91.133 Y126.397 E.02911
G1 X91.129 Y111.188 E.28397
G1 X91.296 Y110.031 E.02183
G1 X91.588 Y108.89 E.02199
G1 X92.003 Y107.783 E.02207
G1 X92.532 Y106.733 E.02195
G1 X93.174 Y105.74 E.02208
G1 X94.051 Y104.67 E.02583
G1 X94.684 Y104.053 E.0165
G1 X94.96 Y104.367 F4800
G1 F1440
G1 X95.915 Y103.527 E.02375
G1 X96.871 Y102.908 E.02126
G1 X98.204 Y102.255 E.02771
G1 X100.053 Y101.677 E.03617
G1 X101.516 Y101.454 E.02763
G1 X136.346 Y101.413 E.65032
G1 X137.483 Y101.488 E.02128
G1 X138.61 Y101.677 E.02134
G1 X140.458 Y102.255 E.03615
G1 X141.791 Y102.908 E.02771
G1 X143.371 Y104.012 E.03599
G1 X144.202 Y104.785 E.02119
G1 X144.951 Y105.646 E.02131
G1 X145.788 Y106.886 E.02793
G1 X146.59 Y108.618 E.03564
G1 X146.993 Y110.067 E.02808
G1 X147.158 Y111.192 E.02123
G1 X147.205 Y112.146 E.01783
G1 X147.205 Y125.399 E.24745
G1 X146.993 Y127.477 E.039
G1 X146.59 Y128.926 E.02808
G1 X146.152 Y129.971 E.02116
G1 X145.601 Y130.97 E.0213
G1 X144.951 Y131.898 E.02115
G1 X144.202 Y132.759 E.02131
G1 X142.748 Y134.017 E.0359
G1 X141.791 Y134.636 E.02128
G1 X140.456 Y135.291 E.02776
G1 X138.61 Y135.868 E.03611
G1 X137.146 Y136.091 E.02765
G1 X102.316 Y136.131 E.65032
G1 X100.388 Y135.936 E.03618
G1 X99.279 Y135.668 E.0213
G1 X98.207 Y135.291 E.02122
G1 X97.174 Y134.805 E.02132
G1 X95.914 Y134.017 E.02775
G1 X95.027 Y133.303 E.02126
G1 X94.215 Y132.497 E.02136
G1 X93.513 Y131.635 E.02076
G1 X92.514 Y129.978 E.03613
G1 X92.073 Y128.926 E.0213
G1 X91.748 Y127.835 E.02126
G1 X91.507 Y126.376 E.02761
G1 X91.503 Y111.209 E.28319
G1 X91.665 Y110.091 E.02109
G1 X91.948 Y108.99 E.02123
G1 X92.351 Y107.921 E.02133
G1 X92.863 Y106.908 E.02119
G1 X93.485 Y105.949 E.02134
G1 X94.324 Y104.926 E.0247
G1 X94.915 Y104.406 E.0147
; printing object NO_TXT_Kostka.stl id:0 copy 0
G1 E-3.5 F3600
;WIPE_START
G1 F3840
G1 X95.915 Y103.527 E-1.18578
G1 X96.211 Y103.335 E-.31422
;WIPE_END
G1 X104.927 Y121.262 F4800
G1 E5 F2400
;TYPE:Perimeter
;WIDTH:0.399999
G1 F1440
G1 X104.841 Y120.853 E.0078
G1 X104.714 Y120.493 E.00713
G1 X104.452 Y119.96 E.01109
G1 X104.096 Y119.546 E.01019
G1 X103.685 Y119.243 E.00953
G1 X103.281 Y119.041 E.00843
;WIDTH:0.447536
G1 X103.202 Y118.997 E.0019
;WIDTH:0.495074
G1 X103.124 Y118.953 E.0021
;WIDTH:0.542611
G1 X103.045 Y118.909 E.00233
;WIDTH:0.590148
G1 X102.966 Y118.865 E.00255
;WIDTH:0.637685
G1 X102.887 Y118.82 E.00278
;WIDTH:0.685222
G1 X102.808 Y118.776 E.00298
G1 X102.853 Y118.749 E.00173
;WIDTH:0.64724
G1 X102.899 Y118.722 E.00165
;WIDTH:0.609258
G1 X102.944 Y118.695 E.00153
;WIDTH:0.571275
G1 X102.989 Y118.668 E.00143
;WIDTH:0.533293
G1 X103.149 Y118.594 E.00446
;WIDTH:0.488862
G1 X103.308 Y118.519 E.00406
;WIDTH:0.444431
G1 X103.467 Y118.445 E.00366
;WIDTH:0.399999
G1 X103.858 Y118.225 E.00838
G1 X104.25 Y117.868 E.0099
G1 X104.624 Y118.206 E.00941
G1 X105.069 Y118.445 E.00943
G1 X105.608 Y118.605 E.0105
G1 X105.936 Y118.632 E.00614
;WIDTH:0.377529
G1 X106.529 Y118.621 E.01041
;WIDTH:0.399999
G1 X107.093 Y118.506 E.01075
G1 X107.547 Y118.28 E.00947
G1 X107.97 Y117.927 E.01029
G1 X108.089 Y118.044 E.00312
G1 X108.523 Y118.352 E.00994
G1 X109.035 Y118.553 E.01027
;WIDTH:0.447387
G1 X109.105 Y118.591 E.00168
;WIDTH:0.494776
G1 X109.176 Y118.628 E.00187
;WIDTH:0.542164
G1 X109.247 Y118.666 E.00207
;WIDTH:0.589552
G1 X109.317 Y118.703 E.00223
;WIDTH:0.63694
G1 X109.388 Y118.741 E.00246
;WIDTH:0.684328
G1 X109.459 Y118.779 E.00265
G1 X109.384 Y118.814 E.00272
;WIDTH:0.63694
G1 X109.31 Y118.85 E.00251
;WIDTH:0.589552
G1 X109.235 Y118.886 E.00234
;WIDTH:0.542164
G1 X109.161 Y118.921 E.00211
;WIDTH:0.494776
G1 X109.086 Y118.957 E.00195
;WIDTH:0.447387
G1 X109.011 Y118.993 E.00175
;WIDTH:0.399999
G1 X108.478 Y119.191 E.01062
G1 X108.01 Y119.516 E.01064
G1 X107.818 Y119.226 E.00649
G1 X107.567 Y119.047 E.00576
G1 X107.152 Y118.953 E.00794
G1 X106.531 Y118.967 E.0116
;WIDTH:0.377529
G1 X105.971 Y118.98 E.00983
;WIDTH:0.399999
G1 X105.667 Y119.083 E.00599
G1 X105.38 Y119.347 E.00728
G1 X105.243 Y119.63 E.00587
G1 X105.067 Y120.771 E.02156
G1 X104.943 Y121.204 E.00841
G1 E-3.5 F3600
;WIPE_START
G1 F3840
G1 X104.841 Y120.853 E-.32554
G1 X104.714 Y120.493 E-.33999
G1 X104.452 Y119.96 E-.52895
G1 X104.228 Y119.7 E-.30552
;WIPE_END
G1 X107.773 Y123.131 F4800
G1 E5 F2400
G1 F1440
G1 X107.651 Y123.113 E.0023
G1 X106.728 Y123.106 E.01723
G1 X107.048 Y122.536 E.01221
G1 X107.245 Y122.085 E.00919
G1 X107.443 Y121.518 E.01121
;WIDTH:0.435038
G1 X107.594 Y120.979 E.01143
G1 X107.594 Y120.982 E.00006
;WIDTH:0.434784
G1 X107.592 Y121.545 E.01149
;WIDTH:0.399999
G1 X107.724 Y122.117 E.01096
G1 X107.957 Y122.508 E.0085
G1 X107.884 Y122.658 E.00311
G1 X107.786 Y123.073 E.00796
G1 X107.44 Y122.692 F4800
;WIDTH:0.490528
G1 F1440
G1 X107.49 Y122.55 E.00349
G1 E-3.5 F3600
;WIPE_START
G1 F3840
G1 X107.44 Y122.692 E-.13408
;WIPE_END
G1 E-1.36592 F3600
G1 X102.223 Y123.589 F4800
G1 E5 F2400
;TYPE:External perimeter
;WIDTH:0.435812
G1 F1440
G1 X101.984 Y123.519 E.00509
G1 X101.847 Y123.222 E.00669
;WIDTH:0.412276
G1 X101.692 Y123.049 E.00448
G1 X101.906 Y123.148 E.00455
;WIDTH:0.4259
G1 X102.405 Y123.182 E.00998
G1 X102.901 Y123.05 E.01025
;WIDTH:0.416331
G1 X102.737 Y123.393 E.00741
G1 X102.579 Y123.543 E.00425
;WIDTH:0.435812
G1 X102.282 Y123.581 E.00613
G1 E-3.5 F3600
;WIPE_START
G1 F3840
G1 X101.984 Y123.519 E-.27109
G1 X101.847 Y123.222 E-.2913
G1 X101.692 Y123.049 E-.20687
G1 X101.906 Y123.148 E-.21
G1 X102.405 Y123.182 E-.44545
G1 X102.487 Y123.16 E-.07529
;WIPE_END
G1 X106.013 Y116.555 F4800
G1 E5 F2400
;WIDTH:0.532523
G1 F1440
G1 X105.924 Y116.474 E.00304
G1 X105.913 Y116.256 E.00552
G1 X105.981 Y116.179 E.0026
G1 X106.158 Y116.08 E.00513
;WIDTH:0.532679
G1 X106.617 Y116.036 E.01166
G1 X106.582 Y116.336 E.00764
G1 X106.358 Y116.547 E.00778
G1 X106.073 Y116.553 E.00721
G1 X105.994 Y116.436 F4800
G1 X106.36 Y114.893
;WIDTH:0.399999
G1 F1440
G1 X106.114 Y114.865 E.00462
G1 X105.874 Y114.777 E.00477
G1 X105.714 Y114.66 E.0037
G1 X105.637 Y114.425 E.00462
G1 X105.726 Y114.182 E.00483
G1 X105.927 Y114.037 E.00463
G1 X106.214 Y114.018 E.00537
G1 X106.393 Y114.044 E.00338
G1 X106.55 Y114.143 E.00347
G1 X106.709 Y114.403 E.00569
;WIDTH:0.446479
G1 X106.718 Y114.495 E.00194
;WIDTH:0.492958
G1 X106.726 Y114.587 E.00215
;WIDTH:0.539437
G1 X106.735 Y114.679 E.00237
;WIDTH:0.585917
G1 X106.743 Y114.771 E.00258
;WIDTH:0.632396
G1 X106.751 Y114.863 E.00279
G1 X106.673 Y114.869 E.00237
;WIDTH:0.585917
G1 X106.595 Y114.875 E.00219
;WIDTH:0.539437
G1 X106.517 Y114.881 E.002
;WIDTH:0.492958
G1 X106.439 Y114.887 E.00182
;WIDTH:0.446479
G1 X106.42 Y114.889 E.0004
G1 X107.979 Y114.185 F4800
;WIDTH:0.604354
G1 F1440
G1 X107.985 Y114.677 E.0142
G1 E-3.5 F3600
;WIPE_START
G1 F3840
G1 X107.979 Y114.185 E-.43822
;WIPE_END
G1 E-1.06178 F3600
G1 X102.297 Y118.785 F4800
G1 E5 F2400
;TYPE:Perimeter
;WIDTH:0.649212
G1 F1440
G1 X102.234 Y118.756 E.00216
;WIDTH:0.601151
G1 X102.17 Y118.727 E.00202
;WIDTH:0.55309
G1 X102.107 Y118.698 E.00182
;WIDTH:0.505028
G1 X102.044 Y118.668 E.00167
;WIDTH:0.456967
G1 X101.981 Y118.639 E.00149
;WIDTH:0.408906
G1 X101.917 Y118.61 E.00134
;WIDTH:0.399999
G1 X101.468 Y118.515 E.00857
G1 X101.008 Y118.299 E.00949
;WIDTH:0.443746
G1 X100.755 Y118.12 E.00646
;WIDTH:0.487492
G1 X100.503 Y117.94 E.00713
G1 X100.37 Y117.739 E.00555
;WIDTH:0.461629
G1 X100.237 Y117.538 E.00524
;WIDTH:0.435765
G1 X100.001 Y116.932 E.0133
;WIDTH:0.399999
G1 X99.874 Y116.466 E.00902
G1 X99.81 Y115.937 E.00995
G1 X99.791 Y115.343 E.0111
G1 X99.803 Y114.793 E.01027
G1 X99.874 Y114.174 E.01163
G1 X100.033 Y113.604 E.01105
G1 X100.177 Y113.264 E.00689
G1 X100.469 Y112.823 E.00988
G1 X100.813 Y112.487 E.00898
G1 X101.279 Y112.203 E.01019
G1 X101.79 Y112.044 E.00999
G1 X102.489 Y112.013 E.01306
G1 X102.956 Y112.043 E.00874
G1 X103.469 Y112.202 E.01003
G1 X103.951 Y112.5 E.01058
G1 X104.219 Y112.751 E.00686
G1 X104.519 Y112.487 E.00746
G1 X104.876 Y112.269 E.00781
G1 X105.396 Y112.086 E.01029
G1 X106.017 Y111.998 E.01171
G1 X106.571 Y112.016 E.01035
G1 X107.136 Y112.145 E.01082
G1 X107.667 Y112.41 E.01108
G1 X107.98 Y112.669 E.00759
G1 X108.393 Y112.344 E.00981
G1 X108.884 Y112.126 E.01003
G1 X109.606 Y112.002 E.01368
G1 X110.163 Y112.011 E.0104
G1 X110.771 Y112.143 E.01162
G1 X111.225 Y112.345 E.00928
G1 X111.645 Y112.651 E.0097
G1 X111.976 Y113.029 E.00938
G1 X112.228 Y113.501 E.00999
;WIDTH:0.435305
G1 X112.291 Y113.67 E.00369
;WIDTH:0.470611
G1 X112.354 Y113.84 E.00402
;WIDTH:0.505917
G1 X112.417 Y114.01 E.00434
G1 X112.437 Y114.582 E.01371
;WIDTH:0.49357
G1 X112.376 Y114.998 E.00981
;WIDTH:0.486994
G1 X112.237 Y115.293 E.0075
;WIDTH:0.443497
G1 X112.098 Y115.588 E.0068
;WIDTH:0.399999
G1 X112.232 Y116.166 E.01108
G1 X112.217 Y116.746 E.01083
G1 X112.163 Y117.025 E.00531
G1 X111.975 Y117.48 E.00919
G1 X111.67 Y117.898 E.00966
G1 X111.361 Y118.178 E.00779
G1 X110.913 Y118.431 E.00961
;WIDTH:0.439353
G1 X110.661 Y118.533 E.00561
;WIDTH:0.478707
G1 X110.408 Y118.636 E.00617
;WIDTH:0.525886
G1 X110.349 Y118.671 E.00171
;WIDTH:0.573064
G1 X110.289 Y118.705 E.00188
;WIDTH:0.620242
G1 X110.23 Y118.74 E.00203
;WIDTH:0.66742
G1 X110.17 Y118.775 E.00222
G1 X110.245 Y118.812 E.00268
;WIDTH:0.62285
G1 X110.319 Y118.848 E.00245
;WIDTH:0.57828
G1 X110.394 Y118.885 E.00231
;WIDTH:0.53371
G1 X110.469 Y118.921 E.00211
;WIDTH:0.48914
G1 X110.543 Y118.958 E.00191
;WIDTH:0.444569
G1 X110.618 Y118.994 E.00174
;WIDTH:0.399999
G1 X111.168 Y119.208 E.01102
G1 X111.645 Y119.548 E.01094
G1 X111.976 Y119.927 E.0094
G1 X112.228 Y120.399 E.00999
;WIDTH:0.435305
G1 X112.291 Y120.568 E.00369
;WIDTH:0.470611
G1 X112.354 Y120.738 E.00402
;WIDTH:0.505917
G1 X112.417 Y120.908 E.00434
G1 X112.437 Y121.48 E.01371
;WIDTH:0.49357
G1 X112.376 Y121.896 E.00981
;WIDTH:0.486997
G1 X112.237 Y122.19 E.00748
;WIDTH:0.443498
G1 X112.098 Y122.485 E.0068
;WIDTH:0.399999
G1 X112.232 Y123.064 E.0111
G1 X112.217 Y123.643 E.01081
G1 X112.163 Y123.923 E.00532
G1 X111.975 Y124.378 E.00919
G1 X111.698 Y124.769 E.00895
G1 X111.361 Y125.076 E.00851
G1 X110.913 Y125.329 E.00961
G1 X110.396 Y125.496 E.01014
G1 X110.099 Y125.541 E.00561
G1 X109.46 Y125.534 E.01193
G1 X108.908 Y125.417 E.01054
G1 X108.382 Y125.164 E.0109
G1 X108.135 Y125.37 E.00601
G1 X107.873 Y125.466 E.00521
G1 X106.925 Y125.485 E.0177
G1 X104.472 Y125.486 E.0458
G1 X104.125 Y125.42 E.0066
G1 X103.837 Y125.238 E.00636
G1 X103.727 Y125.12 E.00301
G1 X103.495 Y125.26 E.00506
G1 X102.995 Y125.466 E.0101
G1 X102.354 Y125.555 E.01208
G1 X101.791 Y125.504 E.01055
G1 X101.315 Y125.397 E.00911
G1 X100.906 Y125.19 E.00856
G1 X100.498 Y124.843 E.01
G1 X100.252 Y124.522 E.00755
G1 X100.061 Y124.103 E.0086
G1 X99.961 Y123.609 E.00941
G1 X99.973 Y123.057 E.01031
G1 X100.032 Y122.838 E.00423
G1 X100.103 Y122.722 E.00254
G1 X99.916 Y122.335 E.00803
G1 X99.798 Y121.892 E.00856
G1 X99.764 Y121.413 E.00897
G1 X99.822 Y120.931 E.00906
G1 X99.995 Y120.367 E.01101
;WIDTH:0.448552
G1 X100.256 Y119.855 E.01212
;WIDTH:0.455845
G1 X100.384 Y119.694 E.00441
G1 X100.587 Y119.529 E.00561
;WIDTH:0.427922
G1 X100.791 Y119.364 E.00526
;WIDTH:0.399999
G1 X101.252 Y119.099 E.00993
G1 X101.764 Y118.951 E.00995
;WIDTH:0.390466
G1 X101.95 Y118.927 E.00341
;WIDTH:0.433591
G1 X102.008 Y118.903 E.00128
;WIDTH:0.476715
G1 X102.066 Y118.88 E.0014
;WIDTH:0.519839
G1 X102.124 Y118.856 E.00155
;WIDTH:0.562964
G1 X102.181 Y118.832 E.00166
;WIDTH:0.606088
G1 X102.239 Y118.809 E.00181
;WIDTH:0.649212
G1 X102.241 Y118.808 E.00007
G1 E-3.5 F3600
;WIPE_START
G1 F3840
G1 X102.234 Y118.756 E-.04673
G1 X102.17 Y118.727 E-.06258
G1 X102.107 Y118.698 E-.06177
G1 X102.044 Y118.668 E-.06215
G1 X101.981 Y118.639 E-.06177
G1 X101.917 Y118.61 E-.06258
G1 X101.468 Y118.515 E-.40874
G1 X101.008 Y118.299 E-.45261
G1 X100.755 Y118.12 E-.27602
G1 X100.75 Y118.117 E-.00505
;WIPE_END
G1 X105.796 Y118.247 F4800
G1 E5 F2400
;WIDTH:0.399999
G1 F1440
G1 X105.175 Y118.087 E.01197
G1 X104.782 Y117.863 E.00845
G1 X104.422 Y117.482 E.00979
