; generated by PrusaSlicer 2.6.0-alpha6+MacOS-x64 on 2023-04-27 at 21:29:36 UTC

; 

; external perimeters extrusion width = 0.40mm
; perimeters extrusion width = 0.40mm
; infill extrusion width = 0.40mm
; solid infill extrusion width = 0.40mm
; top infill extrusion width = 0.40mm
; first layer extrusion width = 0.40mm

;TYPE:Custom
; Ender 3 Custom Start G-code
G92 E0 ; Reset Extruder

M140 S50 ; set bed temp
M190 S50 ; wait for bed temp

G28 ; Home all axes
M104 S210 ; set extruder temp 
BED_MESH_CALIBRATE AREA_START=90.5514,100.503 AREA_END=148.111,137.041

G1 Z2.0 F3000 ; Move Z Axis up little to prevent scratching of Heat Bed
M109 S210 ; wait for extruder temp
G1 X0.1 Y20 Z0.3 F5000.0 ; Move to start position

G1 X0.1 Y200.0 Z0.3 F1500.0 E15 ; Draw the first line
G1 X0.4 Y200.0 Z0.3 F5000.0 ; Move to side a little
G1 X0.4 Y20 Z0.3 F1500.0 E30 ; Draw the second line
G92 E0 ; Reset Extruder
G1 Z2.0 F3000 ; Move Z Axis up little to prevent scratching of Heat Bed
G1 X5 Y20 Z0.3 F5000.0 ; Move over to prevent blob squish
G21 ; set units to millimeters
G90 ; use absolute coordinates
M83 ; use relative distances for extrusion
; Filament gcode
M107
;LAYER_CHANGE
;Z:0.16
;HEIGHT:0.16
TIMELAPSE_TAKE_FRAME
;BEFORE_LAYER_CHANGE
G92 E0
;0.16


G1 E-5 F3600
G1 Z.16 F4800
;AFTER_LAYER_CHANGE
;0.16
G1 X94.526 Y103.72
G1 E5 F2400
M204 S500
;TYPE:Skirt/Brim
;WIDTH:0.4
G1 F1440
G1 X95.47 Y102.957 E.02952
G1 X96.488 Y102.295 E.02954
G1 X97.954 Y101.577 E.03971
G1 X99.872 Y100.977 E.04888
G1 X101.479 Y100.732 E.03954
G1 X136.383 Y100.691 E.84901
G1 X138.383 Y100.894 E.0489
G1 X139.544 Y101.171 E.02903
G1 X140.68 Y101.566 E.02925
G1 X142.174 Y102.295 E.04044
G1 X143.815 Y103.442 E.0487
G1 X144.703 Y104.264 E.02943
G1 X145.504 Y105.181 E.02962
G1 X146.427 Y106.548 E.04012
G1 X147.261 Y108.35 E.0483
G1 X147.706 Y109.95 E.0404
G1 X147.88 Y111.153 E.02957
G1 X147.928 Y112.146 E.02418
G1 X147.928 Y125.399 E.32237
G1 X147.88 Y126.391 E.02416
G1 X147.707 Y127.595 E.02959
G1 X147.261 Y129.195 E.0404
G1 X146.79 Y130.309 E.02942
G1 X146.2 Y131.375 E.02964
G1 X145.504 Y132.363 E.0294
G1 X144.703 Y133.28 E.02962
G1 X143.192 Y134.588 E.04861
G1 X142.174 Y135.249 E.02952
G1 X140.706 Y135.969 E.03977
G1 X138.79 Y136.568 E.04883
G1 X137.183 Y136.812 E.03954
G1 X101.479 Y136.812 E.86847
G1 X99.902 Y136.573 E.0388
G1 X98.705 Y136.245 E.03019
G1 X97.57 Y135.804 E.02962
G1 X96.488 Y135.249 E.02958
G1 X95.47 Y134.588 E.02952
G1 X94.55 Y133.844 E.02878
G1 X93.662 Y132.963 E.03043
G1 X92.899 Y132.021 E.02949
G1 X91.877 Y130.319 E.04829
G1 X91.409 Y129.213 E.02921
G1 X90.963 Y127.625 E.04012
G1 X90.786 Y126.422 E.02958
G1 X90.735 Y125.419 E.02443
G1 X90.782 Y111.153 E.34701
G1 X90.953 Y109.969 E.0291
G1 X91.256 Y108.783 E.02977
G1 X91.689 Y107.63 E.02996
G1 X92.226 Y106.566 E.02899
G1 X92.882 Y105.549 E.02944
G1 X93.794 Y104.434 E.03504
G1 X94.484 Y103.762 E.02343
G1 X94.742 Y104.021 F4800
G1 F1440
G1 X95.695 Y103.245 E.02989
G1 X96.682 Y102.605 E.02861
G1 X98.08 Y101.92 E.03787
G1 X99.963 Y101.331 E.04799
G1 X101.498 Y101.097 E.03777
G1 X136.364 Y101.056 E.84808
G1 X137.536 Y101.135 E.02857
G1 X138.699 Y101.331 E.02869
G1 X140.582 Y101.92 E.04799
G1 X141.98 Y102.605 E.03787
G1 X143.59 Y103.73 E.04778
G1 X144.45 Y104.528 E.02854
G1 X145.224 Y105.416 E.02865
G1 X146.104 Y106.719 E.03825
G1 X146.921 Y108.485 E.04733
G1 X147.346 Y110.009 E.03848
G1 X147.515 Y111.173 E.02861
G1 X147.563 Y112.146 E.0237
G1 X147.563 Y125.399 E.32237
G1 X147.515 Y126.371 E.02367
G1 X147.346 Y127.535 E.02861
G1 X146.921 Y129.059 E.03848
G1 X146.467 Y130.138 E.02847
G1 X145.897 Y131.17 E.02868
G1 X145.224 Y132.128 E.02848
G1 X144.45 Y133.016 E.02865
G1 X142.967 Y134.299 E.0477
G1 X141.981 Y134.939 E.02859
G1 X140.579 Y135.626 E.03798
G1 X138.699 Y136.213 E.04791
G1 X137.165 Y136.447 E.03774
G1 X102.298 Y136.488 E.84811
G1 X100.334 Y136.289 E.04802
G1 X99.19 Y136.014 E.02862
G1 X98.083 Y135.626 E.02853
G1 X97.017 Y135.125 E.02865
G1 X95.695 Y134.299 E.03792
G1 X94.78 Y133.561 E.02859
G1 X93.942 Y132.727 E.02876
G1 X93.202 Y131.816 E.02855
G1 X92.559 Y130.825 E.02873
G1 X91.741 Y129.059 E.04734
G1 X91.404 Y127.93 E.02866
G1 X91.147 Y126.371 E.03843
G1 X91.147 Y111.173 E.36968
G1 X91.317 Y110.009 E.02861
G1 X91.611 Y108.871 E.02859
G1 X92.029 Y107.766 E.02874
G1 X92.559 Y106.719 E.02854
G1 X93.202 Y105.728 E.02873
G1 X93.942 Y104.817 E.02855
G1 X94.699 Y104.063 E.02599
G1 X94.957 Y104.323 F4800
G1 F1440
G1 X95.92 Y103.534 E.03028
G1 X96.876 Y102.915 E.0277
G1 X98.207 Y102.263 E.03605
G1 X100.055 Y101.685 E.0471
G1 X101.516 Y101.462 E.03595
G1 X136.346 Y101.422 E.84721
G1 X137.481 Y101.496 E.02767
G1 X138.608 Y101.685 E.0278
G1 X140.456 Y102.263 E.0471
G1 X141.787 Y102.915 E.03605
G1 X143.366 Y104.019 E.04686
G1 X144.196 Y104.792 E.02759
G1 X144.945 Y105.652 E.02774
G1 X145.781 Y106.89 E.03634
G1 X146.582 Y108.621 E.04639
G1 X146.985 Y110.069 E.03656
G1 X147.197 Y112.146 E.05078
G1 X147.197 Y125.399 E.32237
G1 X146.985 Y127.476 E.05078
G1 X146.582 Y128.923 E.03654
G1 X146.144 Y129.967 E.02754
G1 X145.594 Y130.965 E.02772
G1 X144.945 Y131.893 E.02755
G1 X144.196 Y132.753 E.02774
G1 X142.743 Y134.011 E.04675
G1 X141.787 Y134.629 E.02769
G1 X140.453 Y135.283 E.03614
G1 X138.608 Y135.859 E.04701
G1 X137.146 Y136.082 E.03597
G1 X102.317 Y136.123 E.84718
G1 X100.389 Y135.928 E.04714
G1 X99.281 Y135.66 E.02773
G1 X98.21 Y135.283 E.02762
G1 X97.178 Y134.797 E.02775
G1 X95.92 Y134.011 E.03608
G1 X95.033 Y133.297 E.0277
G1 X94.222 Y132.492 E.02779
G1 X93.505 Y131.611 E.02763
G1 X92.882 Y130.654 E.02778
G1 X92.081 Y128.923 E.04639
G1 X91.756 Y127.832 E.02769
G1 X91.513 Y126.352 E.03648
G1 X91.513 Y111.193 E.36873
G1 X91.678 Y110.069 E.02763
G1 X91.963 Y108.969 E.02764
G1 X92.368 Y107.902 E.02776
G1 X92.882 Y106.89 E.02761
G1 X93.505 Y105.933 E.02778
G1 X94.222 Y105.053 E.02761
G1 X94.914 Y104.365 E.02374
; printing object NO_TXT_Kostka.stl id:0 copy 0
G1 E-3.5 F3600
;WIPE_START
G1 F3840
G1 X95.92 Y103.534 E-1.16212
G1 X96.238 Y103.328 E-.33788
;WIPE_END
G1 X102.36 Y121.72 F4800
G1 E5 F2400
;TYPE:Perimeter
;WIDTH:0.416731
G1 F1440
G1 X102.207 Y121.685 E.00399
G1 X102.146 Y121.448 E.00623
G1 X102.205 Y121.235 E.00562
G1 X102.307 Y121.185 E.00289
G1 X102.468 Y121.225 E.00422
G1 X102.528 Y121.419 E.00517
G1 X102.484 Y121.651 E.00601
G1 X102.412 Y121.691 E.0021
G1 X102.327 Y122.109 F4800
;TYPE:External perimeter
;WIDTH:0.399999
G1 F1440
G1 X102.076 Y122.057 E.00623
G1 X101.911 Y121.929 E.00508
G1 X101.848 Y121.804 E.0034
G1 X101.767 Y121.444 E.00898
G1 X101.796 Y121.269 E.00431
G1 X101.921 Y120.973 E.00782
G1 X102.085 Y120.845 E.00506
G1 X102.239 Y120.817 E.00381
G1 X102.477 Y120.825 E.00579
G1 X102.672 Y120.911 E.00518
G1 X102.82 Y121.088 E.00561
G1 X102.897 Y121.36 E.00688
G1 X102.872 Y121.725 E.0089
G1 X102.757 Y121.928 E.00568
G1 X102.583 Y122.056 E.00525
G1 X102.386 Y122.096 E.00489
G1 X102.199 Y121.886 F4800
G1 E-3.5 F3600
;WIPE_START
G1 F3840
G1 X102.076 Y122.057 E-.27827
G1 X101.911 Y121.929 E-.18599
G1 X101.848 Y121.804 E-.12467
G1 X101.767 Y121.444 E-.32864
G1 X101.796 Y121.269 E-.15798
G1 X101.921 Y120.973 E-.28617
G1 X102.043 Y120.877 E-.13828
;WIPE_END
G1 X102.425 Y116.347 F4800
G1 E5 F2400
;TYPE:Perimeter
;WIDTH:0.423212
G1 F1440
G1 X102.313 Y116.331 E.00293
G1 X102.204 Y115.952 E.0102
;WIDTH:0.425034
G1 X102.174 Y115.321 E.01642
G1 X102.184 Y114.833 E.01269
;WIDTH:0.408817
G1 X102.287 Y114.34 E.01255
G1 X102.407 Y114.277 E.00338
G1 X102.538 Y114.589 E.00843
G1 X102.555 Y114.857 E.00669
;WIDTH:0.423212
G1 X102.578 Y115.638 E.02021
G1 X102.498 Y116.193 E.01451
G1 X102.45 Y116.293 E.00287
G1 X102.376 Y116.745 F4800
;TYPE:External perimeter
;WIDTH:0.399999
G1 F1440
G1 X102.151 Y116.694 E.00561
G1 X102.067 Y116.618 E.00276
G1 X101.963 Y116.473 E.00434
G1 X101.83 Y116.013 E.01165
G1 X101.795 Y115.324 E.01678
G1 X101.819 Y114.77 E.01349
G1 X101.942 Y114.207 E.01402
G1 X102.128 Y113.963 E.00746
G1 X102.307 Y113.921 E.00447
G1 X102.56 Y113.927 E.00616
G1 X102.73 Y114.07 E.0054
G1 X102.914 Y114.544 E.01237
G1 X102.956 Y115.658 E.02712
G1 X102.871 Y116.246 E.01445
G1 X102.792 Y116.479 E.00598
G1 X102.602 Y116.693 E.00696
G1 X102.434 Y116.731 E.00419
G1 X102.252 Y116.55 F4800
G1 E-3.5 F3600
;WIPE_START
G1 F3840
G1 X102.151 Y116.694 E-.25419
G1 X102.067 Y116.618 E-.10089
G1 X101.963 Y116.473 E-.15892
G1 X101.83 Y116.013 E-.42647
G1 X101.798 Y115.386 E-.55953
;WIPE_END
G1 X115.481 Y115.784 F4800
G1 E5 F2400
;WIDTH:0.411867
G1 F1440
G1 X115.481 Y114.982 E.02014
G1 X116.027 Y114.982 E.01371
G1 X115.515 Y115.734 E.02285
G1 X115.481 Y115.384 F4800
G1 E-3.5 F3600
;WIPE_START
G1 F3840
G1 X115.481 Y114.982 E-.67043
G1 X116.027 Y114.982 E-.48628
G1 X115.81 Y115.301 E-.34329
;WIPE_END
G1 X109.827 Y114.58 F4800
G1 E5 F2400
;TYPE:Perimeter
;WIDTH:0.363575
G1 F1440
G1 X109.638 Y114.535 E.00426
;WIDTH:0.363456
G1 X109.568 Y114.42 E.00295
G1 X109.577 Y114.378 E.00094
G1 X109.668 Y114.271 E.00308
;WIDTH:0.363575
G1 X109.899 Y114.266 E.00506
G1 X110.022 Y114.335 E.00309
G1 X110.011 Y114.508 E.0038
G1 X109.882 Y114.558 E.00303
G1 X109.877 Y114.922 F4800
;TYPE:External perimeter
;WIDTH:0.399999
G1 F1440
G1 X109.645 Y114.91 E.00565
G1 X109.373 Y114.782 E.00731
G1 X109.258 Y114.622 E.00479
G1 X109.213 Y114.425 E.00492
G1 X109.233 Y114.324 E.0025
G1 X109.31 Y114.134 E.00499
G1 X109.451 Y113.997 E.00478
G1 X109.64 Y113.924 E.00493
G1 X109.95 Y113.923 E.00754
G1 X110.239 Y114.042 E.0076
G1 X110.35 Y114.196 E.00462
G1 X110.373 Y114.512 E.00771
G1 X110.289 Y114.715 E.00534
G1 X110.153 Y114.835 E.00441
G1 X109.935 Y114.907 E.00558
G1 X109.738 Y114.736 F4800
G1 X109.934 Y116.727
G1 F1440
G1 X109.616 Y116.721 E.00774
G1 X109.446 Y116.605 E.00501
G1 X109.386 Y116.392 E.00538
G1 X109.447 Y116.163 E.00576
G1 X109.616 Y116.037 E.00513
G1 X109.789 Y116.01 E.00426
G1 X110.04 Y116.066 E.00626
G1 X110.204 Y116.214 E.00537
G1 X110.224 Y116.459 E.00598
G1 X110.129 Y116.648 E.00515
G1 X109.99 Y116.705 E.00365
G1 X109.715 Y116.496 F4800
G1 E-3.5 F3600
;WIPE_START
G1 F3840
G1 X109.616 Y116.721 E-.3334
G1 X109.446 Y116.605 E-.1833
G1 X109.386 Y116.392 E-.19709
G1 X109.447 Y116.163 E-.21106
G1 X109.616 Y116.037 E-.18774
G1 X109.789 Y116.01 E-.15594
G1 X110.04 Y116.066 E-.22904
G1 X110.042 Y116.068 E-.00243
;WIPE_END
G1 X109.827 Y121.478 F4800
G1 E5 F2400
;TYPE:Perimeter
;WIDTH:0.363577
G1 F1440
G1 X109.638 Y121.433 E.00426
;WIDTH:0.363462
G1 X109.568 Y121.318 E.00295
G1 X109.577 Y121.276 E.00094
G1 X109.668 Y121.169 E.00308
;WIDTH:0.363577
G1 X109.899 Y121.164 E.00506
G1 X110.022 Y121.233 E.00309
G1 X110.011 Y121.406 E.0038
G1 X109.882 Y121.456 E.00303
G1 X109.885 Y121.821 F4800
;TYPE:External perimeter
;WIDTH:0.399999
G1 F1440
G1 X109.645 Y121.807 E.00585
G1 X109.373 Y121.68 E.0073
G1 X109.258 Y121.52 E.00479
G1 X109.213 Y121.323 E.00492
G1 X109.233 Y121.222 E.0025
G1 X109.31 Y121.031 E.00501
G1 X109.451 Y120.895 E.00477
G1 X109.64 Y120.822 E.00493
G1 X109.95 Y120.821 E.00754
G1 X110.239 Y120.94 E.0076
G1 X110.35 Y121.093 E.0046
G1 X110.373 Y121.41 E.00773
G1 X110.289 Y121.613 E.00534
G1 X110.153 Y121.733 E.00441
G1 X109.942 Y121.802 E.0054
G1 X109.74 Y121.629 F4800
G1 X109.934 Y123.625
G1 F1440
G1 X109.616 Y123.619 E.00774
G1 X109.446 Y123.503 E.00501
G1 X109.386 Y123.29 E.00538
G1 X109.447 Y123.06 E.00579
G1 X109.616 Y122.935 E.00511
G1 X109.789 Y122.908 E.00426
G1 X110.04 Y122.964 E.00626
G1 X110.204 Y123.111 E.00536
G1 X110.224 Y123.356 E.00598
G1 X110.129 Y123.545 E.00515
G1 X109.99 Y123.602 E.00365
G1 X109.715 Y123.394 F4800
G1 E-3.5 F3600
;WIPE_START
G1 F3840
G1 X109.616 Y123.619 E-.33344
G1 X109.446 Y123.503 E-.1833
G1 X109.386 Y123.29 E-.19709
G1 X109.447 Y123.06 E-.21193
G1 X109.616 Y122.935 E-.18721
G1 X109.789 Y122.908 E-.15594
G1 X110.04 Y122.964 E-.22904
G1 X110.042 Y122.966 E-.00205
;WIPE_END
G1 X115.481 Y122.681 F4800
G1 E5 F2400
;WIDTH:0.411865
G1 F1440
G1 X115.481 Y121.88 E.02012
G1 X116.027 Y121.88 E.01371
G1 X115.515 Y122.632 E.02285
G1 X115.481 Y122.281 F4800
G1 E-3.5 F3600
;WIPE_START
G1 F3840
G1 X115.481 Y121.88 E-.67043
G1 X116.027 Y121.88 E-.48628
G1 X115.81 Y122.199 E-.34329
;WIPE_END
G1 X128.794 Y123.269 F4800
G1 E5 F2400
;TYPE:Perimeter
;WIDTH:0.401482
G1 F1440
G1 X128.664 Y123.217 E.00342
G1 X128.589 Y122.972 E.00626
G1 X128.643 Y122.782 E.00482
;WIDTH:0.401131
G1 X128.762 Y122.713 E.00336
G1 X128.893 Y122.755 E.00336
G1 X128.962 Y122.953 E.00512
;WIDTH:0.401482
G1 X128.904 Y123.221 E.0067
G1 X128.849 Y123.245 E.00147
G1 X128.795 Y123.643 F4800
;TYPE:External perimeter
;WIDTH:0.399999
G1 F1440
G1 X128.546 Y123.592 E.00618
G1 X128.454 Y123.518 E.00287
G1 X128.307 Y123.328 E.00584
G1 X128.218 Y122.971 E.00895
G1 X128.245 Y122.808 E.00402
G1 X128.378 Y122.509 E.00796
G1 X128.552 Y122.38 E.00527
G1 X128.795 Y122.334 E.00602
G1 X129.004 Y122.378 E.0052
G1 X129.22 Y122.588 E.00733
G1 X129.308 Y122.802 E.00563
G1 X129.311 Y123.129 E.00795
G1 X129.201 Y123.455 E.00837
G1 X129.049 Y123.589 E.00493
G1 X128.854 Y123.631 E.00485
G1 X128.666 Y123.425 F4800
G1 E-3.5 F3600
;WIPE_START
G1 F3840
G1 X128.546 Y123.592 E-.2765
G1 X128.454 Y123.518 E-.10515
G1 X128.307 Y123.328 E-.21395
G1 X128.218 Y122.971 E-.32768
G1 X128.245 Y122.808 E-.14715
G1 X128.378 Y122.509 E-.29145
G1 X128.503 Y122.417 E-.13812
;WIPE_END
G1 X122.907 Y122.681 F4800
G1 E5 F2400
;WIDTH:0.411865
G1 F1440
G1 X122.907 Y121.88 E.02012
G1 X123.452 Y121.88 E.01369
G1 X122.941 Y122.632 E.02283
G1 X122.907 Y122.281 F4800
G1 E-3.5 F3600
;WIPE_START
G1 F3840
G1 X122.907 Y121.88 E-.67043
G1 X123.452 Y121.88 E-.48539
G1 X123.235 Y122.2 E-.34418
;WIPE_END
G1 X122.907 Y115.784 F4800
G1 E5 F2400
G1 F1440
G1 X122.907 Y114.982 E.02014
G1 X123.452 Y114.982 E.01369
G1 X122.941 Y115.734 E.02283
G1 X122.907 Y115.384 F4800
G1 E-3.5 F3600
;WIPE_START
G1 F3840
G1 X122.907 Y114.982 E-.67043
G1 X123.452 Y114.982 E-.48539
G1 X123.235 Y115.302 E-.34418
;WIPE_END
G1 X128.794 Y116.371 F4800
G1 E5 F2400
;TYPE:Perimeter
;WIDTH:0.401481
G1 F1440
G1 X128.664 Y116.319 E.00342
G1 X128.589 Y116.074 E.00626
G1 X128.643 Y115.884 E.00482
;WIDTH:0.401132
G1 X128.762 Y115.815 E.00336
G1 X128.893 Y115.857 E.00336
G1 X128.962 Y116.055 E.00512
;WIDTH:0.401481
G1 X128.904 Y116.323 E.0067
G1 X128.849 Y116.347 E.00147
G1 X128.795 Y116.745 F4800
;TYPE:External perimeter
;WIDTH:0.399999
G1 F1440
G1 X128.546 Y116.695 E.00618
G1 X128.454 Y116.621 E.00287
G1 X128.307 Y116.43 E.00586
G1 X128.218 Y116.073 E.00895
G1 X128.245 Y115.91 E.00402
G1 X128.378 Y115.611 E.00796
G1 X128.552 Y115.482 E.00527
G1 X128.795 Y115.436 E.00602
G1 X129.004 Y115.48 E.0052
G1 X129.22 Y115.69 E.00733
G1 X129.308 Y115.905 E.00565
G1 X129.311 Y116.232 E.00795
G1 X129.201 Y116.557 E.00835
G1 X129.049 Y116.691 E.00493
G1 X128.854 Y116.733 E.00485
G1 X128.666 Y116.527 F4800
G1 E-3.5 F3600
;WIPE_START
G1 F3840
G1 X128.546 Y116.695 E-.27639
G1 X128.454 Y116.621 E-.10515
G1 X128.307 Y116.43 E-.21466
G1 X128.218 Y116.073 E-.32768
G1 X128.245 Y115.91 E-.14715
G1 X128.378 Y115.611 E-.29145
G1 X128.502 Y115.519 E-.13752
;WIPE_END
G1 X128.54 Y118.748 F4800
G1 E5 F2400
;TYPE:Perimeter
;WIDTH:0.465458
G1 F1440
G1 X128.347 Y118.709 E.00565
;WIDTH:0.432729
G1 X128.017 Y118.643 E.00892
;WIDTH:0.399999
G1 X127.687 Y118.535 E.00845
G1 X127.234 Y118.295 E.01247
G1 X126.786 Y117.854 E.01529
G1 X126.586 Y117.613 E.00762
G1 X126.273 Y116.919 E.01852
G1 X126.112 Y116.233 E.01714
G1 X126.063 Y115.504 E.01777
;WIDTH:0.400878
G1 X126.085 Y114.869 E.01549
;WIDTH:0.442326
G1 X126.146 Y114.265 E.01648
G1 X126.317 Y113.709 E.01579
;WIDTH:0.399999
G1 X126.69 Y112.967 E.0202
G1 X126.86 Y112.742 E.00686
G1 X127.366 Y112.303 E.01629
G1 X127.729 Y112.112 E.00998
G1 X128.004 Y112.02 E.00705
G1 X128.614 Y111.919 E.01504
G1 X129.145 Y111.926 E.01292
G1 X129.912 Y112.133 E.01932
G1 X130.379 Y112.392 E.01299
G1 X130.728 Y112.712 E.01152
G1 X130.807 Y112.473 E.00612
G1 X131.04 Y112.182 E.00907
G1 X131.353 Y112.013 E.00865
G1 X131.743 Y111.972 E.00954
G1 X132.783 Y111.972 E.0253
G1 X133.126 Y112.039 E.0085
G1 X133.435 Y112.246 E.00905
G1 X133.616 Y112.51 E.00779
G1 X133.697 Y112.887 E.00938
G1 X133.698 Y113.526 E.01554
G1 X133.94 Y113.067 E.01262
