; generated by PrusaSlicer 2.6.0-alpha6+MacOS-x64 on 2023-04-27 at 22:48:07 UTC

; 

; external perimeters extrusion width = 0.40mm
; perimeters extrusion width = 0.40mm
; infill extrusion width = 0.40mm
; solid infill extrusion width = 0.40mm
; top infill extrusion width = 0.40mm
; first layer extrusion width = 0.40mm

;TYPE:Custom
; Ender 3 Custom Start G-code
G92 E0 ; Reset Extruder

M140 S50 ; set bed temp
M190 S50 ; wait for bed temp

G28 ; Home all axes
M104 S205 ; set extruder temp 
BED_MESH_CALIBRATE AREA_START=90.5815,100.533 AREA_END=148.081,137.011

G1 Z2.0 F3000 ; Move Z Axis up little to prevent scratching of Heat Bed
M109 S205 ; wait for extruder temp
G1 X0.1 Y20 Z0.3 F5000.0 ; Move to start position

G1 X0.1 Y200.0 Z0.3 F1500.0 E15 ; Draw the first line
G1 X0.4 Y200.0 Z0.3 F5000.0 ; Move to side a little
G1 X0.4 Y20 Z0.3 F1500.0 E30 ; Draw the second line
G92 E0 ; Reset Extruder
G1 Z2.0 F3000 ; Move Z Axis up little to prevent scratching of Heat Bed
G1 X5 Y20 Z0.3 F5000.0 ; Move over to prevent blob squish
G21 ; set units to millimeters
G90 ; use absolute coordinates
M83 ; use relative distances for extrusion
; Filament gcode
M107
;LAYER_CHANGE
;Z:0.2
;HEIGHT:0.2
TIMELAPSE_TAKE_FRAME
;BEFORE_LAYER_CHANGE
G92 E0
;0.2


G1 E-5 F3600
G1 Z.2 F4800
;AFTER_LAYER_CHANGE
;0.2
G1 X94.544 Y103.738
G1 E5 F2400
M204 S500
;TYPE:Skirt/Brim
;WIDTH:0.4
G1 F1440
G1 X95.486 Y102.977 E.03596
G1 X96.502 Y102.317 E.03597
G1 X97.962 Y101.601 E.04828
G1 X99.879 Y101.002 E.05963
G1 X101.481 Y100.758 E.04811
G1 X136.382 Y100.717 E1.03626
G1 X137.588 Y100.799 E.03589
G1 X138.784 Y101.002 E.03602
G1 X140.7 Y101.601 E.0596
G1 X142.161 Y102.317 E.04831
G1 X143.799 Y103.462 E.05934
G1 X144.685 Y104.283 E.03586
G1 X145.485 Y105.198 E.03609
G1 X146.404 Y106.56 E.04878
G1 X147.237 Y108.359 E.05886
G1 X147.681 Y109.954 E.04916
G1 X147.854 Y111.154 E.036
G1 X147.902 Y112.146 E.02949
G1 X147.902 Y125.399 E.3935
G1 X147.854 Y126.39 E.02946
G1 X147.681 Y127.591 E.03603
G1 X147.237 Y129.185 E.04913
G1 X146.768 Y130.297 E.03583
G1 X146.179 Y131.36 E.03608
G1 X145.485 Y132.347 E.03582
G1 X144.685 Y133.262 E.03609
G1 X143.176 Y134.567 E.05923
G1 X142.161 Y135.227 E.03595
G1 X140.697 Y135.945 E.04841
G1 X138.784 Y136.543 E.05951
G1 X137.182 Y136.787 E.04811
G1 X101.481 Y136.787 E1.06001
G1 X99.879 Y136.543 E.04811
G1 X98.714 Y136.221 E.03589
G1 X97.582 Y135.781 E.03606
G1 X96.502 Y135.227 E.03604
G1 X95.486 Y134.567 E.03597
G1 X94.544 Y133.806 E.03596
G1 X93.682 Y132.946 E.03615
G1 X92.921 Y132.006 E.03591
G1 X92.258 Y130.984 E.03617
G1 X91.425 Y129.185 E.05886
G1 X91.076 Y128.022 E.03605
G1 X90.808 Y126.39 E.04911
G1 X90.808 Y111.154 E.45238
G1 X90.981 Y109.954 E.036
G1 X91.283 Y108.779 E.03602
G1 X91.713 Y107.64 E.03615
G1 X92.258 Y106.56 E.03592
G1 X92.921 Y105.538 E.03617
G1 X93.682 Y104.598 E.03591
G1 X94.502 Y103.781 E.03437
G1 X94.754 Y104.034 F4800
G1 F1440
G1 X95.706 Y103.259 E.03645
G1 X96.691 Y102.62 E.03486
G1 X98.086 Y101.936 E.04613
G1 X99.968 Y101.348 E.05854
G1 X101.499 Y101.114 E.04599
G1 X136.364 Y101.074 E1.03519
G1 X137.534 Y101.152 E.03482
G1 X138.695 Y101.348 E.03496
G1 X140.576 Y101.936 E.05851
G1 X141.971 Y102.62 E.04613
G1 X143.58 Y103.744 E.05828
G1 X144.438 Y104.54 E.03475
G1 X145.211 Y105.427 E.03493
G1 X146.089 Y106.727 E.04658
G1 X146.905 Y108.492 E.05773
G1 X147.329 Y110.012 E.04685
G1 X147.498 Y111.174 E.03486
G1 X147.545 Y112.146 E.02889
G1 X147.545 Y125.399 E.3935
G1 X147.498 Y126.371 E.02889
G1 X147.329 Y127.533 E.03486
G1 X146.905 Y129.053 E.04685
G1 X146.452 Y130.13 E.03469
G1 X145.883 Y131.16 E.03494
G1 X145.211 Y132.117 E.03472
G1 X144.438 Y133.004 E.03493
G1 X142.957 Y134.286 E.05816
G1 X141.971 Y134.925 E.03489
G1 X140.573 Y135.61 E.04622
G1 X138.695 Y136.197 E.05842
G1 X137.164 Y136.43 E.04598
G1 X102.299 Y136.471 E1.03519
G1 X100.337 Y136.272 E.05855
G1 X99.194 Y135.997 E.03491
G1 X98.089 Y135.61 E.03476
G1 X97.025 Y135.11 E.03491
G1 X95.706 Y134.286 E.04618
G1 X94.792 Y133.549 E.03486
G1 X93.955 Y132.716 E.03506
G1 X93.217 Y131.806 E.03479
G1 X92.574 Y130.817 E.03503
G1 X91.757 Y129.053 E.05772
G1 X91.42 Y127.926 E.03493
G1 X91.165 Y126.371 E.04679
G1 X91.165 Y111.174 E.45122
G1 X91.334 Y110.012 E.03486
G1 X91.627 Y108.875 E.03486
G1 X92.045 Y107.772 E.03502
G1 X92.574 Y106.727 E.03478
G1 X93.217 Y105.738 E.03503
G1 X93.955 Y104.828 E.03479
G1 X94.711 Y104.076 E.03166
G1 X94.963 Y104.329 F4800
G1 F1440
G1 X95.925 Y103.541 E.03692
G1 X96.88 Y102.923 E.03377
G1 X98.21 Y102.271 E.04398
G1 X100.057 Y101.693 E.05746
G1 X101.517 Y101.471 E.04385
G1 X136.345 Y101.43 E1.03409
G1 X137.48 Y101.505 E.03377
G1 X138.606 Y101.693 E.0339
G1 X140.452 Y102.271 E.05743
G1 X141.782 Y102.923 E.04398
G1 X143.36 Y104.026 E.05716
G1 X144.19 Y104.798 E.03366
G1 X144.938 Y105.657 E.03382
G1 X145.773 Y106.894 E.04431
G1 X146.574 Y108.624 E.0566
G1 X146.976 Y110.07 E.04456
G1 X147.188 Y112.146 E.06196
G1 X147.188 Y125.399 E.3935
G1 X146.976 Y127.475 E.06196
G1 X146.574 Y128.92 E.04453
G1 X146.136 Y129.963 E.03359
G1 X145.587 Y130.96 E.03379
G1 X144.938 Y131.887 E.0336
G1 X144.19 Y132.747 E.03384
G1 X142.737 Y134.004 E.05704
G1 X141.782 Y134.622 E.03377
G1 X140.45 Y135.275 E.04405
G1 X138.606 Y135.851 E.05736
G1 X137.146 Y136.074 E.04385
G1 X102.317 Y136.114 E1.03412
G1 X100.391 Y135.919 E.05748
G1 X99.283 Y135.652 E.03384
G1 X98.213 Y135.275 E.03368
G1 X97.182 Y134.789 E.03384
G1 X95.925 Y134.004 E.044
G1 X95.039 Y133.291 E.03377
G1 X94.228 Y132.486 E.03393
G1 X93.512 Y131.606 E.03368
G1 X92.889 Y130.65 E.03388
G1 X92.089 Y128.92 E.05659
G1 X91.764 Y127.83 E.03377
G1 X91.521 Y126.351 E.0445
G1 X91.521 Y111.193 E.45006
G1 X91.686 Y110.07 E.0337
G1 X91.971 Y108.971 E.03371
G1 X92.376 Y107.905 E.03386
G1 X92.889 Y106.894 E.03366
G1 X93.512 Y105.938 E.03388
G1 X94.228 Y105.058 E.03368
G1 X94.92 Y104.371 E.02895
; printing object NO_TXT_Kostka.stl id:0 copy 0
G1 E-3.5 F3600
;WIPE_START
G1 F3840
G1 X95.925 Y103.541 E-1.16087
G1 X96.245 Y103.334 E-.33913
;WIPE_END
G1 X102.777 Y116.403 F4800
G1 E5 F2400
;TYPE:External perimeter
;WIDTH:0.417692
G1 F1440
G1 X102.785 Y116.265 E.00431
;WIDTH:0.424474
G1 X102.782 Y113.588 E.08493
G1 E-3.5 F3600
;WIPE_START
G1 F3840
G1 X102.782 Y113.594 E-.00534
G1 X102.784 Y115.272 E-1.49466
;WIPE_END
G1 X103.605 Y122.34 F4800
G1 E5 F2400
;WIDTH:0.47161
G1 F1440
G1 X103.598 Y121.231 E.03953
G1 E-3.5 F3600
;WIPE_START
G1 F3840
G1 X103.599 Y121.248 E-.01517
G1 X103.605 Y122.34 E-.97258
;WIPE_END
G1 E-.51225 F3600
G1 X128.9 Y124.004 F4800
G1 E5 F2400
;WIDTH:0.471122
G1 F1440
G1 X128.895 Y122.894 E.03952
G1 E-3.5 F3600
;WIPE_START
G1 F3840
G1 X128.9 Y124.004 E-.9886
;WIPE_END
G1 E-.5114 F3600
G1 X123.746 Y122.066 F4800
G1 E5 F2400
;WIDTH:0.460266
G1 F1440
G1 X123.694 Y122.066 E.0018
G1 X123.668 Y122.111 E.0018
G1 X123.694 Y122.156 E.0018
G1 X123.746 Y122.156 E.0018
G1 X123.772 Y122.111 E.0018
G1 E-3.5 F3600
;WIPE_START
G1 F3840
G1 X123.746 Y122.156 E-.04629
G1 X123.694 Y122.156 E-.04631
G1 X123.668 Y122.111 E-.04629
G1 X123.694 Y122.066 E-.04629
G1 X123.746 Y122.066 E-.04631
;WIPE_END
G1 E-1.26851 F3600
G1 X116.254 Y122.066 F4800
G1 E5 F2400
;WIDTH:0.460268
G1 F1440
G1 X116.202 Y122.066 E.0018
G1 X116.176 Y122.111 E.0018
G1 X116.202 Y122.156 E.0018
G1 X116.254 Y122.156 E.0018
G1 X116.28 Y122.111 E.0018
G1 E-3.5 F3600
;WIPE_START
G1 F3840
G1 X116.254 Y122.156 E-.04629
G1 X116.202 Y122.156 E-.04631
G1 X116.176 Y122.111 E-.04629
G1 X116.202 Y122.066 E-.04629
G1 X116.254 Y122.066 E-.04631
;WIPE_END
G1 E-1.26851 F3600
G1 X110.491 Y124.058 F4800
G1 E5 F2400
;WIDTH:0.403162
G1 F1440
G1 X110.488 Y123.541 E.01549
G1 X110.496 Y122.084 F4800
;WIDTH:0.440606
G1 F1440
G1 X110.494 Y121.129 E.03158
G1 E-3.5 F3600
;WIPE_START
G1 F3840
G1 X110.487 Y121.234 E-.09372
G1 X110.496 Y122.084 E-.75707
;WIPE_END
G1 E-.64921 F3600
G1 X110.491 Y116.374 F4800
G1 E5 F2400
;WIDTH:0.403164
G1 F1440
G1 X110.488 Y115.857 E.01549
G1 X110.496 Y114.4 F4800
;WIDTH:0.440606
G1 F1440
G1 X110.494 Y113.445 E.03158
G1 E-3.5 F3600
;WIPE_START
G1 F3840
G1 X110.487 Y113.55 E-.09372
G1 X110.496 Y114.4 E-.75707
;WIPE_END
G1 E-.64921 F3600
G1 X116.254 Y114.382 F4800
G1 E5 F2400
;WIDTH:0.460266
G1 F1440
G1 X116.202 Y114.382 E.0018
G1 X116.176 Y114.427 E.0018
G1 X116.202 Y114.472 E.0018
G1 X116.254 Y114.472 E.0018
G1 X116.28 Y114.427 E.0018
G1 E-3.5 F3600
;WIPE_START
G1 F3840
G1 X116.254 Y114.472 E-.04629
G1 X116.202 Y114.472 E-.04631
G1 X116.176 Y114.427 E-.04629
G1 X116.202 Y114.382 E-.04629
G1 X116.254 Y114.382 E-.04631
;WIPE_END
G1 E-1.26851 F3600
G1 X123.746 Y114.382 F4800
G1 E5 F2400
G1 F1440
G1 X123.694 Y114.382 E.0018
G1 X123.668 Y114.427 E.0018
G1 X123.694 Y114.472 E.0018
G1 X123.746 Y114.472 E.0018
G1 X123.772 Y114.427 E.0018
G1 E-3.5 F3600
;WIPE_START
G1 F3840
G1 X123.746 Y114.472 E-.04629
G1 X123.694 Y114.472 E-.04631
G1 X123.668 Y114.427 E-.04629
G1 X123.694 Y114.382 E-.04629
G1 X123.746 Y114.382 E-.04631
;WIPE_END
G1 E-1.26851 F3600
G1 X128.9 Y116.319 F4800
G1 E5 F2400
;WIDTH:0.471122
G1 F1440
G1 X128.895 Y115.21 E.03949
G1 E-3.5 F3600
;WIPE_START
G1 F3840
G1 X128.9 Y116.319 E-.98771
;WIPE_END
G1 E-.51229 F3600
G1 X135.726 Y114.941 F4800
G1 E5 F2400
;WIDTH:0.504398
G1 F1440
G1 X135.748 Y114.862 E.00315
;WIDTH:0.548213
G1 X135.77 Y114.783 E.00345
;WIDTH:0.592029
G1 X135.793 Y114.704 E.00376
;WIDTH:0.635844
G1 X135.815 Y114.625 E.00404
G1 X135.723 Y113.636 F4800
;WIDTH:0.46707
G1 F1440
G1 X135.731 Y114.362 E.02561
;WIDTH:0.509264
G1 X135.752 Y114.428 E.00269
;WIDTH:0.551457
G1 X135.773 Y114.493 E.00289
;WIDTH:0.593651
G1 X135.794 Y114.559 E.00317
;WIDTH:0.635844
G1 X135.815 Y114.625 E.00341
G1 X136.49 Y114.625 E.03328
;WIDTH:0.60674
G1 X137.165 Y114.625 E.03165
;WIDTH:0.579744
G1 X137.193 Y114.625 E.00125
G1 E-3.5 F3600
;WIPE_START
G1 F3840
G1 X137.165 Y114.625 E-.02494
G1 X136.49 Y114.625 E-.60117
G1 X135.815 Y114.625 E-.60117
G1 X135.794 Y114.559 E-.06169
G1 X135.773 Y114.493 E-.06169
G1 X135.752 Y114.428 E-.06084
G1 X135.731 Y114.362 E-.06169
G1 X135.731 Y114.332 E-.02681
;WIPE_END
G1 X135.729 Y116.279 F4800
G1 E5 F2400
;WIDTH:0.569386
G1 F1440
G1 X135.496 Y116.299 E.01024
;WIDTH:0.528965
G1 X135.262 Y116.319 E.00949
;WIDTH:0.524249
G1 X135.038 Y116.301 E.00899
;WIDTH:0.559954
G1 X134.815 Y116.284 E.00961
G1 E-3.5 F3600
;WIPE_START
G1 F3840
G1 X135.038 Y116.301 E-.19919
G1 X135.262 Y116.319 E-.20014
G1 X135.496 Y116.299 E-.20917
G1 X135.729 Y116.279 E-.20828
;WIPE_END
G1 E-.68322 F3600
G1 X135.723 Y121.32 F4800
G1 E5 F2400
;WIDTH:0.46707
G1 F1440
G1 X135.731 Y122.046 E.02561
;WIDTH:0.509264
G1 X135.752 Y122.112 E.00269
;WIDTH:0.551458
G1 X135.773 Y122.178 E.00293
;WIDTH:0.593652
G1 X135.794 Y122.243 E.00313
;WIDTH:0.635846
G1 X135.815 Y122.309 E.00341
G1 X136.49 Y122.309 E.03328
;WIDTH:0.606741
G1 X137.165 Y122.309 E.03165
;WIDTH:0.579744
G1 X137.193 Y122.309 E.00125
G1 X135.726 Y122.625 F4800
;WIDTH:0.504398
G1 F1440
G1 X135.748 Y122.546 E.00315
;WIDTH:0.548214
G1 X135.77 Y122.467 E.00345
;WIDTH:0.59203
G1 X135.793 Y122.388 E.00376
;WIDTH:0.635846
G1 X135.815 Y122.309 E.00404
G1 X135.729 Y123.963 F4800
;WIDTH:0.56939
G1 F1440
G1 X135.496 Y123.983 E.01024
;WIDTH:0.528968
G1 X135.262 Y124.003 E.00949
;WIDTH:0.524251
G1 X135.038 Y123.986 E.00899
;WIDTH:0.559956
G1 X134.815 Y123.968 E.00962
G1 E-3.5 F3600
;WIPE_START
G1 F3840
G1 X135.038 Y123.986 E-.19926
G1 X135.262 Y124.003 E-.20007
G1 X135.496 Y123.983 E-.20917
G1 X135.729 Y123.963 E-.20828
;WIPE_END
G1 E-.68322 F3600
G1 X128.896 Y121.285 F4800
G1 E5 F2400
;WIDTH:0.50961
G1 F1440
G1 X128.913 Y121.631 E.01344
G1 X129.073 Y121.638 E.00621
;WIDTH:0.46738
G1 X129.233 Y121.644 E.00565
;WIDTH:0.42515
G1 X129.393 Y121.65 E.00509
G1 E-3.5 F3600
;WIPE_START
G1 F3840
G1 X129.233 Y121.644 E-.1426
G1 X129.073 Y121.638 E-.1426
G1 X128.913 Y121.631 E-.14264
G1 X128.896 Y121.285 E-.30853
;WIPE_END
G1 E-.76363 F3600
G1 X130.487 Y119.939 F4800
G1 E5 F2400
;TYPE:Perimeter
;WIDTH:0.399999
G1 F1440
G1 X130.666 Y120.104 E.00723
G1 X130.715 Y119.77 E.01002
G1 X130.912 Y119.547 E.00883
G1 X131.199 Y119.464 E.00887
G1 X132.837 Y119.462 E.04863
G1 X133.111 Y119.537 E.00843
G1 X133.216 Y119.618 E.00394
G1 X133.338 Y119.806 E.00665
G1 X133.373 Y120.441 E.01888
;WIDTH:0.44525
G1 X133.396 Y120.523 E.00285
;WIDTH:0.490501
G1 X133.419 Y120.606 E.00321
;WIDTH:0.535752
G1 X133.441 Y120.689 E.00352
;WIDTH:0.581003
G1 X133.464 Y120.771 E.00381
;WIDTH:0.626254
G1 X133.487 Y120.854 E.00418
G1 X133.542 Y120.759 E.00532
;WIDTH:0.581003
G1 X133.598 Y120.665 E.0049
;WIDTH:0.535752
G1 X133.653 Y120.57 E.0045
;WIDTH:0.490501
G1 X133.709 Y120.475 E.0041
;WIDTH:0.44525
G1 X133.765 Y120.381 E.00366
;WIDTH:0.399999
G1 X134.04 Y119.994 E.0141
G1 X134.433 Y119.675 E.01503
G1 X134.908 Y119.471 E.01535
G1 X135.439 Y119.382 E.01599
G1 X136.206 Y119.415 E.02279
G1 X136.767 Y119.575 E.01732
G1 X137.196 Y119.837 E.01493
G1 X137.405 Y120.02 E.00825
G1 X137.695 Y120.442 E.0152
G1 X137.854 Y121.011 E.01754
G1 X137.848 Y121.783 E.02292
G1 X137.792 Y122.003 E.00674
G1 X137.628 Y122.316 E.01049
G1 X137.812 Y122.948 E.01954
G1 X137.872 Y123.514 E.0169
G1 X137.851 Y125.244 E.05137
G1 X137.771 Y125.518 E.00848
G1 X137.566 Y125.71 E.00834
G1 X137.313 Y125.772 E.00773
G1 X134.318 Y125.758 E.08893
G1 X134.075 Y125.699 E.00742
G1 X133.931 Y125.591 E.00534
G1 X133.826 Y125.43 E.00571
G1 X133.787 Y125.172 E.00775
G1 X133.796 Y124.901 E.00805
G1 X133.316 Y125.059 E.015
G1 X132.878 Y125.319 E.01512
G1 X132.477 Y125.71 E.01663
G1 X132.225 Y125.772 E.00771
G1 X131.198 Y125.771 E.03049
G1 X130.922 Y125.693 E.00852
G1 X130.819 Y125.612 E.00389
G1 X130.701 Y125.432 E.00639
G1 X130.665 Y125.118 E.00938
G1 X130.458 Y125.361 E.00948
G1 X130.033 Y125.635 E.01501
G1 X129.624 Y125.784 E.01292
G1 X129.047 Y125.856 E.01726
G1 X128.61 Y125.847 E.01298
G1 X128.051 Y125.737 E.01692
G1 X127.562 Y125.506 E.01606
G1 X127.153 Y125.135 E.0164
G1 X126.882 Y124.688 E.01552
G1 X126.744 Y124.211 E.01474
G1 X126.704 Y123.383 E.02461
G1 X126.708 Y121.61 E.05264
G1 X126.74 Y121.04 E.01695
G1 X126.885 Y120.541 E.01543
G1 X127.173 Y120.082 E.01609
G1 X127.551 Y119.744 E.01506
G1 X128.045 Y119.501 E.01635
G1 X128.608 Y119.385 E.01707
G1 X129.144 Y119.378 E.01592
G1 X129.732 Y119.48 E.01772
G1 X130.25 Y119.719 E.01694
G1 X130.443 Y119.898 E.00782
G1 X130.498 Y120.518 F4800
;TYPE:External perimeter
;WIDTH:0.429757
G1 F1440
G1 X130.638 Y120.837 E.01121
G1 X130.634 Y121.355 E.01666
;WIDTH:0.418523
G1 X130.457 Y121.654 E.01085
;WIDTH:0.399999
G1 X130.244 Y121.693 E.00643
G1 X129.393 Y121.65 E.0253
G1 X129.925 Y121.738 E.01601
G1 X130.226 Y121.962 E.01114
G1 X130.529 Y122.326 E.01406
;WIDTH:0.415762
G1 X130.675 Y122.82 E.01597
G1 X130.696 Y123.456 E.01973
;WIDTH:0.397869
G1 X130.685 Y124.094 E.01883
;WIDTH:0.399999
G1 X130.564 Y124.639 E.01658
G1 X130.251 Y125.07 E.01582
G1 X129.902 Y125.302 E.01244
G1 X129.564 Y125.432 E.01075
G1 X129.047 Y125.499 E.01548
G1 X128.67 Y125.495 E.01119
G1 X128.191 Y125.409 E.01445
G1 X127.787 Y125.229 E.01313
G1 X127.458 Y124.949 E.01283
G1 X127.187 Y124.503 E.0155
G1 X127.087 Y124.096 E.01244
G1 X127.061 Y123.37 E.02157
G1 X127.065 Y121.611 E.05223
G1 X127.106 Y121.044 E.01688
G1 X127.188 Y120.731 E.00961
G1 X127.476 Y120.271 E.01611
G1 X127.854 Y119.968 E.01438
G1 X128.253 Y119.806 E.01279
G1 X128.72 Y119.731 E.01404
G1 X129.198 Y119.738 E.01419
G1 X129.709 Y119.846 E.01551
G1 X130.137 Y120.073 E.01438
G1 X130.451 Y120.411 E.0137
;WIDTH:0.429757
G1 X130.473 Y120.463 E.00182
G1 X131.039 Y121.472 F4800
;WIDTH:0.425088
G1 F1440
G1 X131.027 Y120.681 E.02514
;WIDTH:0.419182
G1 X131.023 Y120.102 E.01812
;WIDTH:0.399999
G1 X131.021 Y120.003 E.00294
G1 X131.071 Y119.874 E.00411
G1 X131.199 Y119.821 E.00411
G1 X132.838 Y119.819 E.04866
G1 X132.964 Y119.871 E.00405
G1 X133.016 Y119.998 E.00407
G1 X133.016 Y122.786 E.08278
G1 X133.054 Y123.284 E.01483
G1 X133.632 Y123.338 E.01724
;WIDTH:0.402079
G1 X133.778 Y123.437 E.00527
G1 X133.803 Y124.081 E.01925
;WIDTH:0.431816
G1 X133.798 Y124.488 E.01316
G1 X133.437 Y124.643 E.0127
;WIDTH:0.399999
G1 X132.947 Y124.844 E.01573
G1 X132.64 Y125.051 E.01099
G1 X132.285 Y125.405 E.01489
G1 X131.346 Y125.414 E.02788
