; generated by PrusaSlicer 2.6.0-alpha6+MacOS-x64 on 2023-04-18 at 18:04:07 UTC

; 

; external perimeters extrusion width = 0.40mm
; perimeters extrusion width = 0.40mm
; infill extrusion width = 0.40mm
; solid infill extrusion width = 0.40mm
; top infill extrusion width = 0.40mm
; support material extrusion width = 0.36mm
; first layer extrusion width = 0.40mm

;TYPE:Custom
; Ender 3 Custom Start G-code
G92 E0 ; Reset Extruder

M140 S50 ; set bed temp
M190 S50 ; wait for bed temp

G28 ; Home all axes
M104 S210 ; set extruder temp 
BED_MESH_CALIBRATE AREA_START=105.376,95.7239 AREA_END=127.976,135.276

G1 Z2.0 F3000 ; Move Z Axis up little to prevent scratching of Heat Bed
M109 S210 ; wait for extruder temp
G1 X0.1 Y20 Z0.3 F5000.0 ; Move to start position

G1 X0.1 Y200.0 Z0.3 F1500.0 E15 ; Draw the first line
G1 X0.4 Y200.0 Z0.3 F5000.0 ; Move to side a little
G1 X0.4 Y20 Z0.3 F1500.0 E30 ; Draw the second line
G92 E0 ; Reset Extruder
G1 Z2.0 F3000 ; Move Z Axis up little to prevent scratching of Heat Bed
G1 X5 Y20 Z0.3 F5000.0 ; Move over to prevent blob squish
G21 ; set units to millimeters
G90 ; use absolute coordinates
M83 ; use relative distances for extrusion
; Filament gcode
M107
;LAYER_CHANGE
;Z:0.2
;HEIGHT:0.2
TIMELAPSE_TAKE_FRAME
;BEFORE_LAYER_CHANGE
G92 E0
;0.2


G1 E-5 F3600
G1 Z.2 F4800
;AFTER_LAYER_CHANGE
;0.2
G1 X107.841 Y98.621
G1 E5 F2400
M204 S500
;TYPE:Skirt/Brim
;WIDTH:0.4
G1 F1440
G1 X109.158 Y97.304 E.0553
G1 X110.785 Y96.236 E.05779
G1 X112.542 Y95.902 E.0531
G1 X121.093 Y95.902 E.25389
G1 X122.998 Y96.298 E.05777
G1 X124.476 Y97.304 E.05308
G1 X125.793 Y98.621 E.0553
G1 X126.861 Y100.249 E.05781
G1 X127.164 Y101.462 E.03712
G1 X127.784 Y106.894 E.16233
G1 X127.798 Y107.84 E.02809
G1 X125.861 Y130.716 E.68165
G1 X125.306 Y132.581 E.05777
G1 X124.054 Y134.072 E.05781
G1 X122.312 Y134.94 E.05779
G1 X121.093 Y135.098 E.0365
G1 X112.542 Y135.098 E.25389
G1 X110.636 Y134.702 E.0578
G1 X109.045 Y133.58 E.0578
G1 X108.033 Y131.917 E.0578
G1 X107.779 Y130.776 E.03471
G1 X105.554 Y107.947 E.68103
G1 X105.596 Y106.701 E.03702
G1 X106.503 Y101.223 E.16486
G1 X107.205 Y99.407 E.05781
G1 X107.803 Y98.668 E.02823
G1 X108.093 Y98.874 F4800
G1 F1440
G1 X109.41 Y97.557 E.0553
G1 X110.983 Y96.543 E.05557
G1 X112.542 Y96.26 E.04705
G1 X121.093 Y96.26 E.25389
G1 X122.922 Y96.655 E.05556
G1 X124.224 Y97.557 E.04703
G1 X125.541 Y98.874 E.0553
G1 X126.555 Y100.447 E.05557
G1 X126.809 Y101.503 E.03225
G1 X127.43 Y106.934 E.1623
G1 X127.442 Y107.81 E.02601
G1 X125.505 Y130.686 E.68165
G1 X124.957 Y132.475 E.05555
G1 X123.718 Y133.878 E.05558
G1 X121.093 Y134.74 E.08203
G1 X112.542 Y134.74 E.25389
G1 X110.712 Y134.345 E.05559
G1 X109.21 Y133.229 E.05556
G1 X108.134 Y130.742 E.08046
G1 X105.909 Y107.912 E.68106
G1 X105.948 Y106.759 E.03425
G1 X106.856 Y101.281 E.16487
G1 X108.066 Y98.927 E.07859
G1 X108.346 Y99.126 F4800
G1 F1440
G1 X109.663 Y97.809 E.0553
G1 X111.179 Y96.851 E.05325
G1 X112.542 Y96.617 E.04106
G1 X121.093 Y96.617 E.25389
G1 X122.842 Y97.012 E.05324
G1 X123.971 Y97.809 E.04103
G1 X125.288 Y99.126 E.0553
G1 X126.246 Y100.643 E.05327
G1 X126.455 Y101.543 E.02743
G1 X127.075 Y106.975 E.16233
G1 X127.087 Y107.78 E.0239
G1 X125.149 Y130.656 E.68165
G1 X124.608 Y132.366 E.05325
G1 X123.384 Y133.677 E.05325
G1 X121.093 Y134.383 E.07118
G1 X112.542 Y134.383 E.25389
G1 X110.792 Y133.988 E.05327
G1 X109.382 Y132.88 E.05324
G1 X108.49 Y130.707 E.06974
G1 X106.265 Y107.878 E.68103
G1 X106.3 Y106.817 E.03152
G1 X107.208 Y101.339 E.16487
G1 X108.318 Y99.179 E.07211
G1 X108.598 Y99.379 F4800
G1 F1440
G1 X109.915 Y98.062 E.0553
G1 X111.372 Y97.163 E.05083
G1 X112.542 Y96.974 E.03519
G1 X121.093 Y96.974 E.25389
G1 X122.759 Y97.368 E.05083
G1 X123.719 Y98.062 E.03517
G1 X125.036 Y99.379 E.0553
G1 X126.1 Y101.584 E.07269
G1 X126.72 Y107.015 E.1623
G1 X126.731 Y107.75 E.02183
G1 X124.794 Y130.626 E.68165
G1 X124.26 Y132.252 E.05081
G1 X123.053 Y133.467 E.05085
G1 X121.093 Y134.026 E.06052
G1 X112.542 Y134.026 E.25389
G1 X110.876 Y133.632 E.05083
G1 X109.564 Y132.532 E.05083
G1 X108.845 Y130.672 E.05921
G1 X106.62 Y107.843 E.68103
G1 X106.653 Y106.876 E.02873
G1 X107.56 Y101.398 E.16486
G1 X108.571 Y99.432 E.06564
G1 X108.851 Y99.631 F4800
G1 F1440
G1 X110.168 Y98.314 E.0553
G1 X111.562 Y97.477 E.04828
G1 X112.542 Y97.331 E.02942
G1 X121.093 Y97.331 E.25389
G1 X122.671 Y97.725 E.04829
G1 X123.466 Y98.314 E.02938
G1 X124.784 Y99.631 E.05532
G1 X125.745 Y101.624 E.06569
G1 X126.365 Y107.056 E.16233
G1 X126.375 Y107.72 E.01972
G1 X124.438 Y130.595 E.68162
G1 X123.912 Y132.135 E.04832
G1 X122.724 Y133.246 E.04829
G1 X121.093 Y133.669 E.05003
G1 X112.542 Y133.669 E.25389
G1 X110.963 Y133.275 E.04832
G1 X109.756 Y132.186 E.04827
G1 X109.2 Y130.638 E.04884
G1 X106.976 Y107.809 E.68103
G1 X107.005 Y106.934 E.02599
G1 X107.913 Y101.456 E.16487
G1 X108.823 Y99.684 E.05915
; printing object OLD_VERSION_READ_DESCRIPTION_pikachu_1gen_flowalistik.STL id:0 copy 0
G1 E-3.5 F3600
;WIPE_START
G1 F3840
G1 X110.003 Y98.482 E-1.5
;WIPE_END
G1 X114.31 Y108.13 F4800
G1 E5 F2400
;TYPE:Support material interface
;WIDTH:0.36
G1 F1440
G1 X114.279 Y108.135 E.00083
G1 X114.183 Y108.053 E.00333
G1 X114.183 Y107.598 E.012
G1 X114.466 Y107.598 E.00746
G1 X114.466 Y108.102 E.01329
G1 X114.83 Y108.039 E.00974
G1 X114.983 Y108.051 E.00405
G1 X114.983 Y107.598 E.01194
G1 X115.5 Y107.598 E.01363
G1 X115.5 Y108.126 E.01392
G1 X116.017 Y108.202 E.01378
G1 X116.017 Y107.598 E.01592
G1 X116.534 Y107.598 E.01363
G1 X116.534 Y108.277 E.0179
G1 X116.676 Y108.298 E.00378
G1 X117.051 Y108.24 E.01
G1 X117.051 Y107.598 E.01693
G1 X117.568 Y107.598 E.01363
G1 X117.568 Y108.162 E.01487
G1 X118.085 Y108.083 E.01379
G1 X118.085 Y107.598 E.01279
G1 X118.602 Y107.598 E.01363
G1 X118.602 Y108.04 E.01165
G1 X119.072 Y108.118 E.01256
G1 X119.12 Y108.077 E.00166
G1 X119.12 Y107.598 E.01263
G1 X119.451 Y107.598 E.00873
G1 X119.451 Y107.791 E.00509
G1 X119.24 Y107.974 E.00736
G1 E-3.5 F3600
;WIPE_START
G1 F3840
G1 X119.451 Y107.791 E-.24875
G1 X119.451 Y107.598 E-.17189
G1 X119.12 Y107.598 E-.2948
G1 X119.12 Y108.077 E-.42661
G1 X119.072 Y108.118 E-.05622
G1 X118.738 Y108.063 E-.30173
;WIPE_END
G1 X121.093 Y102.005 F4800
G1 E5 F2400
;TYPE:Support material
;WIDTH:0.4
G1 F1440
G1 X122.41 Y102.005 E.0391
G1 X122.41 Y106.437 E.13159
G1 X122.209 Y106.441 E.00597
G1 X122.189 Y106.324 E.00352
G1 X122.129 Y106.207 E.0039
G1 X121.915 Y105.984 E.00918
G1 X121.569 Y105.965 E.01029
G1 X120.569 Y106.801 E.0387
G1 X120.442 Y106.883 E.00449
G1 X119.81 Y107.428 E.02478
G1 X119.81 Y107.239 E.00561
G1 X113.824 Y107.239 E.17773
G1 X113.824 Y107.695 E.01354
G1 X112.9 Y106.91 E.036
G1 X112.772 Y106.83 E.00448
G1 X111.767 Y106.001 E.03868
G1 X111.42 Y106.022 E.01032
G1 X111.224 Y106.23 E.00849
G1 X111.224 Y102.005 E.12545
G1 X112.542 Y102.005 E.03913
G1 X112.542 Y100.688 E.0391
G1 X121.093 Y100.688 E.25389
G1 X121.093 Y101.951 E.0375
G1 X121.848 Y105.82 F4800
G1 F1440
G1 X121.848 Y102.326 E.10374
G1 X121.451 Y102.326 E.01179
G1 X121.451 Y105.645 E.09855
G1 X121.055 Y105.977 E.01534
G1 X121.055 Y102.326 E.1084
G1 X120.771 Y102.326 E.00843
G1 X120.771 Y101.009 E.0391
G1 X120.658 Y101.009 E.00336
G1 X120.658 Y106.308 E.15733
G1 X120.381 Y106.54 E.01073
G1 X120.261 Y106.617 E.00423
G1 X120.261 Y101.009 E.16651
G1 X119.864 Y101.009 E.01179
G1 X119.864 Y106.918 E.17545
G1 X119.468 Y106.918 E.01176
G1 X119.468 Y101.009 E.17545
G1 X119.071 Y101.009 E.01179
G1 X119.071 Y106.918 E.17545
G1 X118.674 Y106.918 E.01179
G1 X118.674 Y101.009 E.17545
G1 X118.277 Y101.009 E.01179
G1 X118.277 Y106.918 E.17545
G1 X117.881 Y106.918 E.01176
G1 X117.881 Y101.009 E.17545
G1 X117.484 Y101.009 E.01179
G1 X117.484 Y106.918 E.17545
G1 X117.087 Y106.918 E.01179
G1 X117.087 Y101.009 E.17545
G1 X116.69 Y101.009 E.01179
G1 X116.69 Y106.918 E.17545
G1 X116.294 Y106.918 E.01176
G1 X116.294 Y101.009 E.17545
G1 X115.897 Y101.009 E.01179
G1 X115.897 Y106.918 E.17545
G1 X115.5 Y106.918 E.01179
G1 X115.5 Y101.009 E.17545
G1 X115.103 Y101.009 E.01179
G1 X115.103 Y106.918 E.17545
G1 X114.706 Y106.918 E.01179
G1 X114.706 Y101.009 E.17545
G1 X114.31 Y101.009 E.01176
G1 X114.31 Y106.918 E.17545
G1 X113.913 Y106.918 E.01179
G1 X113.913 Y101.009 E.17545
G1 X113.516 Y101.009 E.01179
G1 X113.516 Y106.918 E.17545
G1 X113.503 Y106.918 E.00039
G1 X113.503 Y107 E.00243
G1 X113.119 Y106.675 E.01494
G1 X113.119 Y101.009 E.16823
G1 X112.863 Y101.009 E.0076
G1 X112.863 Y102.326 E.0391
G1 X112.723 Y102.326 E.00416
G1 X112.723 Y106.372 E.12013
G1 X112.326 Y106.045 E.01527
G1 X112.326 Y102.326 E.11042
G1 X111.929 Y102.326 E.01179
G1 X111.929 Y105.927 E.10692
G1 E-3.5 F3600
;WIPE_START
G1 F3840
G1 X111.929 Y104.243 E-1.5
;WIPE_END
G1 X115.836 Y121.873 F4800
G1 E5 F2400
G1 F1440
G1 X116.083 Y122.1 E.00996
G1 X116.729 Y122.11 E.01918
G1 X117.371 Y122.096 E.01907
G1 X117.616 Y121.867 E.00996
G1 X117.864 Y119.127 E.08169
G1 X121.093 Y119.127 E.09587
G1 X121.093 Y130.312 E.3321
G1 X112.542 Y130.312 E.25389
G1 X112.542 Y119.127 E.3321
G1 X115.567 Y119.127 E.08982
G1 X115.831 Y121.82 E.08034
G1 X120.658 Y130.151 F4800
G1 F1440
G1 X120.658 Y119.448 E.31779
G1 X120.261 Y119.448 E.01179
G1 X120.261 Y129.991 E.31304
G1 X119.864 Y129.991 E.01179
G1 X119.864 Y119.448 E.31304
G1 X119.468 Y119.448 E.01176
G1 X119.468 Y129.991 E.31304
G1 X119.071 Y129.991 E.01179
G1 X119.071 Y119.448 E.31304
G1 X118.674 Y119.448 E.01179
G1 X118.674 Y129.991 E.31304
G1 X118.277 Y129.991 E.01179
G1 X118.277 Y119.448 E.31304
G1 X118.158 Y119.448 E.00353
G1 X117.924 Y122.018 E.07662
G1 X117.881 Y122.059 E.00176
G1 X117.881 Y129.991 E.23551
G1 X117.484 Y129.991 E.01179
G1 X117.484 Y122.414 E.22497
G1 X117.087 Y122.424 E.01179
G1 X117.087 Y129.991 E.22467
G1 X116.69 Y129.991 E.01179
G1 X116.69 Y122.432 E.22444
G1 X116.294 Y122.425 E.01176
G1 X116.294 Y129.991 E.22464
G1 X115.897 Y129.991 E.01179
G1 X115.897 Y122.366 E.2264
G1 X115.528 Y122.026 E.0149
G1 X115.5 Y121.737 E.00862
G1 X115.5 Y129.991 E.24507
G1 X115.103 Y129.991 E.01179
G1 X115.103 Y119.448 E.31304
G1 X114.706 Y119.448 E.01179
G1 X114.706 Y129.991 E.31304
G1 X114.31 Y129.991 E.01176
G1 X114.31 Y119.448 E.31304
G1 X113.913 Y119.448 E.01179
G1 X113.913 Y129.991 E.31304
G1 X113.516 Y129.991 E.01179
G1 X113.516 Y119.448 E.31304
G1 X113.119 Y119.448 E.01179
G1 X113.119 Y130.151 E.31779
G1 E-3.5 F3600
;WIPE_START
G1 F3840
G1 X113.119 Y128.467 E-1.5
;WIPE_END
G1 X116.704 Y115.959 F4800
G1 E5 F2400
;TYPE:Perimeter
;WIDTH:0.375461
G1 F1440
G1 X116.532 Y114.208 E.04865
;WIDTH:0.422176
G1 X116.614 Y113.994 E.00723
;WIDTH:0.46889
G1 X116.696 Y113.78 E.00812
G1 X116.783 Y113.963 E.00718
;WIDTH:0.422176
G1 X116.869 Y114.145 E.00635
;WIDTH:0.375461
G1 X116.71 Y115.899 E.0487
G1 E-3.5 F3600
;WIPE_START
G1 F3840
G1 X116.534 Y114.224 E-1.5
;WIPE_END
G1 X116.696 Y113.618 F4800
G1 E5 F2400
;WIDTH:0.468886
G1 F1440
G1 X116.613 Y113.425 E.00744
;WIDTH:0.434443
G1 X116.531 Y113.232 E.00683
;WIDTH:0.399999
G1 X116.344 Y113.017 E.00846
G1 X116.21 Y112.924 E.00484
G1 X113.991 Y111.677 E.07558
G1 X113.909 Y111.596 E.00342
G1 X111.768 Y107.951 E.12551
G1 X111.787 Y107.931 E.00082
G1 X112.035 Y108.083 E.00864
G1 X113.723 Y109.516 E.06574
G1 X114.092 Y109.704 E.0123
G1 X114.585 Y109.692 E.01464
G1 X116.551 Y109.978 E.05899
G1 X116.814 Y109.977 E.00781
G1 X118.646 Y109.698 E.05502
G1 X119.27 Y109.686 E.01853
G1 X119.638 Y109.496 E.0123
G1 X121.311 Y108.053 E.0656
G1 X121.524 Y107.899 E.0078
G1 X121.582 Y107.915 E.00179
G1 X119.452 Y111.62 E.12689
G1 X117.043 Y113.014 E.08264
G1 X116.858 Y113.231 E.00847
;WIDTH:0.434443
G1 X116.777 Y113.424 E.00681
;WIDTH:0.468886
G1 X116.719 Y113.563 E.00533
G1 E-3.5 F3600
;WIPE_START
G1 F3840
G1 X116.613 Y113.425 E-.15498
G1 X116.531 Y113.232 E-.18676
G1 X116.344 Y113.017 E-.25378
G1 X116.21 Y112.924 E-.14527
G1 X115.467 Y112.506 E-.75921
;WIPE_END
G1 X116.718 Y119.623 F4800
G1 E5 F2400
;WIDTH:0.399999
G1 F1440
G1 X116.171 Y114.054 E.16615
G1 X116.246 Y113.953 E.00374
G1 X116.306 Y113.747 E.00637
G1 X116.228 Y113.42 E.00998
G1 X116.035 Y113.236 E.00792
G1 X113.644 Y111.892 E.08144
G1 X113.601 Y111.777 E.00365
G1 X111.307 Y107.871 E.1345
G1 X111.467 Y107.772 E.00559
G1 X111.525 Y107.603 E.00531
G1 X111.722 Y107.573 E.00592
G1 X111.821 Y107.467 E.00431
G1 X112.244 Y107.792 E.01584
G1 X113.954 Y109.244 E.06661
G1 X114.176 Y109.356 E.00738
G1 X114.58 Y109.331 E.01202
G1 X116.602 Y109.625 E.06067
G1 X116.76 Y109.624 E.00469
G1 X118.592 Y109.345 E.05502
G1 X119.184 Y109.339 E.01758
G1 X119.405 Y109.225 E.00738
G1 X121.105 Y107.76 E.06663
G1 X121.525 Y107.432 E.01582
G1 X121.626 Y107.537 E.00433
G1 X121.797 Y107.548 E.00509
G1 X121.878 Y107.727 E.00583
G1 X122.043 Y107.832 E.00581
G1 X119.973 Y111.416 E.12289
G1 X119.735 Y111.87 E.01522
G1 X117.354 Y113.231 E.08143
G1 X117.163 Y113.417 E.00792
G1 X117.086 Y113.651 E.00731
G1 X117.148 Y113.949 E.00904
G1 X117.224 Y114.05 E.00375
G1 X116.723 Y119.563 E.16436
G1 X116.53 Y121.364 F4800
;TYPE:External perimeter
G1 F1440
G1 X115.799 Y113.926 E.22191
G1 X115.897 Y113.83 E.00407
G1 X115.95 Y113.686 E.00456
G1 X115.86 Y113.547 E.00492
G1 X113.336 Y112.128 E.08597
G1 X113.293 Y111.958 E.00521
G1 X110.793 Y107.702 E.14655
G1 X111.003 Y107.694 E.00624
G1 X111.153 Y107.601 E.00524
G1 X111.225 Y107.226 E.01134
G1 X111.604 Y107.228 E.01125
G1 X111.781 Y107.079 E.00687
G1 X111.797 Y106.985 E.00283
G1 X112.453 Y107.502 E.0248
G1 X114.185 Y108.972 E.06745
G1 X114.259 Y109.009 E.00246
G1 X114.575 Y108.969 E.00946
G1 X116.706 Y109.271 E.0639
G1 X118.782 Y108.955 E.06235
G1 X119.026 Y108.995 E.00734
G1 X119.172 Y108.955 E.00449
G1 X120.845 Y107.513 E.06558
G1 X121.013 Y107.395 E.0061
G1 X121.546 Y106.949 E.02063
G1 X121.562 Y107.044 E.00286
G1 X121.701 Y107.188 E.00594
G1 X122.117 Y107.184 E.01235
G1 X122.178 Y107.52 E.01014
G1 X122.345 Y107.653 E.00634
G1 X122.555 Y107.659 E.00624
G1 X120.087 Y111.933 E.14654
G1 X120.044 Y112.104 E.00524
G1 X117.531 Y113.541 E.08595
G1 X117.442 Y113.681 E.00493
G1 X117.462 Y113.78 E.003
G1 X117.594 Y113.92 E.00571
G1 X116.918 Y121.363 E.2219
G1 X116.59 Y121.364 E.00974
G1 X116.523 Y120.964 F4800
G1 E-3.5 F3600
;WIPE_START
G1 F3840
G1 X116.412 Y119.689 E-1.5
;WIPE_END
G1 X116.696 Y113.78 F4800
G1 E5 F2400
;TYPE:Perimeter
;WIDTH:0.46889
G1 F1440
G1 X116.696 Y113.618 E.00574
G1 E-3.5 F3600
;WIPE_START
G1 F3840
G1 X116.696 Y113.78 E-.14428
;WIPE_END
G1 E-1.35572 F3600
G1 X120.545 Y109.483 F4800
G1 E5 F2400
;TYPE:Solid infill
;WIDTH:0.412793
G1 F1440
G1 X120.327 Y109.265 E.00948
G1 X120.046 Y109.507 E.01141
G1 X120.236 Y109.697 E.00826
G1 X120.044 Y110.029 E.0118
G1 X119.755 Y109.739 E.01259
G1 X119.41 Y109.918 E.01195
G1 X119.853 Y110.361 E.01927
G1 X119.662 Y110.692 E.01175
G1 X118.943 Y109.973 E.03127
G1 X118.775 Y109.956 E.00519
G1 X118.45 Y110.004 E.0101
G1 X119.471 Y111.024 E.04439
G1 X119.279 Y111.356 E.0118
G1 X117.994 Y110.071 E.05589
G1 X117.538 Y110.138 E.01417
G1 X118.976 Y111.576 E.06254
G1 X118.643 Y111.766 E.01179
G1 X117.082 Y110.205 E.06789
G1 X116.683 Y110.264 E.0124
G1 X116.607 Y110.253 E.00236
G1 X118.31 Y111.956 E.07407
G1 X117.977 Y112.146 E.01179
G1 X115.999 Y110.168 E.08603
G1 X115.391 Y110.083 E.01888
G1 X117.644 Y112.337 E.09801
G1 X117.312 Y112.527 E.01176
G1 X114.782 Y109.998 E.11002
G1 X114.589 Y109.971 E.00599
G1 X114.473 Y109.991 E.00362
G1 X114.243 Y109.981 E.00708
G1 X116.983 Y112.721 E.11917
G1 X116.862 Y112.806 E.00455
G1 X116.716 Y112.977 E.00692
G1 X113.01 Y109.272 E.16117
G1 X112.756 Y109.056 E.01025
G1 X112.742 Y109.067 E.00055
G1 X113.393 Y110.178 E.0396
G1 X115.751 Y112.535 E.10254
; stop printing object OLD_VERSION_READ_DESCRIPTION_pikachu_1gen_flowalistik.STL id:0 copy 0
M106 S255
;LAYER_CHANGE
;Z:0.4
;HEIGHT:0.2
TIMELAPSE_TAKE_FRAME
;BEFORE_LAYER_CHANGE
G92 E0
;0.4


G1 E-3.5 F3600
;WIPE_START
G1 F3840
G1 X114.56 Y111.344 E-1.5
;WIPE_END
G1 Z.4 F4800
;AFTER_LAYER_CHANGE
;0.4
; printing object OLD_VERSION_READ_DESCRIPTION_pikachu_1gen_flowalistik.STL id:0 copy 0
G1 X116.708 Y117.073
G1 E5 F2400
;TYPE:Perimeter
;WIDTH:0.501879
G1 F900
G1 X116.462 Y114.563 E.09625
G1 X116.513 Y114.503 E.00301
;WIDTH:0.526456
