; generated by PrusaSlicer 2.7.1+win64 on 2024-01-29 at 11:12:16 UTC

; 

; external perimeters extrusion width = 0.42mm
; perimeters extrusion width = 0.44mm
; infill extrusion width = 0.44mm
; solid infill extrusion width = 0.44mm
; top infill extrusion width = 0.40mm
; first layer extrusion width = 0.42mm


; printing object Shape-Box id:0 copy 0
; stop printing object Shape-Box id:0 copy 0

;TYPE:Custom
; Ender 3 Custom Start G-code
G92 E0 ; Reset Extruder

M140 S50 ; set bed temp
M190 S50 ; wait for bed temp

G28 ; Home all axes
M104 S205 ; set extruder temp 
BED_MESH_CALIBRATE AREA_START=91.7718,93.2173 AREA_END=135.76,121.557

G1 Z2.0 F3000 ; Move Z Axis up little to prevent scratching of Heat Bed
M109 S205 ; wait for extruder temp
G1 X0.1 Y20 Z0.3 F5000.0 ; Move to start position

G1 X0.1 Y200.0 Z0.3 F1500.0 E15 ; Draw the first line
G1 X0.4 Y200.0 Z0.3 F5000.0 ; Move to side a little
G1 X0.4 Y20 Z0.3 F1500.0 E30 ; Draw the second line
G92 E0 ; Reset Extruder
G1 Z2.0 F3000 ; Move Z Axis up little to prevent scratching of Heat Bed
G1 X5 Y20 Z0.3 F5000.0 ; Move over to prevent blob squish
G21 ; set units to millimeters
G90 ; use absolute coordinates
M83 ; use relative distances for extrusion
; Filament gcode
M107
;LAYER_CHANGE
;Z:0.2
;HEIGHT:0.2
;BEFORE_LAYER_CHANGE
G92 E0
;0.2


G1 E-1.6 F2400
G1 Z.2 F6000
;AFTER_LAYER_CHANGE
;0.2
G1 X94.999 Y95.711
G1 Z.2
G1 E1.6 F2400
M204 S500
;TYPE:Skirt/Brim
;WIDTH:0.42
G1 F1200
G1 X95.707 Y95.139 E.02683
G1 X96.438 Y94.66 E.02576
G1 X97.727 Y94.031 E.04227
G1 X99.119 Y93.613 E.04284
G1 X100.392 Y93.431 E.0379
G1 X126.313 Y93.406 E.76397
G1 X127.776 Y93.514 E.04324
G1 X129.153 Y93.84 E.04171
G1 X130.423 Y94.355 E.04039
G1 X131.969 Y95.33 E.05387
G1 X133.113 Y96.393 E.04603
G1 X133.992 Y97.526 E.04226
G1 X134.669 Y98.771 E.04177
G1 X135.198 Y100.307 E.04788
G1 X135.362 Y101.134 E.02485
G1 X135.466 Y102.445 E.03876
G1 X135.571 Y112.245 E.28885
G1 X135.496 Y113.418 E.03464
G1 X135.135 Y115.06 E.04955
G1 X134.395 Y116.761 E.05467
G1 X133.801 Y117.673 E.03208
G1 X133.252 Y118.347 E.02562
G1 X132.027 Y119.486 E.0493
G1 X130.654 Y120.357 E.04792
G1 X129.704 Y120.78 E.03065
G1 X128.284 Y121.19 E.04356
G1 X126.97 Y121.355 E.03903
G1 X100.618 Y121.36 E.77667
G1 X99.358 Y121.211 E.03739
G1 X98.507 Y121.007 E.02579
G1 X97.581 Y120.683 E.02891
G1 X96.591 Y120.203 E.03243
G1 X95.756 Y119.674 E.02913
G1 X95.018 Y119.085 E.02783
G1 X93.758 Y117.71 E.05497
G1 X93.044 Y116.586 E.03925
G1 X92.585 Y115.595 E.03219
G1 X92.243 Y114.542 E.03263
G1 X92.006 Y113.184 E.04063
G1 X91.983 Y101.854 E.33393
G1 X92.101 Y100.917 E.02783
G1 X92.405 Y99.688 E.03731
G1 X93.139 Y98.015 E.05385
G1 X94.252 Y96.457 E.05643
G1 X94.956 Y95.754 E.02932
G1 X95.241 Y96.067 F6000
G1 F1200
G1 X95.919 Y95.451 E.027
G1 X96.619 Y94.991 E.02469
G1 X97.86 Y94.384 E.04072
G1 X99.191 Y93.983 E.04097
G1 X100.41 Y93.807 E.0363
G1 X126.313 Y93.783 E.76344
G1 X127.934 Y93.923 E.04795
G1 X129.422 Y94.331 E.04547
G1 X130.802 Y94.986 E.04502
G1 X131.895 Y95.754 E.03937
G1 X132.981 Y96.812 E.04469
G1 X133.942 Y98.168 E.04898
G1 X134.526 Y99.414 E.04056
G1 X134.947 Y100.933 E.04646
G1 X135.089 Y102.449 E.04488
G1 X135.194 Y112.249 E.28885
G1 X135.139 Y113.264 E.02996
G1 X134.992 Y114.13 E.02589
G1 X134.517 Y115.648 E.04688
G1 X133.792 Y117.024 E.04584
G1 X132.856 Y118.219 E.04474
G1 X131.616 Y119.321 E.04889
G1 X130.419 Y120.056 E.0414
G1 X129.559 Y120.432 E.02766
G1 X128.221 Y120.818 E.04104
G1 X126.941 Y120.979 E.03802
G1 X100.645 Y120.984 E.77502
G1 X99.417 Y120.839 E.03644
G1 X98.514 Y120.618 E.0274
G1 X97.732 Y120.338 E.02448
G1 X96.767 Y119.869 E.03162
G1 X95.975 Y119.367 E.02764
G1 X95.249 Y118.787 E.02739
G1 X93.979 Y117.375 E.05597
G1 X93.373 Y116.401 E.03381
G1 X92.94 Y115.469 E.03029
G1 X92.608 Y114.448 E.03164
G1 X92.38 Y113.138 E.03919
G1 X92.36 Y101.88 E.33181
G1 X92.628 Y100.258 E.04845
G1 X93.075 Y98.984 E.03979
G1 X93.39 Y98.339 E.02116
G1 X93.782 Y97.688 E.0224
G1 X94.52 Y96.723 E.03581
G1 X95.197 Y96.107 E.02698
G1 X95.449 Y96.384 F6000
G1 F1200
G1 X96.131 Y95.763 E.02719
G1 X96.812 Y95.315 E.02402
G1 X97.993 Y94.737 E.03875
G1 X99.229 Y94.36 E.03809
G1 X100.429 Y94.184 E.03575
G1 X126.313 Y94.16 E.76288
G1 X127.857 Y94.292 E.04567
G1 X129.299 Y94.687 E.04407
G1 X130.611 Y95.311 E.04282
G1 X131.648 Y96.039 E.03734
G1 X132.69 Y97.052 E.04283
G1 X133.614 Y98.354 E.04706
G1 X134.178 Y99.558 E.03919
G1 X134.578 Y101.012 E.04445
G1 X134.712 Y102.453 E.04265
G1 X134.817 Y112.253 E.28885
G1 X134.765 Y113.21 E.02825
G1 X134.62 Y114.067 E.02562
G1 X134.172 Y115.496 E.04414
G1 X133.441 Y116.873 E.04595
G1 X132.587 Y117.955 E.04063
G1 X131.404 Y119.01 E.04672
G1 X130.242 Y119.723 E.04018
G1 X129.435 Y120.076 E.02596
G1 X128.232 Y120.433 E.03698
G1 X126.912 Y120.603 E.03923
G1 X100.672 Y120.608 E.77337
G1 X99.476 Y120.466 E.0355
G1 X98.62 Y120.256 E.02598
G1 X96.943 Y119.536 E.05379
G1 X96.18 Y119.05 E.02666
G1 X95.454 Y118.463 E.02752
G1 X94.287 Y117.157 E.05162
G1 X93.701 Y116.215 E.0327
G1 X93.296 Y115.343 E.02834
G1 X92.973 Y114.353 E.03069
G1 X92.755 Y113.093 E.03769
G1 X92.736 Y101.905 E.32974
G1 X92.989 Y100.368 E.04591
G1 X93.426 Y99.122 E.03892
G1 X93.725 Y98.513 E.02
G1 X94.802 Y96.974 E.05536
G1 X95.405 Y96.424 E.02405
; printing object Shape-Box id:0 copy 0
G1 E-1.12 F2400
;WIPE_START
G1 F4800
G1 X95.449 Y96.384 E-.02825
G1 X96.131 Y95.763 E-.43813
G1 X96.155 Y95.747 E-.01362
;WIPE_END
G1 X127.057 Y106.602 F6000
G1 E1.6 F2400
;TYPE:Perimeter
G1 F1200
G1 X127.064 Y106.597 E.00025
G1 X127.136 Y106.656 E.00274
G1 X127.165 Y106.742 E.00267
G1 X127.175 Y106.897 E.00458
G1 X127.15 Y106.969 E.00225
G1 X127.089 Y107.006 E.0021
G1 X127.018 Y106.982 E.00221
G1 X126.987 Y106.864 E.0036
G1 X126.998 Y106.694 E.00502
G1 X127.018 Y106.645 E.00156
G1 X127.297 Y106.289 F6000
;TYPE:External perimeter
G1 F1200
G1 X127.446 Y106.438 E.00621
G1 X127.538 Y106.668 E.0073
G1 X127.554 Y106.915 E.0073
G1 X127.5 Y107.12 E.00625
G1 X127.378 Y107.276 E.00584
G1 X127.218 Y107.365 E.0054
G1 X127.023 Y107.383 E.00577
G1 X126.852 Y107.331 E.00527
G1 X126.714 Y107.208 E.00545
G1 X126.629 Y107.019 E.00611
G1 X126.61 Y106.743 E.00815
G1 X126.666 Y106.496 E.00746
G1 X126.785 Y106.328 E.00607
G1 X126.933 Y106.237 E.00512
G1 X127.106 Y106.221 E.00512
G1 X127.241 Y106.269 E.00422
G1 E-1.12 F2400
;WIPE_START
G1 F4800
G1 X127.297 Y106.289 E-.02825
G1 X127.446 Y106.438 E-.10009
G1 X127.538 Y106.668 E-.11767
G1 X127.554 Y106.915 E-.11757
G1 X127.5 Y107.12 E-.1007
G1 X127.48 Y107.146 E-.01572
;WIPE_END
G1 X124.111 Y106.602 F6000
G1 E1.6 F2400
;TYPE:Perimeter
G1 F1200
G1 X124.117 Y106.597 E.00023
G1 X124.19 Y106.656 E.00277
G1 X124.218 Y106.742 E.00267
G1 X124.229 Y106.897 E.00458
G1 X124.204 Y106.969 E.00225
G1 X124.142 Y107.006 E.00213
G1 X124.072 Y106.982 E.00218
G1 X124.04 Y106.864 E.0036
G1 X124.051 Y106.694 E.00502
G1 X124.072 Y106.645 E.00157
G1 X124.067 Y106.229 F6000
;TYPE:External perimeter
G1 F1200
G1 X124.16 Y106.221 E.00275
G1 X124.351 Y106.289 E.00598
G1 X124.5 Y106.438 E.00621
G1 X124.591 Y106.668 E.00729
G1 X124.608 Y106.915 E.0073
G1 X124.554 Y107.12 E.00625
G1 X124.431 Y107.276 E.00586
G1 X124.271 Y107.365 E.0054
G1 X124.077 Y107.383 E.00574
G1 X123.906 Y107.331 E.00527
G1 X123.767 Y107.208 E.00547
G1 X123.682 Y107.019 E.00611
G1 X123.663 Y106.743 E.00815
G1 X123.719 Y106.496 E.00746
G1 X123.839 Y106.328 E.00608
G1 X123.986 Y106.237 E.0051
G1 X124.007 Y106.235 E.00062
G1 E-1.12 F2400
;WIPE_START
G1 F4800
G1 X124.067 Y106.229 E-.02864
G1 X124.16 Y106.221 E-.04434
G1 X124.351 Y106.289 E-.0963
G1 X124.5 Y106.438 E-.10009
G1 X124.591 Y106.668 E-.11749
G1 X124.604 Y106.864 E-.09314
;WIPE_END
G1 X113.704 Y107.842 F6000
G1 E1.6 F2400
G1 F1200
G1 X113.704 Y107.15 E.0204
G1 X114.184 Y107.15 E.01415
G1 X113.738 Y107.792 E.02304
G1 E-1.12 F2400
;WIPE_START
G1 F4800
G1 X113.704 Y107.842 E-.02872
G1 X113.704 Y107.15 E-.3287
G1 X113.962 Y107.15 E-.12258
;WIPE_END
G1 X110.758 Y107.842 F6000
G1 E1.6 F2400
G1 F1200
G1 X110.758 Y107.15 E.0204
G1 X111.238 Y107.15 E.01415
G1 X110.792 Y107.792 E.02304
G1 E-1.12 F2400
;WIPE_START
G1 F4800
G1 X110.758 Y107.842 E-.02872
G1 X110.758 Y107.15 E-.3287
G1 X111.016 Y107.15 E-.12258
;WIPE_END
G1 X100.001 Y108.376 F6000
G1 E1.6 F2400
G1 F1200
G1 X100 Y108.239 E.00404
G1 X100.047 Y108.125 E.00363
G1 X100.139 Y108.035 E.00379
G1 X100.266 Y107.987 E.004
G1 X100.414 Y107.986 E.00436
G1 X100.503 Y108.006 E.00269
G1 X100.648 Y108.127 E.00557
G1 X100.697 Y108.251 E.00393
G1 X100.697 Y108.391 E.00413
G1 X100.65 Y108.501 E.00353
G1 X100.554 Y108.593 E.00392
G1 X100.427 Y108.642 E.00401
G1 X100.273 Y108.642 E.00454
G1 X100.148 Y108.592 E.00397
G1 X100.05 Y108.496 E.00404
G1 X100.024 Y108.432 E.00204
G1 X100.248 Y106.634 F6000
;TYPE:Perimeter
G1 F1200
G1 X100.27 Y106.608 E.001
G1 X100.366 Y106.597 E.00285
G1 X100.426 Y106.618 E.00187
G1 X100.455 Y106.684 E.00212
G1 X100.46 Y106.769 E.00251
G1 X100.406 Y106.823 E.00225
G1 X100.299 Y106.822 E.00315
G1 X100.237 Y106.772 E.00235
G1 X100.232 Y106.688 E.00248
G1 X99.958 Y106.395 F6000
;TYPE:External perimeter
G1 F1200
G1 X100.019 Y106.321 E.00283
G1 X100.183 Y106.237 E.00543
G1 X100.398 Y106.22 E.00636
G1 X100.614 Y106.286 E.00666
G1 X100.743 Y106.404 E.00515
G1 X100.827 Y106.591 E.00604
G1 X100.84 Y106.781 E.00561
G1 X100.79 Y106.957 E.00539
G1 X100.672 Y107.102 E.00551
G1 X100.51 Y107.187 E.00539
G1 X100.299 Y107.205 E.00624
G1 X100.108 Y107.152 E.00584
G1 X99.956 Y107.029 E.00576
G1 X99.867 Y106.863 E.00555
G1 X99.848 Y106.649 E.00633
G1 X99.9 Y106.465 E.00564
G1 X99.92 Y106.441 E.00092
G1 E-1.12 F2400
;WIPE_START
G1 F4800
G1 X99.958 Y106.395 E-.02834
G1 X100.019 Y106.321 E-.04555
G1 X100.183 Y106.237 E-.08752
G1 X100.398 Y106.22 E-.10244
G1 X100.614 Y106.286 E-.10728
G1 X100.743 Y106.404 E-.08304
G1 X100.765 Y106.454 E-.02583
;WIPE_END
G1 X123.65 Y108.113 F6000
G1 E1.6 F2400
G1 F1200
G1 X123.912 Y108.18 E.00797
G1 X124.183 Y108.177 E.00799
G1 X124.338 Y108.15 E.00464
G1 X124.622 Y108.039 E.00899
G1 X124.569 Y108.245 E.00627
G1 X124.523 Y108.341 E.00314
G1 X124.4 Y108.508 E.00611
G1 X124.273 Y108.586 E.00439
G1 X124.101 Y108.631 E.00524
G1 X123.93 Y108.597 E.00514
G1 X123.837 Y108.552 E.00305
G1 X123.796 Y108.504 E.00186
G1 X123.671 Y108.17 E.01051
G1 E-1.12 F2400
;WIPE_START
G1 F4800
G1 X123.65 Y108.113 E-.02885
G1 X123.912 Y108.18 E-.12845
G1 X124.183 Y108.177 E-.12873
G1 X124.338 Y108.15 E-.07473
G1 X124.572 Y108.059 E-.11924
;WIPE_END
G1 X127.516 Y108.245 F6000
G1 E1.6 F2400
G1 F1200
G1 X127.469 Y108.341 E.00315
G1 X127.346 Y108.508 E.00611
G1 X127.219 Y108.586 E.00439
G1 X127.047 Y108.631 E.00524
G1 X126.876 Y108.597 E.00514
G1 X126.784 Y108.552 E.00302
G1 X126.742 Y108.504 E.00188
G1 X126.596 Y108.113 E.0123
G1 X126.858 Y108.18 E.00797
G1 X127.13 Y108.177 E.00802
G1 X127.284 Y108.15 E.00461
G1 X127.569 Y108.039 E.00901
G1 X127.531 Y108.187 E.0045
G1 E-1.12 F2400
;WIPE_START
G1 F4800
G1 X127.516 Y108.245 E-.02846
G1 X127.469 Y108.341 E-.05077
G1 X127.346 Y108.508 E-.09852
G1 X127.219 Y108.586 E-.07079
G1 X127.047 Y108.631 E-.08445
G1 X126.876 Y108.597 E-.08281
G1 X126.784 Y108.552 E-.04865
G1 X126.763 Y108.527 E-.01555
;WIPE_END
G1 X122.283 Y107.512 F6000
G1 E1.6 F2400
G1 F1200
G1 X122.332 Y108.516 E.02963
G1 X121.856 Y108.784 E.0161
G1 X121.6 Y108.98 E.0095
G1 X121.407 Y109.179 E.00817
G1 X121.185 Y109.524 E.01209
G1 X120.427 Y109.524 E.02234
G1 X120.427 Y105.403 E.12146
G1 X121.476 Y105.403 E.03092
G1 X121.47 Y106.63 E.03616
G1 X121.441 Y107.099 E.01385
G1 X121.375 Y107.547 E.01335
G1 X121.379 Y108.027 E.01415
G1 X121.548 Y107.92 E.0059
G1 X121.646 Y107.789 E.00482
G1 X122.228 Y107.536 E.0187
G1 X122.806 Y108.439 F6000
G1 F1200
G1 X122.932 Y108.146 E.0094
G1 X123.58 Y108.096 E.01916
G1 X123.259 Y107.897 E.01113
G1 X122.911 Y107.549 E.01451
G1 X122.832 Y107.405 E.00484
G1 X122.748 Y107.144 E.00808
G1 X122.706 Y106.849 E.00878
G1 X122.744 Y106.465 E.01137
G1 X122.803 Y106.267 E.00609
G1 X122.971 Y105.933 E.01102
G1 X123.092 Y105.778 E.0058
G1 X123.233 Y105.642 E.00577
G1 X123.542 Y105.455 E.01065
G1 X123.729 Y105.39 E.00583
G1 X123.964 Y105.351 E.00702
G1 X124.26 Y105.351 E.00872
G1 X124.428 Y105.376 E.00501
G1 X124.719 Y105.472 E.00903
G1 X124.988 Y105.637 E.0093
G1 X125.198 Y105.869 E.00922
G1 X125.299 Y106.016 E.00526
G1 X125.371 Y106.195 E.00569
G1 X125.502 Y106.9 E.02113
G1 X125.525 Y107.341 E.01302
G1 X125.519 Y107.836 E.01459
G1 X125.482 Y108.066 E.00687
G1 X125.358 Y108.639 E.01728
G1 X125.278 Y108.827 E.00602
G1 X125.173 Y108.994 E.00581
G1 X124.959 Y109.228 E.00935
G1 X124.689 Y109.395 E.00936
G1 X124.389 Y109.493 E.0093
G1 X124.062 Y109.525 E.00968
G1 X123.706 Y109.484 E.01056
G1 X123.477 Y109.406 E.00713
G1 X123.277 Y109.285 E.00689
G1 X123.101 Y109.128 E.00695
G1 X122.962 Y108.928 E.00718
G1 X122.848 Y108.617 E.00976
G1 X122.82 Y108.497 E.00363
G1 E-1.12 F2400
;WIPE_START
G1 F4800
G1 X122.806 Y108.439 E-.02834
G1 X122.932 Y108.146 E-.1515
G1 X123.562 Y108.097 E-.30016
;WIPE_END
G1 X125.816 Y108.151 F6000
G1 E1.6 F2400
G1 F1200
G1 X126.526 Y108.096 E.02099
G1 X126.2 Y107.894 E.0113
G1 X125.945 Y107.605 E.01136
G1 X125.796 Y107.248 E.0114
G1 X125.748 Y106.852 E.01176
G1 X125.759 Y106.659 E.0057
G1 X125.852 Y106.146 E.01537
G1 X125.938 Y105.959 E.00607
G1 X126.046 Y105.804 E.00557
G1 X126.172 Y105.663 E.00557
G1 X126.326 Y105.545 E.00572
G1 X126.494 Y105.456 E.0056
G1 X126.674 Y105.392 E.00563
G1 X126.91 Y105.352 E.00705
G1 X127.206 Y105.35 E.00872
G1 X127.373 Y105.375 E.00498
G1 X127.664 Y105.468 E.009
G1 X127.93 Y105.626 E.00912
G1 X128.163 Y105.847 E.00946
G1 X128.35 Y106.138 E.01019
G1 X128.477 Y106.489 E.011
G1 X128.548 Y106.89 E.012
G1 X128.571 Y107.345 E.01343
G1 X128.546 Y107.85 E.0149
G1 X128.468 Y108.295 E.01332
G1 X128.334 Y108.678 E.01196
G1 X128.236 Y108.86 E.00609
G1 X128.022 Y109.129 E.01013
G1 X127.773 Y109.324 E.00932
G1 X127.493 Y109.452 E.00907
G1 X127.328 Y109.494 E.00502
G1 X127.013 Y109.524 E.00933
G1 X126.765 Y109.506 E.00733
G1 X126.533 Y109.448 E.00705
G1 X126.32 Y109.348 E.00694
G1 X126.131 Y109.205 E.00699
G1 X125.98 Y109.023 E.00697
G1 X125.87 Y108.816 E.00691
G1 X125.804 Y108.577 E.00731
G1 X125.814 Y108.211 E.01079
G1 E-1.12 F2400
;WIPE_START
G1 F4800
G1 X125.816 Y108.151 E-.02852
G1 X126.526 Y108.096 E-.33826
G1 X126.323 Y107.97 E-.11322
;WIPE_END
G1 X115.513 Y105.861 F6000
G1 E1.6 F2400
;TYPE:Perimeter
G1 F1200
G1 X115.513 Y105.026 E.02461
G1 X117.318 Y105.026 E.0532
G1 X117.31 Y106.642 E.04763
G1 X117.253 Y107.315 E.01991
G1 X118.096 Y106.948 E.0271
G1 X118.183 Y108.73 E.05258
G1 X117.527 Y109.1 E.0222
G1 X117.314 Y109.262 E.00789
G1 X117.167 Y109.414 E.00623
G1 X116.854 Y109.901 E.01706
G1 X115.513 Y109.901 E.03952
G1 X115.513 Y107.414 E.0733
G1 X113.772 Y109.887 E.08914
G1 X112.377 Y109.887 E.04111
G1 X112.384 Y107.552 E.06882
G1 X112.092 Y108.055 E.01714
G1 X110.829 Y109.887 E.06558
G1 X109.432 Y109.887 E.04117
G1 X109.432 Y107.627 E.06661
G1 X108.962 Y107.627 E.01385
G1 X108.962 Y105.861 E.05205
G1 X109.432 Y105.861 E.01385
G1 X109.432 Y105.026 E.02461
G1 X111.235 Y105.026 E.05314
G1 X111.235 Y105.867 E.02479
G1 X111.753 Y105.898 E.01529
G1 X112.309 Y105.996 E.01664
G1 X112.391 Y105.984 E.00244
G1 X112.359 Y105.027 E.02822
G1 X114.181 Y105.026 E.0537
G1 X114.181 Y105.861 E.02461
G1 X115.453 Y105.861 E.03749
G1 X115.316 Y106.238 F6000
;TYPE:External perimeter
G1 F1200
G1 X115.316 Y107.039 E.02361
G1 X113.576 Y109.509 E.08905
G1 X112.755 Y109.509 E.0242
G1 X112.774 Y107.178 E.0687
G1 X112.385 Y107.123 E.01158
G1 X112.385 Y106.366 E.02231
G1 X112.779 Y106.31 E.01173
G1 X112.749 Y105.404 E.02672
G1 X113.804 Y105.403 E.03109
G1 X113.804 Y106.238 E.02461
G1 X115.256 Y106.238 E.04279
G1 E-1.12 F2400
;WIPE_START
G1 F4800
G1 X115.316 Y106.238 E-.0285
G1 X115.316 Y107.039 E-.38048
G1 X115.23 Y107.161 E-.07102
;WIPE_END
G1 X112.27 Y106.372 F6000
G1 E1.6 F2400
G1 F1200
G1 X112.27 Y106.997 E.01842
G1 X111.774 Y107.853 E.02916
G1 X110.631 Y109.509 E.0593
G1 X109.81 Y109.509 E.0242
G1 X109.81 Y107.25 E.06658
G1 X109.339 Y107.25 E.01388
G1 X109.339 Y106.238 E.02983
G1 X109.81 Y106.238 E.01388
G1 X109.81 Y105.403 E.02461
