; generated by PrusaSlicer 2.6.0-alpha4+MacOS-x64 on 2023-03-13 at 23:27:23 UTC

; 

; external perimeters extrusion width = 0.42mm
; perimeters extrusion width = 0.44mm
; infill extrusion width = 0.44mm
; solid infill extrusion width = 0.44mm
; top infill extrusion width = 0.40mm
; first layer extrusion width = 0.42mm

M107
;TYPE:Custom
; Ender 3 Custom Start G-code
G92 E0 ; Reset Extruder

M140 S50 ; set bed temp
M190 S50 ; wait for bed temp

G28 ; Home all axes
M104 S215 ; set extruder temp 
BED_MESH_CALIBRATE AREA_START=78.9666,78.994 AREA_END=152.033,152.006

G1 Z2.0 F3000 ; Move Z Axis up little to prevent scratching of Heat Bed
M109 S215 ; wait for extruder temp
G1 X0.1 Y20 Z0.3 F5000.0 ; Move to start position

G1 X0.1 Y200.0 Z0.3 F1500.0 E15 ; Draw the first line
G1 X0.4 Y200.0 Z0.3 F5000.0 ; Move to side a little
G1 X0.4 Y20 Z0.3 F1500.0 E30 ; Draw the second line
G92 E0 ; Reset Extruder
G1 Z2.0 F3000 ; Move Z Axis up little to prevent scratching of Heat Bed
G1 X5 Y20 Z0.3 F5000.0 ; Move over to prevent blob squish
G21 ; set units to millimeters
G90 ; use absolute coordinates
M83 ; use relative distances for extrusion
; Filament gcode
M107
;LAYER_CHANGE
;Z:0.3
;HEIGHT:0.3
;BEFORE_LAYER_CHANGE
G92 E0
;0.3


G1 E-5 F3600
G1 Z.3 F9000
;AFTER_LAYER_CHANGE
;0.3
G1 X82.182 Y81.07
G1 E5 F2400
;TYPE:Skirt/Brim
;WIDTH:0.42
G1 F1800
G1 X83.635 Y80.104 E.07739
G1 X85.257 Y79.462 E.07737
G1 X86.977 Y79.172 E.07737
G1 X144.023 Y79.172 E2.53026
G1 X144.72 Y79.245 E.03108
G1 X145.743 Y79.462 E.04638
G1 X147.365 Y80.104 E.07737
G1 X148.818 Y81.069 E.07737
G1 X149.339 Y81.539 E.03112
G1 X150.039 Y82.316 E.04639
G1 X150.974 Y83.789 E.07739
G1 X151.582 Y85.424 E.07737
G1 X151.837 Y87.149 E.07734
G1 X151.856 Y143.5 E2.49944
G1 X151.728 Y144.89 E.06191
G1 X151.259 Y146.571 E.07741
G1 X150.451 Y148.117 E.07737
G1 X150.039 Y148.684 E.03109
G1 X148.818 Y149.931 E.07741
G1 X147.365 Y150.896 E.07737
G1 X145.743 Y151.538 E.07737
G1 X144.023 Y151.828 E.07737
G1 X86.977 Y151.828 E2.53026
G1 X85.257 Y151.538 E.07737
G1 X84.59 Y151.321 E.03111
G1 X83.028 Y150.545 E.07736
G1 X82.182 Y149.93 E.04639
G1 X80.961 Y148.684 E.07738
G1 X80.026 Y147.212 E.07735
G1 X79.418 Y145.577 E.07737
G1 X79.272 Y144.89 E.03115
G1 X79.144 Y143.5 E.06191
G1 X79.144 Y87.5 E2.48387
G1 X79.272 Y86.11 E.06191
G1 X79.741 Y84.429 E.07741
G1 X80.026 Y83.788 E.03112
G1 X80.961 Y82.316 E.07735
G1 X82.14 Y81.112 E.07474
; printing object square_tower.stl id:0 copy 0
G1 E-3.5 F3600
;WIPE_START
G1 F7200
G1 X83.635 Y80.104 E-.85646
G1 X84.895 Y79.605 E-.64354
;WIPE_END
G1 X143.915 Y147.451 F9000
G1 E5 F2400
;TYPE:Perimeter
;WIDTH:0.42
G1 F1800
G1 X143.085 Y147.451 E.03681
G1 X142.272 Y147.279 E.03686
G1 X141.513 Y146.941 E.03685
G1 X140.841 Y146.453 E.03684
G1 X140.286 Y145.835 E.03684
G1 X139.742 Y144.853 E.04979
G1 X139.56 Y144.664 E.01164
G1 X139.312 Y144.529 E.01252
G1 X139.017 Y144.479 E.01327
G1 X91.983 Y144.479 E2.08618
G1 X91.688 Y144.529 E.01327
G1 X91.439 Y144.664 E.01256
G1 X91.258 Y144.853 E.01161
G1 X91.13 Y145.116 E.01297
G1 X90.714 Y145.835 E.03684
G1 X90.159 Y146.453 E.03684
G1 X89.487 Y146.941 E.03684
G1 X88.728 Y147.279 E.03685
G1 X87.915 Y147.451 E.03686
G1 X87.085 Y147.451 E.03681
G1 X86.272 Y147.279 E.03686
G1 X85.513 Y146.941 E.03685
G1 X84.841 Y146.453 E.03684
G1 X84.286 Y145.835 E.03684
G1 X83.87 Y145.116 E.03684
G1 X83.614 Y144.326 E.03683
G1 X83.527 Y143.5 E.03684
G1 X83.614 Y142.674 E.03684
G1 X83.87 Y141.884 E.03683
G1 X84.286 Y141.165 E.03684
G1 X84.841 Y140.547 E.03684
G1 X85.513 Y140.059 E.03684
G1 X86.154 Y139.753 E.0315
G1 X86.339 Y139.572 E.01148
G1 X86.472 Y139.325 E.01244
G1 X86.521 Y139.033 E.01313
G1 X86.521 Y91.967 E2.0876
G1 X86.508 Y91.813 E.00685
G1 X86.339 Y91.428 E.01865
G1 X86.154 Y91.247 E.01148
G1 X85.994 Y91.155 E.00819
G1 X85.513 Y90.941 E.02335
G1 X84.841 Y90.453 E.03684
G1 X84.286 Y89.835 E.03684
G1 X83.87 Y89.116 E.03684
G1 X83.614 Y88.326 E.03683
G1 X83.527 Y87.5 E.03684
G1 X83.614 Y86.674 E.03684
G1 X83.87 Y85.884 E.03683
G1 X84.286 Y85.165 E.03684
G1 X84.841 Y84.547 E.03684
G1 X85.513 Y84.059 E.03684
G1 X86.272 Y83.721 E.03685
G1 X87.085 Y83.549 E.03686
G1 X87.915 Y83.549 E.03681
G1 X88.728 Y83.721 E.03686
G1 X89.487 Y84.059 E.03685
G1 X90.159 Y84.547 E.03684
G1 X90.714 Y85.165 E.03684
G1 X91.258 Y86.147 E.04979
G1 X91.439 Y86.336 E.01161
G1 X91.688 Y86.471 E.01256
G1 X91.983 Y86.521 E.01327
G1 X139.017 Y86.521 E2.08618
G1 X139.171 Y86.508 E.00685
G1 X139.56 Y86.336 E.01887
G1 X139.742 Y86.147 E.01164
G1 X139.87 Y85.885 E.01293
G1 X140.286 Y85.165 E.03688
G1 X140.841 Y84.547 E.03684
G1 X141.513 Y84.059 E.03684
G1 X142.272 Y83.721 E.03685
G1 X143.085 Y83.549 E.03686
G1 X143.915 Y83.549 E.03681
G1 X144.728 Y83.721 E.03686
G1 X145.487 Y84.059 E.03685
G1 X146.159 Y84.547 E.03684
G1 X146.714 Y85.165 E.03684
G1 X147.13 Y85.884 E.03684
G1 X147.386 Y86.674 E.03683
G1 X147.473 Y87.5 E.03684
G1 X147.386 Y88.326 E.03684
G1 X147.13 Y89.116 E.03683
G1 X146.714 Y89.835 E.03684
G1 X146.159 Y90.453 E.03684
G1 X145.487 Y90.941 E.03684
G1 X144.846 Y91.247 E.0315
G1 X144.661 Y91.428 E.01148
G1 X144.528 Y91.675 E.01244
G1 X144.479 Y91.967 E.01313
G1 X144.479 Y139.033 E2.0876
G1 X144.492 Y139.187 E.00685
G1 X144.661 Y139.572 E.01865
G1 X144.846 Y139.753 E.01148
G1 X145.006 Y139.845 E.00819
G1 X145.487 Y140.059 E.02335
G1 X146.159 Y140.547 E.03684
G1 X146.714 Y141.165 E.03684
G1 X147.13 Y141.884 E.03684
G1 X147.386 Y142.674 E.03683
G1 X147.473 Y143.5 E.03684
G1 X147.386 Y144.326 E.03684
G1 X147.13 Y145.116 E.03683
G1 X146.714 Y145.835 E.03684
G1 X146.159 Y146.453 E.03684
G1 X145.487 Y146.941 E.03684
G1 X144.728 Y147.279 E.03685
G1 X143.974 Y147.439 E.03419
G1 X143.953 Y147.807 F9000
G1 F1800
G1 X143.047 Y147.807 E.04019
G1 X142.162 Y147.619 E.04013
G1 X141.335 Y147.25 E.04017
G1 X140.602 Y146.718 E.04017
G1 X139.996 Y146.046 E.04014
G1 X139.452 Y145.059 E.04999
G1 X139.194 Y144.865 E.01432
G1 X139.017 Y144.834 E.00797
G1 X91.983 Y144.834 E2.08618
G1 X91.806 Y144.865 E.00797
G1 X91.657 Y144.946 E.00752
G1 X91.548 Y145.059 E.00696
G1 X91.456 Y145.262 E.00989
G1 X91.004 Y146.046 E.04014
G1 X90.398 Y146.718 E.04014
G1 X89.665 Y147.251 E.0402
G1 X88.838 Y147.619 E.04015
G1 X87.953 Y147.807 E.04013
G1 X87.047 Y147.807 E.04019
G1 X86.162 Y147.619 E.04013
G1 X85.335 Y147.251 E.04015
G1 X84.602 Y146.718 E.0402
G1 X83.996 Y146.046 E.04014
G1 X83.544 Y145.261 E.04018
G1 X83.264 Y144.4 E.04016
G1 X83.169 Y143.5 E.04014
G1 X83.264 Y142.6 E.04014
G1 X83.544 Y141.739 E.04016
G1 X83.996 Y140.955 E.04014
G1 X84.602 Y140.282 E.04017
G1 X85.335 Y139.75 E.04017
G1 X85.945 Y139.465 E.02986
G1 X86.136 Y139.208 E.0142
G1 X86.166 Y139.033 E.00788
G1 X86.166 Y91.967 E2.0876
G1 X86.158 Y91.875 E.0041
G1 X86.056 Y91.644 E.0112
G1 X85.849 Y91.48 E.01171
G1 X85.335 Y91.251 E.02496
G1 X84.602 Y90.718 E.0402
G1 X83.996 Y90.046 E.04014
G1 X83.544 Y89.261 E.04018
G1 X83.264 Y88.4 E.04016
G1 X83.169 Y87.5 E.04014
G1 X83.264 Y86.6 E.04014
G1 X83.544 Y85.739 E.04016
G1 X83.996 Y84.954 E.04018
G1 X84.602 Y84.282 E.04014
G1 X85.335 Y83.749 E.0402
G1 X86.162 Y83.381 E.04015
G1 X87.047 Y83.193 E.04013
G1 X87.953 Y83.193 E.04019
G1 X88.838 Y83.381 E.04013
G1 X89.665 Y83.749 E.04015
G1 X90.398 Y84.282 E.0402
G1 X91.004 Y84.954 E.04014
G1 X91.493 Y85.844 E.04504
G1 X91.657 Y86.054 E.01182
G1 X91.806 Y86.135 E.00752
G1 X91.983 Y86.166 E.00797
G1 X139.017 Y86.166 E2.08618
G1 X139.194 Y86.135 E.00797
G1 X139.452 Y85.941 E.01432
G1 X139.543 Y85.739 E.00983
G1 X139.996 Y84.954 E.0402
G1 X140.602 Y84.282 E.04014
G1 X141.335 Y83.749 E.0402
G1 X142.162 Y83.381 E.04015
G1 X143.047 Y83.193 E.04013
G1 X143.953 Y83.193 E.04019
G1 X144.838 Y83.381 E.04013
G1 X145.665 Y83.749 E.04015
G1 X146.398 Y84.282 E.0402
G1 X147.004 Y84.954 E.04014
G1 X147.456 Y85.739 E.04018
G1 X147.736 Y86.6 E.04016
G1 X147.831 Y87.5 E.04014
G1 X147.736 Y88.4 E.04014
G1 X147.456 Y89.261 E.04016
G1 X147.004 Y90.046 E.04018
G1 X146.398 Y90.718 E.04014
G1 X145.665 Y91.251 E.0402
G1 X145.055 Y91.535 E.02985
G1 X144.864 Y91.792 E.0142
G1 X144.834 Y91.967 E.00788
G1 X144.834 Y139.033 E2.0876
G1 X144.842 Y139.125 E.0041
G1 X144.944 Y139.357 E.01124
G1 X145.151 Y139.52 E.01169
G1 X145.665 Y139.75 E.02498
G1 X146.398 Y140.282 E.04017
G1 X147.004 Y140.954 E.04014
G1 X147.456 Y141.739 E.04018
G1 X147.736 Y142.6 E.04016
G1 X147.831 Y143.5 E.04014
G1 X147.736 Y144.4 E.04014
G1 X147.456 Y145.261 E.04016
G1 X147.004 Y146.046 E.04018
G1 X146.398 Y146.718 E.04014
G1 X145.665 Y147.25 E.04017
G1 X144.838 Y147.619 E.04017
G1 X144.011 Y147.795 E.0375
G1 X143.99 Y148.163 F9000
;TYPE:External perimeter
G1 F1800
G1 X143.01 Y148.163 E.04347
G1 X142.051 Y147.959 E.04349
G1 X141.156 Y147.56 E.04346
G1 X140.363 Y146.984 E.04347
G1 X139.707 Y146.256 E.04347
G1 X139.162 Y145.265 E.05016
G1 X139.017 Y145.19 E.00724
G1 X91.983 Y145.19 E2.08618
G1 X91.874 Y145.227 E.00511
G1 X91.293 Y146.256 E.05241
G1 X90.637 Y146.984 E.04347
G1 X89.844 Y147.56 E.04347
G1 X88.949 Y147.959 E.04346
G1 X87.99 Y148.163 E.04349
G1 X87.01 Y148.163 E.04347
G1 X86.051 Y147.959 E.04349
G1 X85.156 Y147.56 E.04346
G1 X84.363 Y146.984 E.04347
G1 X83.707 Y146.256 E.04347
G1 X83.217 Y145.407 E.04348
G1 X82.914 Y144.475 E.04347
G1 X82.812 Y143.5 E.04348
G1 X82.914 Y142.525 E.04348
G1 X83.217 Y141.593 E.04347
G1 X83.707 Y140.744 E.04348
G1 X84.363 Y140.016 E.04347
G1 X85.156 Y139.44 E.04347
G1 X85.736 Y139.177 E.02825
G1 X85.81 Y139.033 E.00718
G1 X85.81 Y91.967 E2.0876
G1 X85.8 Y91.909 E.00261
G1 X85.705 Y91.804 E.00628
G1 X85.156 Y91.56 E.02665
G1 X84.363 Y90.984 E.04347
G1 X83.707 Y90.256 E.04347
G1 X83.217 Y89.407 E.04348
G1 X82.914 Y88.475 E.04347
G1 X82.812 Y87.5 E.04348
G1 X82.914 Y86.525 E.04348
G1 X83.217 Y85.593 E.04347
G1 X83.707 Y84.744 E.04348
G1 X84.363 Y84.016 E.04347
G1 X85.156 Y83.44 E.04347
G1 X86.051 Y83.041 E.04346
G1 X87.01 Y82.837 E.04349
G1 X87.99 Y82.837 E.04347
G1 X88.949 Y83.041 E.04349
G1 X89.844 Y83.44 E.04346
G1 X90.637 Y84.016 E.04347
G1 X91.293 Y84.744 E.04347
G1 X91.838 Y85.735 E.05016
G1 X91.983 Y85.81 E.00724
G1 X139.017 Y85.81 E2.08618
G1 X139.126 Y85.773 E.00511
G1 X139.707 Y84.744 E.05241
G1 X140.363 Y84.016 E.04347
G1 X141.156 Y83.44 E.04347
G1 X142.051 Y83.041 E.04346
G1 X143.01 Y82.837 E.04349
G1 X143.99 Y82.837 E.04347
G1 X144.949 Y83.041 E.04349
G1 X145.844 Y83.44 E.04346
G1 X146.637 Y84.016 E.04347
G1 X147.293 Y84.744 E.04347
G1 X147.783 Y85.593 E.04348
G1 X148.086 Y86.525 E.04347
G1 X148.188 Y87.5 E.04348
G1 X148.086 Y88.475 E.04348
G1 X147.783 Y89.407 E.04347
G1 X147.293 Y90.256 E.04348
G1 X146.637 Y90.984 E.04347
G1 X145.844 Y91.56 E.04347
G1 X145.264 Y91.823 E.02825
G1 X145.19 Y91.967 E.00718
G1 X145.19 Y139.033 E2.0876
G1 X145.2 Y139.092 E.00265
G1 X145.295 Y139.196 E.00625
G1 X145.844 Y139.44 E.02665
G1 X146.637 Y140.016 E.04347
G1 X147.293 Y140.744 E.04347
G1 X147.783 Y141.593 E.04348
G1 X148.086 Y142.525 E.04347
G1 X148.188 Y143.5 E.04348
G1 X148.086 Y144.475 E.04348
G1 X147.783 Y145.407 E.04347
G1 X147.293 Y146.256 E.04348
G1 X146.637 Y146.984 E.04347
G1 X145.844 Y147.56 E.04347
G1 X144.949 Y147.959 E.04346
G1 X144.049 Y148.15 E.04081
G1 X143.755 Y147.839 F9000
G1 E-3.5 F3600
;WIPE_START
G1 F7200
G1 X143.01 Y148.163 E-.49356
G1 X142.051 Y147.959 E-.46572
G1 X141.156 Y147.56 E-.46546
G1 X141.028 Y147.467 E-.07526
;WIPE_END
G1 X116.886 Y141.964 F9000
G1 E5 F2400
;TYPE:Perimeter
G1 F1800
G1 X116.786 Y142.008 E.00485
G1 X116.632 Y142.021 E.00685
G1 X114.368 Y142.021 E.10042
G1 X114.071 Y141.97 E.01337
G1 X113.821 Y141.834 E.01262
G1 X113.669 Y141.521 E.01543
G1 X90.368 Y141.521 E1.03351
G1 X90.108 Y141.483 E.01165
G1 X89.78 Y141.299 E.01668
G1 X89.588 Y141.059 E.01363
G1 X89.517 Y140.889 E.00817
G1 X89.479 Y140.632 E.01152
G1 X89.479 Y113.331 E1.21093
G1 X89.167 Y113.179 E.01539
G1 X88.992 Y112.786 E.01908
G1 X88.979 Y112.632 E.00685
G1 X88.979 Y110.368 E.10042
G1 X89.03 Y110.071 E.01337
G1 X89.167 Y109.821 E.01264
G1 X89.479 Y109.669 E.01539
G1 X89.479 Y90.368 E.85609
G1 X89.517 Y90.111 E.01152
G1 X89.695 Y89.787 E.0164
G1 X89.938 Y89.59 E.01388
G1 X90.109 Y89.517 E.00825
G1 X90.368 Y89.479 E.01161
G1 X113.669 Y89.479 E1.03351
G1 X113.821 Y89.167 E.01539
G1 X114.214 Y88.992 E.01908
G1 X114.368 Y88.979 E.00685
G1 X116.632 Y88.979 E.10042
G1 X116.929 Y89.03 E.01337
G1 X117.179 Y89.167 E.01264
G1 X117.331 Y89.479 E.01539
G1 X140.632 Y89.479 E1.03351
G1 X140.891 Y89.517 E.01161
G1 X141.22 Y89.701 E.01672
G1 X141.412 Y89.941 E.01363
G1 X141.483 Y90.111 E.00817
G1 X141.521 Y90.368 E.01152
G1 X141.521 Y113.669 E1.03351
G1 X141.834 Y113.821 E.01543
G1 X142.008 Y114.214 E.01906
G1 X142.021 Y114.368 E.00685
G1 X142.021 Y116.632 E.10042
G1 X141.97 Y116.929 E.01337
G1 X141.834 Y117.179 E.01262
G1 X141.521 Y117.331 E.01543
G1 X141.521 Y140.632 E1.03351
G1 X141.483 Y140.889 E.01152
G1 X141.305 Y141.213 E.0164
G1 X141.062 Y141.411 E.0139
G1 X140.891 Y141.483 E.00823
G1 X140.632 Y141.521 E.01161
G1 X117.331 Y141.521 E1.03351
G1 X117.179 Y141.834 E.01543
G1 X116.94 Y141.939 E.01158
G1 X116.663 Y141.663 F9000
G1 F1800
G1 X114.368 Y141.666 E.10179
G1 X114.19 Y141.635 E.00801
G1 X114.04 Y141.553 E.00758
G1 X113.851 Y141.166 E.0191
G1 X90.368 Y141.166 E1.04158
G1 X90.076 Y141.079 E.01351
G1 X89.9 Y140.888 E.01152
G1 X89.834 Y140.632 E.01173
G1 X89.834 Y113.149 E1.219
G1 X89.447 Y112.96 E.0191
G1 X89.342 Y112.724 E.01146
G1 X89.334 Y110.368 E.1045
G1 X89.365 Y110.19 E.00801
G1 X89.447 Y110.04 E.00758
G1 X89.834 Y109.851 E.0191
G1 X89.834 Y90.368 E.86416
G1 X89.914 Y90.087 E.01296
G1 X90.11 Y89.901 E.01198
G1 X90.368 Y89.834 E.01182
G1 X113.851 Y89.834 E1.04158
G1 X114.04 Y89.447 E.0191
G1 X114.276 Y89.342 E.01146
G1 X116.632 Y89.334 E.1045
G1 X116.81 Y89.365 E.00801
G1 X116.96 Y89.447 E.00758
G1 X117.149 Y89.834 E.0191
G1 X140.632 Y89.834 E1.04158
G1 X140.924 Y89.921 E.01351
G1 X141.1 Y90.112 E.01152
G1 X141.166 Y90.368 E.01173
G1 X141.166 Y113.851 E1.04158
G1 X141.553 Y114.04 E.0191
G1 X141.658 Y114.276 E.01146
G1 X141.666 Y116.632 E.1045
G1 X141.635 Y116.81 E.00801
G1 X141.553 Y116.96 E.00758
G1 X141.166 Y117.149 E.0191
G1 X141.166 Y140.632 E1.04158
G1 X141.085 Y140.913 E.01297
G1 X140.89 Y141.099 E.01195
G1 X140.632 Y141.166 E.01182
G1 X117.149 Y141.166 E1.04158
G1 X116.96 Y141.553 E.0191
G1 X116.723 Y141.658 E.0115
G1 X116.632 Y141.31 F9000
;TYPE:External perimeter
G1 F1800
G1 X114.368 Y141.31 E.10042
G1 X114.259 Y141.272 E.00512
G1 X114.19 Y141.132 E.00692
G1 X114.19 Y140.81 E.01428
G1 X90.368 Y140.81 E1.05662
G1 X90.225 Y140.738 E.0071
G1 X90.19 Y140.632 E.00495
G1 X90.19 Y112.81 E1.23404
G1 X89.868 Y112.81 E.01428
G1 X89.7 Y112.692 E.00911
G1 X89.69 Y110.368 E.10308
G1 X89.728 Y110.259 E.00512
G1 X89.868 Y110.19 E.00692
G1 X90.19 Y110.19 E.01428
G1 X90.19 Y90.368 E.8792
G1 X90.26 Y90.226 E.00702
G1 X90.368 Y90.19 E.00505
G1 X114.19 Y90.19 E1.05662
G1 X114.19 Y89.868 E.01428
G1 X114.308 Y89.7 E.00911
G1 X116.632 Y89.69 E.10308
G1 X116.741 Y89.728 E.00512
G1 X116.81 Y89.868 E.00692
G1 X116.81 Y90.19 E.01428
G1 X140.632 Y90.19 E1.05662
G1 X140.775 Y90.262 E.0071
G1 X140.81 Y90.368 E.00495
G1 X140.81 Y114.19 E1.05662
G1 X141.132 Y114.19 E.01428
G1 X141.3 Y114.308 E.00911
G1 X141.31 Y114.368 E.0027
G1 X141.31 Y116.632 E.10042
G1 X141.272 Y116.741 E.00512
G1 X141.132 Y116.81 E.00692
G1 X140.81 Y116.81 E.01428
G1 X140.81 Y140.632 E1.05662
G1 X140.74 Y140.774 E.00702
G1 X140.632 Y140.81 E.00505
G1 X116.81 Y140.81 E1.05662
G1 X116.81 Y141.132 E.01428
G1 X116.691 Y141.3 E.00913
G1 X116.587 Y141.707 F9000
G1 E-3.5 F3600
;WIPE_START
G1 F7200
G1 X114.368 Y141.31 E-1.10344
G1 X114.259 Y141.272 E-.05483
G1 X114.19 Y141.132 E-.07414
G1 X114.19 Y140.81 E-.15295
G1 X113.949 Y140.81 E-.11464
;WIPE_END
G1 X144.51 Y83.791 F9000
G1 E5 F2400
;TYPE:Solid infill
;WIDTH:0.420686
G1 F1800
G1 X146.957 Y86.238 E.15379
G1 X147.117 Y86.731 E.02303
G1 X147.137 Y86.922 E.00853
G1 X144.078 Y83.863 E.19225
G1 X143.886 Y83.822 E.00872
G1 X143.534 Y83.822 E.01564
G1 X147.196 Y87.485 E.23018
G1 X147.151 Y87.944 E.0205
G1 X143.044 Y83.837 E.25812
G1 X142.629 Y83.925 E.01885
G1 X147.081 Y88.378 E.27983
G1 X146.958 Y88.758 E.01775
G1 X142.236 Y84.037 E.29674
