; generated by PrusaSlicer 2.6.0-alpha4+MacOS-x64 on 2023-03-16 at 23:44:28 UTC

; 

; external perimeters extrusion width = 0.40mm
; perimeters extrusion width = 0.40mm
; infill extrusion width = 0.40mm
; solid infill extrusion width = 0.40mm
; top infill extrusion width = 0.40mm
; first layer extrusion width = 0.40mm

M201 X400 Y400 Z100 E5000 ; sets maximum accelerations, mm/sec^2
M203 X48 Y48 Z10 E60 ; sets maximum feedrates, mm / sec
M204 P400 R1000 T400 ; sets acceleration (P, T) and retract acceleration (R), mm/sec^2
M205 X8.00 Y8.00 Z0.40 E5.00 ; sets the jerk limits, mm/sec
M205 S0 T0 ; sets the minimum extruding and travel feed rate, mm/sec
M107
;TYPE:Custom
; Ender 3 Custom Start G-code
G92 E0 ; Reset Extruder

M140 S50 ; set bed temp
M190 S50 ; wait for bed temp

G28 ; Home all axes
M104 S210 ; set extruder temp 
BED_MESH_CALIBRATE AREA_START=86.7502,97.2611 AREA_END=144.25,133.739

G1 Z2.0 F3000 ; Move Z Axis up little to prevent scratching of Heat Bed
M109 S210 ; wait for extruder temp
G1 X0.1 Y20 Z0.3 F5000.0 ; Move to start position

G1 X0.1 Y200.0 Z0.3 F1500.0 E15 ; Draw the first line
G1 X0.4 Y200.0 Z0.3 F5000.0 ; Move to side a little
G1 X0.4 Y20 Z0.3 F1500.0 E30 ; Draw the second line
G92 E0 ; Reset Extruder
G1 Z2.0 F3000 ; Move Z Axis up little to prevent scratching of Heat Bed
G1 X5 Y20 Z0.3 F5000.0 ; Move over to prevent blob squish
G21 ; set units to millimeters
G90 ; use absolute coordinates
M83 ; use relative distances for extrusion
; Filament gcode
M107
;LAYER_CHANGE
;Z:0.2
;HEIGHT:0.2
;BEFORE_LAYER_CHANGE
G92 E0
;0.2


G1 E-5 F3600
G1 Z.2 F4800
;AFTER_LAYER_CHANGE
;0.2
G1 X90.713 Y100.466
G1 E5 F2400
M204 S400
;TYPE:Skirt/Brim
;WIDTH:0.4
G1 F1440
G1 X91.655 Y99.705 E.03596
G1 X92.671 Y99.045 E.03597
G1 X94.131 Y98.329 E.04828
G1 X96.047 Y97.73 E.0596
G1 X97.649 Y97.485 E.04812
G1 X132.55 Y97.445 E1.03626
G1 X133.756 Y97.526 E.03589
G1 X134.953 Y97.73 E.03605
G1 X136.869 Y98.329 E.0596
G1 X138.329 Y99.045 E.04828
G1 X139.968 Y100.19 E.05936
G1 X140.854 Y101.011 E.03586
G1 X141.653 Y101.925 E.03605
G1 X142.573 Y103.288 E.04883
G1 X143.406 Y105.087 E.05886
G1 X143.85 Y106.682 E.04916
G1 X144.023 Y107.882 E.036
G1 X144.071 Y108.873 E.02946
G1 X144.071 Y122.127 E.39353
G1 X144.023 Y123.118 E.02946
G1 X143.85 Y124.318 E.036
G1 X143.406 Y125.913 E.04916
G1 X142.936 Y127.025 E.03584
G1 X142.347 Y128.088 E.03608
G1 X141.653 Y129.075 E.03582
G1 X140.854 Y129.989 E.03605
G1 X139.345 Y131.295 E.05925
G1 X138.329 Y131.955 E.03597
G1 X136.866 Y132.673 E.04839
G1 X134.953 Y133.27 E.0595
G1 X133.351 Y133.515 E.04812
G1 X97.649 Y133.515 E1.06004
G1 X96.047 Y133.27 E.04812
G1 X94.883 Y132.949 E.03585
G1 X93.75 Y132.508 E.0361
G1 X92.671 Y131.955 E.036
G1 X91.655 Y131.295 E.03597
G1 X90.713 Y130.534 E.03596
G1 X89.851 Y129.674 E.03615
G1 X89.09 Y128.734 E.03591
G1 X88.427 Y127.712 E.03617
G1 X87.594 Y125.913 E.05886
G1 X87.245 Y124.75 E.03605
G1 X86.977 Y123.118 E.04911
G1 X86.977 Y107.882 E.45238
G1 X87.15 Y106.682 E.036
G1 X87.452 Y105.507 E.03602
G1 X87.882 Y104.367 E.03618
G1 X88.427 Y103.288 E.03589
G1 X89.09 Y102.266 E.03617
G1 X89.851 Y101.326 E.03591
G1 X90.671 Y100.508 E.03439
G1 X90.922 Y100.761 F4800
G1 F1440
G1 X91.874 Y99.987 E.03643
G1 X92.86 Y99.348 E.03489
G1 X94.255 Y98.664 E.04613
G1 X96.137 Y98.075 E.05855
G1 X97.668 Y97.842 E.04598
G1 X132.532 Y97.801 E1.03516
G1 X133.703 Y97.879 E.03485
G1 X134.863 Y98.075 E.03493
G1 X136.745 Y98.664 E.05855
G1 X138.14 Y99.348 E.04613
G1 X139.749 Y100.472 E.05828
G1 X140.607 Y101.268 E.03475
G1 X141.38 Y102.155 E.03493
G1 X142.258 Y103.455 E.04658
G1 X143.074 Y105.22 E.05773
G1 X143.498 Y106.74 E.04685
G1 X143.667 Y107.902 E.03486
G1 X143.714 Y108.873 E.02886
G1 X143.714 Y122.127 E.39353
G1 X143.667 Y123.098 E.02886
G1 X143.498 Y124.26 E.03486
G1 X143.074 Y125.78 E.04685
G1 X142.621 Y126.858 E.03472
G1 X142.051 Y127.888 E.03495
G1 X141.38 Y128.845 E.0347
G1 X140.607 Y129.732 E.03493
G1 X139.126 Y131.013 E.05814
G1 X138.14 Y131.652 E.03489
G1 X136.742 Y132.338 E.04624
G1 X134.863 Y132.925 E.05845
G1 X133.332 Y133.158 E.04598
G1 X98.468 Y133.199 E1.03516
G1 X96.506 Y133 E.05855
G1 X95.363 Y132.725 E.03491
G1 X94.258 Y132.338 E.03476
G1 X93.193 Y131.838 E.03493
G1 X91.874 Y131.013 E.04619
G1 X90.96 Y130.276 E.03486
G1 X90.124 Y129.444 E.03502
G1 X89.385 Y128.534 E.03481
G1 X88.742 Y127.545 E.03503
G1 X87.926 Y125.78 E.05773
G1 X87.589 Y124.654 E.0349
G1 X87.333 Y123.098 E.04682
G1 X87.333 Y107.902 E.45119
G1 X87.503 Y106.74 E.03487
G1 X87.796 Y105.603 E.03486
G1 X88.213 Y104.5 E.03501
G1 X88.743 Y103.455 E.03479
G1 X89.385 Y102.466 E.03501
G1 X90.124 Y101.556 E.03481
G1 X90.88 Y100.804 E.03166
G1 X91.131 Y101.057 F4800
G1 F1440
G1 X92.094 Y100.268 E.03696
G1 X93.049 Y99.65 E.03377
G1 X94.379 Y98.999 E.04397
G1 X96.226 Y98.421 E.05746
G1 X97.686 Y98.199 E.04385
G1 X132.514 Y98.158 E1.03409
G1 X133.649 Y98.233 E.03377
G1 X134.774 Y98.421 E.03387
G1 X136.621 Y98.999 E.05746
G1 X137.951 Y99.65 E.04397
G1 X139.529 Y100.753 E.05716
G1 X140.359 Y101.526 E.03368
G1 X141.107 Y102.385 E.03382
G1 X141.942 Y103.622 E.04431
G1 X142.743 Y105.352 E.0566
G1 X143.145 Y106.798 E.04456
G1 X143.357 Y108.873 E.06193
G1 X143.357 Y122.127 E.39353
G1 X143.145 Y124.202 E.06193
G1 X142.743 Y125.648 E.04456
G1 X142.305 Y126.691 E.03359
G1 X141.756 Y127.688 E.03379
G1 X141.107 Y128.615 E.0336
G1 X140.359 Y129.474 E.03382
G1 X138.906 Y130.732 E.05706
G1 X137.951 Y131.35 E.03377
G1 X136.619 Y132.003 E.04405
G1 X134.774 Y132.579 E.05739
G1 X133.314 Y132.801 E.04385
G1 X98.486 Y132.842 E1.03409
G1 X96.559 Y132.647 E.05751
G1 X95.452 Y132.379 E.03382
G1 X94.381 Y132.003 E.0337
G1 X93.351 Y131.517 E.03382
G1 X92.094 Y130.732 E.044
G1 X91.208 Y130.019 E.03377
G1 X90.397 Y129.214 E.03393
G1 X89.681 Y128.334 E.03368
G1 X89.058 Y127.378 E.03388
G1 X88.257 Y125.648 E.0566
G1 X87.933 Y124.558 E.03376
G1 X87.69 Y123.079 E.0445
G1 X87.69 Y107.921 E.45006
G1 X87.855 Y106.798 E.0337
G1 X88.14 Y105.699 E.03371
G1 X88.545 Y104.633 E.03386
G1 X89.058 Y103.622 E.03366
G1 X89.681 Y102.666 E.03388
G1 X90.397 Y101.786 E.03368
G1 X91.089 Y101.099 E.02895
; printing object NO_TXT_Kostka.stl id:0 copy 0
G1 E-3.5 F3600
;WIPE_START
G1 F3840
G1 X92.094 Y100.268 E-1.16143
G1 X92.413 Y100.061 E-.33857
;WIPE_END
G1 X105.312 Y118.862 F4800
G1 E5 F2400
;TYPE:External perimeter
;WIDTH:0.38292
G1 F1440
G1 X105.219 Y118.865 E.00263
G1 X104.445 Y119.725 F4800
;TYPE:Perimeter
;WIDTH:0.399999
G1 F1440
G1 X103.615 Y119.659 E.02472
G1 X103.116 Y119.69 E.01484
G1 X103.403 Y119.313 E.01407
G1 X103.759 Y118.611 E.02337
G1 X104.021 Y117.98 E.02029
;WIDTH:0.433038
G1 X104.244 Y117.381 E.02073
G1 X104.241 Y117.463 E.00266
;WIDTH:0.426104
G1 X104.25 Y118.019 E.01772
;WIDTH:0.399999
G1 X104.334 Y118.407 E.01179
G1 X104.66 Y118.919 E.01802
G1 X104.475 Y119.29 E.01231
G1 X104.449 Y119.665 E.01116
G1 X104.006 Y119.186 F4800
;WIDTH:0.64652
G1 F1440
G1 X104.11 Y118.945 E.01317
G1 E-3.5 F3600
;WIPE_START
G1 F3840
G1 X104.006 Y119.186 E-.23377
;WIPE_END
G1 E-1.26623 F3600
G1 X105.275 Y115.48 F4800
G1 E5 F2400
;WIDTH:0.561745
G1 F1440
G1 X104.995 Y115.629 E.01368
G1 X104.695 Y115.842 E.01587
G1 X104.627 Y115.735 E.00547
G1 X104.353 Y115.522 E.01497
;WIDTH:0.559961
G1 X104.122 Y115.451 E.01039
G1 X104.352 Y115.328 E.01121
G1 X104.66 Y115.074 E.01716
;WIDTH:0.561745
G1 X104.899 Y115.275 E.01347
G1 X105.222 Y115.451 E.01587
G1 E-3.5 F3600
;WIPE_START
G1 F3840
G1 X104.995 Y115.629 E-.25692
G1 X104.695 Y115.842 E-.32768
G1 X104.627 Y115.735 E-.11291
G1 X104.353 Y115.522 E-.30909
G1 X104.122 Y115.451 E-.21523
G1 X104.352 Y115.328 E-.2323
G1 X104.392 Y115.295 E-.04587
;WIPE_END
G1 X107.259 Y115.494 F4800
G1 E5 F2400
;WIDTH:0.399999
G1 F1440
G1 X107.77 Y115.264 E.01664
G1 X108.151 Y114.951 E.01464
G1 X108.44 Y114.581 E.01394
G1 X108.637 Y114.181 E.01324
G1 X108.746 Y113.672 E.01546
G1 X108.735 Y113.112 E.01663
G1 X108.564 Y112.619 E.01549
G1 X108.753 Y112.281 E.0115
;WIDTH:0.441138
G1 X108.809 Y112.164 E.00429
;WIDTH:0.482276
G1 X108.865 Y112.047 E.00474
;WIDTH:0.523414
G1 X108.922 Y111.931 E.00516
;WIDTH:0.564552
G1 X108.978 Y111.814 E.00563
G1 X108.992 Y111.877 E.0028
;WIDTH:0.537711
G1 X109.006 Y111.941 E.0027
;WIDTH:0.510869
G1 X109.088 Y112.107 E.0072
;WIDTH:0.473913
G1 X109.17 Y112.273 E.00664
;WIDTH:0.436956
G1 X109.252 Y112.438 E.00604
;WIDTH:0.399999
G1 X109.48 Y112.642 E.00908
G1 X109.709 Y112.708 E.00708
G1 X109.709 Y114.743 E.06042
G1 X109.781 Y115.093 E.01061
G1 X109.98 Y115.383 E.01044
G1 X110.372 Y115.563 E.01281
G1 X109.98 Y115.742 E.01279
G1 X109.808 Y115.974 E.00857
G1 X109.729 Y116.196 E.007
G1 X109.709 Y116.627 E.01281
G1 X109.536 Y116.67 E.00529
G1 X109.236 Y116.928 E.01175
;WIDTH:0.441867
G1 X109.172 Y117.041 E.00431
;WIDTH:0.483735
G1 X109.108 Y117.154 E.00476
;WIDTH:0.525603
G1 X109.044 Y117.267 E.00521
;WIDTH:0.56747
G1 X108.98 Y117.38 E.00566
G1 X108.926 Y117.247 E.00626
;WIDTH:0.525603
G1 X108.873 Y117.113 E.00578
;WIDTH:0.483735
G1 X108.82 Y116.98 E.00525
;WIDTH:0.441867
G1 X108.767 Y116.846 E.00478
;WIDTH:0.399999
G1 X108.527 Y116.392 E.01525
G1 X108.217 Y116.041 E.0139
G1 X107.775 Y115.716 E.01629
G1 X107.314 Y115.518 E.0149
G1 E-3.5 F3600
;WIPE_START
G1 F3840
G1 X107.77 Y115.264 E-.46488
G1 X108.151 Y114.951 E-.43915
G1 X108.44 Y114.581 E-.41814
G1 X108.528 Y114.402 E-.17783
;WIPE_END
G1 X104.626 Y112.64 F4800
G1 E5 F2400
;WIDTH:0.459082
G1 F1440
G1 X104.251 Y112.559 E.01328
G1 X103.864 Y112.565 E.01339
;WIDTH:0.456821
G1 X103.922 Y112.196 E.01286
;WIDTH:0.459082
G1 X104.427 Y112.144 E.01757
G1 X104.473 Y112.289 E.00526
G1 X104.646 Y112.594 E.01213
G1 X104.681 Y111.616 F4800
;TYPE:External perimeter
;WIDTH:0.475426
G1 F1440
G1 X104.669 Y111.399 E.00782
;WIDTH:0.50496
G1 X104.657 Y111.182 E.00835
G1 X103.265 Y111.62 F4800
;TYPE:Perimeter
;WIDTH:0.388282
G1 F1440
G1 X103.043 Y111.604 E.00639
G1 X102.668 Y111.535 E.01095
;WIDTH:0.385384
G1 X102.643 Y111.383 E.00439
G1 X102.742 Y111.285 E.00397
;WIDTH:0.388282
G1 X103.031 Y111.258 E.00834
G1 X103.178 Y111.307 E.00445
G1 X103.248 Y111.562 E.00759
G1 E-3.5 F3600
;WIPE_START
G1 F3840
G1 X103.043 Y111.604 E-.18637
G1 X102.668 Y111.535 E-.33959
G1 X102.643 Y111.383 E-.13719
G1 X102.742 Y111.285 E-.12407
G1 X103.031 Y111.258 E-.25851
G1 X103.178 Y111.307 E-.138
G1 X103.248 Y111.562 E-.23551
;WIPE_END
G1 E-.08076 F3600
G1 X101.155 Y111.827 F4800
G1 E5 F2400
;TYPE:External perimeter
;WIDTH:0.575222
G1 F1440
G1 X101.114 Y111.404 E.01881
G1 E-3.5 F3600
;WIPE_START
G1 F3840
G1 X101.155 Y111.827 E-.3785
;WIPE_END
G1 E-1.1215 F3600
G1 X102.7 Y115.604 F4800
G1 E5 F2400
;TYPE:Perimeter
;WIDTH:0.399999
G1 F1440
G1 X102.338 Y115.834 E.01273
G1 X102.172 Y116.186 E.01156
G1 X101.978 Y117.043 E.02609
G1 X101.807 Y117.572 E.01651
G1 X101.679 Y117.067 E.01547
G1 X101.333 Y116.37 E.0231
G1 X101 Y116.009 E.01458
G1 X100.459 Y115.643 E.01939
G1 X100.135 Y115.509 E.01041
G1 X100.29 Y115.455 E.00487
G1 X100.823 Y115.162 E.01806
G1 X101.088 Y114.887 E.01134
G1 X101.214 Y115.037 E.00582
G1 X101.569 Y115.294 E.01301
G1 X102.003 Y115.487 E.0141
G1 X102.641 Y115.594 E.01921
G1 E-3.5 F3600
;WIPE_START
G1 F3840
G1 X102.338 Y115.834 E-.34426
G1 X102.172 Y116.186 E-.34661
G1 X101.978 Y117.043 E-.78258
G1 X101.969 Y117.071 E-.02655
;WIPE_END
G1 X99.295 Y120.076 F4800
G1 E5 F2400
;TYPE:External perimeter
;WIDTH:0.521133
G1 F1440
G1 X99.01 Y120.045 E.0114
;WIDTH:0.516529
G1 X98.824 Y119.886 E.00964
;WIDTH:0.532616
G1 X98.743 Y119.665 E.00958
;WIDTH:0.559976
G1 X98.626 Y119.504 E.00856
G1 X99.138 Y119.586 E.02229
;WIDTH:0.516529
G1 X99.46 Y119.578 E.01268
;WIDTH:0.513118
G1 X99.941 Y119.425 E.01973
G1 X99.847 Y119.717 E.01199
G1 X99.575 Y119.999 E.01532
;WIDTH:0.521133
G1 X99.353 Y120.06 E.00915
G1 X99.063 Y121.918 F4800
;TYPE:Perimeter
;WIDTH:0.399999
G1 F1440
G1 X98.895 Y121.916 E.00499
G1 X98.388 Y121.814 E.01536
G1 X98.021 Y121.639 E.01207
G1 X97.58 Y121.329 E.01601
G1 X97.263 Y120.901 E.01581
G1 X97.137 Y120.615 E.00928
G1 X96.994 Y120.128 E.01507
G1 X97.009 Y119.55 E.01717
G1 X97.136 Y119.221 E.01047
G1 X97.189 Y119.177 E.00205
G1 X97.013 Y118.873 E.01043
G1 X96.869 Y118.309 E.01728
G1 X96.861 Y117.582 E.02159
G1 X96.97 Y117.078 E.01531
G1 X97.157 Y116.648 E.01392
G1 X97.558 Y116.103 E.02009
G1 X97.778 Y115.903 E.00883
G1 X98.289 Y115.585 E.01787
G1 X98.583 Y115.488 E.00919
G1 X98.174 Y115.32 E.01313
G1 X97.746 Y114.998 E.0159
G1 X97.548 Y114.78 E.00874
G1 X97.235 Y114.294 E.01716
G1 X97.025 Y113.761 E.01701
G1 X96.917 Y113.257 E.0153
G1 X96.859 Y112.469 E.02346
G1 X96.926 Y111.527 E.02804
G1 X97.135 Y110.744 E.02406
G1 X97.3 Y110.355 E.01255
G1 X97.589 Y109.902 E.01595
G1 X97.977 Y109.536 E.01584
G1 X98.319 Y109.332 E.01182
G1 X98.822 Y109.138 E.01601
G1 X99.382 Y109.071 E.01675
G1 X99.901 Y109.122 E.01548
G1 X100.147 Y109.184 E.00753
G1 X100.706 Y109.449 E.01837
G1 X101.091 Y109.793 E.01533
G1 X101.414 Y109.508 E.01279
G1 X101.96 Y109.227 E.01823
G1 X102.454 Y109.107 E.01509
G1 X102.954 Y109.071 E.01488
G1 X103.521 Y109.113 E.01688
G1 X104.117 Y109.3 E.01855
G1 X104.44 Y109.488 E.0111
G1 X104.675 Y109.702 E.00944
G1 X105.092 Y109.372 E.01579
G1 X105.752 Y109.133 E.02084
G1 X106.018 Y109.091 E.008
G1 X106.707 Y109.086 E.02046
G1 X107.21 Y109.179 E.01519
G1 X107.775 Y109.416 E.01819
G1 X108.176 Y109.699 E.01457
G1 X108.527 Y110.092 E.01565
G1 X108.767 Y110.546 E.01525
;WIDTH:0.441867
G1 X108.82 Y110.68 E.00478
;WIDTH:0.483735
G1 X108.873 Y110.813 E.00525
;WIDTH:0.525603
G1 X108.926 Y110.947 E.00578
;WIDTH:0.56747
G1 X108.98 Y111.08 E.00626
G1 X109.044 Y110.967 E.00566
;WIDTH:0.525603
G1 X109.108 Y110.854 E.00521
;WIDTH:0.483735
G1 X109.172 Y110.741 E.00476
;WIDTH:0.441867
G1 X109.236 Y110.628 E.00431
;WIDTH:0.399999
G1 X109.536 Y110.37 E.01175
G1 X109.709 Y110.327 E.00529
G1 X109.729 Y109.896 E.01281
G1 X109.876 Y109.562 E.01083
G1 X110.184 Y109.294 E.01212
G1 X110.602 Y109.19 E.01279
G1 X111.398 Y109.19 E.02363
G1 X111.777 Y109.274 E.01153
G1 X112.116 Y109.552 E.01302
G1 X112.277 Y109.923 E.01201
G1 X112.291 Y110.29 E.0109
G1 X112.987 Y110.329 E.0207
G1 X113.119 Y110.093 E.00803
G1 X113.476 Y109.662 E.01662
G1 X114.091 Y109.287 E.02139
G1 X114.651 Y109.12 E.01735
G1 X115.149 Y109.073 E.01485
G1 X115.68 Y109.1 E.01579
G1 X116.378 Y109.3 E.02156
G1 X116.699 Y109.486 E.01102
G1 X116.87 Y109.639 E.00681
G1 X116.956 Y109.475 E.0055
G1 X117.19 Y109.295 E.00877
G1 X117.609 Y109.19 E.01283
G1 X118.406 Y109.19 E.02366
G1 X118.878 Y109.325 E.01458
G1 X119.175 Y109.629 E.01262
G1 X119.299 Y110.083 E.01397
G1 X119.299 Y110.267 E.00546
G1 X120.338 Y110.267 E.03085
G1 X120.754 Y110.37 E.01272
G1 X120.873 Y110.445 E.00418
G1 X121.097 Y110.69 E.00986
G1 X121.18 Y110.862 E.00567
G1 X121.231 Y111.159 E.00895
;WIDTH:0.447002
G1 X121.254 Y111.216 E.00207
;WIDTH:0.494005
G1 X121.278 Y111.273 E.00232
;WIDTH:0.541008
G1 X121.301 Y111.329 E.00251
;WIDTH:0.588011
G1 X121.325 Y111.386 E.0028
;WIDTH:0.635014
G1 X121.348 Y111.443 E.00303
;WIDTH:0.682016
G1 X121.372 Y111.5 E.00329
G1 X121.409 Y111.451 E.00326
;WIDTH:0.635014
G1 X121.447 Y111.403 E.00301
;WIDTH:0.588011
G1 X121.484 Y111.354 E.00278
;WIDTH:0.541008
G1 X121.522 Y111.305 E.00257
;WIDTH:0.494005
G1 X121.559 Y111.257 E.00227
;WIDTH:0.447002
G1 X121.597 Y111.208 E.00208
;WIDTH:0.399999
G1 X121.766 Y110.665 E.01689
G1 X122.016 Y110.184 E.0161
G1 X122.159 Y109.983 E.00732
G1 X122.491 Y109.631 E.01437
G1 X122.73 Y109.451 E.00888
G1 X123.143 Y109.237 E.01381
G1 X123.42 Y109.147 E.00865
G1 X124.006 Y109.069 E.01755
G1 X124.567 Y109.114 E.01671
G1 X125.024 Y109.242 E.01409
G1 X125.454 Y109.472 E.01448
G1 X125.802 Y109.778 E.01376
G1 X125.913 Y109.917 E.00528
G1 X126.043 Y109.583 E.01064
G1 X126.315 Y109.322 E.01119
G1 X126.541 Y109.223 E.00733
G1 X127.412 Y109.19 E.02588
G1 X127.785 Y109.206 E.01109
G1 X128.047 Y109.301 E.00827
G1 X128.321 Y109.535 E.0107
G1 X128.489 Y109.896 E.01182
G1 X128.519 Y110.822 E.02751
G1 X128.777 Y110.253 E.01855
G1 X129.082 Y109.844 E.01515
G1 X129.519 Y109.475 E.01698
G1 X130.016 Y109.236 E.01637
G1 X130.58 Y109.111 E.01715
G1 X131.285 Y109.099 E.02094
G1 X131.677 Y109.175 E.01186
G1 X132.202 Y109.351 E.01644
