; generated by PrusaSlicer 2.7.2+win64 on 2024-03-08 at 23:51:36 UTC

; 

; external perimeters extrusion width = 0.42mm
; perimeters extrusion width = 0.44mm
; infill extrusion width = 0.44mm
; solid infill extrusion width = 0.44mm
; top infill extrusion width = 0.40mm
; first layer extrusion width = 0.42mm


; printing object Shape-Box id:0 copy 0
; stop printing object Shape-Box id:0 copy 0

;TYPE:Custom
; Ender 3 Custom Start G-code
G92 E0 ; Reset Extruder

M140 S55 ; set bed temp
M104 S160 ; set extruder temp
M109 S160 ; wait for extruder temp
M190 S55 ; wait for bed temp

G28 ; Home all axes
M104 S210 ; set extruder temp 
BED_MESH_CALIBRATE AREA_START=83.7684,88.5669 AREA_END=143.763,126.207

G1 Z2.0 F3000 ; Move Z Axis up little to prevent scratching of Heat Bed
M109 S210 ; wait for extruder temp
G1 X0.1 Y20 Z0.3 F5000.0 ; Move to start position

G1 X0.1 Y200.0 Z0.3 F1500.0 E15 ; Draw the first line
G1 X0.4 Y200.0 Z0.3 F5000.0 ; Move to side a little
G1 X0.4 Y20 Z0.3 F1500.0 E30 ; Draw the second line
G92 E0 ; Reset Extruder
G1 Z2.0 F3000 ; Move Z Axis up little to prevent scratching of Heat Bed
G1 X5 Y20 Z0.3 F5000.0 ; Move over to prevent blob squish
G21 ; set units to millimeters
G90 ; use absolute coordinates
M83 ; use relative distances for extrusion
; Filament gcode
M107
;LAYER_CHANGE
;Z:0.2
;HEIGHT:0.2
G1 E-1.6 F2400
G1 Z.2 F6000
G1 X87.857 Y91.701
G1 Z.2
G1 E1.6 F2400
M204 S500
;TYPE:Skirt/Brim
;WIDTH:0.42
G1 F1200
G1 X88.725 Y90.996 E.03296
G1 X89.656 Y90.382 E.03287
G1 X91.322 Y89.564 E.0547
G1 X93.099 Y89.026 E.05472
G1 X94.721 Y88.79 E.04831
G1 X132.884 Y88.805 E1.12478
G1 X133.843 Y88.938 E.02854
G1 X135.87 Y89.494 E.06195
G1 X137.7 Y90.365 E.05973
G1 X139.14 Y91.376 E.05186
G1 X140.583 Y92.775 E.05924
G1 X141.374 Y93.79 E.03793
G1 X141.835 Y94.519 E.02542
G1 X142.681 Y96.304 E.05822
G1 X143.24 Y98.341 E.06226
G1 X143.425 Y100.341 E.0592
G1 X143.575 Y114.341 E.41265
G1 X143.503 Y115.668 E.03917
G1 X143.296 Y116.888 E.03647
G1 X142.676 Y118.864 E.06104
G1 X141.69 Y120.733 E.06228
G1 X140.467 Y122.296 E.05849
G1 X139.688 Y123.064 E.03224
G1 X138.815 Y123.771 E.03311
G1 X137.173 Y124.778 E.05677
G1 X136.08 Y125.257 E.03517
G1 X134.281 Y125.783 E.05524
G1 X132.523 Y126.003 E.05222
G1 X95.078 Y126.009 E1.10362
G1 X93.39 Y125.81 E.0501
G1 X92.295 Y125.542 E.03323
G1 X91.185 Y125.153 E.03467
G1 X89.854 Y124.506 E.04362
G1 X88.8 Y123.835 E.03683
G1 X87.851 Y123.075 E.03583
G1 X86.76 Y121.96 E.04598
G1 X86.154 Y121.19 E.02888
G1 X85.328 Y119.862 E.04609
G1 X84.772 Y118.665 E.0389
G1 X84.319 Y117.276 E.04306
G1 X84.013 Y115.506 E.05294
G1 X83.957 Y114.505 E.02955
G1 X83.987 Y99.578 E.43994
G1 X84.339 Y97.433 E.06407
G1 X84.956 Y95.673 E.05497
G1 X85.359 Y94.854 E.0269
G1 X86.242 Y93.468 E.04844
G1 X86.875 Y92.684 E.0297
G1 X87.814 Y91.744 E.03916
G1 X87.814 Y91.744 F6000
G1 X88.08 Y92.01
G1 F1200
G1 X88.109 Y91.982 E.00119
G1 X88.937 Y91.308 E.03147
G1 X89.836 Y90.714 E.03176
G1 X91.455 Y89.917 E.05319
G1 X92.992 Y89.437 E.04746
G1 X94.74 Y89.166 E.05213
G1 X131.692 Y89.133 E1.08909
G1 X133.767 Y89.308 E.06137
G1 X135.748 Y89.851 E.06054
G1 X137.509 Y90.69 E.05749
G1 X138.893 Y91.661 E.04983
G1 X140.304 Y93.029 E.05792
G1 X141.07 Y94.013 E.03675
G1 X141.565 Y94.802 E.02745
G1 X142.414 Y96.673 E.06056
G1 X142.882 Y98.473 E.05482
G1 X143.048 Y100.345 E.05539
G1 X143.198 Y114.345 E.41265
G1 X143.13 Y115.614 E.03745
G1 X142.924 Y116.824 E.03618
G1 X142.331 Y118.712 E.05833
G1 X141.369 Y120.534 E.06073
G1 X140.198 Y122.031 E.05602
G1 X139.594 Y122.642 E.02532
G1 X138.603 Y123.459 E.03785
G1 X136.981 Y124.453 E.05607
G1 X135.395 Y125.098 E.05046
G1 X134.218 Y125.411 E.0359
G1 X132.355 Y125.634 E.0553
G1 X95.105 Y125.633 E1.09787
G1 X93.449 Y125.437 E.04915
G1 X92.304 Y125.154 E.03476
G1 X91.337 Y124.807 E.03028
G1 X90.03 Y124.173 E.04281
G1 X89.019 Y123.528 E.03534
G1 X88.102 Y122.794 E.03462
G1 X87.039 Y121.706 E.04483
G1 X86.452 Y120.958 E.02802
G1 X85.657 Y119.676 E.04446
G1 X85.128 Y118.539 E.03696
G1 X84.684 Y117.182 E.04208
G1 X84.387 Y115.46 E.0515
G1 X84.334 Y114.505 E.02819
G1 X84.363 Y99.603 E.43921
G1 X84.7 Y97.541 E.06158
G1 X85.307 Y95.811 E.05404
G1 X85.705 Y95.004 E.02652
G1 X86.553 Y93.681 E.04632
G1 X87.156 Y92.934 E.02829
G1 X88.038 Y92.052 E.03676
G1 X88.038 Y92.052 F6000
G1 X88.304 Y92.318
G1 F1200
G1 X88.361 Y92.262 E.00236
G1 X89.149 Y91.62 E.02996
G1 X90.029 Y91.037 E.03111
G1 X91.588 Y90.27 E.05121
G1 X93.208 Y89.774 E.04993
G1 X94.758 Y89.543 E.04619
G1 X131.692 Y89.51 E1.08856
G1 X133.69 Y89.677 E.05909
G1 X135.628 Y90.208 E.05922
G1 X137.318 Y91.015 E.0552
G1 X138.647 Y91.947 E.04784
G1 X140.013 Y93.269 E.05603
G1 X140.766 Y94.236 E.03612
G1 X141.237 Y94.988 E.02615
G1 X142.054 Y96.785 E.05818
G1 X142.512 Y98.545 E.0536
G1 X142.671 Y100.349 E.05338
G1 X142.821 Y114.349 E.41265
G1 X142.744 Y115.641 E.03815
G1 X142.521 Y116.917 E.03818
G1 X142.276 Y117.78 E.02644
G1 X141.409 Y119.75 E.06344
G1 X140.675 Y120.874 E.03957
G1 X140.018 Y121.672 E.03047
G1 X139.333 Y122.37 E.02882
G1 X138.39 Y123.147 E.03601
G1 X136.804 Y124.12 E.05484
G1 X135.27 Y124.742 E.04879
G1 X134.141 Y125.042 E.03443
G1 X132.345 Y125.257 E.05331
G1 X95.131 Y125.257 E1.09681
G1 X93.508 Y125.065 E.04817
G1 X92.409 Y124.792 E.03338
G1 X91.488 Y124.462 E.02883
G1 X90.206 Y123.839 E.04201
G1 X89.238 Y123.221 E.03385
G1 X88.306 Y122.47 E.03528
G1 X87.318 Y121.453 E.04179
G1 X86.76 Y120.741 E.02666
G1 X85.985 Y119.491 E.04335
G1 X85.483 Y118.413 E.03505
G1 X85.05 Y117.087 E.04111
G1 X84.761 Y115.415 E.05001
G1 X84.739 Y99.629 E.46526
G1 X85.061 Y97.651 E.05907
G1 X85.658 Y95.948 E.05319
G1 X86.04 Y95.178 E.02533
G1 X86.862 Y93.897 E.04486
G1 X87.438 Y93.185 E.02699
G1 X88.262 Y92.361 E.03435
; printing object Shape-Box id:0 copy 0
G1 E-1.12 F2400
;WIPE_START
G1 F4800
G1 X88.304 Y92.318 E-.02855
G1 X88.361 Y92.262 E-.03796
G1 X89.036 Y91.712 E-.41349
;WIPE_END
G1 X128 Y113.001 F6000
G1 E1.6 F2400
;TYPE:Perimeter
G1 F1200
G1 X127.926 Y112.972 E.00234
G1 X127.847 Y112.889 E.00338
G1 X127.799 Y112.792 E.00319
G1 X127.735 Y112.539 E.00769
G1 X127.679 Y111.914 E.01849
G1 X127.679 Y111.378 E.0158
G1 X127.739 Y110.734 E.01906
G1 X127.799 Y110.496 E.00723
G1 X127.855 Y110.382 E.00374
G1 X127.944 Y110.294 E.00369
G1 X128.055 Y110.307 E.00329
G1 X128.126 Y110.38 E.003
G1 X128.18 Y110.49 E.00361
G1 X128.241 Y110.737 E.0075
G1 X128.286 Y111.122 E.01142
G1 X128.298 Y111.91 E.02323
G1 X128.232 Y112.569 E.01952
G1 X128.205 Y112.69 E.00365
G1 X128.13 Y112.895 E.00643
G1 X128.075 Y112.974 E.00284
G1 X128.056 Y112.981 E.0006
G1 X128.056 Y112.981 F6000
G1 X127.997 Y113.381
;TYPE:External perimeter
G1 F1200
G1 X127.875 Y113.366 E.00362
G1 X127.699 Y113.281 E.00576
G1 X127.535 Y113.108 E.00703
G1 X127.443 Y112.923 E.00609
G1 X127.365 Y112.613 E.00942
G1 X127.337 Y112.418 E.00581
G1 X127.302 Y111.927 E.01451
G1 X127.302 Y111.36 E.01671
G1 X127.366 Y110.67 E.02042
G1 X127.443 Y110.364 E.0093
G1 X127.538 Y110.173 E.00629
G1 X127.645 Y110.048 E.00485
G1 X127.755 Y109.964 E.00408
G1 X127.859 Y109.921 E.00332
G1 X128.052 Y109.909 E.0057
G1 X128.232 Y109.968 E.00558
G1 X128.337 Y110.047 E.00387
G1 X128.444 Y110.171 E.00483
G1 X128.536 Y110.36 E.0062
G1 X128.613 Y110.669 E.00939
G1 X128.663 Y111.097 E.0127
G1 X128.675 Y111.926 E.02444
G1 X128.605 Y112.63 E.02085
G1 X128.568 Y112.796 E.00501
G1 X128.469 Y113.066 E.00848
G1 X128.371 Y113.214 E.00523
G1 X128.284 Y113.293 E.00346
G1 X128.118 Y113.368 E.00537
G1 X128.057 Y113.374 E.00181
G1 X128.057 Y113.374 F6000
G1 X128 Y112.689
;TYPE:Gap fill
;WIDTH:0.173814
G1 F1200
G1 X127.985 Y112.49 E.00204
;WIDTH:0.249899
G1 X127.992 Y110.962 E.02472
;WIDTH:0.175226
G1 X127.976 Y110.587 E.00388
G1 E-1.12 F2400
;WIPE_START
G1 F4800
G1 X127.992 Y110.962 E-.17829
G1 X127.989 Y111.597 E-.30171
;WIPE_END
G1 X123.692 Y112.088 F6000
G1 E1.6 F2400
;TYPE:Perimeter
;WIDTH:0.42
G1 F1200
G1 X123.74 Y112.044 E.00192
G1 X123.88 Y112.004 E.00429
G1 X124.062 Y112.023 E.00539
G1 X124.183 Y112.09 E.00408
G1 X124.241 Y112.151 E.00248
G1 X124.316 Y112.306 E.00508
G1 X124.335 Y112.573 E.00789
G1 X124.312 Y112.718 E.00433
G1 X124.273 Y112.829 E.00347
G1 X124.146 Y113.002 E.00633
G1 X124.011 Y113.086 E.00469
G1 X123.872 Y113.101 E.00412
G1 X123.761 Y113.064 E.00345
G1 X123.702 Y113.02 E.00217
G1 X123.596 Y112.874 E.00532
G1 X123.539 Y112.626 E.0075
G1 X123.56 Y112.312 E.00928
G1 X123.636 Y112.138 E.0056
G1 X123.647 Y112.128 E.00044
G1 X123.647 Y112.128 F6000
G1 X123.33 Y111.914
;TYPE:External perimeter
G1 F1200
G1 X123.435 Y111.798 E.00461
G1 X123.554 Y111.713 E.00431
G1 X123.688 Y111.657 E.00428
G1 X123.842 Y111.627 E.00462
G1 X123.969 Y111.626 E.00374
G1 X124.166 Y111.658 E.00588
G1 X124.302 Y111.714 E.00433
G1 X124.428 Y111.801 E.00451
G1 X124.54 Y111.918 E.00477
G1 X124.625 Y112.054 E.00473
G1 X124.682 Y112.209 E.00487
G1 X124.712 Y112.39 E.00541
G1 X124.712 Y112.603 E.00628
G1 X124.679 Y112.81 E.00618
G1 X124.616 Y112.989 E.00559
G1 X124.524 Y113.146 E.00536
G1 X124.402 Y113.281 E.00536
G1 X124.27 Y113.381 E.00488
G1 X124.133 Y113.445 E.00446
G1 X123.986 Y113.477 E.00443
G1 X123.832 Y113.478 E.00454
G1 X123.693 Y113.448 E.00419
G1 X123.566 Y113.39 E.00411
G1 X123.446 Y113.299 E.00444
G1 X123.335 Y113.176 E.00488
G1 X123.251 Y113.03 E.00496
G1 X123.192 Y112.858 E.00536
G1 X123.162 Y112.654 E.00608
G1 X123.162 Y112.427 E.00669
G1 X123.192 Y112.224 E.00605
G1 X123.248 Y112.055 E.00525
G1 X123.3 Y111.966 E.00304
G1 X123.3 Y111.966 F6000
G1 X123.816 Y112.148
;TYPE:Solid infill
;WIDTH:0.439096
G1 F1200
G1 X124.03 Y112.382 E.00982
G1 X124.043 Y112.561 E.00556
G1 X124.013 Y112.692 E.00416
G1 X123.912 Y112.804 E.00467
G1 X123.665 Y112.557 E.01082
G1 E-1.12 F2400
;WIPE_START
G1 F4800
G1 X123.912 Y112.804 E-.16592
G1 X124.013 Y112.692 E-.07164
G1 X124.043 Y112.561 E-.06384
G1 X124.03 Y112.382 E-.08525
G1 X123.897 Y112.237 E-.09335
;WIPE_END
G1 X118.574 Y111.144 F6000
G1 E1.6 F2400
;TYPE:External perimeter
;WIDTH:0.42
G1 F1200
G1 X117.729 Y112.362 E.04369
G1 X117.617 Y112.523 E.00578
G1 X117.617 Y111.144 E.04064
G1 X118.514 Y111.144 E.02644
G1 E-1.12 F2400
;WIPE_START
G1 F4800
G1 X118.574 Y111.144 E-.0285
G1 X118.032 Y111.925 E-.4515
;WIPE_END
G1 X95.32 Y113.001 F6000
G1 E1.6 F2400
;TYPE:Perimeter
G1 F1200
G1 X95.246 Y112.972 E.00234
G1 X95.168 Y112.889 E.00336
G1 X95.12 Y112.792 E.00319
G1 X95.056 Y112.539 E.00769
G1 X95 Y111.914 E.01849
G1 X95 Y111.378 E.0158
G1 X95.06 Y110.734 E.01906
G1 X95.12 Y110.496 E.00723
G1 X95.176 Y110.382 E.00374
G1 X95.264 Y110.294 E.00367
G1 X95.376 Y110.307 E.00332
G1 X95.447 Y110.38 E.003
G1 X95.501 Y110.49 E.00361
G1 X95.562 Y110.737 E.0075
G1 X95.607 Y111.122 E.01142
G1 X95.619 Y111.91 E.02323
G1 X95.553 Y112.569 E.01952
G1 X95.526 Y112.69 E.00365
G1 X95.451 Y112.895 E.00643
G1 X95.396 Y112.974 E.00284
G1 X95.377 Y112.981 E.0006
G1 X95.377 Y112.981 F6000
G1 X95.318 Y113.381
;TYPE:External perimeter
G1 F1200
G1 X95.196 Y113.366 E.00362
G1 X95.02 Y113.281 E.00576
G1 X94.856 Y113.108 E.00703
G1 X94.764 Y112.923 E.00609
G1 X94.686 Y112.613 E.00942
G1 X94.657 Y112.418 E.00581
G1 X94.623 Y111.927 E.01451
G1 X94.623 Y111.36 E.01671
G1 X94.687 Y110.67 E.02042
G1 X94.764 Y110.364 E.0093
G1 X94.859 Y110.173 E.00629
G1 X94.965 Y110.048 E.00483
G1 X95.075 Y109.964 E.00408
G1 X95.18 Y109.921 E.00334
G1 X95.373 Y109.909 E.0057
G1 X95.552 Y109.968 E.00555
G1 X95.658 Y110.047 E.0039
G1 X95.765 Y110.171 E.00483
G1 X95.857 Y110.36 E.0062
G1 X95.934 Y110.669 E.00939
G1 X95.984 Y111.097 E.0127
G1 X95.996 Y111.926 E.02444
G1 X95.926 Y112.63 E.02085
G1 X95.889 Y112.796 E.00501
G1 X95.79 Y113.066 E.00848
G1 X95.692 Y113.214 E.00523
G1 X95.605 Y113.293 E.00346
G1 X95.439 Y113.368 E.00537
G1 X95.378 Y113.374 E.00181
G1 X95.378 Y113.374 F6000
G1 X95.32 Y112.689
;TYPE:Gap fill
;WIDTH:0.173812
G1 F1200
G1 X95.306 Y112.49 E.00204
;WIDTH:0.249898
G1 X95.313 Y110.962 E.02472
;WIDTH:0.175228
G1 X95.296 Y110.587 E.00388
G1 E-1.12 F2400
;WIPE_START
G1 F4800
G1 X95.313 Y110.962 E-.17831
G1 X95.31 Y111.597 E-.30169
;WIPE_END
G1 X99.273 Y104.122 F6000
G1 E1.6 F2400
;TYPE:External perimeter
;WIDTH:0.42
G1 F1200
G1 X99.273 Y102.743 E.04064
G1 X100.23 Y102.743 E.02821
G1 X99.307 Y104.072 E.04769
G1 E-1.12 F2400
;WIPE_START
G1 F4800
G1 X99.273 Y104.122 E-.02872
G1 X99.273 Y103.172 E-.45128
;WIPE_END
G1 X113.978 Y104.354 F6000
G1 E1.6 F2400
;TYPE:Perimeter
G1 F1200
G1 X113.935 Y104.49 E.0042
G1 X113.895 Y104.55 E.00213
G1 X113.81 Y104.601 E.00292
G1 X113.701 Y104.601 E.00321
G1 X113.633 Y104.56 E.00234
G1 X113.639 Y104.455 E.0031
G1 X113.698 Y104.419 E.00204
G1 X113.889 Y104.361 E.00588
G1 X113.918 Y104.359 E.00086
G1 E-1.12 F2400
;WIPE_START
G1 F4800
G1 X113.978 Y104.354 E-.0286
G1 X113.935 Y104.49 E-.06775
G1 X113.895 Y104.55 E-.03425
G1 X113.81 Y104.601 E-.04708
G1 X113.701 Y104.601 E-.05177
G1 X113.633 Y104.56 E-.03772
G1 X113.639 Y104.455 E-.04996
G1 X113.698 Y104.419 E-.03283
G1 X113.889 Y104.361 E-.09482
G1 X113.918 Y104.359 E-.01381
;WIPE_END
G1 E-.02141 F2400
G1 X114.049 Y102.324 F6000
G1 E1.6 F2400
G1 F1200
G1 X114.083 Y102.449 E.00382
G1 X113.798 Y102.51 E.00859
G1 X113.65 Y102.516 E.00437
G1 X113.557 Y102.495 E.00281
G1 X113.445 Y102.403 E.00427
G1 X113.411 Y102.328 E.00243
G1 X113.402 Y102.204 E.00366
G1 X113.429 Y102.088 E.00351
G1 X113.485 Y101.995 E.0032
G1 X113.568 Y101.924 E.00322
G1 X113.679 Y101.885 E.00347
G1 X113.802 Y101.884 E.00363
G1 X113.898 Y101.928 E.00311
G1 X113.981 Y102.075 E.00498
G1 X114.033 Y102.266 E.00583
G1 E-1.12 F2400
;WIPE_START
G1 F4800
G1 X114.049 Y102.324 E-.02858
G1 X114.083 Y102.449 E-.06153
G1 X113.798 Y102.51 E-.13844
G1 X113.65 Y102.516 E-.07036
G1 X113.557 Y102.495 E-.04529
G1 X113.445 Y102.403 E-.06885
G1 X113.411 Y102.328 E-.03911
G1 X113.407 Y102.27 E-.02784
;WIPE_END
G1 X111.376 Y102.341 F6000
G1 E1.6 F2400
G1 F1200
G1 X111.375 Y102.418 E.00227
G1 X111.427 Y102.743 E.0097
G1 X111.533 Y103.092 E.01075
G1 X111.901 Y103.602 E.01854
G1 X111.84 Y103.722 E.00397
G1 X110.062 Y103.539 E.05268
G1 X111.013 Y102.716 E.03707
G1 X111.334 Y102.384 E.01361
G1 X111.334 Y102.384 F6000
G1 X109.98 Y103.613
G1 F1200
G1 X109.895 Y104.454 E.02491
G1 X109.87 Y104.51 E.00181
G1 X109.784 Y104.579 E.00325
G1 X109.628 Y104.602 E.00465
G1 X109.543 Y104.596 E.00251
G1 X109.469 Y104.571 E.0023
G1 X109.4 Y104.511 E.00269
G1 X109.376 Y104.411 E.00303
G1 X109.399 Y104.31 E.00305
G1 X109.526 Y104.089 E.00751
G1 X109.655 Y103.934 E.00594
G1 X109.937 Y103.656 E.01167
G1 E-1.12 F2400
;WIPE_START
G1 F4800
G1 X109.98 Y103.613 E-.02889
G1 X109.895 Y104.454 E-.40151
G1 X109.87 Y104.51 E-.02913
G1 X109.836 Y104.537 E-.02047
;WIPE_END
G1 X103.8 Y103.613 F6000
G1 E1.6 F2400
G1 F1200
G1 X103.716 Y104.454 E.02491
G1 X103.69 Y104.51 E.00182
G1 X103.604 Y104.579 E.00325
G1 X103.448 Y104.602 E.00465
G1 X103.363 Y104.596 E.00251
G1 X103.289 Y104.571 E.0023
G1 X103.22 Y104.511 E.00269
G1 X103.198 Y104.39 E.00362
G1 X103.298 Y104.161 E.00736
G1 X103.481 Y103.929 E.00871
G1 X103.757 Y103.656 E.01144
G1 X103.757 Y103.656 F6000
G1 X102.694 Y102.015
G1 F1200
G1 X102.464 Y102.192 E.00855
G1 X102.081 Y102.549 E.01543
G1 X101.918 Y102.731 E.0072
G1 X101.906 Y102.204 E.01554
G1 X101.877 Y101.991 E.00634
G1 X102.344 Y102.022 E.01379
G1 X102.634 Y102.016 E.00855
G1 E-1.12 F2400
;WIPE_START
G1 F4800
G1 X102.694 Y102.015 E-.0285
G1 X102.464 Y102.192 E-.13786
G1 X102.081 Y102.549 E-.2487
G1 X101.99 Y102.651 E-.06494
;WIPE_END
G1 X95.792 Y102.623 F6000
G1 E1.6 F2400
G1 F1200
G1 X95.626 Y102.783 E.0068
G1 X95.521 Y102.836 E.00347
G1 X95.375 Y102.857 E.00435
G1 X95.228 Y102.838 E.00437
G1 X95.095 Y102.764 E.00449
G1 X95.025 Y102.65 E.00394
G1 X95.003 Y102.564 E.00262
G1 X94.995 Y102.333 E.00681
G1 X95.033 Y102.144 E.00568
G1 X95.096 Y102.024 E.00399
G1 X95.18 Y101.939 E.00352
G1 X95.311 Y101.884 E.00419
G1 X95.435 Y101.888 E.00366
G1 X95.544 Y101.955 E.00377
G1 X95.593 Y102.027 E.00257
G1 X95.773 Y102.566 E.01675
G1 E-1.12 F2400
;WIPE_START
G1 F4800
G1 X95.792 Y102.623 E-.02854
G1 X95.626 Y102.783 E-.10951
G1 X95.521 Y102.836 E-.05587
G1 X95.375 Y102.857 E-.07006
G1 X95.228 Y102.838 E-.07041
G1 X95.095 Y102.764 E-.0723
