; G-Code originally generated by Simplify3D(R) Version 4.1.2
; This calibration test gcode modified by the Teaching Tech Calibration website: https://teachingtechyt.github.io/calibration.html
;M80 ; power supply on
G90
M82
M106 S0
M140 S50 ; custom bed temp
M190 S50 ; custom bed temp
M104 S155 T0 ; custom hot end temp minus 50 degrees
G28 ; home all axes
G29 ; probe ABL
;M420 S1 ; restore ABL mesh
M109 S205 T0 ; custom hot end temp 
; custom start gcode
; Ender 3 Custom Start G-code
G92 E0 ; Reset Extruder

G28 ; Home all axes
BED_MESH_CALIBRATE

G1 Z2.0 F3000 ; Move Z Axis up little to prevent scratching of Heat Bed
G1 X0.1 Y20 Z0.3 F5000.0 ; Move to start position

G1 X0.1 Y200.0 Z0.3 F1500.0 E15 ; Draw the first line
G1 X0.4 Y200.0 Z0.3 F5000.0 ; Move to side a little
G1 X0.4 Y20 Z0.3 F1500.0 E30 ; Draw the second line
G92 E0 ; Reset Extruder
G1 Z2.0 F3000 ; Move Z Axis up little to prevent scratching of Heat Bed
G1 X5 Y20 Z0.3 F5000.0 ; Move over to prevent blob squish
G0 Z3; fix for delta printers that home at max
;process Process-1
;layer 1, Z = 0.120
T0
G92 E0.0000
G1 E-1.5 F1800 ; custom retraction - A
;fan1;
G1 Z0.120 F1200
G1 X90.9380 Y106.1360 F6000
G1 E0 F2400 ; custom un-retraction/prime - A
G92 E0.0000
G1 X145.0470 Y106.1360 E1.3994 F1800
G1 X145.1410 Y106.1390 E1.4019
G1 X145.9330 Y106.1910 E1.4224
G1 X146.1190 Y106.2160 E1.4273
G1 X146.9450 Y106.3800 E1.4490
G1 X147.1260 Y106.4280 E1.4539
G1 X147.9230 Y106.6990 E1.4756
G1 X148.0960 Y106.7700 E1.4805
G1 X148.8650 Y107.1500 E1.5027
G1 X149.0530 Y107.2610 E1.5083
G1 X149.9460 Y107.8860 E1.5365
G1 X150.1150 Y108.0250 E1.5422
G1 X150.7350 Y108.6180 E1.5643
G1 X150.8610 Y108.7560 E1.5692
G1 X151.3780 Y109.4000 E1.5906
G1 X151.4690 Y109.5270 E1.5946
G1 X151.7790 Y110.0140 E1.6095
G1 X151.8420 Y110.1220 E1.6127
G1 X152.1080 Y110.6340 E1.6277
G1 X152.1720 Y110.7760 E1.6317
G1 X152.4720 Y111.5460 E1.6531
G1 X152.5280 Y111.7250 E1.6579
G1 X152.7320 Y112.5570 E1.6801
G1 X152.7680 Y112.7730 E1.6857
G1 X152.8590 Y113.8130 E1.7127
G1 X152.8640 Y113.9380 E1.7160
G1 X152.8640 Y122.0470 E1.9257
G1 X152.8610 Y122.1410 E1.9281
G1 X152.8080 Y122.9490 E1.9491
G1 X152.7770 Y123.1660 E1.9547
G1 X152.5440 Y124.2150 E1.9825
G1 X152.4920 Y124.3950 E1.9874
G1 X152.2790 Y124.9810 E2.0035
G1 X152.2030 Y125.1530 E2.0084
G1 X151.7000 Y126.1200 E2.0366
G1 X151.5650 Y126.3310 E2.0430
G1 X150.9010 Y127.1960 E2.0712
G1 X150.7780 Y127.3370 E2.0761
G1 X150.3370 Y127.7780 E2.0922
G1 X150.1960 Y127.9010 E2.0971
G1 X149.3560 Y128.5460 E2.1245
G1 X149.2000 Y128.6500 E2.1293
G1 X148.6870 Y128.9470 E2.1446
G1 X148.5760 Y129.0040 E2.1479
G1 X148.0530 Y129.2480 E2.1628
G1 X147.9080 Y129.3060 E2.1668
G1 X147.1110 Y129.5770 E2.1886
G1 X146.8990 Y129.6310 E2.1942
G1 X145.8410 Y129.8180 E2.2220
G1 X145.6540 Y129.8380 E2.2269
G1 X145.0940 Y129.8630 E2.2414
G1 X145.0310 Y129.8640 E2.2430
G1 X90.9530 Y129.8640 E3.6416
G1 X90.8590 Y129.8610 E3.6441
G1 X90.0660 Y129.8090 E3.6646
G1 X89.8810 Y129.7840 E3.6695
G1 X89.0550 Y129.6200 E3.6912
G1 X88.8740 Y129.5720 E3.6961
G1 X88.0920 Y129.3060 E3.7174
G1 X87.9470 Y129.2480 E3.7215
G1 X87.4240 Y129.0040 E3.7364
G1 X87.3130 Y128.9470 E3.7396
G1 X86.8140 Y128.6580 E3.7546
G1 X86.6830 Y128.5730 E3.7586
G1 X86.0170 Y128.0840 E3.7800
G1 X85.8730 Y127.9640 E3.7848
G1 X85.2650 Y127.3820 E3.8066
G1 X85.1390 Y127.2440 E3.8114
G1 X84.6020 Y126.5750 E3.8336
G1 X84.4790 Y126.3950 E3.8392
G1 X83.9330 Y125.4500 E3.8674
G1 X83.8390 Y125.2530 E3.8731
G1 X83.5280 Y124.4540 E3.8953
G1 X83.4720 Y124.2750 E3.9001
G1 X83.2720 Y123.4580 E3.9219
G1 X83.2390 Y123.2730 E3.9267
G1 X83.1490 Y122.4520 E3.9481
G1 X83.1410 Y122.2960 E3.9521
G1 X83.1410 Y113.6880 E4.1748
G1 X83.1530 Y113.5010 E4.1796
G1 X83.2910 Y112.4510 E4.2070
G1 X83.3280 Y112.2670 E4.2119
G1 X83.4890 Y111.6650 E4.2280
G1 X83.5500 Y111.4870 E4.2328
G1 X83.9550 Y110.5090 E4.2602
G1 X84.0380 Y110.3400 E4.2651
G1 X84.3500 Y109.8000 E4.2812
G1 X84.4540 Y109.6440 E4.2861
G1 X85.1180 Y108.7790 E4.3143
G1 X85.2870 Y108.5950 E4.3207
G1 X86.1020 Y107.8480 E4.3493
G1 X86.2740 Y107.7130 E4.3550
G1 X87.0000 Y107.2280 E4.3776
G1 X87.1900 Y107.1200 E4.3832
G1 X88.1640 Y106.6660 E4.4110
G1 X88.3390 Y106.5980 E4.4159
G1 X88.9040 Y106.4200 E4.4312
G1 X89.0250 Y106.3880 E4.4344
G1 X89.6030 Y106.2600 E4.4498
G1 X89.7890 Y106.2310 E4.4546
G1 X90.8130 Y106.1410 E4.4812
G1 X90.9380 Y106.1360 E4.4844
G92 E0.0000
G1 E-1.5 F1800 ; custom retraction - A
;zhop1
G1 X90.9500 Y106.7120 F6000
G1 Z0.120 F1200
G1 E0 F2400 ; custom un-retraction/prime - A
G92 E0.0000
G1 X145.0370 Y106.7120 E1.3989 F1800
G1 X145.1120 Y106.7140 E1.4008
G1 X145.8770 Y106.7650 E1.4206
G1 X146.0260 Y106.7840 E1.4245
G1 X146.8140 Y106.9410 E1.4453
G1 X146.9590 Y106.9800 E1.4492
G1 X147.7200 Y107.2380 E1.4700
G1 X147.8580 Y107.2950 E1.4738
G1 X148.5900 Y107.6560 E1.4949
G1 X148.7410 Y107.7460 E1.4995
G1 X149.5980 Y108.3460 E1.5265
G1 X149.7330 Y108.4570 E1.5310
G1 X150.3230 Y109.0210 E1.5522
G1 X150.4240 Y109.1320 E1.5560
G1 X150.9190 Y109.7490 E1.5765
G1 X150.9920 Y109.8500 E1.5797
G1 X151.2870 Y110.3130 E1.5939
G1 X151.3370 Y110.3990 E1.5965
G1 X151.5900 Y110.8860 E1.6107
G1 X151.6410 Y110.9990 E1.6139
G1 X151.9280 Y111.7370 E1.6344
G1 X151.9730 Y111.8800 E1.6382
G1 X152.1670 Y112.6730 E1.6594
G1 X152.1960 Y112.8450 E1.6639
G1 X152.2840 Y113.8500 E1.6900
G1 X152.2880 Y113.9500 E1.6926
G1 X152.2880 Y122.0370 E1.9017
G1 X152.2860 Y122.1120 E1.9037
G1 X152.2350 Y122.8890 E1.9238
G1 X152.2100 Y123.0630 E1.9283
G1 X151.9860 Y124.0720 E1.9551
G1 X151.9440 Y124.2160 E1.9589
G1 X151.7440 Y124.7660 E1.9741
G1 X151.6830 Y124.9030 E1.9780
G1 X151.2000 Y125.8320 E2.0050
G1 X151.0930 Y126.0000 E2.0102
G1 X150.4560 Y126.8300 E2.0373
G1 X150.3570 Y126.9430 E2.0411
G1 X149.9430 Y127.3570 E2.0563
G1 X149.8300 Y127.4560 E2.0602
G1 X149.0200 Y128.0780 E2.0866
G1 X148.8950 Y128.1610 E2.0905
G1 X148.4100 Y128.4410 E2.1050
G1 X148.3210 Y128.4880 E2.1075
G1 X147.8240 Y128.7190 E2.1217
G1 X147.7080 Y128.7660 E2.1250
G1 X146.9470 Y129.0240 E2.1457
G1 X146.7770 Y129.0680 E2.1503
G1 X145.7590 Y129.2470 E2.1770
G1 X145.6100 Y129.2640 E2.1809
G1 X145.0750 Y129.2870 E2.1947
G1 X145.0250 Y129.2880 E2.1960
G1 X90.9630 Y129.2880 E3.5943
G1 X90.8880 Y129.2860 E3.5962
G1 X90.1230 Y129.2350 E3.6160
G1 X89.9740 Y129.2160 E3.6199
G1 X89.1860 Y129.0590 E3.6407
G1 X89.0410 Y129.0200 E3.6446
G1 X88.2920 Y128.7660 E3.6650
G1 X88.1760 Y128.7190 E3.6682
G1 X87.6790 Y128.4880 E3.6824
G1 X87.5900 Y128.4410 E3.6850
G1 X87.1150 Y128.1670 E3.6992
G1 X87.0110 Y128.0990 E3.7024
G1 X86.3730 Y127.6310 E3.7229
G1 X86.2580 Y127.5350 E3.7268
G1 X85.6770 Y126.9790 E3.7476
G1 X85.5760 Y126.8680 E3.7514
G1 X85.0650 Y126.2320 E3.7725
G1 X84.9660 Y126.0880 E3.7771
G1 X84.4430 Y125.1810 E3.8041
G1 X84.3680 Y125.0240 E3.8087
G1 X84.0720 Y124.2630 E3.8298
G1 X84.0270 Y124.1200 E3.8336
G1 X83.8360 Y123.3390 E3.8544
G1 X83.8100 Y123.1920 E3.8583
G1 X83.7240 Y122.4050 E3.8788
G1 X83.7170 Y122.2810 E3.8820
G1 X83.7170 Y113.7070 E4.1037
G1 X83.7270 Y113.5580 E4.1076
G1 X83.8600 Y112.5450 E4.1340
G1 X83.8890 Y112.3980 E4.1379
G1 X84.0410 Y111.8320 E4.1531
G1 X84.0890 Y111.6900 E4.1569
G1 X84.4800 Y110.7460 E4.1833
G1 X84.5460 Y110.6120 E4.1872
G1 X84.8390 Y110.1050 E4.2024
G1 X84.9220 Y109.9800 E4.2062
G1 X85.5590 Y109.1500 E4.2333
G1 X85.6940 Y109.0030 E4.2385
G1 X86.4750 Y108.2870 E4.2659
G1 X86.6120 Y108.1790 E4.2704
G1 X87.3020 Y107.7190 E4.2918
G1 X87.4540 Y107.6330 E4.2963
G1 X88.3910 Y107.1960 E4.3231
G1 X88.5300 Y107.1420 E4.3270
G1 X89.0650 Y106.9730 E4.3415
G1 X89.1620 Y106.9470 E4.3440
G1 X89.7100 Y106.8260 E4.3586
G1 X89.8580 Y106.8030 E4.3624
G1 X90.8500 Y106.7160 E4.3882
G1 X90.9500 Y106.7120 E4.3908
G92 E0.0000
G1 E-1.5 F1800 ; custom retraction - A
;zhop1
G1 X91.0060 Y109.2880 F6000
G1 X91.0310 Y110.4400
G1 Z0.120 F1200
G1 E0 F2400 ; custom un-retraction/prime - A
G92 E0.0000
G1 X144.9530 Y110.4400 E1.3946 F1440
G1 X145.4640 Y110.4740 E1.4078
G1 X145.9210 Y110.5640 E1.4199
G1 X146.3610 Y110.7140 E1.4319
G1 X146.7930 Y110.9270 E1.4443
G1 X147.0410 Y111.0850 E1.4520
G1 X147.2750 Y111.2640 E1.4596
G1 X147.6220 Y111.5970 E1.4720
G1 X147.9240 Y111.9720 E1.4845
G1 X148.0820 Y112.2210 E1.4921
G1 X148.2180 Y112.4820 E1.4997
G1 X148.3920 Y112.9300 E1.5122
G1 X148.5070 Y113.3980 E1.5246
G1 X148.5450 Y113.6900 E1.5322
G1 X148.5600 Y114.0310 E1.5411
G1 X148.5600 Y121.9530 E1.7459
G1 X148.5250 Y122.4800 E1.7596
G1 X148.4740 Y122.7700 E1.7672
G1 X148.3940 Y123.0700 E1.7752
G1 X148.2880 Y123.3620 E1.7833
G1 X148.1570 Y123.6430 E1.7913
G1 X148.0010 Y123.9120 E1.7993
G1 X147.8230 Y124.1660 E1.8074
G1 X147.6240 Y124.4040 E1.8154
G1 X147.4040 Y124.6240 E1.8234
G1 X147.1660 Y124.8230 E1.8314
G1 X146.9120 Y125.0010 E1.8395
G1 X146.6430 Y125.1570 E1.8475
G1 X146.3760 Y125.2810 E1.8551
G1 X145.9060 Y125.4410 E1.8680
G1 X145.6180 Y125.5050 E1.8756
G1 X145.3100 Y125.5450 E1.8836
G1 X144.9690 Y125.5600 E1.8925
G1 X91.0470 Y125.5600 E3.2870
G1 X90.5360 Y125.5260 E3.3003
G1 X90.0790 Y125.4360 E3.3123
G1 X89.6240 Y125.2810 E3.3248
G1 X89.3570 Y125.1570 E3.3324
G1 X89.1010 Y125.0090 E3.3400
G1 X88.7140 Y124.7250 E3.3525
G1 X88.3780 Y124.4030 E3.3645
G1 X88.0770 Y124.0280 E3.3769
G1 X87.9180 Y123.7790 E3.3846
G1 X87.7820 Y123.5180 E3.3922
G1 X87.6080 Y123.0690 E3.4046
G1 X87.4970 Y122.6180 E3.4166
G1 X87.4450 Y122.1390 E3.4291
G1 X87.4450 Y113.8450 E3.6436
G1 X87.4720 Y113.5350 E3.6516
G1 X87.5260 Y113.2300 E3.6597
G1 X87.6060 Y112.9300 E3.6677
G1 X87.7120 Y112.6380 E3.6757
G1 X87.8430 Y112.3570 E3.6838
G1 X87.9990 Y112.0880 E3.6918
G1 X88.1770 Y111.8340 E3.6998
G1 X88.3760 Y111.5960 E3.7079
G1 X88.5960 Y111.3760 E3.7159
G1 X88.8220 Y111.1870 E3.7235
G1 X89.2350 Y110.9110 E3.7363
G1 X89.4960 Y110.7750 E3.7440
G1 X89.7830 Y110.6560 E3.7520
G1 X90.0790 Y110.5630 E3.7600
G1 X90.3820 Y110.4950 E3.7681
G1 X90.6900 Y110.4550 E3.7761
G1 X91.0310 Y110.4400 E3.7849
G1 X91.0190 Y109.8640 F6000
G92 E0.0000
G1 X144.9720 Y109.8640 E1.3954 F1440
G1 X145.5400 Y109.9010 E1.4101
G1 X146.0700 Y110.0070 E1.4241
G1 X146.5820 Y110.1810 E1.4381
G1 X147.0760 Y110.4240 E1.4523
G1 X147.3720 Y110.6130 E1.4614
G1 X147.6500 Y110.8260 E1.4705
G1 X148.0480 Y111.2070 E1.4847
G1 X148.3920 Y111.6360 E1.4989
G1 X148.5810 Y111.9320 E1.5080
G1 X148.7430 Y112.2440 E1.5171
G1 X148.9430 Y112.7570 E1.5313
G1 X149.0740 Y113.2910 E1.5456
G1 X149.1190 Y113.6400 E1.5547
G1 X149.1360 Y114.0190 E1.5645
G1 X149.1360 Y121.9720 E1.7702
G1 X149.0980 Y122.5490 E1.7851
G1 X149.0370 Y122.8950 E1.7942
G1 X148.9440 Y123.2430 E1.8035
G1 X148.8200 Y123.5820 E1.8129
G1 X148.6680 Y123.9090 E1.8222
G1 X148.4880 Y124.2220 E1.8315
G1 X148.2810 Y124.5170 E1.8409
G1 X148.0490 Y124.7940 E1.8502
G1 X147.7940 Y125.0490 E1.8595
G1 X147.5170 Y125.2810 E1.8689
G1 X147.2220 Y125.4870 E1.8782
G1 X146.9090 Y125.6680 E1.8875
G1 X146.5910 Y125.8160 E1.8966
G1 X146.0610 Y125.9960 E1.9111
G1 X145.7180 Y126.0720 E1.9202
G1 X145.3600 Y126.1190 E1.9295
G1 X144.9810 Y126.1360 E1.9393
G1 X91.0280 Y126.1360 E3.3347
G1 X90.4600 Y126.0990 E3.3494
G1 X89.9300 Y125.9930 E3.3634
G1 X89.4090 Y125.8160 E3.3776
G1 X89.0910 Y125.6680 E3.3867
G1 X88.7860 Y125.4920 E3.3958
G1 X88.3430 Y125.1670 E3.4100
G1 X87.9520 Y124.7930 E3.4240
G1 X87.6080 Y124.3640 E3.4383
G1 X87.4190 Y124.0680 E3.4473
G1 X87.2570 Y123.7560 E3.4564
G1 X87.0570 Y123.2430 E3.4707
G1 X86.9290 Y122.7180 E3.4846
G1 X86.8690 Y122.1710 E3.4989
G1 X86.8690 Y113.8200 E3.7149
G1 X86.9000 Y113.4600 E3.7242
G1 X86.9630 Y113.1050 E3.7335
G1 X87.0560 Y112.7570 E3.7428
G1 X87.1800 Y112.4170 E3.7522
G1 X87.3320 Y112.0910 E3.7615
G1 X87.5120 Y111.7780 E3.7708
G1 X87.7190 Y111.4830 E3.7802
G1 X87.9510 Y111.2060 E3.7895
G1 X88.2060 Y110.9510 E3.7988
G1 X88.4750 Y110.7250 E3.8079
G1 X88.9410 Y110.4140 E3.8224
G1 X89.2520 Y110.2520 E3.8315
G1 X89.5860 Y110.1140 E3.8408
G1 X89.9300 Y110.0060 E3.8501
G1 X90.2820 Y109.9280 E3.8595
G1 X90.6400 Y109.8810 E3.8688
G1 X91.0190 Y109.8640 E3.8786
G1 X91.0060 Y109.2880 F6000
G92 E0.0000
G1 X144.9910 Y109.2880 E1.3962 F1080
G1 X145.6150 Y109.3290 E1.4124
G1 X146.2190 Y109.4490 E1.4283
G1 X146.8030 Y109.6470 E1.4443
G1 X147.3590 Y109.9210 E1.4603
G1 X147.7030 Y110.1400 E1.4708
G1 X148.0260 Y110.3890 E1.4814
G1 X148.4740 Y110.8170 E1.4974
G1 X148.8610 Y111.3000 E1.5134
G1 X149.0800 Y111.6440 E1.5240
G1 X149.2690 Y112.0060 E1.5345
G1 X149.4930 Y112.5830 E1.5505
G1 X149.6410 Y113.1850 E1.5666
G1 X149.6940 Y113.5890 E1.5771
G1 X149.7120 Y114.0060 E1.5879
G1 X149.7120 Y121.9910 E1.7944
G1 X149.6710 Y122.6180 E1.8107
G1 X149.6000 Y123.0200 E1.8212
G1 X149.4940 Y123.4170 E1.8318
G1 X149.3530 Y123.8030 E1.8425
G1 X149.1790 Y124.1760 E1.8531
G1 X148.9740 Y124.5320 E1.8637
G1 X148.7380 Y124.8680 E1.8744
G1 X148.4740 Y125.1830 E1.8850
G1 X148.1830 Y125.4740 E1.8956
G1 X147.8680 Y125.7380 E1.9063
G1 X147.5320 Y125.9740 E1.9169
G1 X147.1760 Y126.1790 E1.9275
G1 X146.8060 Y126.3520 E1.9381
G1 X146.2160 Y126.5520 E1.9542
G1 X145.8180 Y126.6400 E1.9647
G1 X145.4110 Y126.6940 E1.9754
G1 X144.9940 Y126.7120 E1.9862
G1 X91.0090 Y126.7120 E3.3823
G1 X90.3850 Y126.6710 E3.3985
G1 X89.7810 Y126.5510 E3.4145
G1 X89.1940 Y126.3520 E3.4305
G1 X88.8240 Y126.1790 E3.4410
G1 X88.4710 Y125.9750 E3.4516
G1 X87.9720 Y125.6090 E3.4676
G1 X87.5260 Y125.1830 E3.4835
G1 X87.1390 Y124.7000 E3.4996
G1 X86.9200 Y124.3560 E3.5101
G1 X86.7310 Y123.9940 E3.5207
G1 X86.5070 Y123.4170 E3.5367
G1 X86.3600 Y122.8180 E3.5526
G1 X86.2930 Y122.2020 E3.5686
G1 X86.2930 Y113.7940 E3.7861
G1 X86.3290 Y113.3850 E3.7967
G1 X86.4000 Y112.9800 E3.8074
G1 X86.5060 Y112.5830 E3.8180
G1 X86.6470 Y112.1970 E3.8286
G1 X86.8210 Y111.8240 E3.8393
G1 X87.0260 Y111.4680 E3.8499
G1 X87.2620 Y111.1320 E3.8605
G1 X87.5260 Y110.8170 E3.8711
G1 X87.8170 Y110.5260 E3.8818
G1 X88.1290 Y110.2640 E3.8923
G1 X88.6470 Y109.9180 E3.9084
G1 X89.0090 Y109.7300 E3.9190
G1 X89.3890 Y109.5720 E3.9296
G1 X89.7810 Y109.4490 E3.9402
G1 X90.1820 Y109.3600 E3.9509
G1 X90.5890 Y109.3060 E3.9615
G1 X91.0060 Y109.2880 E3.9723
G1 X90.0250 Y125.0520 F6000
G92 E0.0000
G1 X87.9380 Y122.9650 E0.0763 F1440
G1 X87.8380 Y122.5580 E0.0872
G1 X87.7900 Y122.1210 E0.0986
G1 X87.7900 Y122.0030 E0.1016
G1 X90.9980 Y125.2100 E0.2189
G1 X91.0580 Y125.2140 E0.2205
G1 X91.8160 Y125.2140 E0.2401
G1 X87.7900 Y121.1880 E0.3873
G1 X87.7900 Y120.3740 E0.4084
G1 X92.6310 Y125.2140 E0.5855
G1 X93.4460 Y125.2140 E0.6065
G1 X87.7900 Y119.5590 E0.8134
G1 X87.7900 Y118.7450 E0.8344
G1 X94.2600 Y125.2140 E1.0711
G1 X95.0750 Y125.2140 E1.0921
G1 X87.7900 Y117.9300 E1.3586
G1 X87.7900 Y117.1150 E1.3796
G1 X95.8890 Y125.2140 E1.6759
G1 X96.7040 Y125.2140 E1.6969
G1 X87.7900 Y116.3010 E2.0230
G1 X87.7900 Y115.4860 E2.0440
G1 X97.5180 Y125.2140 E2.3998
G1 X98.3330 Y125.2140 E2.4209
G1 X87.7900 Y114.6720 E2.8065
G1 X87.7900 Y113.8600 E2.8275
G1 X99.1480 Y125.2140 E3.2430
G1 X99.9620 Y125.2140 E3.2640
G1 X87.9030 Y113.1560 E3.7051
G1 X87.9360 Y113.0340 E3.7084
G1 X88.0320 Y112.7700 E3.7156
G1 X88.1280 Y112.5650 E3.7215
G1 X100.7770 Y125.2140 E4.1841
G1 X101.5910 Y125.2140 E4.2052
G1 X88.4390 Y112.0620 E4.6863
G1 X88.4510 Y112.0440 E4.6868
G1 X88.6310 Y111.8300 E4.6941
G1 X88.8260 Y111.6350 E4.7012
G1 X102.4060 Y125.2140 E5.1979
G1 X103.2210 Y125.2140 E5.2190
G1 X89.2930 Y111.2870 E5.7284
G1 X89.4110 Y111.2090 E5.7320
G1 X89.6420 Y111.0880 E5.7388
G1 X89.8310 Y111.0100 E5.7440
G1 X104.0350 Y125.2140 E6.2636
G1 X104.8500 Y125.2140 E6.2846
G1 X90.4680 Y110.8330 E6.8107
G1 X90.7200 Y110.8000 E6.8172
G1 X91.0390 Y110.7860 E6.8255
G1 X91.2360 Y110.7860 E6.8306
G1 X105.6640 Y125.2140 E7.3583
G1 X106.4790 Y125.2140 E7.3794
G1 X92.0500 Y110.7860 E7.9071
G1 X92.8650 Y110.7860 E7.9282
G1 X107.2930 Y125.2140 E8.4559
G1 X108.1080 Y125.2140 E8.4770
G1 X93.6790 Y110.7860 E9.0048
G1 X94.4940 Y110.7860 E9.0258
G1 X108.9230 Y125.2140 E9.5536
G1 X109.7370 Y125.2140 E9.5746
G1 X95.3080 Y110.7860 E10.1024
G1 X96.1230 Y110.7860 E10.1235
G1 X110.5520 Y125.2140 E10.6512
G1 X111.3660 Y125.2140 E10.6723
G1 X96.9380 Y110.7860 E11.2000
G1 X97.7520 Y110.7860 E11.2211
G1 X112.1810 Y125.2140 E11.7488
G1 X112.9960 Y125.2140 E11.7699
G1 X98.5670 Y110.7860 E12.2976
G1 X99.3810 Y110.7860 E12.3187
G1 X113.8100 Y125.2140 E12.8465
G1 X114.6250 Y125.2140 E12.8675
G1 X100.1960 Y110.7860 E13.3953
G1 X101.0110 Y110.7860 E13.4163
G1 X115.4390 Y125.2140 E13.9441
G1 X116.2540 Y125.2140 E13.9652
G1 X101.8250 Y110.7860 E14.4929
G1 X102.6400 Y110.7860 E14.5140
G1 X117.0690 Y125.2140 E15.0417
G1 X117.8830 Y125.2140 E15.0628
G1 X103.4540 Y110.7860 E15.5905
G1 X104.2690 Y110.7860 E15.6116
G1 X118.6980 Y125.2140 E16.1393
G1 X119.5120 Y125.2140 E16.1604
G1 X105.0840 Y110.7860 E16.6882
G1 X105.8980 Y110.7860 E16.7092
G1 X120.3270 Y125.2140 E17.2370
G1 X121.1410 Y125.2140 E17.2580
G1 X106.7130 Y110.7860 E17.7858
G1 X107.5270 Y110.7860 E17.8069
G1 X121.9560 Y125.2140 E18.3346
G1 X122.7710 Y125.2140 E18.3557
G1 X108.3420 Y110.7860 E18.8834
G1 X109.1560 Y110.7860 E18.9045
G1 X123.5850 Y125.2140 E19.4322
G1 X124.4000 Y125.2140 E19.4533
G1 X109.9710 Y110.7860 E19.9810
G1 X110.7860 Y110.7860 E20.0021
G1 X125.2140 Y125.2140 E20.5299
G1 X126.0290 Y125.2140 E20.5509
G1 X111.6000 Y110.7860 E21.0787
G1 X112.4150 Y110.7860 E21.0997
G1 X126.8440 Y125.2140 E21.6275
G1 X127.6580 Y125.2140 E21.6486
G1 X113.2290 Y110.7860 E22.1763
G1 X114.0440 Y110.7860 E22.1974
G1 X128.4730 Y125.2140 E22.7251
G1 X129.2870 Y125.2140 E22.7462
G1 X114.8590 Y110.7860 E23.2739
G1 X115.6730 Y110.7860 E23.2950
G1 X130.1020 Y125.2140 E23.8227
G1 X130.9170 Y125.2140 E23.8438
G1 X116.4880 Y110.7860 E24.3716
G1 X117.3020 Y110.7860 E24.3926
G1 X131.7310 Y125.2140 E24.9204
G1 X132.5460 Y125.2140 E24.9414
G1 X118.1170 Y110.7860 E25.4692
G1 X118.9310 Y110.7860 E25.4903
G1 X133.3600 Y125.2140 E26.0180
G1 X134.1750 Y125.2140 E26.0391
G1 X119.7460 Y110.7860 E26.5668
G1 X120.5610 Y110.7860 E26.5879
G1 X134.9890 Y125.2140 E27.1156
G1 X135.8040 Y125.2140 E27.1367
G1 X121.3750 Y110.7860 E27.6644
G1 X122.1900 Y110.7860 E27.6855
G1 X136.6190 Y125.2140 E28.2133
G1 X137.4330 Y125.2140 E28.2343
G1 X123.0040 Y110.7860 E28.7621
G1 X123.8190 Y110.7860 E28.7831
G1 X138.2480 Y125.2140 E29.3109
G1 X139.0620 Y125.2140 E29.3320
G1 X124.6340 Y110.7860 E29.8597
G1 X125.4480 Y110.7860 E29.8808
G1 X139.8770 Y125.2140 E30.4085
G1 X140.6920 Y125.2140 E30.4296
G1 X126.2630 Y110.7860 E30.9573
G1 X127.0770 Y110.7860 E30.9784
G1 X141.5060 Y125.2140 E31.5062
G1 X142.3210 Y125.2140 E31.5272
G1 X127.8920 Y110.7860 E32.0550
G1 X128.7070 Y110.7860 E32.0760
G1 X143.1350 Y125.2140 E32.6038
G1 X143.9500 Y125.2140 E32.6248
G1 X129.5210 Y110.7860 E33.1526
G1 X130.3360 Y110.7860 E33.1737
G1 X144.7650 Y125.2140 E33.7014
G1 X144.9610 Y125.2140 E33.7065
G1 X145.2800 Y125.2000 E33.7147
G1 X145.5320 Y125.1670 E33.7213
G1 X131.1500 Y110.7860 E34.2473
G1 X131.9650 Y110.7860 E34.2684
G1 X146.1670 Y124.9870 E34.7879
G1 X146.2470 Y124.9600 E34.7901
G1 X146.4830 Y124.8500 E34.7968
G1 X146.7120 Y124.7180 E34.8036
G1 X132.7790 Y110.7860 E35.3132
G1 X133.5940 Y110.7860 E35.3343
G1 X147.1740 Y124.3650 E35.8310
G1 X147.3690 Y124.1700 E35.8381
G1 X147.5490 Y123.9560 E35.8453
G1 X147.5610 Y123.9380 E35.8459
G1 X134.4090 Y110.7860 E36.3270
G1 X135.2230 Y110.7860 E36.3480
G1 X147.8720 Y123.4350 E36.8107
G1 X147.9680 Y123.2290 E36.8165
G1 X148.0640 Y122.9660 E36.8238
G1 X148.0970 Y122.8440 E36.8270
G1 X136.0380 Y110.7860 E37.2681
G1 X136.8520 Y110.7860 E37.2892
G1 X148.2020 Y122.1350 E37.7043
G1 X148.2140 Y121.9420 E37.7093
G1 X148.2140 Y121.3330 E37.7250
G1 X137.6670 Y110.7860 E38.1108
G1 X138.4820 Y110.7860 E38.1319
G1 X148.2140 Y120.5180 E38.4879
G1 X148.2140 Y119.7040 E38.5089
G1 X139.2960 Y110.7860 E38.8351
G1 X140.1110 Y110.7860 E38.8562
G1 X148.2140 Y118.8890 E39.1526
G1 X148.2140 Y118.0750 E39.1737
G1 X140.9250 Y110.7860 E39.4403
G1 X141.7400 Y110.7860 E39.4613
G1 X148.2140 Y117.2600 E39.6982
G1 X148.2140 Y116.4450 E39.7192
G1 X142.5550 Y110.7860 E39.9262
G1 X143.3690 Y110.7860 E39.9473
G1 X148.2140 Y115.6310 E40.1245
G1 X148.2140 Y114.8160 E40.1456
G1 X144.1840 Y110.7860 E40.2930
G1 X144.9420 Y110.7860 E40.3126
G1 X145.0020 Y110.7900 E40.3142
G1 X148.2130 Y114.0000 E40.4316
G1 X148.2000 Y113.7200 E40.4389
G1 X148.1660 Y113.4610 E40.4456
G1 X148.0620 Y113.0350 E40.4570
G1 X145.9750 Y110.9480 E40.5333
G92 E0.0000
G1 E-1.5 F1800 ; custom retraction - A
;layer 2, Z = 0.240
M106 S255; custom fan 100% from layer 2
G1 Z0.240 F1200
G1 X91.0260 Y110.2000 F6000
G1 E0 F2400 ; custom un-retraction/prime - A
G92 E0.0000
G1 X144.9610 Y110.2000 E1.1624 F2880
G1 X145.4960 Y110.2350 E1.1740
G1 X145.9830 Y110.3320 E1.1847
G1 X146.4530 Y110.4920 E1.1954
G1 X146.9110 Y110.7170 E1.2064
G1 X147.1790 Y110.8880 E1.2132
G1 X147.4310 Y111.0820 E1.2201
G1 X147.8000 Y111.4340 E1.2311
G1 X148.1190 Y111.8320 E1.2421
G1 X148.2900 Y112.1010 E1.2489
G1 X148.4370 Y112.3830 E1.2558
G1 X148.6220 Y112.8580 E1.2668
G1 X148.7430 Y113.3530 E1.2778
G1 X148.7840 Y113.6690 E1.2846
G1 X148.8000 Y114.0260 E1.2923
G1 X148.8000 Y121.9610 E1.4634
G1 X148.7640 Y122.5090 E1.4752
G1 X148.7090 Y122.8220 E1.4821
G1 X148.6230 Y123.1420 E1.4892
G1 X148.5100 Y123.4540 E1.4963
G1 X148.3700 Y123.7540 E1.5035
G1 X148.2040 Y124.0410 E1.5106
G1 X148.0140 Y124.3130 E1.5178
G1 X147.8010 Y124.5670 E1.5249
G1 X147.5670 Y124.8010 E1.5321
G1 X147.3130 Y125.0140 E1.5392
G1 X147.0410 Y125.2040 E1.5463
G1 X146.7540 Y125.3700 E1.5535
G1 X146.4660 Y125.5040 E1.5603
G1 X145.9700 Y125.6720 E1.5716
G1 X145.6600 Y125.7410 E1.5785
G1 X145.3310 Y125.7840 E1.5856
G1 X144.9740 Y125.8000 E1.5933
G1 X91.0390 Y125.8000 E2.7558
G1 X90.5040 Y125.7650 E2.7673
G1 X90.0170 Y125.6680 E2.7780
G1 X89.5340 Y125.5040 E2.7890
G1 X89.2460 Y125.3700 E2.7959
G1 X88.9700 Y125.2100 E2.8027
G1 X88.5590 Y124.9090 E2.8137
G1 X88.2000 Y124.5660 E2.8244
G1 X87.8810 Y124.1680 E2.8354
G1 X87.7100 Y123.8990 E2.8423
G1 X87.5630 Y123.6170 E2.8491
G1 X87.3780 Y123.1420 E2.8601
G1 X87.2600 Y122.6600 E2.8708
G1 X87.2050 Y122.1520 E2.8818
G1 X87.2050 Y113.8340 E3.0611
G1 X87.2340 Y113.5040 E3.0682
G1 X87.2910 Y113.1780 E3.0754
G1 X87.3770 Y112.8580 E3.0825
G1 X87.4900 Y112.5460 E3.0897
G1 X87.6300 Y112.2460 E3.0968
G1 X87.7960 Y111.9590 E3.1039
G1 X87.9860 Y111.6870 E3.1111
G1 X88.1990 Y111.4330 E3.1182
G1 X88.4340 Y111.1990 E3.1254
G1 X88.6770 Y110.9950 E3.1322
G1 X89.1120 Y110.7040 E3.1435
G1 X89.3950 Y110.5570 E3.1504
G1 X89.7010 Y110.4300 E3.1575
G1 X90.0170 Y110.3310 E3.1646
G1 X90.3400 Y110.2590 E3.1718
G1 X90.6690 Y110.2160 E3.1789
G1 X91.0260 Y110.2000 E3.1866
G1 X91.0160 Y109.7200 F6000
G92 E0.0000
G1 X144.9770 Y109.7200 E1.1630 F2880
G1 X145.5580 Y109.7580 E1.1756
G1 X146.1070 Y109.8670 E1.1876
G1 X146.6370 Y110.0470 E1.1997
G1 X147.1460 Y110.2980 E1.2119
G1 X147.4540 Y110.4950 E1.2198
G1 X147.7440 Y110.7170 E1.2277
G1 X148.1540 Y111.1090 E1.2399
G1 X148.5100 Y111.5520 E1.2521
G1 X148.7060 Y111.8600 E1.2600
G1 X148.8750 Y112.1850 E1.2679
G1 X149.0800 Y112.7130 E1.2801
G1 X149.2150 Y113.2650 E1.2924
G1 X149.2630 Y113.6270 E1.3002
G1 X149.2800 Y114.0160 E1.3086
G1 X149.2800 Y121.9770 E1.4802
G1 X149.2410 Y122.5660 E1.4929
G1 X149.1780 Y122.9260 E1.5008
G1 X149.0810 Y123.2870 E1.5088
G1 X148.9540 Y123.6380 E1.5169
G1 X148.7960 Y123.9760 E1.5249
G1 X148.6090 Y124.2990 E1.5330
G1 X148.3950 Y124.6050 E1.5410
G1 X148.1550 Y124.8910 E1.5491
G1 X147.8910 Y125.1550 E1.5571
G1 X147.6050 Y125.3950 E1.5652
G1 X147.2990 Y125.6090 E1.5732
G1 X146.9760 Y125.7960 E1.5813
G1 X146.6450 Y125.9500 E1.5891
G1 X146.1000 Y126.1350 E1.6015
G1 X145.7430 Y126.2140 E1.6094
G1 X145.3730 Y126.2630 E1.6175
G1 X144.9840 Y126.2800 E1.6258
G1 X91.0230 Y126.2800 E2.7888
G1 X90.4420 Y126.2420 E2.8014
G1 X89.8930 Y126.1330 E2.8135
G1 X89.3550 Y125.9500 E2.8257
G1 X89.0240 Y125.7960 E2.8336
G1 X88.7080 Y125.6130 E2.8415
G1 X88.2500 Y125.2780 E2.8537
G1 X87.8460 Y124.8900 E2.8658
G1 X87.4900 Y124.4480 E2.8780
G1 X87.2940 Y124.1400 E2.8859
G1 X87.1250 Y123.8160 E2.8937
G1 X86.9200 Y123.2860 E2.9060
G1 X86.7870 Y122.7430 E2.9180
G1 X86.7250 Y122.1790 E2.9303
G1 X86.7250 Y113.8130 E3.1106
G1 X86.7570 Y113.4420 E3.1186
G1 X86.8220 Y113.0740 E3.1267
G1 X86.9190 Y112.7130 E3.1347
G1 X87.0460 Y112.3620 E3.1427
G1 X87.2040 Y112.0240 E3.1508
G1 X87.3910 Y111.7010 E3.1588
G1 X87.6050 Y111.3950 E3.1669
G1 X87.8450 Y111.1090 E3.1749
G1 X88.1090 Y110.8450 E3.1830
G1 X88.3890 Y110.6100 E3.1909
G1 X88.8670 Y110.2900 E3.2033
G1 X89.1920 Y110.1220 E3.2111
G1 X89.5370 Y109.9790 E3.2192
G1 X89.8920 Y109.8670 E3.2272
G1 X90.2570 Y109.7860 E3.2353
G1 X90.6270 Y109.7370 E3.2433
G1 X91.0160 Y109.7200 E3.2517
G1 X91.0050 Y109.2400 F6000
G92 E0.0000
G1 X144.9920 Y109.2400 E1.1636 F2160
G1 X145.6210 Y109.2810 E1.1771
G1 X146.2320 Y109.4030 E1.1906
G1 X146.8210 Y109.6030 E1.2040
G1 X147.3820 Y109.8790 E1.2175
G1 X147.7300 Y110.1010 E1.2263
G1 X148.0570 Y110.3520 E1.2352
G1 X148.5090 Y110.7850 E1.2487
G1 X148.9000 Y111.2720 E1.2622
G1 X149.1220 Y111.6200 E1.2711
G1 X149.3130 Y111.9860 E1.2800
G1 X149.5390 Y112.5690 E1.2935
G1 X149.6880 Y113.1760 E1.3069
G1 X149.7420 Y113.5850 E1.3158
G1 X149.7600 Y114.0050 E1.3249
G1 X149.7600 Y121.9920 E1.4970
G1 X149.7190 Y122.6240 E1.5107
G1 X149.6470 Y123.0300 E1.5196
G1 X149.5390 Y123.4310 E1.5285
G1 X149.3970 Y123.8220 E1.5375
G1 X149.2220 Y124.1980 E1.5464
G1 X149.0140 Y124.5570 E1.5554
G1 X148.7760 Y124.8980 E1.5643
G1 X148.5090 Y125.2160 E1.5733
G1 X148.2160 Y125.5090 E1.5822
G1 X147.8980 Y125.7760 E1.5912
G1 X147.5570 Y126.0140 E1.6001
G1 X147.1980 Y126.2220 E1.6090
G1 X146.8240 Y126.3960 E1.6179
G1 X146.2290 Y126.5980 E1.6315
G1 X145.8270 Y126.6870 E1.6404
G1 X145.4150 Y126.7420 E1.6493
G1 X144.9950 Y126.7600 E1.6584
G1 X91.0080 Y126.7600 E2.8219
G1 X90.3790 Y126.7190 E2.8355
G1 X89.7680 Y126.5970 E2.8489
G1 X89.1760 Y126.3960 E2.8624
G1 X88.8020 Y126.2220 E2.8713
G1 X88.4450 Y126.0160 E2.8802
G1 X87.9410 Y125.6460 E2.8937
G1 X87.4910 Y125.2150 E2.9071
G1 X87.1000 Y124.7280 E2.9206
G1 X86.8780 Y124.3800 E2.9295
G1 X86.6870 Y124.0140 E2.9384
G1 X86.4610 Y123.4310 E2.9518
G1 X86.3130 Y122.8260 E2.9652
G1 X86.2450 Y122.2050 E2.9787
G1 X86.2450 Y113.7920 E3.1600
G1 X86.2810 Y113.3790 E3.1690
G1 X86.3530 Y112.9700 E3.1779
G1 X86.4600 Y112.5690 E3.1869
G1 X86.6030 Y112.1790 E3.1958
G1 X86.7780 Y111.8020 E3.2048
G1 X86.9860 Y111.4420 E3.2137
G1 X87.2240 Y111.1020 E3.2227
G1 X87.4910 Y110.7840 E3.2316
G1 X87.7840 Y110.4910 E3.2406
G1 X88.1000 Y110.2250 E3.2495
G1 X88.6220 Y109.8770 E3.2630
G1 X88.9880 Y109.6860 E3.2719
G1 X89.3720 Y109.5270 E3.2808
G1 X89.7680 Y109.4020 E3.2898
G1 X90.1730 Y109.3130 E3.2987
G1 X90.5850 Y109.2580 E3.3077
G1 X91.0050 Y109.2400 E3.3168
G1 X87.6130 Y113.0880 F6000
G92 E0.0000
G1 X90.0920 Y110.6090 E0.0756 F2880
G1 X90.3900 Y110.5430 E0.0821
G1 X90.6940 Y110.5030 E0.0887
G1 X90.8860 Y110.4940 E0.0929
G1 X87.4930 Y113.8870 E0.1963
G1 X87.4930 Y114.5660 E0.2109
G1 X91.5710 Y110.4880 E0.3352
G1 X92.2500 Y110.4880 E0.3499
G1 X87.4930 Y115.2450 E0.4948
G1 X87.4930 Y115.9240 E0.5095
G1 X92.9290 Y110.4880 E0.6752
G1 X93.6070 Y110.4880 E0.6898
G1 X87.4930 Y116.6030 E0.8762
G1 X87.4930 Y117.2810 E0.8908
G1 X94.2860 Y110.4880 E1.0979
G1 X94.9650 Y110.4880 E1.1125
G1 X87.4930 Y117.9600 E1.3402
G1 X87.4930 Y118.6390 E1.3549
G1 X95.6440 Y110.4880 E1.6033
G1 X96.3230 Y110.4880 E1.6179
G1 X87.4930 Y119.3180 E1.8871
G1 X87.4930 Y119.9970 E1.9017
G1 X97.0010 Y110.4880 E2.1915
G1 X97.6800 Y110.4880 E2.2062
G1 X87.4930 Y120.6760 E2.5167
G1 X87.4930 Y121.3540 E2.5313
G1 X98.3590 Y110.4880 E2.8625
G1 X99.0380 Y110.4880 E2.8772
G1 X87.4930 Y122.0330 E3.2290
G1 X87.4930 Y122.1370 E3.2313
G1 X87.5440 Y122.6090 E3.2415
G1 X87.5550 Y122.6500 E3.2424
G1 X99.7170 Y110.4880 E3.6131
G1 X100.3960 Y110.4880 E3.6278
G1 X87.7030 Y123.1810 E4.0147
G1 X87.8260 Y123.4980 E4.0220
G1 X87.9070 Y123.6550 E4.0258
G1 X101.0740 Y110.4880 E4.4271
G1 X101.7530 Y110.4880 E4.4418
G1 X88.1720 Y124.0700 E4.8557
G1 X88.4130 Y124.3700 E4.8640
G1 X88.4830 Y124.4370 E4.8661
G1 X102.4320 Y110.4880 E5.2913
G1 X103.1110 Y110.4880 E5.3059
G1 X88.8410 Y124.7580 E5.7409
G1 X89.1280 Y124.9690 E5.7486
G1 X89.2430 Y125.0350 E5.7514
G1 X103.7900 Y110.4880 E6.1948
G1 X104.4690 Y110.4880 E6.2094
G1 X89.7000 Y125.2560 E6.6596
G1 X90.0920 Y125.3890 E6.6685
G1 X90.2210 Y125.4150 E6.6713
G1 X105.1470 Y110.4880 E7.1263
G1 X105.8260 Y110.4880 E7.1409
G1 X90.8170 Y125.4970 E7.5984
G1 X91.0490 Y125.5120 E7.6034
G1 X91.4810 Y125.5120 E7.6127
G1 X106.5050 Y110.4880 E8.0706
G1 X107.1840 Y110.4880 E8.0853
G1 X92.1600 Y125.5120 E8.5432
G1 X92.8390 Y125.5120 E8.5578
G1 X107.8630 Y110.4880 E9.0157
G1 X108.5410 Y110.4880 E9.0304
G1 X93.5170 Y125.5120 E9.4883
G1 X94.1960 Y125.5120 E9.5029
G1 X109.2200 Y110.4880 E9.9609
G1 X109.8990 Y110.4880 E9.9755
G1 X94.8750 Y125.5120 E10.4334
G1 X95.5540 Y125.5120 E10.4481
G1 X110.5780 Y110.4880 E10.9060
G1 X111.2570 Y110.4880 E10.9206
G1 X96.2330 Y125.5120 E11.3786
G1 X96.9120 Y125.5120 E11.3932
G1 X111.9360 Y110.4880 E11.8511
G1 X112.6140 Y110.4880 E11.8657
G1 X97.5900 Y125.5120 E12.3237
G1 X98.2690 Y125.5120 E12.3383
G1 X113.2930 Y110.4880 E12.7962
G1 X113.9720 Y110.4880 E12.8109
G1 X98.9480 Y125.5120 E13.2688
G1 X99.6270 Y125.5120 E13.2834
G1 X114.6510 Y110.4880 E13.7414
G1 X115.3300 Y110.4880 E13.7560
G1 X100.3060 Y125.5120 E14.2139
G1 X100.9850 Y125.5120 E14.2285
G1 X116.0090 Y110.4880 E14.6865
G1 X116.6870 Y110.4880 E14.7011
G1 X101.6630 Y125.5120 E15.1590
G1 X102.3420 Y125.5120 E15.1737
G1 X117.3660 Y110.4880 E15.6316
G1 X118.0450 Y110.4880 E15.6462
G1 X103.0210 Y125.5120 E16.1042
G1 X103.7000 Y125.5120 E16.1188
G1 X118.7240 Y110.4880 E16.5767
G1 X119.4030 Y110.4880 E16.5914
G1 X104.3790 Y125.5120 E17.0493
G1 X105.0570 Y125.5120 E17.0639
G1 X120.0810 Y110.4880 E17.5218
G1 X120.7600 Y110.4880 E17.5365
G1 X105.7360 Y125.5120 E17.9944
G1 X106.4150 Y125.5120 E18.0090
G1 X121.4390 Y110.4880 E18.4670
G1 X122.1180 Y110.4880 E18.4816
G1 X107.0940 Y125.5120 E18.9395
G1 X107.7730 Y125.5120 E18.9542
G1 X122.7970 Y110.4880 E19.4121
G1 X123.4760 Y110.4880 E19.4267
G1 X108.4520 Y125.5120 E19.8846
G1 X109.1300 Y125.5120 E19.8993
G1 X124.1540 Y110.4880 E20.3572
G1 X124.8330 Y110.4880 E20.3718
G1 X109.8090 Y125.5120 E20.8298
G1 X110.4880 Y125.5120 E20.8444
G1 X125.5120 Y110.4880 E21.3023
G1 X126.1910 Y110.4880 E21.3170
G1 X111.1670 Y125.5120 E21.7749
G1 X111.8460 Y125.5120 E21.7895
G1 X126.8700 Y110.4880 E22.2475
G1 X127.5490 Y110.4880 E22.2621
G1 X112.5250 Y125.5120 E22.7200
G1 X113.2030 Y125.5120 E22.7346
G1 X128.2270 Y110.4880 E23.1926
G1 X128.9060 Y110.4880 E23.2072
G1 X113.8820 Y125.5120 E23.6651
G1 X114.5610 Y125.5120 E23.6798
G1 X129.5850 Y110.4880 E24.1377
G1 X130.2640 Y110.4880 E24.1523
G1 X115.2400 Y125.5120 E24.6103
G1 X115.9190 Y125.5120 E24.6249
G1 X130.9430 Y110.4880 E25.0828
G1 X131.6210 Y110.4880 E25.0974
G1 X116.5970 Y125.5120 E25.5554
G1 X117.2760 Y125.5120 E25.5700
G1 X132.3000 Y110.4880 E26.0279
G1 X132.9790 Y110.4880 E26.0426
G1 X117.9550 Y125.5120 E26.5005
G1 X118.6340 Y125.5120 E26.5151
G1 X133.6580 Y110.4880 E26.9731
G1 X134.3370 Y110.4880 E26.9877
G1 X119.3130 Y125.5120 E27.4456
G1 X119.9920 Y125.5120 E27.4603
G1 X135.0160 Y110.4880 E27.9182
G1 X135.6940 Y110.4880 E27.9328
G1 X120.6700 Y125.5120 E28.3907
G1 X121.3490 Y125.5120 E28.4054
G1 X136.3730 Y110.4880 E28.8633
G1 X137.0520 Y110.4880 E28.8779
G1 X122.0280 Y125.5120 E29.3359
G1 X122.7070 Y125.5120 E29.3505
G1 X137.7310 Y110.4880 E29.8084
G1 X138.4100 Y110.4880 E29.8231
G1 X123.3860 Y125.5120 E30.2810
G1 X124.0640 Y125.5120 E30.2956
G1 X139.0880 Y110.4880 E30.7535
G1 X139.7670 Y110.4880 E30.7682
G1 X124.7430 Y125.5120 E31.2261
G1 X125.4220 Y125.5120 E31.2407
G1 X140.4460 Y110.4880 E31.6987
G1 X141.1250 Y110.4880 E31.7133
G1 X126.1010 Y125.5120 E32.1712
G1 X126.7800 Y125.5120 E32.1859
G1 X141.8040 Y110.4880 E32.6438
G1 X142.4830 Y110.4880 E32.6584
G1 X127.4590 Y125.5120 E33.1164
G1 X128.1370 Y125.5120 E33.1310
G1 X143.1610 Y110.4880 E33.5889
G1 X143.8400 Y110.4880 E33.6035
G1 X128.8160 Y125.5120 E34.0615
G1 X129.4950 Y125.5120 E34.0761
G1 X144.5190 Y110.4880 E34.5340
G1 X144.9510 Y110.4880 E34.5433
G1 X145.1830 Y110.5030 E34.5483
G1 X130.1740 Y125.5120 E35.0058
G1 X130.8530 Y125.5120 E35.0204
G1 X145.7800 Y110.5850 E35.4754
G1 X145.9080 Y110.6110 E35.4782
G1 X146.3000 Y110.7440 E35.4872
G1 X131.5320 Y125.5120 E35.9373
G1 X132.2100 Y125.5120 E35.9519
G1 X146.7590 Y110.9630 E36.3954
G1 X146.7690 Y110.9680 E36.3956
G1 X147.0140 Y111.1240 E36.4019
G1 X147.1630 Y111.2390 E36.4059
G1 X132.8890 Y125.5120 E36.8410
G1 X133.5680 Y125.5120 E36.8556
G1 X147.5170 Y111.5630 E37.2808
G1 X147.5870 Y111.6290 E37.2828
G1 X147.8280 Y111.9300 E37.2912
G1 X134.2470 Y125.5120 E37.7051
G1 X134.9260 Y125.5120 E37.7198
G1 X148.0930 Y112.3450 E38.1211
G1 X148.1740 Y112.5020 E38.1249
G1 X148.2970 Y112.8190 E38.1322
G1 X135.6040 Y125.5120 E38.5191
G1 X136.2830 Y125.5120 E38.5337
G1 X148.4460 Y113.3500 E38.9044
G1 X148.4590 Y113.4060 E38.9057
G1 X148.4970 Y113.6940 E38.9119
G1 X148.5090 Y113.9650 E38.9178
G1 X136.9620 Y125.5120 E39.2697
G1 X137.6410 Y125.5120 E39.2844
G1 X148.5120 Y114.6410 E39.6157
G1 X148.5120 Y115.3200 E39.6304
G1 X138.3200 Y125.5120 E39.9410
G1 X138.9990 Y125.5120 E39.9556
G1 X148.5120 Y115.9990 E40.2456
G1 X148.5120 Y116.6770 E40.2602
G1 X139.6770 Y125.5120 E40.5295
G1 X140.3560 Y125.5120 E40.5441
G1 X148.5120 Y117.3560 E40.7927
G1 X148.5120 Y118.0350 E40.8074
G1 X141.0350 Y125.5120 E41.0353
G1 X141.7140 Y125.5120 E41.0499
G1 X148.5120 Y118.7140 E41.2571
G1 X148.5120 Y119.3930 E41.2717
G1 X142.3930 Y125.5120 E41.4582
G1 X143.0720 Y125.5120 E41.4729
G1 X148.5120 Y120.0720 E41.6387
G1 X148.5120 Y120.7500 E41.6533
G1 X143.7500 Y125.5120 E41.7985
G1 X144.4290 Y125.5120 E41.8131
G1 X148.5120 Y121.4290 E41.9375
G1 X148.5120 Y121.9510 E41.9488
G1 X148.5010 Y122.1190 E41.9524
G1 X145.1140 Y125.5060 E42.0556
G1 X145.3060 Y125.4970 E42.0598
G1 X145.6100 Y125.4570 E42.0664
G1 X145.8930 Y125.3940 E42.0726
G1 X145.9100 Y125.3880 E42.0730
G1 X148.3870 Y122.9120 E42.1485
G92 E0.0000
G1 E-1.5 F1800 ; custom retraction - A
;layer 3, Z = 0.360
;fan3;
G1 Z0.360 F1200
G1 X91.0260 Y110.2000 F6000
G1 E0 F2400 ; custom un-retraction/prime - A
G92 E0.0000
G1 X144.9610 Y110.2000 E1.1624 F2880
G1 X145.4960 Y110.2350 E1.1740
G1 X145.9830 Y110.3320 E1.1847
G1 X146.4530 Y110.4920 E1.1954
G1 X146.9110 Y110.7170 E1.2064
G1 X147.1790 Y110.8880 E1.2132
G1 X147.4310 Y111.0820 E1.2201
G1 X147.8000 Y111.4340 E1.2311
G1 X148.1190 Y111.8320 E1.2421
G1 X148.2900 Y112.1010 E1.2489
G1 X148.4370 Y112.3830 E1.2558
G1 X148.6220 Y112.8580 E1.2668
G1 X148.7430 Y113.3530 E1.2778
G1 X148.7840 Y113.6690 E1.2846
G1 X148.8000 Y114.0260 E1.2923
G1 X148.8000 Y121.9610 E1.4634
G1 X148.7640 Y122.5090 E1.4752
G1 X148.7090 Y122.8220 E1.4821
G1 X148.6230 Y123.1420 E1.4892
G1 X148.5100 Y123.4540 E1.4963
G1 X148.3700 Y123.7540 E1.5035
G1 X148.2040 Y124.0410 E1.5106
G1 X148.0140 Y124.3130 E1.5178
G1 X147.8010 Y124.5670 E1.5249
G1 X147.5670 Y124.8010 E1.5321
G1 X147.3130 Y125.0140 E1.5392
G1 X147.0410 Y125.2040 E1.5463
G1 X146.7540 Y125.3700 E1.5535
G1 X146.4660 Y125.5040 E1.5603
G1 X145.9700 Y125.6720 E1.5716
G1 X145.6600 Y125.7410 E1.5785
G1 X145.3310 Y125.7840 E1.5856
G1 X144.9740 Y125.8000 E1.5933
G1 X91.0390 Y125.8000 E2.7558
G1 X90.5040 Y125.7650 E2.7673
G1 X90.0170 Y125.6680 E2.7780
G1 X89.5340 Y125.5040 E2.7890
G1 X89.2460 Y125.3700 E2.7959
G1 X88.9700 Y125.2100 E2.8027
G1 X88.5590 Y124.9090 E2.8137
G1 X88.2000 Y124.5660 E2.8244
G1 X87.8810 Y124.1680 E2.8354
G1 X87.7100 Y123.8990 E2.8423
G1 X87.5630 Y123.6170 E2.8491
G1 X87.3780 Y123.1420 E2.8601
G1 X87.2600 Y122.6600 E2.8708
G1 X87.2050 Y122.1520 E2.8818
G1 X87.2050 Y113.8340 E3.0611
G1 X87.2340 Y113.5040 E3.0682
G1 X87.2910 Y113.1780 E3.0754
G1 X87.3770 Y112.8580 E3.0825
G1 X87.4900 Y112.5460 E3.0897
G1 X87.6300 Y112.2460 E3.0968
G1 X87.7960 Y111.9590 E3.1039
G1 X87.9860 Y111.6870 E3.1111
G1 X88.1990 Y111.4330 E3.1182
G1 X88.4340 Y111.1990 E3.1254
G1 X88.6770 Y110.9950 E3.1322
G1 X89.1120 Y110.7040 E3.1435
G1 X89.3950 Y110.5570 E3.1504
G1 X89.7010 Y110.4300 E3.1575
G1 X90.0170 Y110.3310 E3.1646
G1 X90.3400 Y110.2590 E3.1718
G1 X90.6690 Y110.2160 E3.1789
G1 X91.0260 Y110.2000 E3.1866
G1 X91.0160 Y109.7200 F6000
G92 E0.0000
G1 X144.9770 Y109.7200 E1.1630 F2880
G1 X145.5580 Y109.7580 E1.1756
G1 X146.1070 Y109.8670 E1.1876
G1 X146.6370 Y110.0470 E1.1997
G1 X147.1460 Y110.2980 E1.2119
G1 X147.4540 Y110.4950 E1.2198
G1 X147.7440 Y110.7170 E1.2277
G1 X148.1540 Y111.1090 E1.2399
G1 X148.5100 Y111.5520 E1.2521
G1 X148.7060 Y111.8600 E1.2600
G1 X148.8750 Y112.1850 E1.2679
G1 X149.0800 Y112.7130 E1.2801
G1 X149.2150 Y113.2650 E1.2924
G1 X149.2630 Y113.6270 E1.3002
G1 X149.2800 Y114.0160 E1.3086
G1 X149.2800 Y121.9770 E1.4802
G1 X149.2410 Y122.5660 E1.4929
G1 X149.1780 Y122.9260 E1.5008
G1 X149.0810 Y123.2870 E1.5088
G1 X148.9540 Y123.6380 E1.5169
G1 X148.7960 Y123.9760 E1.5249
G1 X148.6090 Y124.2990 E1.5330
G1 X148.3950 Y124.6050 E1.5410
G1 X148.1550 Y124.8910 E1.5491
G1 X147.8910 Y125.1550 E1.5571
G1 X147.6050 Y125.3950 E1.5652
G1 X147.2990 Y125.6090 E1.5732
G1 X146.9760 Y125.7960 E1.5813
G1 X146.6450 Y125.9500 E1.5891
G1 X146.1000 Y126.1350 E1.6015
G1 X145.7430 Y126.2140 E1.6094
G1 X145.3730 Y126.2630 E1.6175
G1 X144.9840 Y126.2800 E1.6258
G1 X91.0230 Y126.2800 E2.7888
G1 X90.4420 Y126.2420 E2.8014
G1 X89.8930 Y126.1330 E2.8135
G1 X89.3550 Y125.9500 E2.8257
G1 X89.0240 Y125.7960 E2.8336
G1 X88.7080 Y125.6130 E2.8415
G1 X88.2500 Y125.2780 E2.8537
G1 X87.8460 Y124.8900 E2.8658
G1 X87.4900 Y124.4480 E2.8780
G1 X87.2940 Y124.1400 E2.8859
G1 X87.1250 Y123.8160 E2.8937
G1 X86.9200 Y123.2860 E2.9060
G1 X86.7870 Y122.7430 E2.9180
G1 X86.7250 Y122.1790 E2.9303
G1 X86.7250 Y113.8130 E3.1106
G1 X86.7570 Y113.4420 E3.1186
G1 X86.8220 Y113.0740 E3.1267
G1 X86.9190 Y112.7130 E3.1347
G1 X87.0460 Y112.3620 E3.1427
G1 X87.2040 Y112.0240 E3.1508
G1 X87.3910 Y111.7010 E3.1588
G1 X87.6050 Y111.3950 E3.1669
G1 X87.8450 Y111.1090 E3.1749
G1 X88.1090 Y110.8450 E3.1830
G1 X88.3890 Y110.6100 E3.1909
G1 X88.8670 Y110.2900 E3.2033
G1 X89.1920 Y110.1220 E3.2111
G1 X89.5370 Y109.9790 E3.2192
G1 X89.8920 Y109.8670 E3.2272
G1 X90.2570 Y109.7860 E3.2353
G1 X90.6270 Y109.7370 E3.2433
G1 X91.0160 Y109.7200 E3.2517
G1 X91.0050 Y109.2400 F6000
G92 E0.0000
G1 X144.9920 Y109.2400 E1.1636 F2160
G1 X145.6210 Y109.2810 E1.1771
G1 X146.2320 Y109.4030 E1.1906
G1 X146.8210 Y109.6030 E1.2040
G1 X147.3820 Y109.8790 E1.2175
G1 X147.7300 Y110.1010 E1.2263
G1 X148.0570 Y110.3520 E1.2352
G1 X148.5090 Y110.7850 E1.2487
G1 X148.9000 Y111.2720 E1.2622
G1 X149.1220 Y111.6200 E1.2711
G1 X149.3130 Y111.9860 E1.2800
G1 X149.5390 Y112.5690 E1.2935
G1 X149.6880 Y113.1760 E1.3069
G1 X149.7420 Y113.5850 E1.3158
G1 X149.7600 Y114.0050 E1.3249
G1 X149.7600 Y121.9920 E1.4970
G1 X149.7190 Y122.6240 E1.5107
G1 X149.6470 Y123.0300 E1.5196
G1 X149.5390 Y123.4310 E1.5285
G1 X149.3970 Y123.8220 E1.5375
G1 X149.2220 Y124.1980 E1.5464
G1 X149.0140 Y124.5570 E1.5554
G1 X148.7760 Y124.8980 E1.5643
G1 X148.5090 Y125.2160 E1.5733
G1 X148.2160 Y125.5090 E1.5822
G1 X147.8980 Y125.7760 E1.5912
G1 X147.5570 Y126.0140 E1.6001
G1 X147.1980 Y126.2220 E1.6090
G1 X146.8240 Y126.3960 E1.6179
G1 X146.2290 Y126.5980 E1.6315
G1 X145.8270 Y126.6870 E1.6404
G1 X145.4150 Y126.7420 E1.6493
G1 X144.9950 Y126.7600 E1.6584
G1 X91.0080 Y126.7600 E2.8219
G1 X90.3790 Y126.7190 E2.8355
G1 X89.7680 Y126.5970 E2.8489
G1 X89.1760 Y126.3960 E2.8624
G1 X88.8020 Y126.2220 E2.8713
G1 X88.4450 Y126.0160 E2.8802
G1 X87.9410 Y125.6460 E2.8937
G1 X87.4910 Y125.2150 E2.9071
G1 X87.1000 Y124.7280 E2.9206
G1 X86.8780 Y124.3800 E2.9295
G1 X86.6870 Y124.0140 E2.9384
G1 X86.4610 Y123.4310 E2.9518
G1 X86.3130 Y122.8260 E2.9652
G1 X86.2450 Y122.2050 E2.9787
G1 X86.2450 Y113.7920 E3.1600
G1 X86.2810 Y113.3790 E3.1690
G1 X86.3530 Y112.9700 E3.1779
G1 X86.4600 Y112.5690 E3.1869
G1 X86.6030 Y112.1790 E3.1958
G1 X86.7780 Y111.8020 E3.2048
G1 X86.9860 Y111.4420 E3.2137
G1 X87.2240 Y111.1020 E3.2227
G1 X87.4910 Y110.7840 E3.2316
G1 X87.7840 Y110.4910 E3.2406
G1 X88.1000 Y110.2250 E3.2495
G1 X88.6220 Y109.8770 E3.2630
G1 X88.9880 Y109.6860 E3.2719
G1 X89.3720 Y109.5270 E3.2808
G1 X89.7680 Y109.4020 E3.2898
G1 X90.1730 Y109.3130 E3.2987
G1 X90.5850 Y109.2580 E3.3077
G1 X91.0050 Y109.2400 E3.3168
G1 X90.0900 Y125.3890 F6000
G92 E0.0000
G1 X87.6200 Y122.9190 E0.0753 F2880
G1 X87.5440 Y122.6090 E0.0821
G1 X87.4930 Y122.1370 E0.0924
G1 X87.4930 Y122.1130 E0.0929
G1 X90.8810 Y125.5010 E0.1962
G1 X91.0490 Y125.5120 E0.1998
G1 X91.5710 Y125.5120 E0.2111
G1 X87.4930 Y121.4340 E0.3354
G1 X87.4930 Y120.7550 E0.3500
G1 X92.2500 Y125.5120 E0.4950
G1 X92.9290 Y125.5120 E0.5096
G1 X87.4930 Y120.0760 E0.6753
G1 X87.4930 Y119.3970 E0.6899
G1 X93.6070 Y125.5120 E0.8763
G1 X94.2860 Y125.5120 E0.8909
G1 X87.4930 Y118.7190 E1.0980
G1 X87.4930 Y118.0400 E1.1126
G1 X94.9650 Y125.5120 E1.3404
G1 X95.6440 Y125.5120 E1.3550
G1 X87.4930 Y117.3610 E1.6034
G1 X87.4930 Y116.6820 E1.6181
G1 X96.3230 Y125.5120 E1.8872
G1 X97.0010 Y125.5120 E1.9018
G1 X87.4930 Y116.0030 E2.1917
G1 X87.4930 Y115.3240 E2.2063
G1 X97.6800 Y125.5120 E2.5168
G1 X98.3590 Y125.5120 E2.5314
G1 X87.4930 Y114.6460 E2.8627
G1 X87.4930 Y113.9670 E2.8773
G1 X99.0380 Y125.5120 E3.2292
G1 X99.7170 Y125.5120 E3.2438
G1 X87.5530 Y113.3490 E3.6145
G1 X87.5730 Y113.2400 E3.6169
G1 X87.6520 Y112.9440 E3.6235
G1 X87.6990 Y112.8150 E3.6265
G1 X100.3960 Y125.5120 E4.0135
G1 X101.0740 Y125.5120 E4.0281
G1 X87.9060 Y112.3440 E4.4295
G1 X88.0390 Y112.1140 E4.4352
G1 X88.1690 Y111.9280 E4.4401
G1 X101.7530 Y125.5120 E4.8541
G1 X102.4320 Y125.5120 E4.8688
G1 X88.4800 Y111.5600 E5.2940
G1 X88.6280 Y111.4120 E5.2985
G1 X88.8360 Y111.2370 E5.3044
G1 X103.1110 Y125.5120 E5.7395
G1 X103.7900 Y125.5120 E5.7541
G1 X89.2420 Y110.9640 E6.1975
G1 X89.2590 Y110.9520 E6.1980
G1 X89.5160 Y110.8180 E6.2042
G1 X89.6990 Y110.7430 E6.2085
G1 X104.4690 Y125.5120 E6.6587
G1 X105.1470 Y125.5120 E6.6733
G1 X90.2170 Y110.5810 E7.1284
G1 X90.3900 Y110.5430 E7.1322
G1 X90.6940 Y110.5030 E7.1388
G1 X90.8120 Y110.4980 E7.1414
G1 X105.8260 Y125.5120 E7.5990
G1 X106.5050 Y125.5120 E7.6136
G1 X91.4810 Y110.4880 E8.0716
G1 X92.1600 Y110.4880 E8.0862
G1 X107.1840 Y125.5120 E8.5441
G1 X107.8630 Y125.5120 E8.5587
G1 X92.8390 Y110.4880 E9.0167
G1 X93.5170 Y110.4880 E9.0313
G1 X108.5410 Y125.5120 E9.4892
G1 X109.2200 Y125.5120 E9.5039
G1 X94.1960 Y110.4880 E9.9618
G1 X94.8750 Y110.4880 E9.9764
G1 X109.8990 Y125.5120 E10.4344
G1 X110.5780 Y125.5120 E10.4490
G1 X95.5540 Y110.4880 E10.9069
G1 X96.2330 Y110.4880 E10.9215
G1 X111.2570 Y125.5120 E11.3795
G1 X111.9360 Y125.5120 E11.3941
G1 X96.9120 Y110.4880 E11.8520
G1 X97.5900 Y110.4880 E11.8667
G1 X112.6140 Y125.5120 E12.3246
G1 X113.2930 Y125.5120 E12.3392
G1 X98.2690 Y110.4880 E12.7972
G1 X98.9480 Y110.4880 E12.8118
G1 X113.9720 Y125.5120 E13.2697
G1 X114.6510 Y125.5120 E13.2844
G1 X99.6270 Y110.4880 E13.7423
G1 X100.3060 Y110.4880 E13.7569
G1 X115.3300 Y125.5120 E14.2148
G1 X116.0080 Y125.5120 E14.2295
G1 X100.9840 Y110.4880 E14.6874
G1 X101.6630 Y110.4880 E14.7020
G1 X116.6870 Y125.5120 E15.1600
G1 X117.3660 Y125.5120 E15.1746
G1 X102.3420 Y110.4880 E15.6325
G1 X103.0210 Y110.4880 E15.6472
G1 X118.0450 Y125.5120 E16.1051
G1 X118.7240 Y125.5120 E16.1197
G1 X103.7000 Y110.4880 E16.5776
G1 X104.3790 Y110.4880 E16.5923
G1 X119.4030 Y125.5120 E17.0502
G1 X120.0810 Y125.5120 E17.0648
G1 X105.0570 Y110.4880 E17.5228
G1 X105.7360 Y110.4880 E17.5374
G1 X120.7600 Y125.5120 E17.9953
G1 X121.4390 Y125.5120 E18.0100
G1 X106.4150 Y110.4880 E18.4679
G1 X107.0940 Y110.4880 E18.4825
G1 X122.1180 Y125.5120 E18.9405
G1 X122.7970 Y125.5120 E18.9551
G1 X107.7730 Y110.4880 E19.4130
G1 X108.4520 Y110.4880 E19.4276
G1 X123.4760 Y125.5120 E19.8856
G1 X124.1540 Y125.5120 E19.9002
G1 X109.1300 Y110.4880 E20.3581
G1 X109.8090 Y110.4880 E20.3728
G1 X124.8330 Y125.5120 E20.8307
G1 X125.5120 Y125.5120 E20.8453
G1 X110.4880 Y110.4880 E21.3033
G1 X111.1670 Y110.4880 E21.3179
G1 X126.1910 Y125.5120 E21.7758
G1 X126.8700 Y125.5120 E21.7904
G1 X111.8460 Y110.4880 E22.2484
G1 X112.5240 Y110.4880 E22.2630
G1 X127.5480 Y125.5120 E22.7209
G1 X128.2270 Y125.5120 E22.7356
G1 X113.2030 Y110.4880 E23.1935
G1 X113.8820 Y110.4880 E23.2081
G1 X128.9060 Y125.5120 E23.6661
G1 X129.5850 Y125.5120 E23.6807
G1 X114.5610 Y110.4880 E24.1386
G1 X115.2400 Y110.4880 E24.1533
G1 X130.2640 Y125.5120 E24.6112
G1 X130.9430 Y125.5120 E24.6258
G1 X115.9190 Y110.4880 E25.0837
G1 X116.5970 Y110.4880 E25.0984
G1 X131.6210 Y125.5120 E25.5563
G1 X132.3000 Y125.5120 E25.5709
G1 X117.2760 Y110.4880 E26.0289
G1 X117.9550 Y110.4880 E26.0435
G1 X132.9790 Y125.5120 E26.5014
G1 X133.6580 Y125.5120 E26.5161
G1 X118.6340 Y110.4880 E26.9740
G1 X119.3130 Y110.4880 E26.9886
G1 X134.3370 Y125.5120 E27.4466
G1 X135.0160 Y125.5120 E27.4612
G1 X119.9920 Y110.4880 E27.9191
G1 X120.6700 Y110.4880 E27.9337
G1 X135.6940 Y125.5120 E28.3917
G1 X136.3730 Y125.5120 E28.4063
G1 X121.3490 Y110.4880 E28.8642
G1 X122.0280 Y110.4880 E28.8789
G1 X137.0520 Y125.5120 E29.3368
G1 X137.7310 Y125.5120 E29.3514
G1 X122.7070 Y110.4880 E29.8094
G1 X123.3860 Y110.4880 E29.8240
G1 X138.4100 Y125.5120 E30.2819
G1 X139.0880 Y125.5120 E30.2965
G1 X124.0640 Y110.4880 E30.7545
G1 X124.7430 Y110.4880 E30.7691
G1 X139.7670 Y125.5120 E31.2270
G1 X140.4460 Y125.5120 E31.2417
G1 X125.4220 Y110.4880 E31.6996
G1 X126.1010 Y110.4880 E31.7142
G1 X141.1250 Y125.5120 E32.1722
G1 X141.8040 Y125.5120 E32.1868
G1 X126.7800 Y110.4880 E32.6447
G1 X127.4590 Y110.4880 E32.6594
G1 X142.4830 Y125.5120 E33.1173
G1 X143.1610 Y125.5120 E33.1319
G1 X128.1370 Y110.4880 E33.5898
G1 X128.8160 Y110.4880 E33.6045
G1 X143.8400 Y125.5120 E34.0624
G1 X144.5190 Y125.5120 E34.0770
G1 X129.4950 Y110.4880 E34.5350
G1 X130.1740 Y110.4880 E34.5496
G1 X145.1880 Y125.5020 E35.0072
G1 X145.3060 Y125.4970 E35.0098
G1 X145.6100 Y125.4570 E35.0164
G1 X145.7830 Y125.4190 E35.0202
G1 X130.8530 Y110.4880 E35.4753
G1 X131.5320 Y110.4880 E35.4899
G1 X146.3000 Y125.2560 E35.9401
G1 X146.3580 Y125.2360 E35.9414
G1 X146.6210 Y125.1140 E35.9476
G1 X146.7570 Y125.0350 E35.9510
G1 X132.2100 Y110.4880 E36.3944
G1 X132.8890 Y110.4880 E36.4091
G1 X147.1640 Y124.7630 E36.8442
G1 X147.3720 Y124.5880 E36.8500
G1 X147.5200 Y124.4400 E36.8545
G1 X133.5680 Y110.4880 E37.2798
G1 X134.2470 Y110.4880 E37.2944
G1 X147.8310 Y124.0720 E37.7084
G1 X147.9610 Y123.8860 E37.7133
G1 X148.0940 Y123.6560 E37.7191
G1 X134.9260 Y110.4880 E38.1204
G1 X135.6040 Y110.4880 E38.1351
G1 X148.3010 Y123.1850 E38.5220
G1 X148.3480 Y123.0560 E38.5250
G1 X148.4270 Y122.7600 E38.5316
G1 X148.4470 Y122.6510 E38.5340
G1 X136.2830 Y110.4880 E38.9047
G1 X136.9620 Y110.4880 E38.9193
G1 X148.5070 Y122.0330 E39.2712
G1 X148.5120 Y121.9510 E39.2730
G1 X148.5120 Y121.3590 E39.2857
G1 X137.6410 Y110.4880 E39.6171
G1 X138.3200 Y110.4880 E39.6317
G1 X148.5120 Y120.6800 E39.9424
G1 X148.5120 Y120.0010 E39.9570
G1 X138.9990 Y110.4880 E40.2470
G1 X139.6770 Y110.4880 E40.2616
G1 X148.5120 Y119.3230 E40.5309
G1 X148.5120 Y118.6440 E40.5455
G1 X140.3560 Y110.4880 E40.7941
G1 X141.0350 Y110.4880 E40.8087
G1 X148.5120 Y117.9650 E41.0366
G1 X148.5120 Y117.2860 E41.0513
G1 X141.7140 Y110.4880 E41.2585
G1 X142.3930 Y110.4880 E41.2731
G1 X148.5120 Y116.6070 E41.4596
G1 X148.5120 Y115.9290 E41.4743
G1 X143.0710 Y110.4880 E41.6401
G1 X143.7500 Y110.4880 E41.6547
G1 X148.5120 Y115.2500 E41.7998
G1 X148.5120 Y114.5710 E41.8145
G1 X144.4290 Y110.4880 E41.9389
G1 X144.9510 Y110.4880 E41.9502
G1 X145.1190 Y110.4990 E41.9538
G1 X148.5060 Y113.8860 E42.0570
G1 X148.4970 Y113.6940 E42.0612
G1 X148.4590 Y113.4060 E42.0674
G1 X148.3800 Y113.0810 E42.0746
G1 X145.9100 Y110.6110 E42.1499
G92 E0.0000
G1 E-1.5 F1800 ; custom retraction - A
;layer 4, Z = 0.480
;fan4;
G1 Z0.480 F1200
G1 X91.0260 Y110.2000 F6000
G1 E0 F2400 ; custom un-retraction/prime - A
G92 E0.0000
G1 X144.9610 Y110.2000 E1.1624 F2880
G1 X145.4960 Y110.2350 E1.1740
G1 X145.9830 Y110.3320 E1.1847
G1 X146.4530 Y110.4920 E1.1954
G1 X146.9110 Y110.7170 E1.2064
G1 X147.1790 Y110.8880 E1.2132
G1 X147.4310 Y111.0820 E1.2201
G1 X147.8000 Y111.4340 E1.2311
G1 X148.1190 Y111.8320 E1.2421
G1 X148.2900 Y112.1010 E1.2489
G1 X148.4370 Y112.3830 E1.2558
G1 X148.6220 Y112.8580 E1.2668
G1 X148.7430 Y113.3530 E1.2778
G1 X148.7840 Y113.6690 E1.2846
G1 X148.8000 Y114.0260 E1.2923
G1 X148.8000 Y121.9610 E1.4634
G1 X148.7640 Y122.5090 E1.4752
G1 X148.7090 Y122.8220 E1.4821
G1 X148.6230 Y123.1420 E1.4892
G1 X148.5100 Y123.4540 E1.4963
G1 X148.3700 Y123.7540 E1.5035
G1 X148.2040 Y124.0410 E1.5106
G1 X148.0140 Y124.3130 E1.5178
G1 X147.8010 Y124.5670 E1.5249
G1 X147.5670 Y124.8010 E1.5321
G1 X147.3130 Y125.0140 E1.5392
G1 X147.0410 Y125.2040 E1.5463
G1 X146.7540 Y125.3700 E1.5535
G1 X146.4660 Y125.5040 E1.5603
G1 X145.9700 Y125.6720 E1.5716
G1 X145.6600 Y125.7410 E1.5785
G1 X145.3310 Y125.7840 E1.5856
G1 X144.9740 Y125.8000 E1.5933
G1 X91.0390 Y125.8000 E2.7558
G1 X90.5040 Y125.7650 E2.7673
G1 X90.0170 Y125.6680 E2.7780
G1 X89.5340 Y125.5040 E2.7890
G1 X89.2460 Y125.3700 E2.7959
G1 X88.9700 Y125.2100 E2.8027
G1 X88.5590 Y124.9090 E2.8137
G1 X88.2000 Y124.5660 E2.8244
G1 X87.8810 Y124.1680 E2.8354
G1 X87.7100 Y123.8990 E2.8423
G1 X87.5630 Y123.6170 E2.8491
G1 X87.3780 Y123.1420 E2.8601
G1 X87.2600 Y122.6600 E2.8708
G1 X87.2050 Y122.1520 E2.8818
G1 X87.2050 Y113.8340 E3.0611
G1 X87.2340 Y113.5040 E3.0682
G1 X87.2910 Y113.1780 E3.0754
G1 X87.3770 Y112.8580 E3.0825
G1 X87.4900 Y112.5460 E3.0897
G1 X87.6300 Y112.2460 E3.0968
G1 X87.7960 Y111.9590 E3.1039
G1 X87.9860 Y111.6870 E3.1111
G1 X88.1990 Y111.4330 E3.1182
G1 X88.4340 Y111.1990 E3.1254
G1 X88.6770 Y110.9950 E3.1322
G1 X89.1120 Y110.7040 E3.1435
G1 X89.3950 Y110.5570 E3.1504
G1 X89.7010 Y110.4300 E3.1575
G1 X90.0170 Y110.3310 E3.1646
G1 X90.3400 Y110.2590 E3.1718
G1 X90.6690 Y110.2160 E3.1789
G1 X91.0260 Y110.2000 E3.1866
G1 X91.0160 Y109.7200 F6000
G92 E0.0000
G1 X144.9770 Y109.7200 E1.1630 F2880
G1 X145.5580 Y109.7580 E1.1756
G1 X146.1070 Y109.8670 E1.1876
G1 X146.6370 Y110.0470 E1.1997
G1 X147.1460 Y110.2980 E1.2119
G1 X147.4540 Y110.4950 E1.2198
G1 X147.7440 Y110.7170 E1.2277
G1 X148.1540 Y111.1090 E1.2399
G1 X148.5100 Y111.5520 E1.2521
G1 X148.7060 Y111.8600 E1.2600
G1 X148.8750 Y112.1850 E1.2679
G1 X149.0800 Y112.7130 E1.2801
G1 X149.2150 Y113.2650 E1.2924
G1 X149.2630 Y113.6270 E1.3002
G1 X149.2800 Y114.0160 E1.3086
G1 X149.2800 Y121.9770 E1.4802
G1 X149.2410 Y122.5660 E1.4929
G1 X149.1780 Y122.9260 E1.5008
G1 X149.0810 Y123.2870 E1.5088
G1 X148.9540 Y123.6380 E1.5169
G1 X148.7960 Y123.9760 E1.5249
G1 X148.6090 Y124.2990 E1.5330
G1 X148.3950 Y124.6050 E1.5410
G1 X148.1550 Y124.8910 E1.5491
G1 X147.8910 Y125.1550 E1.5571
G1 X147.6050 Y125.3950 E1.5652
G1 X147.2990 Y125.6090 E1.5732
G1 X146.9760 Y125.7960 E1.5813
G1 X146.6450 Y125.9500 E1.5891
G1 X146.1000 Y126.1350 E1.6015
G1 X145.7430 Y126.2140 E1.6094
G1 X145.3730 Y126.2630 E1.6175
G1 X144.9840 Y126.2800 E1.6258
G1 X91.0230 Y126.2800 E2.7888
G1 X90.4420 Y126.2420 E2.8014
G1 X89.8930 Y126.1330 E2.8135
G1 X89.3550 Y125.9500 E2.8257
G1 X89.0240 Y125.7960 E2.8336
G1 X88.7080 Y125.6130 E2.8415
G1 X88.2500 Y125.2780 E2.8537
G1 X87.8460 Y124.8900 E2.8658
G1 X87.4900 Y124.4480 E2.8780
G1 X87.2940 Y124.1400 E2.8859
G1 X87.1250 Y123.8160 E2.8937
G1 X86.9200 Y123.2860 E2.9060
G1 X86.7870 Y122.7430 E2.9180
G1 X86.7250 Y122.1790 E2.9303
G1 X86.7250 Y113.8130 E3.1106
G1 X86.7570 Y113.4420 E3.1186
G1 X86.8220 Y113.0740 E3.1267
G1 X86.9190 Y112.7130 E3.1347
G1 X87.0460 Y112.3620 E3.1427
G1 X87.2040 Y112.0240 E3.1508
G1 X87.3910 Y111.7010 E3.1588
G1 X87.6050 Y111.3950 E3.1669
G1 X87.8450 Y111.1090 E3.1749
G1 X88.1090 Y110.8450 E3.1830
G1 X88.3890 Y110.6100 E3.1909
G1 X88.8670 Y110.2900 E3.2033
G1 X89.1920 Y110.1220 E3.2111
G1 X89.5370 Y109.9790 E3.2192
G1 X89.8920 Y109.8670 E3.2272
G1 X90.2570 Y109.7860 E3.2353
G1 X90.6270 Y109.7370 E3.2433
G1 X91.0160 Y109.7200 E3.2517
G1 X91.0050 Y109.2400 F6000
G92 E0.0000
G1 X144.9920 Y109.2400 E1.1636 F2160
G1 X145.6210 Y109.2810 E1.1771
G1 X146.2320 Y109.4030 E1.1906
G1 X146.8210 Y109.6030 E1.2040
G1 X147.3820 Y109.8790 E1.2175
G1 X147.7300 Y110.1010 E1.2263
G1 X148.0570 Y110.3520 E1.2352
G1 X148.5090 Y110.7850 E1.2487
G1 X148.9000 Y111.2720 E1.2622
G1 X149.1220 Y111.6200 E1.2711
G1 X149.3130 Y111.9860 E1.2800
G1 X149.5390 Y112.5690 E1.2935
G1 X149.6880 Y113.1760 E1.3069
G1 X149.7420 Y113.5850 E1.3158
G1 X149.7600 Y114.0050 E1.3249
G1 X149.7600 Y121.9920 E1.4970
G1 X149.7190 Y122.6240 E1.5107
G1 X149.6470 Y123.0300 E1.5196
G1 X149.5390 Y123.4310 E1.5285
G1 X149.3970 Y123.8220 E1.5375
G1 X149.2220 Y124.1980 E1.5464
G1 X149.0140 Y124.5570 E1.5554
G1 X148.7760 Y124.8980 E1.5643
G1 X148.5090 Y125.2160 E1.5733
G1 X148.2160 Y125.5090 E1.5822
G1 X147.8980 Y125.7760 E1.5912
G1 X147.5570 Y126.0140 E1.6001
G1 X147.1980 Y126.2220 E1.6090
G1 X146.8240 Y126.3960 E1.6179
G1 X146.2290 Y126.5980 E1.6315
G1 X145.8270 Y126.6870 E1.6404
G1 X145.4150 Y126.7420 E1.6493
G1 X144.9950 Y126.7600 E1.6584
G1 X91.0080 Y126.7600 E2.8219
G1 X90.3790 Y126.7190 E2.8355
G1 X89.7680 Y126.5970 E2.8489
G1 X89.1760 Y126.3960 E2.8624
G1 X88.8020 Y126.2220 E2.8713
G1 X88.4450 Y126.0160 E2.8802
G1 X87.9410 Y125.6460 E2.8937
G1 X87.4910 Y125.2150 E2.9071
G1 X87.1000 Y124.7280 E2.9206
G1 X86.8780 Y124.3800 E2.9295
G1 X86.6870 Y124.0140 E2.9384
G1 X86.4610 Y123.4310 E2.9518
G1 X86.3130 Y122.8260 E2.9652
G1 X86.2450 Y122.2050 E2.9787
G1 X86.2450 Y113.7920 E3.1600
G1 X86.2810 Y113.3790 E3.1690
G1 X86.3530 Y112.9700 E3.1779
G1 X86.4600 Y112.5690 E3.1869
G1 X86.6030 Y112.1790 E3.1958
G1 X86.7780 Y111.8020 E3.2048
G1 X86.9860 Y111.4420 E3.2137
G1 X87.2240 Y111.1020 E3.2227
G1 X87.4910 Y110.7840 E3.2316
G1 X87.7840 Y110.4910 E3.2406
G1 X88.1000 Y110.2250 E3.2495
G1 X88.6220 Y109.8770 E3.2630
G1 X88.9880 Y109.6860 E3.2719
G1 X89.3720 Y109.5270 E3.2808
G1 X89.7680 Y109.4020 E3.2898
G1 X90.1730 Y109.3130 E3.2987
G1 X90.5850 Y109.2580 E3.3077
G1 X91.0050 Y109.2400 E3.3168
G1 X87.5530 Y114.5060 F6000
G92 E0.0000
G1 X91.5110 Y110.5480 E0.1508 F3600
G1 X95.7540 Y110.5480 E0.2651
G1 X87.5530 Y118.7490 E0.5776
G1 X87.5530 Y122.1340 E0.6687
G1 X87.6040 Y122.5990 E0.6814
G1 X87.6710 Y122.8730 E0.6890
G1 X99.9960 Y110.5480 E1.1586
G1 X104.2390 Y110.5480 E1.2729
G1 X89.6250 Y125.1620 E1.8297
G1 X89.6640 Y125.1810 E1.8308
G1 X90.1070 Y125.3310 E1.8434
G1 X90.5500 Y125.4190 E1.8556
G1 X91.0510 Y125.4520 E1.8691
G1 X93.5770 Y125.4520 E1.9372
G1 X108.4810 Y110.5480 E2.5050
G1 X112.7240 Y110.5480 E2.6193
G1 X97.8200 Y125.4520 E3.1872
G1 X102.0630 Y125.4520 E3.3015
G1 X116.9670 Y110.5480 E3.8693
G1 X121.2090 Y110.5480 E3.9836
G1 X106.3050 Y125.4520 E4.5515
G1 X110.5480 Y125.4520 E4.6658
G1 X125.4520 Y110.5480 E5.2336
G1 X129.6950 Y110.5480 E5.3479
G1 X114.7910 Y125.4520 E5.9157
G1 X119.0330 Y125.4520 E6.0300
G1 X133.9370 Y110.5480 E6.5979
G1 X138.1800 Y110.5480 E6.7122
G1 X123.2760 Y125.4520 E7.2800
G1 X127.5190 Y125.4520 E7.3943
G1 X142.4230 Y110.5480 E7.9622
G1 X144.9490 Y110.5480 E8.0302
G1 X145.4500 Y110.5810 E8.0438
G1 X145.8930 Y110.6690 E8.0559
G1 X146.3200 Y110.8140 E8.0681
G1 X146.3730 Y110.8400 E8.0697
G1 X131.7610 Y125.4520 E8.6264
G1 X136.0040 Y125.4520 E8.7407
G1 X148.3290 Y113.1270 E9.2103
G1 X148.4000 Y113.4180 E9.2183
G1 X148.4370 Y113.6990 E9.2260
G1 X148.4520 Y114.0340 E9.2350
G1 X148.4520 Y117.2470 E9.3216
G1 X140.2470 Y125.4520 E9.6342
G1 X144.4890 Y125.4520 E9.7485
G1 X148.4520 Y121.4890 E9.8995
G92 E0.0000
G1 E-1.5 F1800 ; custom retraction - A
;layer 5, Z = 0.600
;fan5;
;
G1 Z0.600 F1200
G1 X91.0260 Y110.2000 F6000
G1 E0 F2400 ; custom un-retraction/prime - A
G92 E0.0000
G1 X144.9610 Y110.2000 E1.1624 F2880
G1 X145.4960 Y110.2350 E1.1740
G1 X145.9830 Y110.3320 E1.1847
G1 X146.4530 Y110.4920 E1.1954
G1 X146.9110 Y110.7170 E1.2064
G1 X147.1790 Y110.8880 E1.2132
G1 X147.4310 Y111.0820 E1.2201
G1 X147.8000 Y111.4340 E1.2311
G1 X148.1190 Y111.8320 E1.2421
G1 X148.2900 Y112.1010 E1.2489
G1 X148.4370 Y112.3830 E1.2558
G1 X148.6220 Y112.8580 E1.2668
G1 X148.7430 Y113.3530 E1.2778
G1 X148.7840 Y113.6690 E1.2846
G1 X148.8000 Y114.0260 E1.2923
G1 X148.8000 Y121.9610 E1.4634
G1 X148.7640 Y122.5090 E1.4752
G1 X148.7090 Y122.8220 E1.4821
G1 X148.6230 Y123.1420 E1.4892
G1 X148.5100 Y123.4540 E1.4963
G1 X148.3700 Y123.7540 E1.5035
G1 X148.2040 Y124.0410 E1.5106
G1 X148.0140 Y124.3130 E1.5178
G1 X147.8010 Y124.5670 E1.5249
G1 X147.5670 Y124.8010 E1.5321
G1 X147.3130 Y125.0140 E1.5392
G1 X147.0410 Y125.2040 E1.5463
G1 X146.7540 Y125.3700 E1.5535
G1 X146.4660 Y125.5040 E1.5603
G1 X145.9700 Y125.6720 E1.5716
G1 X145.6600 Y125.7410 E1.5785
G1 X145.3310 Y125.7840 E1.5856
G1 X144.9740 Y125.8000 E1.5933
G1 X91.0390 Y125.8000 E2.7558
G1 X90.5040 Y125.7650 E2.7673
G1 X90.0170 Y125.6680 E2.7780
G1 X89.5340 Y125.5040 E2.7890
G1 X89.2460 Y125.3700 E2.7959
G1 X88.9700 Y125.2100 E2.8027
G1 X88.5590 Y124.9090 E2.8137
G1 X88.2000 Y124.5660 E2.8244
G1 X87.8810 Y124.1680 E2.8354
G1 X87.7100 Y123.8990 E2.8423
G1 X87.5630 Y123.6170 E2.8491
G1 X87.3780 Y123.1420 E2.8601
G1 X87.2600 Y122.6600 E2.8708
G1 X87.2050 Y122.1520 E2.8818
G1 X87.2050 Y113.8340 E3.0611
G1 X87.2340 Y113.5040 E3.0682
G1 X87.2910 Y113.1780 E3.0754
G1 X87.3770 Y112.8580 E3.0825
G1 X87.4900 Y112.5460 E3.0897
G1 X87.6300 Y112.2460 E3.0968
G1 X87.7960 Y111.9590 E3.1039
G1 X87.9860 Y111.6870 E3.1111
G1 X88.1990 Y111.4330 E3.1182
G1 X88.4340 Y111.1990 E3.1254
G1 X88.6770 Y110.9950 E3.1322
G1 X89.1120 Y110.7040 E3.1435
G1 X89.3950 Y110.5570 E3.1504
G1 X89.7010 Y110.4300 E3.1575
G1 X90.0170 Y110.3310 E3.1646
G1 X90.3400 Y110.2590 E3.1718
G1 X90.6690 Y110.2160 E3.1789
G1 X91.0260 Y110.2000 E3.1866
G1 X91.0160 Y109.7200 F6000
G92 E0.0000
G1 X144.9770 Y109.7200 E1.1630 F2880
G1 X145.5580 Y109.7580 E1.1756
G1 X146.1070 Y109.8670 E1.1876
G1 X146.6370 Y110.0470 E1.1997
G1 X147.1460 Y110.2980 E1.2119
G1 X147.4540 Y110.4950 E1.2198
G1 X147.7440 Y110.7170 E1.2277
G1 X148.1540 Y111.1090 E1.2399
G1 X148.5100 Y111.5520 E1.2521
G1 X148.7060 Y111.8600 E1.2600
G1 X148.8750 Y112.1850 E1.2679
G1 X149.0800 Y112.7130 E1.2801
G1 X149.2150 Y113.2650 E1.2924
G1 X149.2630 Y113.6270 E1.3002
G1 X149.2800 Y114.0160 E1.3086
G1 X149.2800 Y121.9770 E1.4802
G1 X149.2410 Y122.5660 E1.4929
G1 X149.1780 Y122.9260 E1.5008
G1 X149.0810 Y123.2870 E1.5088
G1 X148.9540 Y123.6380 E1.5169
G1 X148.7960 Y123.9760 E1.5249
G1 X148.6090 Y124.2990 E1.5330
G1 X148.3950 Y124.6050 E1.5410
G1 X148.1550 Y124.8910 E1.5491
G1 X147.8910 Y125.1550 E1.5571
G1 X147.6050 Y125.3950 E1.5652
G1 X147.2990 Y125.6090 E1.5732
G1 X146.9760 Y125.7960 E1.5813
G1 X146.6450 Y125.9500 E1.5891
G1 X146.1000 Y126.1350 E1.6015
G1 X145.7430 Y126.2140 E1.6094
G1 X145.3730 Y126.2630 E1.6175
G1 X144.9840 Y126.2800 E1.6258
G1 X91.0230 Y126.2800 E2.7888
G1 X90.4420 Y126.2420 E2.8014
G1 X89.8930 Y126.1330 E2.8135
G1 X89.3550 Y125.9500 E2.8257
G1 X89.0240 Y125.7960 E2.8336
G1 X88.7080 Y125.6130 E2.8415
G1 X88.2500 Y125.2780 E2.8537
G1 X87.8460 Y124.8900 E2.8658
G1 X87.4900 Y124.4480 E2.8780
G1 X87.2940 Y124.1400 E2.8859
G1 X87.1250 Y123.8160 E2.8937
G1 X86.9200 Y123.2860 E2.9060
G1 X86.7870 Y122.7430 E2.9180
G1 X86.7250 Y122.1790 E2.9303
G1 X86.7250 Y113.8130 E3.1106
G1 X86.7570 Y113.4420 E3.1186
G1 X86.8220 Y113.0740 E3.1267
G1 X86.9190 Y112.7130 E3.1347
G1 X87.0460 Y112.3620 E3.1427
G1 X87.2040 Y112.0240 E3.1508
G1 X87.3910 Y111.7010 E3.1588
G1 X87.6050 Y111.3950 E3.1669
G1 X87.8450 Y111.1090 E3.1749
G1 X88.1090 Y110.8450 E3.1830
G1 X88.3890 Y110.6100 E3.1909
G1 X88.8670 Y110.2900 E3.2033
G1 X89.1920 Y110.1220 E3.2111
G1 X89.5370 Y109.9790 E3.2192
G1 X89.8920 Y109.8670 E3.2272
G1 X90.2570 Y109.7860 E3.2353
G1 X90.6270 Y109.7370 E3.2433
G1 X91.0160 Y109.7200 E3.2517
G1 X91.0050 Y109.2400 F6000
G92 E0.0000
G1 X144.9920 Y109.2400 E1.1636 F2160
G1 X145.6210 Y109.2810 E1.1771
G1 X146.2320 Y109.4030 E1.1906
G1 X146.8210 Y109.6030 E1.2040
G1 X147.3820 Y109.8790 E1.2175
G1 X147.7300 Y110.1010 E1.2263
G1 X148.0570 Y110.3520 E1.2352
G1 X148.5090 Y110.7850 E1.2487
G1 X148.9000 Y111.2720 E1.2622
G1 X149.1220 Y111.6200 E1.2711
G1 X149.3130 Y111.9860 E1.2800
G1 X149.5390 Y112.5690 E1.2935
G1 X149.6880 Y113.1760 E1.3069
G1 X149.7420 Y113.5850 E1.3158
G1 X149.7600 Y114.0050 E1.3249
G1 X149.7600 Y121.9920 E1.4970
G1 X149.7190 Y122.6240 E1.5107
G1 X149.6470 Y123.0300 E1.5196
G1 X149.5390 Y123.4310 E1.5285
G1 X149.3970 Y123.8220 E1.5375
G1 X149.2220 Y124.1980 E1.5464
G1 X149.0140 Y124.5570 E1.5554
G1 X148.7760 Y124.8980 E1.5643
G1 X148.5090 Y125.2160 E1.5733
G1 X148.2160 Y125.5090 E1.5822
G1 X147.8980 Y125.7760 E1.5912
G1 X147.5570 Y126.0140 E1.6001
G1 X147.1980 Y126.2220 E1.6090
G1 X146.8240 Y126.3960 E1.6179
G1 X146.2290 Y126.5980 E1.6315
G1 X145.8270 Y126.6870 E1.6404
G1 X145.4150 Y126.7420 E1.6493
G1 X144.9950 Y126.7600 E1.6584
G1 X91.0080 Y126.7600 E2.8219
G1 X90.3790 Y126.7190 E2.8355
G1 X89.7680 Y126.5970 E2.8489
G1 X89.1760 Y126.3960 E2.8624
G1 X88.8020 Y126.2220 E2.8713
G1 X88.4450 Y126.0160 E2.8802
G1 X87.9410 Y125.6460 E2.8937
G1 X87.4910 Y125.2150 E2.9071
G1 X87.1000 Y124.7280 E2.9206
G1 X86.8780 Y124.3800 E2.9295
G1 X86.6870 Y124.0140 E2.9384
G1 X86.4610 Y123.4310 E2.9518
G1 X86.3130 Y122.8260 E2.9652
G1 X86.2450 Y122.2050 E2.9787
G1 X86.2450 Y113.7920 E3.1600
G1 X86.2810 Y113.3790 E3.1690
G1 X86.3530 Y112.9700 E3.1779
G1 X86.4600 Y112.5690 E3.1869
G1 X86.6030 Y112.1790 E3.1958
G1 X86.7780 Y111.8020 E3.2048
G1 X86.9860 Y111.4420 E3.2137
G1 X87.2240 Y111.1020 E3.2227
G1 X87.4910 Y110.7840 E3.2316
G1 X87.7840 Y110.4910 E3.2406
G1 X88.1000 Y110.2250 E3.2495
G1 X88.6220 Y109.8770 E3.2630
G1 X88.9880 Y109.6860 E3.2719
G1 X89.3720 Y109.5270 E3.2808
G1 X89.7680 Y109.4020 E3.2898
G1 X90.1730 Y109.3130 E3.2987
G1 X90.5850 Y109.2580 E3.3077
G1 X91.0050 Y109.2400 E3.3168
G1 X95.5510 Y117.2730 F6000
G92 E0.0000
G1 X103.7900 Y125.5120 E0.2511 F2880
G1 X103.1110 Y125.5120 E0.2657
G1 X95.2650 Y117.6670 E0.5049
G1 X94.9800 Y118.0600 E0.5153
G1 X102.4320 Y125.5120 E0.7425
G1 X101.7530 Y125.5120 E0.7571
G1 X94.6940 Y118.4530 E0.9723
G1 X94.4090 Y118.8460 E0.9827
G1 X101.0740 Y125.5120 E1.1859
G1 X100.3960 Y125.5120 E1.2006
G1 X94.1230 Y119.2390 E1.3917
G1 X93.8510 Y119.6130 E1.4017
G1 X93.8020 Y119.5980 E1.4028
G1 X99.7170 Y125.5120 E1.5831
G1 X99.0380 Y125.5120 E1.5977
G1 X92.7970 Y119.2710 E1.7879
G1 X91.7910 Y118.9440 E1.8107
G1 X98.3590 Y125.5120 E2.0109
G1 X97.6800 Y125.5120 E2.0255
G1 X90.7860 Y118.6170 E2.2357
G1 X90.0900 Y125.3890 F6000
G92 E0.0000
G1 X87.6200 Y122.9190 E0.0753 F2880
G1 X87.5440 Y122.6090 E0.0821
G1 X87.4930 Y122.1370 E0.0924
G1 X87.4930 Y122.1130 E0.0929
G1 X90.8810 Y125.5010 E0.1962
G1 X91.0490 Y125.5120 E0.1998
G1 X91.5710 Y125.5120 E0.2111
G1 X87.4930 Y121.4340 E0.3354
G1 X87.4930 Y120.7550 E0.3500
G1 X92.2500 Y125.5120 E0.4950
G1 X92.9290 Y125.5120 E0.5096
G1 X87.4930 Y120.0760 E0.6753
G1 X87.4930 Y119.3970 E0.6899
G1 X93.6070 Y125.5120 E0.8763
G1 X94.2860 Y125.5120 E0.8909
G1 X87.4930 Y118.7190 E1.0980
G1 X87.4930 Y118.0400 E1.1126
G1 X94.9650 Y125.5120 E1.3404
G1 X95.6440 Y125.5120 E1.3550
G1 X87.4930 Y117.3610 E1.6034
G1 X87.4930 Y116.6820 E1.6181
G1 X96.3230 Y125.5120 E1.8872
G1 X97.0010 Y125.5120 E1.9018
G1 X87.4930 Y116.0030 E2.1917
G1 X87.4930 Y115.3240 E2.2063
G1 X90.7720 Y118.6040 E2.3062
G1 X90.7720 Y117.9250 E2.3209
G1 X87.4930 Y114.6460 E2.4208
G1 X87.4930 Y113.9670 E2.4355
G1 X90.7720 Y117.2460 E2.5354
G1 X90.7720 Y116.5670 E2.5500
G1 X87.5530 Y113.3490 E2.6481
G1 X87.5730 Y113.2400 E2.6505
G1 X87.6520 Y112.9440 E2.6571
G1 X87.6990 Y112.8150 E2.6601
G1 X90.7720 Y115.8880 E2.7537
G1 X90.7720 Y115.3750 E2.7648
G1 X90.8970 Y115.3350 E2.7676
G1 X87.9060 Y112.3440 E2.8588
G1 X88.0390 Y112.1140 E2.8645
G1 X88.1690 Y111.9280 E2.8694
G1 X91.4090 Y115.1680 E2.9682
G1 X91.9220 Y115.0020 E2.9798
G1 X88.4800 Y111.5600 E3.0847
G1 X88.6280 Y111.4120 E3.0892
G1 X88.7590 Y111.3020 E3.0929
G1 X88.8360 Y111.2370 E3.0951
G1 X92.4340 Y114.8350 E3.2047
G1 X92.9470 Y114.6690 E3.2163
G1 X89.2420 Y110.9640 E3.3293
G1 X89.2500 Y110.9590 E3.3295
G1 X89.2590 Y110.9520 E3.3297
G1 X89.3810 Y110.8890 E3.3327
G1 X89.5160 Y110.8180 E3.3360
G1 X89.6990 Y110.7430 E3.3402
G1 X93.4590 Y114.5020 E3.4548
G1 X93.8510 Y114.3750 E3.4637
G1 X95.2320 Y116.2750 E3.5143
G1 X104.4690 Y125.5120 E3.7959
G1 X105.1470 Y125.5120 E3.8105
G1 X90.2170 Y110.5810 E4.2656
G1 X90.3900 Y110.5430 E4.2694
G1 X90.6940 Y110.5030 E4.2760
G1 X90.8120 Y110.4980 E4.2786
G1 X105.8260 Y125.5120 E4.7362
G1 X106.5050 Y125.5120 E4.7508
G1 X91.4810 Y110.4880 E5.2088
G1 X92.1600 Y110.4880 E5.2234
G1 X107.1840 Y125.5120 E5.6813
G1 X107.8630 Y125.5120 E5.6960
G1 X92.8390 Y110.4880 E6.1539
G1 X93.5170 Y110.4880 E6.1685
G1 X108.5410 Y125.5120 E6.6264
G1 X109.2200 Y125.5120 E6.6411
G1 X94.1960 Y110.4880 E7.0990
G1 X94.8750 Y110.4880 E7.1136
G1 X109.8990 Y125.5120 E7.5716
G1 X110.5780 Y125.5120 E7.5862
G1 X95.5540 Y110.4880 E8.0441
G1 X96.2330 Y110.4880 E8.0588
G1 X111.2570 Y125.5120 E8.5167
G1 X111.9360 Y125.5120 E8.5313
G1 X96.9120 Y110.4880 E8.9892
G1 X97.5900 Y110.4880 E9.0039
G1 X112.6140 Y125.5120 E9.4618
G1 X113.2930 Y125.5120 E9.4764
G1 X98.2690 Y110.4880 E9.9344
G1 X98.9480 Y110.4880 E9.9490
G1 X113.9720 Y125.5120 E10.4069
G1 X114.6510 Y125.5120 E10.4216
G1 X99.6270 Y110.4880 E10.8795
G1 X100.3060 Y110.4880 E10.8941
G1 X115.3300 Y125.5120 E11.3521
G1 X116.0080 Y125.5120 E11.3667
G1 X100.9840 Y110.4880 E11.8246
G1 X101.6630 Y110.4880 E11.8392
G1 X116.6870 Y125.5120 E12.2972
G1 X117.3660 Y125.5120 E12.3118
G1 X102.3420 Y110.4880 E12.7697
G1 X103.0210 Y110.4880 E12.7844
G1 X118.0450 Y125.5120 E13.2423
G1 X118.7240 Y125.5120 E13.2569
G1 X103.7000 Y110.4880 E13.7149
G1 X104.3790 Y110.4880 E13.7295
G1 X119.4030 Y125.5120 E14.1874
G1 X120.0810 Y125.5120 E14.2020
G1 X105.0570 Y110.4880 E14.6600
G1 X105.7360 Y110.4880 E14.6746
G1 X120.7600 Y125.5120 E15.1325
G1 X121.4390 Y125.5120 E15.1472
G1 X106.4150 Y110.4880 E15.6051
G1 X107.0940 Y110.4880 E15.6197
G1 X122.1180 Y125.5120 E16.0777
G1 X122.7970 Y125.5120 E16.0923
G1 X107.7730 Y110.4880 E16.5502
G1 X108.4520 Y110.4880 E16.5649
G1 X123.4760 Y125.5120 E17.0228
G1 X124.1540 Y125.5120 E17.0374
G1 X109.1300 Y110.4880 E17.4953
G1 X109.8090 Y110.4880 E17.5100
G1 X124.8330 Y125.5120 E17.9679
G1 X125.5120 Y125.5120 E17.9825
G1 X110.4880 Y110.4880 E18.4405
G1 X111.1670 Y110.4880 E18.4551
G1 X126.1910 Y125.5120 E18.9130
G1 X126.8700 Y125.5120 E18.9277
G1 X111.8460 Y110.4880 E19.3856
G1 X112.5240 Y110.4880 E19.4002
G1 X127.5480 Y125.5120 E19.8581
G1 X128.2270 Y125.5120 E19.8728
G1 X113.2030 Y110.4880 E20.3307
G1 X113.8820 Y110.4880 E20.3453
G1 X128.9060 Y125.5120 E20.8033
G1 X129.5850 Y125.5120 E20.8179
G1 X114.5610 Y110.4880 E21.2758
G1 X115.2400 Y110.4880 E21.2905
G1 X130.2640 Y125.5120 E21.7484
G1 X130.9430 Y125.5120 E21.7630
G1 X115.9190 Y110.4880 E22.2210
G1 X116.5970 Y110.4880 E22.2356
G1 X131.6210 Y125.5120 E22.6935
G1 X132.3000 Y125.5120 E22.7081
G1 X117.2760 Y110.4880 E23.1661
G1 X117.9550 Y110.4880 E23.1807
G1 X132.9790 Y125.5120 E23.6386
G1 X133.6580 Y125.5120 E23.6533
G1 X118.6340 Y110.4880 E24.1112
G1 X119.3130 Y110.4880 E24.1258
G1 X134.3370 Y125.5120 E24.5838
G1 X135.0160 Y125.5120 E24.5984
G1 X119.9920 Y110.4880 E25.0563
G1 X120.6700 Y110.4880 E25.0709
G1 X135.6940 Y125.5120 E25.5289
G1 X136.3730 Y125.5120 E25.5435
G1 X121.3490 Y110.4880 E26.0014
G1 X122.0280 Y110.4880 E26.0161
G1 X137.0520 Y125.5120 E26.4740
G1 X137.7310 Y125.5120 E26.4886
G1 X122.7070 Y110.4880 E26.9466
G1 X123.3860 Y110.4880 E26.9612
G1 X138.4100 Y125.5120 E27.4191
G1 X139.0880 Y125.5120 E27.4338
G1 X124.0640 Y110.4880 E27.8917
G1 X124.7430 Y110.4880 E27.9063
G1 X139.7670 Y125.5120 E28.3642
G1 X140.4460 Y125.5120 E28.3789
G1 X125.4220 Y110.4880 E28.8368
G1 X126.1010 Y110.4880 E28.8514
G1 X141.1250 Y125.5120 E29.3094
G1 X141.8040 Y125.5120 E29.3240
G1 X126.7800 Y110.4880 E29.7819
G1 X127.4590 Y110.4880 E29.7966
G1 X142.4830 Y125.5120 E30.2545
G1 X143.1610 Y125.5120 E30.2691
G1 X128.1370 Y110.4880 E30.7270
G1 X128.8160 Y110.4880 E30.7417
G1 X143.8400 Y125.5120 E31.1996
G1 X144.5190 Y125.5120 E31.2142
G1 X129.4950 Y110.4880 E31.6722
G1 X130.1740 Y110.4880 E31.6868
G1 X145.1880 Y125.5020 E32.1444
G1 X145.3060 Y125.4970 E32.1470
G1 X145.6100 Y125.4570 E32.1536
G1 X145.7520 Y125.4260 E32.1567
G1 X145.7830 Y125.4190 E32.1574
G1 X130.8530 Y110.4880 E32.6125
G1 X131.5320 Y110.4880 E32.6271
G1 X146.3000 Y125.2560 E33.0773
G1 X146.3580 Y125.2360 E33.0786
G1 X146.3870 Y125.2230 E33.0793
G1 X146.6210 Y125.1140 E33.0848
G1 X146.7220 Y125.0560 E33.0874
G1 X146.7570 Y125.0350 E33.0882
G1 X132.2100 Y110.4880 E33.5316
G1 X132.8890 Y110.4880 E33.5463
G1 X147.1640 Y124.7630 E33.9814
G1 X147.3720 Y124.5880 E33.9872
G1 X147.5200 Y124.4400 E33.9917
G1 X142.5600 Y119.4800 E34.1429
G1 X142.1490 Y119.6130 E34.1522
G1 X140.7020 Y117.6220 E34.2053
G1 X133.5680 Y110.4880 E34.4227
G1 X134.2470 Y110.4880 E34.4374
G1 X140.4590 Y116.7010 E34.6267
G1 X140.7450 Y116.3070 E34.6372
G1 X134.9260 Y110.4880 E34.8146
G1 X135.6040 Y110.4880 E34.8292
G1 X141.0310 Y115.9140 E34.9946
G1 X141.3160 Y115.5210 E35.0050
G1 X136.2830 Y110.4880 E35.1585
G1 X136.9620 Y110.4880 E35.1731
G1 X141.6020 Y115.1280 E35.3145
G1 X141.8880 Y114.7350 E35.3250
G1 X137.6410 Y110.4880 E35.4544
G1 X138.3200 Y110.4880 E35.4691
G1 X142.2340 Y114.4030 E35.5884
G1 X143.2400 Y114.7290 E35.6112
G1 X138.9990 Y110.4880 E35.7404
G1 X139.6770 Y110.4880 E35.7551
G1 X144.2460 Y115.0560 E35.8943
G1 X145.2280 Y115.3750 E35.9166
G1 X145.2280 Y116.0390 E35.9309
G1 X148.5120 Y119.3230 E36.0310
G1 X148.5120 Y118.6440 E36.0456
G1 X140.3560 Y110.4880 E36.2942
G1 X141.0350 Y110.4880 E36.3088
G1 X148.5120 Y117.9650 E36.5367
G1 X148.5120 Y117.2860 E36.5513
G1 X141.7140 Y110.4880 E36.7585
G1 X142.3930 Y110.4880 E36.7732
G1 X148.5120 Y116.6070 E36.9597
G1 X148.5120 Y115.9290 E36.9743
G1 X143.0710 Y110.4880 E37.1401
G1 X143.7500 Y110.4880 E37.1548
G1 X148.5120 Y115.2500 E37.2999
G1 X148.5120 Y114.5710 E37.3145
G1 X144.4290 Y110.4880 E37.4390
G1 X144.9510 Y110.4880 E37.4502
G1 X145.1190 Y110.4990 E37.4539
G1 X148.5060 Y113.8860 E37.5571
G1 X148.4970 Y113.6940 E37.5612
G1 X148.4590 Y113.4060 E37.5675
G1 X148.3800 Y113.0810 E37.5747
G1 X145.9100 Y110.6110 E37.6500
G1 X145.2280 Y116.7180 F6000
G92 E0.0000
G1 X148.5120 Y120.0010 E0.1001 F2880
G1 X148.5120 Y120.6800 E0.1147
G1 X145.2280 Y117.3960 E0.2148
G1 X145.2280 Y118.0750 E0.2294
G1 X148.5120 Y121.3590 E0.3295
G1 X148.5120 Y121.9510 E0.3423
G1 X148.5070 Y122.0330 E0.3441
G1 X145.1220 Y118.6480 E0.4472
G1 X144.6090 Y118.8140 E0.4588
G1 X148.4470 Y122.6510 E0.5758
G1 X148.4270 Y122.7600 E0.5782
G1 X148.3480 Y123.0560 E0.5848
G1 X148.3010 Y123.1850 E0.5877
G1 X144.0970 Y118.9810 E0.7159
G1 X143.5850 Y119.1470 E0.7275
G1 X148.0940 Y123.6560 E0.8649
G1 X147.9610 Y123.8860 E0.8707
G1 X147.8800 Y124.0020 E0.8737
G1 X147.8310 Y124.0720 E0.8755
G1 X143.0720 Y119.3130 E1.0206
G92 E0.0000
G1 E-1.5 F1800 ; custom retraction - A
;layer 6, Z = 0.720
;fan6;
G1 Z0.720 F1200
G1 X91.0260 Y110.2000 F6000
G1 E0 F2400 ; custom un-retraction/prime - A
G92 E0.0000
G1 X144.9610 Y110.2000 E1.1624 F2880
G1 X145.4960 Y110.2350 E1.1740
G1 X145.9830 Y110.3320 E1.1847
G1 X146.4530 Y110.4920 E1.1954
G1 X146.9110 Y110.7170 E1.2064
G1 X147.1790 Y110.8880 E1.2132
G1 X147.4310 Y111.0820 E1.2201
G1 X147.8000 Y111.4340 E1.2311
G1 X148.1190 Y111.8320 E1.2421
G1 X148.2900 Y112.1010 E1.2489
G1 X148.4370 Y112.3830 E1.2558
G1 X148.6220 Y112.8580 E1.2668
G1 X148.7430 Y113.3530 E1.2778
G1 X148.7840 Y113.6690 E1.2846
G1 X148.8000 Y114.0260 E1.2923
G1 X148.8000 Y121.9610 E1.4634
G1 X148.7640 Y122.5090 E1.4752
G1 X148.7090 Y122.8220 E1.4821
G1 X148.6230 Y123.1420 E1.4892
G1 X148.5100 Y123.4540 E1.4963
G1 X148.3700 Y123.7540 E1.5035
G1 X148.2040 Y124.0410 E1.5106
G1 X148.0140 Y124.3130 E1.5178
G1 X147.8010 Y124.5670 E1.5249
G1 X147.5670 Y124.8010 E1.5321
G1 X147.3130 Y125.0140 E1.5392
G1 X147.0410 Y125.2040 E1.5463
G1 X146.7540 Y125.3700 E1.5535
G1 X146.4660 Y125.5040 E1.5603
G1 X145.9700 Y125.6720 E1.5716
G1 X145.6600 Y125.7410 E1.5785
G1 X145.3310 Y125.7840 E1.5856
G1 X144.9740 Y125.8000 E1.5933
G1 X91.0390 Y125.8000 E2.7558
G1 X90.5040 Y125.7650 E2.7673
G1 X90.0170 Y125.6680 E2.7780
G1 X89.5340 Y125.5040 E2.7890
G1 X89.2460 Y125.3700 E2.7959
G1 X88.9700 Y125.2100 E2.8027
G1 X88.5590 Y124.9090 E2.8137
G1 X88.2000 Y124.5660 E2.8244
G1 X87.8810 Y124.1680 E2.8354
G1 X87.7100 Y123.8990 E2.8423
G1 X87.5630 Y123.6170 E2.8491
G1 X87.3780 Y123.1420 E2.8601
G1 X87.2600 Y122.6600 E2.8708
G1 X87.2050 Y122.1520 E2.8818
G1 X87.2050 Y113.8340 E3.0611
G1 X87.2340 Y113.5040 E3.0682
G1 X87.2910 Y113.1780 E3.0754
G1 X87.3770 Y112.8580 E3.0825
G1 X87.4900 Y112.5460 E3.0897
G1 X87.6300 Y112.2460 E3.0968
G1 X87.7960 Y111.9590 E3.1039
G1 X87.9860 Y111.6870 E3.1111
G1 X88.1990 Y111.4330 E3.1182
G1 X88.4340 Y111.1990 E3.1254
G1 X88.6770 Y110.9950 E3.1322
G1 X89.1120 Y110.7040 E3.1435
G1 X89.3950 Y110.5570 E3.1504
G1 X89.7010 Y110.4300 E3.1575
G1 X90.0170 Y110.3310 E3.1646
G1 X90.3400 Y110.2590 E3.1718
G1 X90.6690 Y110.2160 E3.1789
G1 X91.0260 Y110.2000 E3.1866
G1 X91.0160 Y109.7200 F6000
G92 E0.0000
G1 X144.9770 Y109.7200 E1.1630 F2880
G1 X145.5580 Y109.7580 E1.1756
G1 X146.1070 Y109.8670 E1.1876
G1 X146.6370 Y110.0470 E1.1997
G1 X147.1460 Y110.2980 E1.2119
G1 X147.4540 Y110.4950 E1.2198
G1 X147.7440 Y110.7170 E1.2277
G1 X148.1540 Y111.1090 E1.2399
G1 X148.5100 Y111.5520 E1.2521
G1 X148.7060 Y111.8600 E1.2600
G1 X148.8750 Y112.1850 E1.2679
G1 X149.0800 Y112.7130 E1.2801
G1 X149.2150 Y113.2650 E1.2924
G1 X149.2630 Y113.6270 E1.3002
G1 X149.2800 Y114.0160 E1.3086
G1 X149.2800 Y121.9770 E1.4802
G1 X149.2410 Y122.5660 E1.4929
G1 X149.1780 Y122.9260 E1.5008
G1 X149.0810 Y123.2870 E1.5088
G1 X148.9540 Y123.6380 E1.5169
G1 X148.7960 Y123.9760 E1.5249
G1 X148.6090 Y124.2990 E1.5330
G1 X148.3950 Y124.6050 E1.5410
G1 X148.1550 Y124.8910 E1.5491
G1 X147.8910 Y125.1550 E1.5571
G1 X147.6050 Y125.3950 E1.5652
G1 X147.2990 Y125.6090 E1.5732
G1 X146.9760 Y125.7960 E1.5813
G1 X146.6450 Y125.9500 E1.5891
G1 X146.1000 Y126.1350 E1.6015
G1 X145.7430 Y126.2140 E1.6094
G1 X145.3730 Y126.2630 E1.6175
G1 X144.9840 Y126.2800 E1.6258
G1 X91.0230 Y126.2800 E2.7888
G1 X90.4420 Y126.2420 E2.8014
G1 X89.8930 Y126.1330 E2.8135
G1 X89.3550 Y125.9500 E2.8257
G1 X89.0240 Y125.7960 E2.8336
G1 X88.7080 Y125.6130 E2.8415
G1 X88.2500 Y125.2780 E2.8537
G1 X87.8460 Y124.8900 E2.8658
G1 X87.4900 Y124.4480 E2.8780
G1 X87.2940 Y124.1400 E2.8859
G1 X87.1250 Y123.8160 E2.8937
G1 X86.9200 Y123.2860 E2.9060
G1 X86.7870 Y122.7430 E2.9180
G1 X86.7250 Y122.1790 E2.9303
G1 X86.7250 Y113.8130 E3.1106
G1 X86.7570 Y113.4420 E3.1186
G1 X86.8220 Y113.0740 E3.1267
G1 X86.9190 Y112.7130 E3.1347
G1 X87.0460 Y112.3620 E3.1427
G1 X87.2040 Y112.0240 E3.1508
G1 X87.3910 Y111.7010 E3.1588
G1 X87.6050 Y111.3950 E3.1669
G1 X87.8450 Y111.1090 E3.1749
G1 X88.1090 Y110.8450 E3.1830
G1 X88.3890 Y110.6100 E3.1909
G1 X88.8670 Y110.2900 E3.2033
G1 X89.1920 Y110.1220 E3.2111
G1 X89.5370 Y109.9790 E3.2192
G1 X89.8920 Y109.8670 E3.2272
G1 X90.2570 Y109.7860 E3.2353
G1 X90.6270 Y109.7370 E3.2433
G1 X91.0160 Y109.7200 E3.2517
G1 X91.0050 Y109.2400 F6000
G92 E0.0000
G1 X144.9920 Y109.2400 E1.1636 F2160
G1 X145.6210 Y109.2810 E1.1771
G1 X146.2320 Y109.4030 E1.1906
G1 X146.8210 Y109.6030 E1.2040
G1 X147.3820 Y109.8790 E1.2175
G1 X147.7300 Y110.1010 E1.2263
G1 X148.0570 Y110.3520 E1.2352
G1 X148.5090 Y110.7850 E1.2487
G1 X148.9000 Y111.2720 E1.2622
G1 X149.1220 Y111.6200 E1.2711
G1 X149.3130 Y111.9860 E1.2800
G1 X149.5390 Y112.5690 E1.2935
G1 X149.6880 Y113.1760 E1.3069
G1 X149.7420 Y113.5850 E1.3158
G1 X149.7600 Y114.0050 E1.3249
G1 X149.7600 Y121.9920 E1.4970
G1 X149.7190 Y122.6240 E1.5107
G1 X149.6470 Y123.0300 E1.5196
G1 X149.5390 Y123.4310 E1.5285
G1 X149.3970 Y123.8220 E1.5375
G1 X149.2220 Y124.1980 E1.5464
G1 X149.0140 Y124.5570 E1.5554
G1 X148.7760 Y124.8980 E1.5643
G1 X148.5090 Y125.2160 E1.5733
G1 X148.2160 Y125.5090 E1.5822
G1 X147.8980 Y125.7760 E1.5912
G1 X147.5570 Y126.0140 E1.6001
G1 X147.1980 Y126.2220 E1.6090
G1 X146.8240 Y126.3960 E1.6179
G1 X146.2290 Y126.5980 E1.6315
G1 X145.8270 Y126.6870 E1.6404
G1 X145.4150 Y126.7420 E1.6493
G1 X144.9950 Y126.7600 E1.6584
G1 X91.0080 Y126.7600 E2.8219
G1 X90.3790 Y126.7190 E2.8355
G1 X89.7680 Y126.5970 E2.8489
G1 X89.1760 Y126.3960 E2.8624
G1 X88.8020 Y126.2220 E2.8713
G1 X88.4450 Y126.0160 E2.8802
G1 X87.9410 Y125.6460 E2.8937
G1 X87.4910 Y125.2150 E2.9071
G1 X87.1000 Y124.7280 E2.9206
G1 X86.8780 Y124.3800 E2.9295
G1 X86.6870 Y124.0140 E2.9384
G1 X86.4610 Y123.4310 E2.9518
G1 X86.3130 Y122.8260 E2.9652
G1 X86.2450 Y122.2050 E2.9787
G1 X86.2450 Y113.7920 E3.1600
G1 X86.2810 Y113.3790 E3.1690
G1 X86.3530 Y112.9700 E3.1779
G1 X86.4600 Y112.5690 E3.1869
G1 X86.6030 Y112.1790 E3.1958
G1 X86.7780 Y111.8020 E3.2048
G1 X86.9860 Y111.4420 E3.2137
G1 X87.2240 Y111.1020 E3.2227
G1 X87.4910 Y110.7840 E3.2316
G1 X87.7840 Y110.4910 E3.2406
G1 X88.1000 Y110.2250 E3.2495
G1 X88.6220 Y109.8770 E3.2630
G1 X88.9880 Y109.6860 E3.2719
G1 X89.3720 Y109.5270 E3.2808
G1 X89.7680 Y109.4020 E3.2898
G1 X90.1730 Y109.3130 E3.2987
G1 X90.5850 Y109.2580 E3.3077
G1 X91.0050 Y109.2400 E3.3168
G1 X87.6130 Y113.0880 F6000
G92 E0.0000
G1 X90.0920 Y110.6090 E0.0756 F2880
G1 X90.3900 Y110.5430 E0.0821
G1 X90.6940 Y110.5030 E0.0887
G1 X90.8860 Y110.4940 E0.0929
G1 X87.4930 Y113.8870 E0.1963
G1 X87.4930 Y114.5660 E0.2109
G1 X91.5710 Y110.4880 E0.3352
G1 X92.2500 Y110.4880 E0.3499
G1 X87.4930 Y115.2450 E0.4948
G1 X87.4930 Y115.9240 E0.5095
G1 X92.9290 Y110.4880 E0.6752
G1 X93.6070 Y110.4880 E0.6898
G1 X87.4930 Y116.6030 E0.8762
G1 X87.4930 Y117.2810 E0.8908
G1 X94.2860 Y110.4880 E1.0979
G1 X94.9650 Y110.4880 E1.1125
G1 X87.4930 Y117.9600 E1.3402
G1 X87.4930 Y118.6390 E1.3549
G1 X95.6440 Y110.4880 E1.6033
G1 X96.3230 Y110.4880 E1.6179
G1 X91.7550 Y115.0560 E1.7572
G1 X90.7720 Y115.3750 E1.7794
G1 X90.7720 Y116.0390 E1.7937
G1 X87.4930 Y119.3180 E1.8937
G1 X87.4930 Y119.9970 E1.9083
G1 X90.7720 Y116.7180 E2.0083
G1 X90.7720 Y117.3960 E2.0229
G1 X87.4930 Y120.6760 E2.1229
G1 X87.4930 Y121.3540 E2.1375
G1 X90.7720 Y118.0750 E2.2374
G1 X90.7720 Y118.6130 E2.2490
G1 X90.8780 Y118.6480 E2.2514
G1 X87.4930 Y122.0330 E2.3546
G1 X87.4930 Y122.1370 E2.3569
G1 X87.5440 Y122.6090 E2.3671
G1 X87.5550 Y122.6500 E2.3680
G1 X91.3910 Y118.8140 E2.4849
G1 X91.9030 Y118.9810 E2.4966
G1 X87.7030 Y123.1810 E2.6246
G1 X87.8260 Y123.4980 E2.6319
G1 X87.9070 Y123.6550 E2.6357
G1 X92.4150 Y119.1470 E2.7731
G1 X92.9280 Y119.3130 E2.7847
G1 X88.1720 Y124.0700 E2.9297
G1 X88.4130 Y124.3700 E2.9380
G1 X88.4830 Y124.4370 E2.9401
G1 X93.4400 Y119.4800 E3.0912
G1 X93.8510 Y119.6130 E3.1005
G1 X95.2980 Y117.6230 E3.1536
G1 X102.4320 Y110.4880 E3.3710
G1 X103.1110 Y110.4880 E3.3856
G1 X88.8410 Y124.7580 E3.8206
G1 X89.1280 Y124.9690 E3.8283
G1 X89.2430 Y125.0350 E3.8311
G1 X103.7900 Y110.4880 E4.2745
G1 X104.4690 Y110.4880 E4.2892
G1 X89.7000 Y125.2560 E4.7393
G1 X90.0920 Y125.3890 E4.7482
G1 X90.2210 Y125.4150 E4.7510
G1 X105.1470 Y110.4880 E5.2060
G1 X105.8260 Y110.4880 E5.2206
G1 X90.8170 Y125.4970 E5.6781
G1 X91.0490 Y125.5120 E5.6831
G1 X91.4810 Y125.5120 E5.6924
G1 X106.5050 Y110.4880 E6.1504
G1 X107.1840 Y110.4880 E6.1650
G1 X92.1600 Y125.5120 E6.6229
G1 X92.8390 Y125.5120 E6.6375
G1 X107.8630 Y110.4880 E7.0955
G1 X108.5410 Y110.4880 E7.1101
G1 X93.5170 Y125.5120 E7.5680
G1 X94.1960 Y125.5120 E7.5827
G1 X109.2200 Y110.4880 E8.0406
G1 X109.8990 Y110.4880 E8.0552
G1 X94.8750 Y125.5120 E8.5132
G1 X95.5540 Y125.5120 E8.5278
G1 X110.5780 Y110.4880 E8.9857
G1 X111.2570 Y110.4880 E9.0003
G1 X96.2330 Y125.5120 E9.4583
G1 X96.9120 Y125.5120 E9.4729
G1 X111.9360 Y110.4880 E9.9308
G1 X112.6140 Y110.4880 E9.9455
G1 X97.5900 Y125.5120 E10.4034
G1 X98.2690 Y125.5120 E10.4180
G1 X113.2930 Y110.4880 E10.8760
G1 X113.9720 Y110.4880 E10.8906
G1 X98.9480 Y125.5120 E11.3485
G1 X99.6270 Y125.5120 E11.3632
G1 X114.6510 Y110.4880 E11.8211
G1 X115.3300 Y110.4880 E11.8357
G1 X100.3060 Y125.5120 E12.2936
G1 X100.9850 Y125.5120 E12.3083
G1 X116.0090 Y110.4880 E12.7662
G1 X116.6870 Y110.4880 E12.7808
G1 X101.6630 Y125.5120 E13.2388
G1 X102.3420 Y125.5120 E13.2534
G1 X117.3660 Y110.4880 E13.7113
G1 X118.0450 Y110.4880 E13.7260
G1 X103.0210 Y125.5120 E14.1839
G1 X103.7000 Y125.5120 E14.1985
G1 X118.7240 Y110.4880 E14.6564
G1 X119.4030 Y110.4880 E14.6711
G1 X104.3790 Y125.5120 E15.1290
G1 X105.0570 Y125.5120 E15.1436
G1 X120.0810 Y110.4880 E15.6016
G1 X120.7600 Y110.4880 E15.6162
G1 X105.7360 Y125.5120 E16.0741
G1 X106.4150 Y125.5120 E16.0888
G1 X121.4390 Y110.4880 E16.5467
G1 X122.1180 Y110.4880 E16.5613
G1 X107.0940 Y125.5120 E17.0193
G1 X107.7730 Y125.5120 E17.0339
G1 X122.7970 Y110.4880 E17.4918
G1 X123.4760 Y110.4880 E17.5064
G1 X108.4520 Y125.5120 E17.9644
G1 X109.1300 Y125.5120 E17.9790
G1 X124.1540 Y110.4880 E18.4369
G1 X124.8330 Y110.4880 E18.4516
G1 X109.8090 Y125.5120 E18.9095
G1 X110.4880 Y125.5120 E18.9241
G1 X125.5120 Y110.4880 E19.3821
G1 X126.1910 Y110.4880 E19.3967
G1 X111.1670 Y125.5120 E19.8546
G1 X111.8460 Y125.5120 E19.8692
G1 X126.8700 Y110.4880 E20.3272
G1 X127.5490 Y110.4880 E20.3418
G1 X112.5250 Y125.5120 E20.7997
G1 X113.2030 Y125.5120 E20.8144
G1 X128.2270 Y110.4880 E21.2723
G1 X128.9060 Y110.4880 E21.2869
G1 X113.8820 Y125.5120 E21.7449
G1 X114.5610 Y125.5120 E21.7595
G1 X129.5850 Y110.4880 E22.2174
G1 X130.2640 Y110.4880 E22.2321
G1 X115.2400 Y125.5120 E22.6900
G1 X115.9190 Y125.5120 E22.7046
G1 X130.9430 Y110.4880 E23.1625
G1 X131.6210 Y110.4880 E23.1772
G1 X116.5970 Y125.5120 E23.6351
G1 X117.2760 Y125.5120 E23.6497
G1 X132.3000 Y110.4880 E24.1077
G1 X132.9790 Y110.4880 E24.1223
G1 X117.9550 Y125.5120 E24.5802
G1 X118.6340 Y125.5120 E24.5949
G1 X133.6580 Y110.4880 E25.0528
G1 X134.3370 Y110.4880 E25.0674
G1 X119.3130 Y125.5120 E25.5253
G1 X119.9920 Y125.5120 E25.5400
G1 X135.0160 Y110.4880 E25.9979
G1 X135.6940 Y110.4880 E26.0125
G1 X120.6700 Y125.5120 E26.4705
G1 X121.3490 Y125.5120 E26.4851
G1 X136.3730 Y110.4880 E26.9430
G1 X137.0520 Y110.4880 E26.9577
G1 X122.0280 Y125.5120 E27.4156
G1 X122.7070 Y125.5120 E27.4302
G1 X137.7310 Y110.4880 E27.8882
G1 X138.4100 Y110.4880 E27.9028
G1 X123.3860 Y125.5120 E28.3607
G1 X124.0640 Y125.5120 E28.3753
G1 X139.0880 Y110.4880 E28.8333
G1 X139.7670 Y110.4880 E28.8479
G1 X124.7430 Y125.5120 E29.3058
G1 X125.4220 Y125.5120 E29.3205
G1 X140.4460 Y110.4880 E29.7784
G1 X141.1250 Y110.4880 E29.7930
G1 X126.1010 Y125.5120 E30.2510
G1 X126.7800 Y125.5120 E30.2656
G1 X141.8040 Y110.4880 E30.7235
G1 X142.4830 Y110.4880 E30.7381
G1 X127.4590 Y125.5120 E31.1961
G1 X128.1370 Y125.5120 E31.2107
G1 X143.1610 Y110.4880 E31.6686
G1 X143.8400 Y110.4880 E31.6833
G1 X128.8160 Y125.5120 E32.1412
G1 X129.4950 Y125.5120 E32.1558
G1 X144.5190 Y110.4880 E32.6138
G1 X144.9510 Y110.4880 E32.6231
G1 X145.1830 Y110.5030 E32.6281
G1 X130.1740 Y125.5120 E33.0855
G1 X130.8530 Y125.5120 E33.1002
G1 X145.7800 Y110.5850 E33.5551
G1 X145.9080 Y110.6110 E33.5580
G1 X146.3000 Y110.7440 E33.5669
G1 X142.5410 Y114.5020 E33.6814
G1 X142.1490 Y114.3750 E33.6903
G1 X140.7680 Y116.2750 E33.7410
G1 X131.5320 Y125.5120 E34.0225
G1 X132.2100 Y125.5120 E34.0371
G1 X140.4490 Y117.2730 E34.2882
G1 X140.7350 Y117.6670 E34.2987
G1 X132.8890 Y125.5120 E34.5378
G1 X133.5680 Y125.5120 E34.5525
G1 X141.0200 Y118.0600 E34.7796
G1 X141.3060 Y118.4530 E34.7901
G1 X134.2470 Y125.5120 E35.0052
G1 X134.9260 Y125.5120 E35.0199
G1 X141.5910 Y118.8460 E35.2230
G1 X141.8770 Y119.2390 E35.2335
G1 X135.6040 Y125.5120 E35.4247
G1 X136.2830 Y125.5120 E35.4393
G1 X142.1980 Y119.5980 E35.6196
G1 X143.2030 Y119.2710 E35.6424
G1 X136.9620 Y125.5120 E35.8326
G1 X137.6410 Y125.5120 E35.8473
G1 X144.2090 Y118.9440 E36.0474
G1 X145.2140 Y118.6170 E36.0702
G1 X138.3200 Y125.5120 E36.2804
G1 X138.9990 Y125.5120 E36.2950
G1 X148.5120 Y115.9990 E36.5850
G1 X148.5120 Y116.6770 E36.5996
G1 X139.6770 Y125.5120 E36.8689
G1 X140.3560 Y125.5120 E36.8835
G1 X148.5120 Y117.3560 E37.1321
G1 X148.5120 Y118.0350 E37.1467
G1 X141.0350 Y125.5120 E37.3746
G1 X141.7140 Y125.5120 E37.3893
G1 X148.5120 Y118.7140 E37.5965
G1 X148.5120 Y119.3930 E37.6111
G1 X142.3930 Y125.5120 E37.7976
G1 X143.0720 Y125.5120 E37.8122
G1 X148.5120 Y120.0720 E37.9781
G1 X148.5120 Y120.7500 E37.9927
G1 X143.7500 Y125.5120 E38.1378
G1 X144.4290 Y125.5120 E38.1525
G1 X148.5120 Y121.4290 E38.2769
G1 X148.5120 Y121.9510 E38.2882
G1 X148.5010 Y122.1190 E38.2918
G1 X145.1140 Y125.5060 E38.3950
G1 X145.3060 Y125.4970 E38.3991
G1 X145.6100 Y125.4570 E38.4057
G1 X145.7520 Y125.4260 E38.4089
G1 X145.8930 Y125.3940 E38.4120
G1 X145.9100 Y125.3890 E38.4124
G1 X148.3870 Y122.9120 E38.4879
G1 X145.2280 Y118.6040 F6000
G92 E0.0000
G1 X148.5120 Y115.3200 E0.1001 F2880
G1 X148.5120 Y114.6410 E0.1147
G1 X145.2280 Y117.9250 E0.2148
G1 X145.2280 Y117.2460 E0.2294
G1 X148.5090 Y113.9650 E0.3295
G1 X148.4970 Y113.6940 E0.3353
G1 X148.4590 Y113.4060 E0.3416
G1 X148.4460 Y113.3500 E0.3428
G1 X145.2280 Y116.5670 E0.4409
G1 X145.2280 Y115.8880 E0.4555
G1 X148.2970 Y112.8190 E0.5491
G1 X148.1740 Y112.5020 E0.5564
G1 X148.1100 Y112.3790 E0.5594
G1 X148.0930 Y112.3450 E0.5602
G1 X145.1030 Y115.3350 E0.6513
G1 X144.5910 Y115.1680 E0.6629
G1 X147.8280 Y111.9300 E0.7616
G1 X147.5870 Y111.6290 E0.7699
G1 X147.5170 Y111.5630 E0.7720
G1 X144.0780 Y115.0020 E0.8768
G1 X143.5660 Y114.8350 E0.8885
G1 X147.1630 Y111.2390 E0.9981
G1 X147.0140 Y111.1240 E1.0021
G1 X146.8680 Y111.0310 E1.0059
G1 X146.7690 Y110.9690 E1.0084
G1 X146.7590 Y110.9630 E1.0086
G1 X143.0540 Y114.6690 E1.1216
G1 X95.5410 Y116.7010 F6000
G92 E0.0000
G1 X101.7530 Y110.4880 E0.1894 F2880
G1 X101.0740 Y110.4880 E0.2040
G1 X95.2550 Y116.3070 E0.3814
G1 X94.9690 Y115.9140 E0.3918
G1 X100.3960 Y110.4880 E0.5572
G1 X99.7170 Y110.4880 E0.5719
G1 X94.6840 Y115.5210 E0.7253
G1 X94.3980 Y115.1280 E0.7357
G1 X99.0380 Y110.4880 E0.8772
G1 X98.3590 Y110.4880 E0.8918
G1 X94.1120 Y114.7350 E1.0212
G1 X93.8510 Y114.3750 E1.0308
G1 X93.7660 Y114.4030 E1.0327
G1 X97.6800 Y110.4880 E1.1521
G1 X97.0010 Y110.4880 E1.1667
G1 X92.7600 Y114.7290 E1.2960
G92 E0.0000
G1 E-1.5 F1800 ; custom retraction - A
;layer 7, Z = 0.840
;fan7;
G1 Z0.840 F1200
G1 X91.0260 Y110.2000 F6000
G1 E0 F2400 ; custom un-retraction/prime - A
G92 E0.0000
G1 X144.9610 Y110.2000 E1.1624 F2880
G1 X145.4960 Y110.2350 E1.1740
G1 X145.9830 Y110.3320 E1.1847
G1 X146.4530 Y110.4920 E1.1954
G1 X146.9110 Y110.7170 E1.2064
G1 X147.1790 Y110.8880 E1.2132
G1 X147.4310 Y111.0820 E1.2201
G1 X147.8000 Y111.4340 E1.2311
G1 X148.1190 Y111.8320 E1.2421
G1 X148.2900 Y112.1010 E1.2489
G1 X148.4370 Y112.3830 E1.2558
G1 X148.6220 Y112.8580 E1.2668
G1 X148.7430 Y113.3530 E1.2778
G1 X148.7840 Y113.6690 E1.2846
G1 X148.8000 Y114.0260 E1.2923
G1 X148.8000 Y121.9610 E1.4634
G1 X148.7640 Y122.5090 E1.4752
G1 X148.7090 Y122.8220 E1.4821
G1 X148.6230 Y123.1420 E1.4892
G1 X148.5100 Y123.4540 E1.4963
G1 X148.3700 Y123.7540 E1.5035
G1 X148.2040 Y124.0410 E1.5106
G1 X148.0140 Y124.3130 E1.5178
G1 X147.8010 Y124.5670 E1.5249
G1 X147.5670 Y124.8010 E1.5321
G1 X147.3130 Y125.0140 E1.5392
G1 X147.0410 Y125.2040 E1.5463
G1 X146.7540 Y125.3700 E1.5535
G1 X146.4660 Y125.5040 E1.5603
G1 X145.9700 Y125.6720 E1.5716
G1 X145.6600 Y125.7410 E1.5785
G1 X145.3310 Y125.7840 E1.5856
G1 X144.9740 Y125.8000 E1.5933
G1 X91.0390 Y125.8000 E2.7558
G1 X90.5040 Y125.7650 E2.7673
G1 X90.0170 Y125.6680 E2.7780
G1 X89.5340 Y125.5040 E2.7890
G1 X89.2460 Y125.3700 E2.7959
G1 X88.9700 Y125.2100 E2.8027
G1 X88.5590 Y124.9090 E2.8137
G1 X88.2000 Y124.5660 E2.8244
G1 X87.8810 Y124.1680 E2.8354
G1 X87.7100 Y123.8990 E2.8423
G1 X87.5630 Y123.6170 E2.8491
G1 X87.3780 Y123.1420 E2.8601
G1 X87.2600 Y122.6600 E2.8708
G1 X87.2050 Y122.1520 E2.8818
G1 X87.2050 Y113.8340 E3.0611
G1 X87.2340 Y113.5040 E3.0682
G1 X87.2910 Y113.1780 E3.0754
G1 X87.3770 Y112.8580 E3.0825
G1 X87.4900 Y112.5460 E3.0897
G1 X87.6300 Y112.2460 E3.0968
G1 X87.7960 Y111.9590 E3.1039
G1 X87.9860 Y111.6870 E3.1111
G1 X88.1990 Y111.4330 E3.1182
G1 X88.4340 Y111.1990 E3.1254
G1 X88.6770 Y110.9950 E3.1322
G1 X89.1120 Y110.7040 E3.1435
G1 X89.3950 Y110.5570 E3.1504
G1 X89.7010 Y110.4300 E3.1575
G1 X90.0170 Y110.3310 E3.1646
G1 X90.3400 Y110.2590 E3.1718
G1 X90.6690 Y110.2160 E3.1789
G1 X91.0260 Y110.2000 E3.1866
G1 X91.0160 Y109.7200 F6000
G92 E0.0000
G1 X144.9770 Y109.7200 E1.1630 F2880
G1 X145.5580 Y109.7580 E1.1756
G1 X146.1070 Y109.8670 E1.1876
G1 X146.6370 Y110.0470 E1.1997
G1 X147.1460 Y110.2980 E1.2119
G1 X147.4540 Y110.4950 E1.2198
G1 X147.7440 Y110.7170 E1.2277
G1 X148.1540 Y111.1090 E1.2399
G1 X148.5100 Y111.5520 E1.2521
G1 X148.7060 Y111.8600 E1.2600
G1 X148.8750 Y112.1850 E1.2679
G1 X149.0800 Y112.7130 E1.2801
G1 X149.2150 Y113.2650 E1.2924
G1 X149.2630 Y113.6270 E1.3002
G1 X149.2800 Y114.0160 E1.3086
G1 X149.2800 Y121.9770 E1.4802
G1 X149.2410 Y122.5660 E1.4929
G1 X149.1780 Y122.9260 E1.5008
G1 X149.0810 Y123.2870 E1.5088
G1 X148.9540 Y123.6380 E1.5169
G1 X148.7960 Y123.9760 E1.5249
G1 X148.6090 Y124.2990 E1.5330
G1 X148.3950 Y124.6050 E1.5410
G1 X148.1550 Y124.8910 E1.5491
G1 X147.8910 Y125.1550 E1.5571
G1 X147.6050 Y125.3950 E1.5652
G1 X147.2990 Y125.6090 E1.5732
G1 X146.9760 Y125.7960 E1.5813
G1 X146.6450 Y125.9500 E1.5891
G1 X146.1000 Y126.1350 E1.6015
G1 X145.7430 Y126.2140 E1.6094
G1 X145.3730 Y126.2630 E1.6175
G1 X144.9840 Y126.2800 E1.6258
G1 X91.0230 Y126.2800 E2.7888
G1 X90.4420 Y126.2420 E2.8014
G1 X89.8930 Y126.1330 E2.8135
G1 X89.3550 Y125.9500 E2.8257
G1 X89.0240 Y125.7960 E2.8336
G1 X88.7080 Y125.6130 E2.8415
G1 X88.2500 Y125.2780 E2.8537
G1 X87.8460 Y124.8900 E2.8658
G1 X87.4900 Y124.4480 E2.8780
G1 X87.2940 Y124.1400 E2.8859
G1 X87.1250 Y123.8160 E2.8937
G1 X86.9200 Y123.2860 E2.9060
G1 X86.7870 Y122.7430 E2.9180
G1 X86.7250 Y122.1790 E2.9303
G1 X86.7250 Y113.8130 E3.1106
G1 X86.7570 Y113.4420 E3.1186
G1 X86.8220 Y113.0740 E3.1267
G1 X86.9190 Y112.7130 E3.1347
G1 X87.0460 Y112.3620 E3.1427
G1 X87.2040 Y112.0240 E3.1508
G1 X87.3910 Y111.7010 E3.1588
G1 X87.6050 Y111.3950 E3.1669
G1 X87.8450 Y111.1090 E3.1749
G1 X88.1090 Y110.8450 E3.1830
G1 X88.3890 Y110.6100 E3.1909
G1 X88.8670 Y110.2900 E3.2033
G1 X89.1920 Y110.1220 E3.2111
G1 X89.5370 Y109.9790 E3.2192
G1 X89.8920 Y109.8670 E3.2272
G1 X90.2570 Y109.7860 E3.2353
G1 X90.6270 Y109.7370 E3.2433
G1 X91.0160 Y109.7200 E3.2517
G1 X91.0050 Y109.2400 F6000
G92 E0.0000
G1 X144.9920 Y109.2400 E1.1636 F2160
G1 X145.6210 Y109.2810 E1.1771
G1 X146.2320 Y109.4030 E1.1906
G1 X146.8210 Y109.6030 E1.2040
G1 X147.3820 Y109.8790 E1.2175
G1 X147.7300 Y110.1010 E1.2263
G1 X148.0570 Y110.3520 E1.2352
G1 X148.5090 Y110.7850 E1.2487
G1 X148.9000 Y111.2720 E1.2622
G1 X149.1220 Y111.6200 E1.2711
G1 X149.3130 Y111.9860 E1.2800
G1 X149.5390 Y112.5690 E1.2935
G1 X149.6880 Y113.1760 E1.3069
G1 X149.7420 Y113.5850 E1.3158
G1 X149.7600 Y114.0050 E1.3249
G1 X149.7600 Y121.9920 E1.4970
G1 X149.7190 Y122.6240 E1.5107
G1 X149.6470 Y123.0300 E1.5196
G1 X149.5390 Y123.4310 E1.5285
G1 X149.3970 Y123.8220 E1.5375
G1 X149.2220 Y124.1980 E1.5464
G1 X149.0140 Y124.5570 E1.5554
G1 X148.7760 Y124.8980 E1.5643
G1 X148.5090 Y125.2160 E1.5733
G1 X148.2160 Y125.5090 E1.5822
G1 X147.8980 Y125.7760 E1.5912
G1 X147.5570 Y126.0140 E1.6001
G1 X147.1980 Y126.2220 E1.6090
G1 X146.8240 Y126.3960 E1.6179
G1 X146.2290 Y126.5980 E1.6315
G1 X145.8270 Y126.6870 E1.6404
G1 X145.4150 Y126.7420 E1.6493
G1 X144.9950 Y126.7600 E1.6584
G1 X91.0080 Y126.7600 E2.8219
G1 X90.3790 Y126.7190 E2.8355
G1 X89.7680 Y126.5970 E2.8489
G1 X89.1760 Y126.3960 E2.8624
G1 X88.8020 Y126.2220 E2.8713
G1 X88.4450 Y126.0160 E2.8802
G1 X87.9410 Y125.6460 E2.8937
G1 X87.4910 Y125.2150 E2.9071
G1 X87.1000 Y124.7280 E2.9206
G1 X86.8780 Y124.3800 E2.9295
G1 X86.6870 Y124.0140 E2.9384
G1 X86.4610 Y123.4310 E2.9518
G1 X86.3130 Y122.8260 E2.9652
G1 X86.2450 Y122.2050 E2.9787
G1 X86.2450 Y113.7920 E3.1600
G1 X86.2810 Y113.3790 E3.1690
G1 X86.3530 Y112.9700 E3.1779
G1 X86.4600 Y112.5690 E3.1869
G1 X86.6030 Y112.1790 E3.1958
G1 X86.7780 Y111.8020 E3.2048
G1 X86.9860 Y111.4420 E3.2137
G1 X87.2240 Y111.1020 E3.2227
G1 X87.4910 Y110.7840 E3.2316
G1 X87.7840 Y110.4910 E3.2406
G1 X88.1000 Y110.2250 E3.2495
G1 X88.6220 Y109.8770 E3.2630
G1 X88.9880 Y109.6860 E3.2719
G1 X89.3720 Y109.5270 E3.2808
G1 X89.7680 Y109.4020 E3.2898
G1 X90.1730 Y109.3130 E3.2987
G1 X90.5850 Y109.2580 E3.3077
G1 X91.0050 Y109.2400 E3.3168
G1 X95.5510 Y117.2730 F6000
G92 E0.0000
G1 X103.7900 Y125.5120 E0.2511 F2880
G1 X103.1110 Y125.5120 E0.2657
G1 X95.2650 Y117.6670 E0.5049
G1 X94.9800 Y118.0600 E0.5153
G1 X102.4320 Y125.5120 E0.7425
G1 X101.7530 Y125.5120 E0.7571
G1 X94.6940 Y118.4530 E0.9723
G1 X94.4090 Y118.8460 E0.9827
G1 X101.0740 Y125.5120 E1.1859
G1 X100.3960 Y125.5120 E1.2006
G1 X94.1230 Y119.2390 E1.3917
G1 X93.8510 Y119.6130 E1.4017
G1 X93.8020 Y119.5980 E1.4028
G1 X99.7170 Y125.5120 E1.5831
G1 X99.0380 Y125.5120 E1.5977
G1 X92.7970 Y119.2710 E1.7879
G1 X91.7910 Y118.9440 E1.8107
G1 X98.3590 Y125.5120 E2.0109
G1 X97.6800 Y125.5120 E2.0255
G1 X90.7860 Y118.6170 E2.2357
G1 X90.0900 Y125.3890 F6000
G92 E0.0000
G1 X87.6200 Y122.9190 E0.0753 F2880
G1 X87.5440 Y122.6090 E0.0821
G1 X87.4930 Y122.1370 E0.0924
G1 X87.4930 Y122.1130 E0.0929
G1 X90.8810 Y125.5010 E0.1962
G1 X91.0490 Y125.5120 E0.1998
G1 X91.5710 Y125.5120 E0.2111
G1 X87.4930 Y121.4340 E0.3354
G1 X87.4930 Y120.7550 E0.3500
G1 X92.2500 Y125.5120 E0.4950
G1 X92.9290 Y125.5120 E0.5096
G1 X87.4930 Y120.0760 E0.6753
G1 X87.4930 Y119.3970 E0.6899
G1 X93.6070 Y125.5120 E0.8763
G1 X94.2860 Y125.5120 E0.8909
G1 X87.4930 Y118.7190 E1.0980
G1 X87.4930 Y118.0400 E1.1126
G1 X94.9650 Y125.5120 E1.3404
G1 X95.6440 Y125.5120 E1.3550
G1 X87.4930 Y117.3610 E1.6034
G1 X87.4930 Y116.6820 E1.6181
G1 X96.3230 Y125.5120 E1.8872
G1 X97.0010 Y125.5120 E1.9018
G1 X87.4930 Y116.0030 E2.1917
G1 X87.4930 Y115.3240 E2.2063
G1 X90.7720 Y118.6040 E2.3062
G1 X90.7720 Y117.9250 E2.3209
G1 X87.4930 Y114.6460 E2.4208
G1 X87.4930 Y113.9670 E2.4355
G1 X90.7720 Y117.2460 E2.5354
G1 X90.7720 Y116.5670 E2.5500
G1 X87.5530 Y113.3490 E2.6481
G1 X87.5730 Y113.2400 E2.6505
G1 X87.6520 Y112.9440 E2.6571
G1 X87.6990 Y112.8150 E2.6601
G1 X90.7720 Y115.8880 E2.7537
G1 X90.7720 Y115.3750 E2.7648
G1 X90.8970 Y115.3350 E2.7676
G1 X87.9060 Y112.3440 E2.8588
G1 X88.0390 Y112.1140 E2.8645
G1 X88.1690 Y111.9280 E2.8694
G1 X91.4090 Y115.1680 E2.9682
G1 X91.9220 Y115.0020 E2.9798
G1 X88.4800 Y111.5600 E3.0847
G1 X88.6280 Y111.4120 E3.0892
G1 X88.7590 Y111.3020 E3.0929
G1 X88.8360 Y111.2370 E3.0951
G1 X92.4340 Y114.8350 E3.2047
G1 X92.9470 Y114.6690 E3.2163
G1 X89.2420 Y110.9640 E3.3293
G1 X89.2500 Y110.9590 E3.3295
G1 X89.2590 Y110.9520 E3.3297
G1 X89.3810 Y110.8890 E3.3327
G1 X89.5160 Y110.8180 E3.3360
G1 X89.6990 Y110.7430 E3.3402
G1 X93.4590 Y114.5020 E3.4548
G1 X93.8510 Y114.3750 E3.4637
G1 X95.2320 Y116.2750 E3.5143
G1 X104.4690 Y125.5120 E3.7959
G1 X105.1470 Y125.5120 E3.8105
G1 X90.2170 Y110.5810 E4.2656
G1 X90.3900 Y110.5430 E4.2694
G1 X90.6940 Y110.5030 E4.2760
G1 X90.8120 Y110.4980 E4.2786
G1 X105.8260 Y125.5120 E4.7362
G1 X106.5050 Y125.5120 E4.7508
G1 X91.4810 Y110.4880 E5.2088
G1 X92.1600 Y110.4880 E5.2234
G1 X107.1840 Y125.5120 E5.6813
G1 X107.8630 Y125.5120 E5.6960
G1 X92.8390 Y110.4880 E6.1539
G1 X93.5170 Y110.4880 E6.1685
G1 X108.5410 Y125.5120 E6.6264
G1 X109.2200 Y125.5120 E6.6411
G1 X94.1960 Y110.4880 E7.0990
G1 X94.8750 Y110.4880 E7.1136
G1 X109.8990 Y125.5120 E7.5716
G1 X110.5780 Y125.5120 E7.5862
G1 X95.5540 Y110.4880 E8.0441
G1 X96.2330 Y110.4880 E8.0588
G1 X111.2570 Y125.5120 E8.5167
G1 X111.9360 Y125.5120 E8.5313
G1 X96.9120 Y110.4880 E8.9892
G1 X97.5900 Y110.4880 E9.0039
G1 X112.6140 Y125.5120 E9.4618
G1 X113.2930 Y125.5120 E9.4764
G1 X98.2690 Y110.4880 E9.9344
G1 X98.9480 Y110.4880 E9.9490
G1 X113.9720 Y125.5120 E10.4069
G1 X114.6510 Y125.5120 E10.4216
G1 X99.6270 Y110.4880 E10.8795
G1 X100.3060 Y110.4880 E10.8941
G1 X115.3300 Y125.5120 E11.3521
G1 X116.0080 Y125.5120 E11.3667
G1 X100.9840 Y110.4880 E11.8246
G1 X101.6630 Y110.4880 E11.8392
G1 X116.6870 Y125.5120 E12.2972
G1 X117.3660 Y125.5120 E12.3118
G1 X102.3420 Y110.4880 E12.7697
G1 X103.0210 Y110.4880 E12.7844
G1 X118.0450 Y125.5120 E13.2423
G1 X118.7240 Y125.5120 E13.2569
G1 X103.7000 Y110.4880 E13.7149
G1 X104.3790 Y110.4880 E13.7295
G1 X119.4030 Y125.5120 E14.1874
G1 X120.0810 Y125.5120 E14.2020
G1 X105.0570 Y110.4880 E14.6600
G1 X105.7360 Y110.4880 E14.6746
G1 X120.7600 Y125.5120 E15.1325
G1 X121.4390 Y125.5120 E15.1472
G1 X106.4150 Y110.4880 E15.6051
G1 X107.0940 Y110.4880 E15.6197
G1 X122.1180 Y125.5120 E16.0777
G1 X122.7970 Y125.5120 E16.0923
G1 X107.7730 Y110.4880 E16.5502
G1 X108.4520 Y110.4880 E16.5649
G1 X123.4760 Y125.5120 E17.0228
G1 X124.1540 Y125.5120 E17.0374
G1 X109.1300 Y110.4880 E17.4953
G1 X109.8090 Y110.4880 E17.5100
G1 X124.8330 Y125.5120 E17.9679
G1 X125.5120 Y125.5120 E17.9825
G1 X110.4880 Y110.4880 E18.4405
G1 X111.1670 Y110.4880 E18.4551
G1 X126.1910 Y125.5120 E18.9130
G1 X126.8700 Y125.5120 E18.9277
G1 X111.8460 Y110.4880 E19.3856
G1 X112.5240 Y110.4880 E19.4002
G1 X127.5480 Y125.5120 E19.8581
G1 X128.2270 Y125.5120 E19.8728
G1 X113.2030 Y110.4880 E20.3307
G1 X113.8820 Y110.4880 E20.3453
G1 X128.9060 Y125.5120 E20.8033
G1 X129.5850 Y125.5120 E20.8179
G1 X114.5610 Y110.4880 E21.2758
G1 X115.2400 Y110.4880 E21.2905
G1 X130.2640 Y125.5120 E21.7484
G1 X130.9430 Y125.5120 E21.7630
G1 X115.9190 Y110.4880 E22.2210
G1 X116.5970 Y110.4880 E22.2356
G1 X131.6210 Y125.5120 E22.6935
G1 X132.3000 Y125.5120 E22.7081
G1 X117.2760 Y110.4880 E23.1661
G1 X117.9550 Y110.4880 E23.1807
G1 X132.9790 Y125.5120 E23.6386
G1 X133.6580 Y125.5120 E23.6533
G1 X118.6340 Y110.4880 E24.1112
G1 X119.3130 Y110.4880 E24.1258
G1 X134.3370 Y125.5120 E24.5838
G1 X135.0160 Y125.5120 E24.5984
G1 X119.9920 Y110.4880 E25.0563
G1 X120.6700 Y110.4880 E25.0709
G1 X135.6940 Y125.5120 E25.5289
G1 X136.3730 Y125.5120 E25.5435
G1 X121.3490 Y110.4880 E26.0014
G1 X122.0280 Y110.4880 E26.0161
G1 X137.0520 Y125.5120 E26.4740
G1 X137.7310 Y125.5120 E26.4886
G1 X122.7070 Y110.4880 E26.9466
G1 X123.3860 Y110.4880 E26.9612
G1 X138.4100 Y125.5120 E27.4191
G1 X139.0880 Y125.5120 E27.4338
G1 X124.0640 Y110.4880 E27.8917
G1 X124.7430 Y110.4880 E27.9063
G1 X139.7670 Y125.5120 E28.3642
G1 X140.4460 Y125.5120 E28.3789
G1 X125.4220 Y110.4880 E28.8368
G1 X126.1010 Y110.4880 E28.8514
G1 X141.1250 Y125.5120 E29.3094
G1 X141.8040 Y125.5120 E29.3240
G1 X126.7800 Y110.4880 E29.7819
G1 X127.4590 Y110.4880 E29.7966
G1 X142.4830 Y125.5120 E30.2545
G1 X143.1610 Y125.5120 E30.2691
G1 X128.1370 Y110.4880 E30.7270
G1 X128.8160 Y110.4880 E30.7417
G1 X143.8400 Y125.5120 E31.1996
G1 X144.5190 Y125.5120 E31.2142
G1 X129.4950 Y110.4880 E31.6722
G1 X130.1740 Y110.4880 E31.6868
G1 X145.1880 Y125.5020 E32.1444
G1 X145.3060 Y125.4970 E32.1470
G1 X145.6100 Y125.4570 E32.1536
G1 X145.7520 Y125.4260 E32.1567
G1 X145.7830 Y125.4190 E32.1574
G1 X130.8530 Y110.4880 E32.6125
G1 X131.5320 Y110.4880 E32.6271
G1 X146.3000 Y125.2560 E33.0773
G1 X146.3580 Y125.2360 E33.0786
G1 X146.3870 Y125.2230 E33.0793
G1 X146.6210 Y125.1140 E33.0848
G1 X146.7220 Y125.0560 E33.0874
G1 X146.7570 Y125.0350 E33.0882
G1 X132.2100 Y110.4880 E33.5316
G1 X132.8890 Y110.4880 E33.5463
G1 X147.1640 Y124.7630 E33.9814
G1 X147.3720 Y124.5880 E33.9872
G1 X147.5200 Y124.4400 E33.9917
G1 X142.5600 Y119.4800 E34.1429
G1 X142.1490 Y119.6130 E34.1522
G1 X140.7020 Y117.6220 E34.2053
G1 X133.5680 Y110.4880 E34.4227
G1 X134.2470 Y110.4880 E34.4374
G1 X140.4590 Y116.7010 E34.6267
G1 X140.7450 Y116.3070 E34.6372
G1 X134.9260 Y110.4880 E34.8146
G1 X135.6040 Y110.4880 E34.8292
G1 X141.0310 Y115.9140 E34.9946
G1 X141.3160 Y115.5210 E35.0050
G1 X136.2830 Y110.4880 E35.1585
G1 X136.9620 Y110.4880 E35.1731
G1 X141.6020 Y115.1280 E35.3145
G1 X141.8880 Y114.7350 E35.3250
G1 X137.6410 Y110.4880 E35.4544
G1 X138.3200 Y110.4880 E35.4691
G1 X142.2340 Y114.4030 E35.5884
G1 X143.2400 Y114.7290 E35.6112
G1 X138.9990 Y110.4880 E35.7404
G1 X139.6770 Y110.4880 E35.7551
G1 X144.2460 Y115.0560 E35.8943
G1 X145.2280 Y115.3750 E35.9166
G1 X145.2280 Y116.0390 E35.9309
G1 X148.5120 Y119.3230 E36.0310
G1 X148.5120 Y118.6440 E36.0456
G1 X140.3560 Y110.4880 E36.2942
G1 X141.0350 Y110.4880 E36.3088
G1 X148.5120 Y117.9650 E36.5367
G1 X148.5120 Y117.2860 E36.5513
G1 X141.7140 Y110.4880 E36.7585
G1 X142.3930 Y110.4880 E36.7732
G1 X148.5120 Y116.6070 E36.9597
G1 X148.5120 Y115.9290 E36.9743
G1 X143.0710 Y110.4880 E37.1401
G1 X143.7500 Y110.4880 E37.1548
G1 X148.5120 Y115.2500 E37.2999
G1 X148.5120 Y114.5710 E37.3145
G1 X144.4290 Y110.4880 E37.4390
G1 X144.9510 Y110.4880 E37.4502
G1 X145.1190 Y110.4990 E37.4539
G1 X148.5060 Y113.8860 E37.5571
G1 X148.4970 Y113.6940 E37.5612
G1 X148.4590 Y113.4060 E37.5675
G1 X148.3800 Y113.0810 E37.5747
G1 X145.9100 Y110.6110 E37.6500
G1 X145.2280 Y116.7180 F6000
G92 E0.0000
G1 X148.5120 Y120.0010 E0.1001 F2880
G1 X148.5120 Y120.6800 E0.1147
G1 X145.2280 Y117.3960 E0.2148
G1 X145.2280 Y118.0750 E0.2294
G1 X148.5120 Y121.3590 E0.3295
G1 X148.5120 Y121.9510 E0.3423
G1 X148.5070 Y122.0330 E0.3441
