; generated by PrusaSlicer 2.7.1+win64 on 2024-02-12 at 22:38:31 UTC


;
;

;
;
; 

; external perimeters extrusion width = 0.42mm
; perimeters extrusion width = 0.44mm
; infill extrusion width = 0.44mm
; solid infill extrusion width = 0.44mm
; top infill extrusion width = 0.40mm
; first layer extrusion width = 0.42mm


; printing object Shape-Box id:0 copy 0
; stop printing object Shape-Box id:0 copy 0

;TYPE:Custom
; Ender 3 Custom Start G-code
G92 E0 ; Reset Extruder

M140 S55 ; set bed temp
M104 S160 ; set extruder temp
M109 S160 ; wait for extruder temp
M190 S55 ; wait for bed temp

G28 ; Home all axes
M104 S210 ; set extruder temp 
BED_MESH_CALIBRATE AREA_START=91.8167,94.3025 AREA_END=135.805,122.642

G1 Z2.0 F3000 ; Move Z Axis up little to prevent scratching of Heat Bed
M109 S210 ; wait for extruder temp
G1 X0.1 Y20 Z0.3 F5000.0 ; Move to start position

G1 X0.1 Y200.0 Z0.3 F1500.0 E15 ; Draw the first line
G1 X0.4 Y200.0 Z0.3 F5000.0 ; Move to side a little
G1 X0.4 Y20 Z0.3 F1500.0 E30 ; Draw the second line
G92 E0 ; Reset Extruder
G1 Z2.0 F3000 ; Move Z Axis up little to prevent scratching of Heat Bed
G1 X5 Y20 Z0.3 F5000.0 ; Move over to prevent blob squish
G21 ; set units to millimeters
G90 ; use absolute coordinates
M83 ; use relative distances for extrusion
; Filament gcode
M107
;LAYER_CHANGE
;Z:0.2
;HEIGHT:0.2
;BEFORE_LAYER_CHANGE
G92 E0
;0.2


G1 E-1.6 F2400
G1 Z.2 F6000
;AFTER_LAYER_CHANGE
;0.2
G1 X95.044 Y96.796
G1 Z.2
G1 E1.6 F2400
M204 S500
;TYPE:Skirt/Brim
;WIDTH:0.42
G1 F1200
G1 X95.752 Y96.224 E.02683
G1 X96.483 Y95.745 E.02576
G1 X97.772 Y95.116 E.04227
G1 X99.164 Y94.698 E.04284
G1 X100.436 Y94.516 E.03787
G1 X126.358 Y94.491 E.764
G1 X127.821 Y94.599 E.04324
G1 X129.198 Y94.925 E.04171
G1 X130.468 Y95.44 E.04039
G1 X132.014 Y96.415 E.05387
G1 X133.158 Y97.478 E.04603
G1 X134.037 Y98.611 E.04226
G1 X134.714 Y99.856 E.04177
G1 X135.243 Y101.392 E.04788
G1 X135.407 Y102.219 E.02485
G1 X135.511 Y103.53 E.03876
G1 X135.616 Y113.33 E.28885
G1 X135.541 Y114.503 E.03464
G1 X135.18 Y116.145 E.04955
G1 X134.44 Y117.846 E.05467
G1 X133.846 Y118.758 E.03208
G1 X133.297 Y119.432 E.02562
G1 X132.072 Y120.571 E.0493
G1 X130.699 Y121.442 E.04792
G1 X129.749 Y121.865 E.03065
G1 X128.329 Y122.275 E.04356
G1 X127.015 Y122.44 E.03903
G1 X100.663 Y122.445 E.77667
G1 X99.403 Y122.296 E.03739
G1 X98.552 Y122.092 E.02579
G1 X97.626 Y121.768 E.02891
G1 X96.636 Y121.288 E.03243
G1 X95.801 Y120.759 E.02913
G1 X95.063 Y120.171 E.02781
G1 X93.803 Y118.795 E.05499
G1 X93.089 Y117.672 E.03922
G1 X92.63 Y116.68 E.03222
G1 X92.288 Y115.627 E.03263
G1 X92.051 Y114.269 E.04063
G1 X92.028 Y102.939 E.33393
G1 X92.146 Y102.002 E.02783
G1 X92.45 Y100.773 E.03731
G1 X93.184 Y99.1 E.05385
G1 X94.297 Y97.542 E.05643
G1 X95.001 Y96.839 E.02932
G1 X95.286 Y97.152 F6000
G1 F1200
G1 X95.964 Y96.536 E.027
G1 X96.664 Y96.076 E.02469
G1 X97.905 Y95.469 E.04072
G1 X99.236 Y95.068 E.04097
G1 X100.455 Y94.893 E.0363
G1 X126.358 Y94.868 E.76344
G1 X127.979 Y95.008 E.04795
G1 X129.467 Y95.416 E.04547
G1 X130.847 Y96.071 E.04502
G1 X131.94 Y96.839 E.03937
G1 X133.026 Y97.897 E.04469
G1 X133.987 Y99.253 E.04898
G1 X134.571 Y100.499 E.04056
G1 X134.992 Y102.018 E.04646
G1 X135.134 Y103.534 E.04488
G1 X135.239 Y113.334 E.28885
G1 X135.184 Y114.349 E.02996
G1 X135.037 Y115.215 E.02589
G1 X134.562 Y116.733 E.04688
G1 X133.837 Y118.109 E.04584
G1 X132.901 Y119.304 E.04474
G1 X131.661 Y120.407 E.04891
G1 X130.464 Y121.141 E.04138
G1 X129.604 Y121.517 E.02766
G1 X128.266 Y121.904 E.04105
G1 X126.986 Y122.064 E.03802
G1 X100.69 Y122.069 E.77502
G1 X99.462 Y121.924 E.03644
G1 X98.559 Y121.703 E.0274
G1 X97.777 Y121.423 E.02448
G1 X96.812 Y120.954 E.03162
G1 X96.02 Y120.452 E.02764
G1 X95.294 Y119.872 E.02739
G1 X94.024 Y118.46 E.05597
G1 X93.418 Y117.486 E.03381
G1 X92.985 Y116.554 E.03029
G1 X92.653 Y115.533 E.03164
G1 X92.425 Y114.224 E.03916
G1 X92.405 Y102.965 E.33184
G1 X92.673 Y101.343 E.04845
G1 X93.12 Y100.069 E.03979
G1 X93.435 Y99.424 E.02116
G1 X93.827 Y98.773 E.0224
G1 X94.565 Y97.808 E.03581
G1 X95.242 Y97.193 E.02696
G1 X95.494 Y97.469 F6000
G1 F1200
G1 X96.175 Y96.848 E.02716
G1 X96.857 Y96.4 E.02405
G1 X98.038 Y95.822 E.03875
G1 X99.274 Y95.445 E.03809
G1 X100.474 Y95.269 E.03575
G1 X126.358 Y95.245 E.76288
G1 X127.902 Y95.377 E.04567
G1 X129.344 Y95.772 E.04407
G1 X130.656 Y96.396 E.04282
G1 X131.693 Y97.124 E.03734
G1 X132.735 Y98.137 E.04283
G1 X133.659 Y99.439 E.04706
G1 X134.223 Y100.643 E.03919
G1 X134.623 Y102.097 E.04445
G1 X134.757 Y103.538 E.04265
G1 X134.862 Y113.338 E.28885
G1 X134.81 Y114.295 E.02825
G1 X134.665 Y115.152 E.02562
G1 X134.217 Y116.581 E.04414
G1 X133.486 Y117.958 E.04595
G1 X132.632 Y119.04 E.04063
G1 X131.449 Y120.095 E.04672
G1 X130.287 Y120.808 E.04018
G1 X129.48 Y121.161 E.02596
G1 X128.277 Y121.518 E.03698
G1 X126.957 Y121.688 E.03923
G1 X100.717 Y121.693 E.77337
G1 X99.521 Y121.552 E.03549
G1 X98.665 Y121.341 E.02598
G1 X96.988 Y120.621 E.05379
G1 X96.225 Y120.136 E.02665
G1 X95.499 Y119.548 E.02754
G1 X94.332 Y118.242 E.05162
G1 X93.746 Y117.3 E.0327
G1 X93.341 Y116.429 E.02831
G1 X93.018 Y115.438 E.03072
G1 X92.8 Y114.178 E.03769
G1 X92.781 Y102.991 E.32972
G1 X93.034 Y101.453 E.04594
G1 X93.471 Y100.207 E.03892
G1 X93.77 Y99.598 E.02
G1 X94.847 Y98.059 E.05536
G1 X95.45 Y97.51 E.02403
; printing object Shape-Box id:0 copy 0
G1 E-1.12 F2400
;WIPE_START
G1 F4800
G1 X95.494 Y97.469 E-.02857
G1 X96.175 Y96.848 E-.43777
G1 X96.199 Y96.832 E-.01366
;WIPE_END
G1 X127.449 Y107.713 F6000
G1 E1.6 F2400
;TYPE:Perimeter
G1 F1200
G1 X127.464 Y107.726 E.00059
G1 X127.494 Y107.815 E.00277
G1 X127.505 Y107.976 E.00476
G1 X127.476 Y108.057 E.00254
G1 X127.405 Y108.1 E.00245
G1 X127.355 Y108.096 E.00148
G1 X127.323 Y108.07 E.00122
G1 X127.288 Y107.943 E.00388
G1 X127.315 Y107.719 E.00665
G1 X127.35 Y107.669 E.0018
G1 X127.382 Y107.659 E.00099
G1 X127.403 Y107.675 E.00078
G1 X127.725 Y107.458 F6000
;TYPE:External perimeter
G1 F1200
G1 X127.773 Y107.505 E.00198
G1 X127.867 Y107.741 E.00749
G1 X127.884 Y107.995 E.0075
G1 X127.828 Y108.206 E.00643
G1 X127.702 Y108.366 E.006
G1 X127.537 Y108.458 E.00557
G1 X127.337 Y108.477 E.00592
G1 X127.16 Y108.423 E.00545
G1 X127.018 Y108.296 E.00561
G1 X126.93 Y108.102 E.00628
G1 X126.911 Y107.819 E.00836
G1 X126.969 Y107.565 E.00768
G1 X127.092 Y107.392 E.00626
G1 X127.244 Y107.298 E.00527
G1 X127.433 Y107.282 E.00559
G1 X127.619 Y107.352 E.00586
G1 X127.683 Y107.415 E.00265
G1 E-1.12 F2400
;WIPE_START
G1 F4800
G1 X127.725 Y107.458 E-.02855
G1 X127.773 Y107.505 E-.03191
G1 X127.867 Y107.741 E-.12066
G1 X127.884 Y107.995 E-.12092
G1 X127.828 Y108.206 E-.10369
G1 X127.731 Y108.329 E-.07427
;WIPE_END
G1 X124.417 Y109.379 F6000
G1 E1.6 F2400
;TYPE:Perimeter
G1 F1200
G1 X124.354 Y109.24 E.0045
G1 X124.316 Y109.027 E.00638
G1 X124.294 Y108.334 E.02044
G1 X124.316 Y108.021 E.00925
G1 X124.354 Y107.806 E.00643
G1 X124.422 Y107.675 E.00435
G1 X124.451 Y107.73 E.00183
G1 X124.514 Y108.029 E.00901
G1 X124.535 Y108.704 E.0199
G1 X124.491 Y109.143 E.013
G1 X124.435 Y109.321 E.0055
G1 X124.333 Y109.757 F6000
;TYPE:External perimeter
G1 F1200
G1 X124.197 Y109.691 E.00446
G1 X124.123 Y109.621 E.003
G1 X124.05 Y109.513 E.00384
G1 X123.988 Y109.337 E.0055
G1 X123.941 Y109.073 E.0079
G1 X123.917 Y108.726 E.01025
G1 X123.917 Y108.321 E.01194
G1 X123.941 Y107.975 E.01022
G1 X123.986 Y107.721 E.0076
G1 X124.086 Y107.474 E.00785
G1 X124.163 Y107.384 E.00349
G1 X124.318 Y107.292 E.00531
G1 X124.461 Y107.283 E.00422
G1 X124.541 Y107.303 E.00243
G1 X124.673 Y107.389 E.00464
G1 X124.745 Y107.472 E.00324
G1 X124.811 Y107.607 E.00443
G1 X124.888 Y107.977 E.01114
G1 X124.912 Y108.32 E.01013
G1 X124.912 Y108.723 E.01188
G1 X124.862 Y109.219 E.01469
G1 X124.761 Y109.543 E.01
G1 X124.631 Y109.702 E.00605
G1 X124.506 Y109.758 E.00404
G1 X124.42 Y109.768 E.00255
G1 X124.392 Y109.764 E.00083
G1 E-1.12 F2400
;WIPE_START
G1 F4800
G1 X124.333 Y109.757 E-.02822
G1 X124.197 Y109.691 E-.07181
G1 X124.123 Y109.621 E-.04838
G1 X124.05 Y109.513 E-.06192
G1 X123.988 Y109.337 E-.08864
G1 X123.941 Y109.073 E-.12737
G1 X123.933 Y108.96 E-.05366
;WIPE_END
G1 X121.323 Y107.89 F6000
G1 E1.6 F2400
;TYPE:Perimeter
G1 F1200
G1 X121.299 Y107.882 E.00075
G1 X121.264 Y107.78 E.00318
G1 X121.293 Y107.688 E.00284
G1 X121.335 Y107.664 E.00143
G1 X121.437 Y107.661 E.00301
G1 X121.483 Y107.679 E.00146
G1 X121.533 Y107.804 E.00397
G1 X121.504 Y107.888 E.00262
G1 X121.41 Y107.919 E.00292
G1 X121.38 Y107.909 E.00093
G1 X121.118 Y108.207 F6000
;TYPE:External perimeter
G1 F1200
G1 X121.034 Y108.152 E.00296
G1 X120.923 Y107.989 E.00581
G1 X120.885 Y107.78 E.00626
G1 X120.922 Y107.575 E.00614
G1 X121.027 Y107.418 E.00557
G1 X121.187 Y107.314 E.00562
G1 X121.278 Y107.289 E.00278
G1 X121.533 Y107.294 E.00752
G1 X121.668 Y107.347 E.00427
G1 X121.807 Y107.464 E.00535
G1 X121.897 Y107.667 E.00654
G1 X121.912 Y107.798 E.00389
G1 X121.877 Y107.997 E.00596
G1 X121.772 Y108.156 E.00562
G1 X121.614 Y108.261 E.00559
G1 X121.41 Y108.298 E.00611
G1 X121.199 Y108.26 E.00632
G1 X121.168 Y108.24 E.00109
G1 X121.043 Y109.344 F6000
G1 F1200
G1 X121.092 Y109.227 E.00374
G1 X121.187 Y109.134 E.00392
G1 X121.317 Y109.085 E.00409
G1 X121.483 Y109.084 E.00489
G1 X121.56 Y109.103 E.00234
G1 X121.712 Y109.23 E.00584
G1 X121.763 Y109.357 E.00403
G1 X121.762 Y109.502 E.00427
G1 X121.714 Y109.615 E.00362
G1 X121.615 Y109.711 E.00406
G1 X121.483 Y109.761 E.00416
G1 X121.325 Y109.761 E.00466
G1 X121.195 Y109.709 E.00413
G1 X121.095 Y109.61 E.00415
G1 X121.043 Y109.487 E.00394
G1 X121.043 Y109.404 E.00245
G1 E-1.12 F2400
;WIPE_START
G1 F4800
G1 X121.043 Y109.344 E-.0285
G1 X121.092 Y109.227 E-.06025
G1 X121.187 Y109.134 E-.06315
G1 X121.317 Y109.085 E-.06599
G1 X121.483 Y109.084 E-.07885
G1 X121.56 Y109.103 E-.03767
G1 X121.712 Y109.23 E-.09408
G1 X121.752 Y109.331 E-.05151
;WIPE_END
G1 X106.103 Y108.954 F6000
G1 E1.6 F2400
G1 F1200
G1 X106.103 Y108.231 E.02131
G1 X106.606 Y108.231 E.01482
G1 X106.138 Y108.905 E.02418
G1 E-1.12 F2400
;WIPE_START
G1 F4800
G1 X106.103 Y108.954 E-.0286
G1 X106.103 Y108.231 E-.34342
G1 X106.33 Y108.231 E-.10798
;WIPE_END
G1 X127.869 Y109.286 F6000
G1 E1.6 F2400
G1 F1200
G1 X127.795 Y109.455 E.00544
G1 X127.672 Y109.622 E.00611
G1 X127.54 Y109.699 E.0045
G1 X127.418 Y109.736 E.00376
G1 X127.272 Y109.733 E.0043
G1 X127.084 Y109.661 E.00593
G1 X127.038 Y109.608 E.00207
G1 X126.902 Y109.209 E.01242
G1 X127.05 Y109.265 E.00466
G1 X127.447 Y109.28 E.01171
G1 X127.739 Y109.209 E.00886
G1 X127.901 Y109.125 E.00538
G1 X127.881 Y109.227 E.00306
G1 E-1.12 F2400
;WIPE_START
G1 F4800
G1 X127.869 Y109.286 E-.0286
G1 X127.795 Y109.455 E-.08763
G1 X127.672 Y109.622 E-.09852
G1 X127.54 Y109.699 E-.07259
G1 X127.418 Y109.736 E-.06056
G1 X127.272 Y109.733 E-.06936
G1 X127.148 Y109.686 E-.06274
;WIPE_END
G1 X113.946 Y108.041 F6000
G1 E1.6 F2400
;TYPE:Perimeter
G1 F1200
G1 X113.878 Y108.065 E.00213
G1 X113.753 Y108.051 E.00371
G1 X113.732 Y108.014 E.00125
G1 X113.744 Y107.811 E.00599
G1 X113.778 Y107.761 E.00178
G1 X113.808 Y107.757 E.00089
G1 X113.896 Y107.857 E.00393
G1 X113.93 Y107.983 E.00385
G1 X112.418 Y109.247 F6000
G1 F1200
G1 X112.146 Y109.238 E.00802
G1 X112.146 Y109.258 E.00059
G1 X111.356 Y109.238 E.02329
G1 X111.518 Y108.959 E.00951
G1 X111.673 Y108.629 E.01075
G1 X111.8 Y108.284 E.01084
G1 X111.884 Y107.959 E.00989
G1 X111.883 Y107.978 E.00056
G1 X111.914 Y108.341 E.01074
G1 X112.016 Y108.696 E.01089
G1 X112.206 Y109.039 E.01156
G1 X112.375 Y109.205 E.00698
G1 E-1.12 F2400
;WIPE_START
G1 F4800
G1 X112.418 Y109.247 E-.02855
G1 X112.146 Y109.238 E-.12927
G1 X112.146 Y109.258 E-.0095
G1 X111.488 Y109.241 E-.31268
;WIPE_END
G1 X116.739 Y107.859 F6000
G1 E1.6 F2400
G1 F1200
G1 X116.757 Y107.797 E.0019
G1 X116.784 Y107.763 E.00128
G1 X116.826 Y107.762 E.00124
G1 X116.902 Y107.857 E.00359
G1 X116.953 Y108.041 E.00563
G1 X116.894 Y108.062 E.00185
G1 X116.756 Y108.048 E.00409
G1 X116.74 Y108.023 E.00087
G1 X116.739 Y107.919 E.00307
G1 E-1.12 F2400
;WIPE_START
G1 F4800
G1 X116.739 Y107.859 E-.0285
G1 X116.757 Y107.797 E-.03067
G1 X116.784 Y107.763 E-.02062
G1 X116.826 Y107.762 E-.01996
G1 X116.902 Y107.857 E-.05779
G1 X116.953 Y108.041 E-.0907
G1 X116.894 Y108.062 E-.02975
G1 X116.756 Y108.048 E-.06589
G1 X116.74 Y108.023 E-.0141
G1 X116.739 Y107.919 E-.0494
;WIPE_END
G1 E-.07262 F2400
G1 X120.473 Y108.706 F6000
G1 E1.6 F2400
;TYPE:External perimeter
G1 F1200
G1 X120.42 Y108.668 E.00192
G1 X120.268 Y108.655 E.0045
G1 X119.999 Y108.201 E.01555
G1 X119.937 Y107.996 E.00631
G1 X119.922 Y107.786 E.00621
G1 X119.943 Y107.509 E.00819
G1 X120.022 Y107.245 E.00812
G1 X120.154 Y107.005 E.00807
G1 X120.336 Y106.793 E.00823
G1 X120.56 Y106.618 E.00838
G1 X120.817 Y106.493 E.00842
G1 X121.098 Y106.421 E.00855
G1 X121.365 Y106.398 E.0079
G1 X121.701 Y106.42 E.00992
G1 X121.985 Y106.496 E.00866
G1 X122.243 Y106.625 E.0085
G1 X122.464 Y106.813 E.00855
G1 X122.631 Y107.041 E.00833
G1 X122.741 Y107.3 E.00829
G1 X122.784 Y107.803 E.01488
G1 X122.733 Y108.175 E.01107
G1 X122.579 Y108.51 E.01087
G1 X122.337 Y108.722 E.00948
G1 X122.575 Y108.945 E.00961
G1 X122.671 Y109.251 E.00945
G1 X122.698 Y109.524 E.00809
G1 X122.674 Y109.766 E.00717
G1 X122.628 Y109.901 E.0042
G1 X122.451 Y110.206 E.01039
G1 X122.163 Y110.456 E.01124
G1 X121.808 Y110.605 E.01135
G1 X121.407 Y110.652 E.0119
G1 X121.005 Y110.604 E.01193
G1 X120.647 Y110.454 E.01144
G1 X120.355 Y110.204 E.01133
G1 X120.16 Y109.896 E.01074
G1 X120.091 Y109.656 E.00736
G1 X120.066 Y109.401 E.00755
G1 X120.099 Y109.225 E.00528
G1 X120.195 Y108.961 E.00828
G1 X120.298 Y108.763 E.00658
G1 X120.416 Y108.725 E.00365
G1 E-1.12 F2400
;WIPE_START
G1 F4800
G1 X120.473 Y108.706 E-.02854
G1 X120.42 Y108.668 E-.03098
G1 X120.268 Y108.655 E-.07246
G1 X119.999 Y108.201 E-.25066
G1 X119.94 Y108.005 E-.09736
;WIPE_END
G1 X123.42 Y106.844 F6000
G1 E1.6 F2400
G1 F1200
G1 X123.659 Y106.614 E.00978
G1 X123.96 Y106.464 E.00991
G1 X124.313 Y106.4 E.01057
G1 X124.718 Y106.425 E.01196
G1 X125.005 Y106.519 E.0089
G1 X125.257 Y106.679 E.0088
G1 X125.462 Y106.907 E.00904
G1 X125.63 Y107.243 E.01107
G1 X125.733 Y107.821 E.0173
G1 X125.779 Y108.269 E.01327
G1 X125.79 Y108.979 E.02093
G1 X125.667 Y109.707 E.02176
G1 X125.584 Y109.93 E.00701
G1 X125.41 Y110.211 E.00974
G1 X125.167 Y110.436 E.00976
G1 X124.868 Y110.584 E.00983
G1 X124.534 Y110.647 E.01002
G1 X124.239 Y110.642 E.0087
G1 X123.915 Y110.567 E.0098
G1 X123.628 Y110.413 E.0096
G1 X123.395 Y110.194 E.00942
G1 X123.295 Y110.048 E.00522
G1 X123.157 Y109.759 E.00944
G1 X123.104 Y109.582 E.00545
G1 X123.02 Y109.018 E.01681
G1 X123.017 Y108.644 E.01102
G1 X123.078 Y107.93 E.02112
G1 X123.177 Y107.34 E.01763
G1 X123.248 Y107.127 E.00662
G1 X123.389 Y106.895 E.008
G1 E-1.12 F2400
;WIPE_START
G1 F4800
G1 X123.42 Y106.844 E-.02835
G1 X123.659 Y106.614 E-.15755
G1 X123.96 Y106.464 E-.15974
G1 X124.238 Y106.413 E-.13436
;WIPE_END
G1 X126.128 Y109.259 F6000
G1 E1.6 F2400
G1 F1200
G1 X126.877 Y109.2 E.02214
G1 X126.703 Y109.135 E.00547
G1 X126.413 Y108.905 E.01091
G1 X126.235 Y108.696 E.00809
G1 X126.091 Y108.336 E.01143
G1 X126.046 Y108.064 E.00813
G1 X126.051 Y107.745 E.0094
G1 X126.091 Y107.394 E.01041
G1 X126.144 Y107.197 E.00601
G1 X126.339 Y106.859 E.0115
G1 X126.473 Y106.716 E.00578
G1 X126.637 Y106.595 E.00601
G1 X126.975 Y106.447 E.01088
G1 X127.2 Y106.407 E.00674
G1 X127.529 Y106.404 E.0097
G1 X127.836 Y106.466 E.00923
G1 X127.994 Y106.527 E.00499
G1 X128.259 Y106.685 E.00909
G1 X128.49 Y106.904 E.00938
G1 X128.601 Y107.053 E.00548
G1 X128.758 Y107.376 E.01058
G1 X128.858 Y107.759 E.01167
G1 X128.905 Y108.194 E.0129
G1 X128.904 Y108.699 E.01488
G1 X128.853 Y109.182 E.01431
G1 X128.745 Y109.607 E.01292
G1 X128.574 Y109.971 E.01185
G1 X128.352 Y110.25 E.01051
G1 X128.1 Y110.448 E.00945
G1 X127.81 Y110.58 E.00939
G1 X127.493 Y110.644 E.00953
G1 X127.199 Y110.647 E.00867
G1 X126.955 Y110.609 E.00728
G1 X126.729 Y110.529 E.00707
G1 X126.523 Y110.406 E.00707
G1 X126.348 Y110.24 E.00711
G1 X126.215 Y110.041 E.00705
G1 X126.125 Y109.817 E.00711
G1 X126.089 Y109.564 E.00753
