; generated by PrusaSlicer 2.7.4+win64 on 2024-04-12 at 20:59:05 UTC

; 

; external perimeters extrusion width = 0.42mm
; perimeters extrusion width = 0.44mm
; infill extrusion width = 0.44mm
; solid infill extrusion width = 0.44mm
; top infill extrusion width = 0.40mm
; first layer extrusion width = 0.42mm


; printing object ryobi_contact_holder.stl id:0 copy 0
; stop printing object ryobi_contact_holder.stl id:0 copy 0

;TYPE:Custom
; Ender 3 Custom Start G-code
G92 E0 ; Reset Extruder

M140 S55 ; set bed temp
M104 S160 ; set extruder temp
M109 S160 ; wait for extruder temp
M190 S55 ; wait for bed temp

G28 ; Home all axes
M104 S210 ; set extruder temp 
BED_MESH_CALIBRATE AREA_START=88.822,102.314 AREA_END=143.11,128.686

G1 Z2.0 F3000 ; Move Z Axis up little to prevent scratching of Heat Bed
M109 S210 ; wait for extruder temp
G1 X0.1 Y20 Z0.3 F5000.0 ; Move to start position

G1 X0.1 Y200.0 Z0.3 F1500.0 E15 ; Draw the first line
G1 X0.4 Y200.0 Z0.3 F5000.0 ; Move to side a little
G1 X0.4 Y20 Z0.3 F1500.0 E30 ; Draw the second line
G92 E0 ; Reset Extruder
G1 Z2.0 F3000 ; Move Z Axis up little to prevent scratching of Heat Bed
G1 X5 Y20 Z0.3 F5000.0 ; Move over to prevent blob squish
G21 ; set units to millimeters
G90 ; use absolute coordinates
M83 ; use relative distances for extrusion
; Filament gcode
M107
;LAYER_CHANGE
;Z:0.28
;HEIGHT:0.28
G1 E-1.6 F2400
G1 Z.28 F6000
G1 X90.475 Y102.946
G1 Z.28
G1 E1.6 F2400
M204 S500
;TYPE:Skirt/Brim
;WIDTH:0.42
G1 F1200
G1 X92.082 Y102.494 E.06994
G1 X139.85 Y102.494 E2.00136
G1 X141.356 Y102.887 E.06521
G1 X142.478 Y103.967 E.06525
G1 X142.93 Y105.573 E.0699
G1 X142.93 Y125.427 E.83183
G1 X142.536 Y126.933 E.06522
G1 X141.456 Y128.054 E.06522
G1 X139.85 Y128.506 E.0699
G1 X92.082 Y128.506 E2.00136
G1 X90.575 Y128.113 E.06525
G1 X89.454 Y127.033 E.06522
G1 X89.002 Y125.427 E.0699
G1 X89.002 Y105.573 E.83183
G1 X89.395 Y104.067 E.06521
G1 X90.434 Y102.989 E.06273
G1 X90.434 Y102.989 F6000
G1 X90.702 Y103.274
G1 F1200
G1 X90.819 Y103.164 E.00673
G1 X92.082 Y102.854 E.05449
G1 X139.85 Y102.854 E2.00136
G1 X141.258 Y103.246 E.06124
G1 X142.259 Y104.311 E.06124
G1 X142.57 Y105.573 E.05446
G1 X142.57 Y125.427 E.83183
G1 X142.177 Y126.834 E.06121
G1 X141.113 Y127.836 E.06123
G1 X139.85 Y128.147 E.0545
G1 X92.082 Y128.147 E2.00136
G1 X90.674 Y127.754 E.06125
G1 X89.673 Y126.689 E.06124
G1 X89.362 Y125.427 E.05446
G1 X89.362 Y105.573 E.83183
G1 X89.755 Y104.166 E.06121
G1 X90.659 Y103.315 E.05202
G1 X90.659 Y103.315 F6000
G1 X90.905 Y103.612
G1 F1200
G1 X91.158 Y103.402 E.01378
G1 X92.082 Y103.213 E.03951
G1 X139.85 Y103.213 E2.00136
G1 X141.152 Y103.605 E.05697
G1 X142.022 Y104.65 E.05697
G1 X142.21 Y105.573 E.03947
G1 X142.21 Y125.427 E.83183
G1 X141.818 Y126.728 E.05693
G1 X140.774 Y127.598 E.05694
G1 X139.85 Y127.787 E.03951
G1 X92.082 Y127.787 E2.00136
G1 X90.78 Y127.395 E.05697
G1 X89.91 Y126.35 E.05697
G1 X89.722 Y125.427 E.03947
G1 X89.722 Y105.573 E.83183
G1 X90.113 Y104.272 E.05692
G1 X90.859 Y103.65 E.04069
G1 E-1.12 F2400
;WIPE_START
G1 F4800
G1 X90.905 Y103.612 E-.02834
G1 X91.158 Y103.402 E-.15618
G1 X91.767 Y103.278 E-.29548
;WIPE_END
; printing object ryobi_contact_holder.stl id:0 copy 0
G1 X92.752 Y106.243 F6000
G1 E1.6 F2400
;TYPE:Perimeter
G1 F1200
G1 X139.18 Y106.243 E1.94522
G1 X139.18 Y124.757 E.77569
G1 X92.752 Y124.757 E1.94522
G1 X92.752 Y106.303 E.77318
G1 X92.752 Y106.303 F6000
G1 X92.392 Y105.883
;TYPE:External perimeter
G1 F1200
G1 X139.54 Y105.883 E1.97538
G1 X139.54 Y125.117 E.80586
G1 X92.392 Y125.117 E1.97538
G1 X92.392 Y105.943 E.80334
G1 E-1.12 F2400
;WIPE_START
G1 F4800
G1 X92.392 Y105.883 E-.0285
G1 X93.343 Y105.883 E-.4515
;WIPE_END
G1 X139.065 Y107.091 F6000
G1 E1.6 F2400
;TYPE:Solid infill
;WIDTH:0.422359
G1 F1200
G1 X138.494 Y106.52 E.03405
G1 X137.982 Y106.52 E.02159
G1 X138.903 Y107.441 E.05493
G1 X138.903 Y107.954 E.02163
G1 X137.47 Y106.52 E.08549
G1 X136.957 Y106.52 E.02163
G1 X138.903 Y108.466 E.11606
G1 X138.903 Y108.978 E.02159
G1 X136.445 Y106.52 E.1466
G1 X135.933 Y106.52 E.02159
G1 X138.903 Y109.491 E.17716
G1 X138.903 Y110.003 E.02159
G1 X135.42 Y106.52 E.20773
G1 X134.908 Y106.52 E.02159
G1 X138.903 Y110.515 E.23826
G1 X138.903 Y111.028 E.02163
G1 X134.396 Y106.52 E.26883
G1 X133.883 Y106.52 E.02163
G1 X138.903 Y111.54 E.29939
G1 X138.903 Y112.052 E.02159
G1 X133.371 Y106.52 E.32993
G1 X132.859 Y106.52 E.02159
G1 X138.903 Y112.565 E.3605
G1 X138.903 Y113.077 E.02159
G1 X132.346 Y106.52 E.39106
G1 X131.834 Y106.52 E.02159
G1 X138.903 Y113.589 E.4216
G1 X138.903 Y114.102 E.02163
G1 X131.322 Y106.52 E.45216
G1 X130.809 Y106.52 E.02163
G1 X138.903 Y114.614 E.48273
G1 X138.903 Y115.126 E.02159
G1 X130.297 Y106.52 E.51326
G1 X129.785 Y106.52 E.02159
G1 X138.903 Y115.639 E.54383
G1 X138.903 Y116.151 E.02159
G1 X129.272 Y106.52 E.5744
G1 X128.76 Y106.52 E.02159
G1 X138.903 Y116.663 E.60493
G1 X138.903 Y117.176 E.02163
G1 X128.248 Y106.52 E.6355
G1 X127.735 Y106.52 E.02163
G1 X138.903 Y117.688 E.66606
G1 X138.903 Y118.2 E.02159
G1 X127.223 Y106.52 E.6966
G1 X126.711 Y106.52 E.02159
G1 X138.903 Y118.713 E.72716
G1 X138.903 Y119.225 E.02159
G1 X126.198 Y106.52 E.75773
G1 X125.686 Y106.52 E.02159
G1 X138.903 Y119.737 E.78827
G1 X138.903 Y120.25 E.02163
G1 X125.174 Y106.52 E.81883
G1 X124.661 Y106.52 E.02163
G1 X138.903 Y120.762 E.8494
G1 X138.903 Y121.274 E.02159
G1 X124.149 Y106.52 E.87993
G1 X123.637 Y106.52 E.02159
G1 X138.903 Y121.787 E.9105
G1 X138.903 Y122.299 E.02159
G1 X123.124 Y106.52 E.94106
G1 X122.612 Y106.52 E.02159
G1 X138.903 Y122.811 E.9716
G1 X138.903 Y123.323 E.02159
G1 X122.1 Y106.52 E1.00214
G1 X121.588 Y106.52 E.02159
G1 X138.903 Y123.836 E1.0327
G1 X138.903 Y124.348 E.02159
G1 X121.075 Y106.52 E1.06327
G1 X120.563 Y106.52 E.02159
G1 X138.522 Y124.48 E1.07111
G1 X138.01 Y124.48 E.02159
G1 X120.051 Y106.52 E1.07111
G1 X119.538 Y106.52 E.02163
G1 X137.497 Y124.48 E1.07111
G1 X136.985 Y124.48 E.02159
G1 X119.026 Y106.52 E1.07111
G1 X118.514 Y106.52 E.02159
G1 X136.473 Y124.48 E1.07111
G1 X135.96 Y124.48 E.02163
G1 X118.001 Y106.52 E1.07111
G1 X117.489 Y106.52 E.02159
G1 X135.448 Y124.48 E1.07111
G1 X134.936 Y124.48 E.02159
G1 X116.977 Y106.52 E1.07111
G1 X116.464 Y106.52 E.02163
G1 X134.424 Y124.48 E1.07114
G1 X133.911 Y124.48 E.02163
G1 X115.952 Y106.52 E1.07111
G1 X115.44 Y106.52 E.02159
G1 X133.399 Y124.48 E1.07111
G1 X132.887 Y124.48 E.02159
G1 X114.927 Y106.52 E1.07114
G1 X114.415 Y106.52 E.02159
G1 X132.374 Y124.48 E1.07111
G1 X131.862 Y124.48 E.02159
G1 X113.903 Y106.52 E1.07111
G1 X113.39 Y106.52 E.02163
G1 X131.35 Y124.48 E1.07114
G1 X130.837 Y124.48 E.02163
G1 X112.878 Y106.52 E1.07111
G1 X112.366 Y106.52 E.02159
G1 X130.325 Y124.48 E1.07111
G1 X129.813 Y124.48 E.02159
G1 X111.853 Y106.52 E1.07114
G1 X111.341 Y106.52 E.02159
G1 X129.3 Y124.48 E1.07111
G1 X128.788 Y124.48 E.02159
G1 X110.829 Y106.52 E1.07111
G1 X110.316 Y106.52 E.02163
G1 X128.276 Y124.48 E1.07114
G1 X127.763 Y124.48 E.02163
G1 X109.804 Y106.52 E1.07111
G1 X109.292 Y106.52 E.02159
G1 X127.251 Y124.48 E1.07111
G1 X126.739 Y124.48 E.02159
G1 X108.779 Y106.52 E1.07114
G1 X108.267 Y106.52 E.02159
G1 X126.226 Y124.48 E1.07111
G1 X125.714 Y124.48 E.02159
G1 X107.755 Y106.52 E1.07111
G1 X107.242 Y106.52 E.02163
G1 X125.202 Y124.48 E1.07114
G1 X124.689 Y124.48 E.02163
G1 X106.73 Y106.52 E1.07111
G1 X106.218 Y106.52 E.02159
G1 X124.177 Y124.48 E1.07111
G1 X123.665 Y124.48 E.02159
G1 X105.705 Y106.52 E1.07114
G1 X105.193 Y106.52 E.02159
G1 X123.152 Y124.48 E1.07111
G1 X122.64 Y124.48 E.02159
G1 X104.681 Y106.52 E1.07111
G1 X104.168 Y106.52 E.02163
G1 X122.128 Y124.48 E1.07114
G1 X121.615 Y124.48 E.02163
G1 X103.656 Y106.52 E1.07111
G1 X103.144 Y106.52 E.02159
G1 X121.103 Y124.48 E1.07111
G1 X120.591 Y124.48 E.02159
G1 X102.631 Y106.52 E1.07114
G1 X102.119 Y106.52 E.02159
G1 X120.078 Y124.48 E1.07111
G1 X119.566 Y124.48 E.02159
G1 X101.607 Y106.52 E1.07111
G1 X101.094 Y106.52 E.02163
G1 X119.054 Y124.48 E1.07114
G1 X118.541 Y124.48 E.02163
G1 X100.582 Y106.52 E1.07111
G1 X100.07 Y106.52 E.02159
G1 X118.029 Y124.48 E1.07111
G1 X117.517 Y124.48 E.02159
G1 X99.557 Y106.52 E1.07114
G1 X99.045 Y106.52 E.02159
G1 X117.004 Y124.48 E1.07111
G1 X116.492 Y124.48 E.02159
G1 X98.533 Y106.52 E1.07111
G1 X98.02 Y106.52 E.02163
G1 X115.98 Y124.48 E1.07114
G1 X115.467 Y124.48 E.02163
G1 X97.508 Y106.52 E1.07111
G1 X96.996 Y106.52 E.02159
G1 X114.955 Y124.48 E1.07111
G1 X114.443 Y124.48 E.02159
G1 X96.483 Y106.52 E1.07114
G1 X95.971 Y106.52 E.02159
G1 X113.93 Y124.48 E1.07111
G1 X113.418 Y124.48 E.02159
G1 X95.459 Y106.52 E1.07111
G1 X94.946 Y106.52 E.02163
G1 X112.906 Y124.48 E1.07114
G1 X112.393 Y124.48 E.02163
G1 X94.434 Y106.52 E1.07111
G1 X93.922 Y106.52 E.02159
G1 X111.881 Y124.48 E1.07111
G1 X111.369 Y124.48 E.02159
G1 X93.41 Y106.52 E1.07111
G1 X93.029 Y106.52 E.01607
G1 X93.029 Y106.652 E.00557
G1 X110.856 Y124.48 E1.06324
G1 X110.344 Y124.48 E.02159
G1 X93.029 Y107.164 E1.0327
G1 X93.029 Y107.677 E.02163
G1 X109.832 Y124.48 E1.00214
G1 X109.319 Y124.48 E.02163
G1 X93.029 Y108.189 E.97157
G1 X93.029 Y108.701 E.02159
G1 X108.807 Y124.48 E.94103
G1 X108.295 Y124.48 E.02159
G1 X93.029 Y109.214 E.91047
G1 X93.029 Y109.726 E.02159
G1 X107.783 Y124.48 E.87993
G1 X107.27 Y124.48 E.02163
G1 X93.029 Y110.238 E.84937
G1 X93.029 Y110.751 E.02163
G1 X106.758 Y124.48 E.8188
G1 X106.246 Y124.48 E.02159
G1 X93.029 Y111.263 E.78827
G1 X93.029 Y111.775 E.02159
G1 X105.733 Y124.48 E.7577
G1 X105.221 Y124.48 E.02159
G1 X93.029 Y112.288 E.72713
G1 X93.029 Y112.8 E.02159
G1 X104.709 Y124.48 E.6966
G1 X104.196 Y124.48 E.02163
G1 X93.029 Y113.312 E.66603
G1 X93.029 Y113.825 E.02163
G1 X103.684 Y124.48 E.63547
G1 X103.172 Y124.48 E.02159
G1 X93.029 Y114.337 E.60493
G1 X93.029 Y114.849 E.02159
G1 X102.659 Y124.48 E.57437
G1 X102.147 Y124.48 E.02159
G1 X93.029 Y115.361 E.54383
G1 X93.029 Y115.874 E.02163
G1 X101.635 Y124.48 E.51326
G1 X101.122 Y124.48 E.02163
G1 X93.029 Y116.386 E.4827
G1 X93.029 Y116.898 E.02159
G1 X100.61 Y124.48 E.45216
G1 X100.098 Y124.48 E.02159
G1 X93.029 Y117.411 E.4216
G1 X93.029 Y117.923 E.02159
G1 X99.585 Y124.48 E.39103
G1 X99.073 Y124.48 E.02159
G1 X93.029 Y118.435 E.3605
G1 X93.029 Y118.948 E.02163
G1 X98.561 Y124.48 E.32993
G1 X98.048 Y124.48 E.02163
G1 X93.029 Y119.46 E.29936
G1 X93.029 Y119.972 E.02159
G1 X97.536 Y124.48 E.26883
G1 X97.024 Y124.48 E.02159
G1 X93.029 Y120.485 E.23826
G1 X93.029 Y120.997 E.02159
G1 X96.511 Y124.48 E.2077
G1 X95.999 Y124.48 E.02159
G1 X93.029 Y121.509 E.17716
G1 X93.029 Y122.022 E.02163
G1 X95.487 Y124.48 E.1466
G1 X94.974 Y124.48 E.02163
G1 X93.029 Y122.534 E.11603
G1 X93.029 Y123.046 E.02159
G1 X94.462 Y124.48 E.08549
G1 X93.95 Y124.48 E.02159
G1 X93.029 Y123.559 E.05493
G1 X93.029 Y124.071 E.02159
G1 X93.599 Y124.642 E.03402
M106 S255
;LAYER_CHANGE
;Z:0.56
;HEIGHT:0.28
;BEFORE_LAYER_CHANGE
G92 E0
;0.56


G1 E-1.12 F2400
;WIPE_START
G1 F4800
G1 X93.029 Y124.071 E-.38323
G1 X93.029 Y123.867 E-.09677
;WIPE_END
G1 Z.56 F6000
;AFTER_LAYER_CHANGE
;0.56
M104 S205 ; set temperature
M140 S50 ; set bed temperature
G1 Z.56
G1 X92.525 Y125.033
G1 E1.6 F2400
;TYPE:Perimeter
;WIDTH:0.44
G1 F2160
G1 X92.525 Y105.967 E.84321
G1 X139.27 Y105.967 E2.06733
G1 X139.27 Y125.033 E.84321
G1 X92.585 Y125.033 E2.06468
G1 X92.585 Y125.033 F6000
G1 X92.155 Y125.403
;TYPE:External perimeter
;WIDTH:0.42
G1 F1800
G1 X92.155 Y105.597 E.82982
G1 X139.64 Y105.597 E1.9895
G1 X139.64 Y125.403 E.82982
G1 X92.215 Y125.403 E1.98699
G1 E-1.12 F2400
;WIPE_START
G1 F4800
G1 X92.155 Y125.403 E-.0285
G1 X92.155 Y124.452 E-.4515
;WIPE_END
G1 X92.921 Y106.29 F6000
G1 E1.6 F2400
;TYPE:Solid infill
;WIDTH:0.532175
G1 F2700
G1 X92.879 Y106.248 E.00326
G1 X92.822 Y106.263 E.00324
G1 X92.807 Y106.32 E.00324
G1 X92.848 Y106.362 E.00323
G1 X92.905 Y106.347 E.00324
;WIDTH:0.44
G1 X92.818 Y106.954 E.02712
G1 X93.512 Y106.259 E.04344
G1 X93.688 Y106.127 E.00973
;WIDTH:0.400089
G1 X93.647 Y106.138 E.00168
G1 X93.628 Y106.067 E.00291
G1 X93.699 Y106.086 E.00291
;WIDTH:0.44
G1 X94.049 Y106.259 E.01727
G1 X92.818 Y107.491 E.07702
G1 X92.818 Y108.028 E.02375
G1 X94.587 Y106.259 E.11064
G1 X95.124 Y106.259 E.02375
G1 X92.818 Y108.566 E.14426
G1 X92.818 Y109.103 E.02375
G1 X95.661 Y106.259 E.17785
G1 X96.199 Y106.259 E.02379
G1 X92.818 Y109.64 E.21146
G1 X92.818 Y110.177 E.02375
G1 X96.736 Y106.259 E.24505
G1 X97.273 Y106.259 E.02375
G1 X92.818 Y110.715 E.27867
G1 X92.818 Y111.252 E.02375
G1 X97.81 Y106.259 E.31225
G1 X98.348 Y106.259 E.02379
G1 X92.818 Y111.789 E.34587
G1 X92.818 Y112.326 E.02375
G1 X98.885 Y106.259 E.37946
G1 X99.422 Y106.259 E.02375
G1 X92.818 Y112.864 E.41307
G1 X92.818 Y113.401 E.02375
G1 X99.96 Y106.259 E.44669
G1 X100.497 Y106.259 E.02375
G1 X92.818 Y113.938 E.48028
G1 X92.818 Y114.476 E.02379
G1 X101.034 Y106.259 E.5139
G1 X101.571 Y106.259 E.02375
G1 X92.818 Y115.013 E.54748
G1 X92.818 Y115.55 E.02375
G1 X102.109 Y106.259 E.5811
G1 X102.646 Y106.259 E.02375
G1 X92.818 Y116.087 E.61469
G1 X92.818 Y116.625 E.02379
G1 X103.183 Y106.259 E.6483
G1 X103.72 Y106.259 E.02375
G1 X92.818 Y117.162 E.68189
G1 X92.818 Y117.699 E.02375
G1 X104.258 Y106.259 E.71551
G1 X104.795 Y106.259 E.02375
G1 X92.818 Y118.237 E.74913
G1 X92.818 Y118.774 E.02375
G1 X105.332 Y106.259 E.78271
G1 X105.87 Y106.259 E.02379
G1 X92.818 Y119.311 E.81633
G1 X92.818 Y119.848 E.02375
G1 X106.407 Y106.259 E.84992
G1 X106.944 Y106.259 E.02375
G1 X92.818 Y120.386 E.88353
G1 X92.818 Y120.923 E.02375
G1 X107.481 Y106.259 E.91712
G1 X108.019 Y106.259 E.02379
G1 X92.818 Y121.46 E.95074
G1 X92.818 Y121.997 E.02375
G1 X108.556 Y106.259 E.98432
G1 X109.093 Y106.259 E.02375
G1 X92.818 Y122.535 E1.01794
G1 X92.818 Y123.072 E.02375
G1 X109.63 Y106.259 E1.05153
G1 X110.168 Y106.259 E.02379
G1 X92.818 Y123.609 E1.08515
G1 X92.818 Y124.147 E.02379
G1 X110.705 Y106.259 E1.11876
G1 X111.242 Y106.259 E.02375
G1 X92.818 Y124.684 E1.15235
G1 X92.684 Y124.875 E.01032
;WIDTH:0.400089
G1 X92.779 Y124.88 E.00377
;WIDTH:0.44
G1 X93.298 Y124.741 E.02376
G1 X111.78 Y106.259 E1.15595
G1 X112.317 Y106.259 E.02375
G1 X93.835 Y124.741 E1.15595
G1 X94.372 Y124.741 E.02375
G1 X112.854 Y106.259 E1.15595
G1 X113.391 Y106.259 E.02375
G1 X94.91 Y124.741 E1.15592
G1 X95.447 Y124.741 E.02375
G1 X113.929 Y106.259 E1.15595
G1 X114.466 Y106.259 E.02375
G1 X95.984 Y124.741 E1.15595
G1 X96.521 Y124.741 E.02375
G1 X115.003 Y106.259 E1.15595
G1 X115.54 Y106.259 E.02375
G1 X97.059 Y124.741 E1.15592
G1 X97.596 Y124.741 E.02375
G1 X116.078 Y106.259 E1.15595
G1 X116.615 Y106.259 E.02375
G1 X98.133 Y124.741 E1.15595
G1 X98.671 Y124.741 E.02379
G1 X117.152 Y106.259 E1.15592
G1 X117.69 Y106.259 E.02379
G1 X99.208 Y124.741 E1.15595
G1 X99.745 Y124.741 E.02375
G1 X118.227 Y106.259 E1.15595
G1 X118.764 Y106.259 E.02375
G1 X100.282 Y124.741 E1.15595
G1 X100.82 Y124.741 E.02379
G1 X119.301 Y106.259 E1.15592
G1 X119.839 Y106.259 E.02379
G1 X101.357 Y124.741 E1.15595
G1 X101.894 Y124.741 E.02375
G1 X120.376 Y106.259 E1.15595
G1 X120.913 Y106.259 E.02375
G1 X102.431 Y124.741 E1.15595
G1 X102.969 Y124.741 E.02379
G1 X121.451 Y106.259 E1.15595
G1 X121.988 Y106.259 E.02375
G1 X103.506 Y124.741 E1.15595
G1 X104.043 Y124.741 E.02375
G1 X122.525 Y106.259 E1.15595
G1 X123.062 Y106.259 E.02375
G1 X104.581 Y124.741 E1.15592
G1 X105.118 Y124.741 E.02375
G1 X123.6 Y106.259 E1.15595
G1 X124.137 Y106.259 E.02375
G1 X105.655 Y124.741 E1.15595
G1 X106.192 Y124.741 E.02375
G1 X124.674 Y106.259 E1.15595
G1 X125.211 Y106.259 E.02375
G1 X106.73 Y124.741 E1.15592
G1 X107.267 Y124.741 E.02375
G1 X125.749 Y106.259 E1.15595
G1 X126.286 Y106.259 E.02375
G1 X107.804 Y124.741 E1.15595
G1 X108.341 Y124.741 E.02375
G1 X126.823 Y106.259 E1.15595
G1 X127.361 Y106.259 E.02379
G1 X108.879 Y124.741 E1.15595
G1 X109.416 Y124.741 E.02375
G1 X127.898 Y106.259 E1.15595
G1 X128.435 Y106.259 E.02375
G1 X109.953 Y124.741 E1.15595
G1 X110.491 Y124.741 E.02379
G1 X128.972 Y106.259 E1.15592
G1 X129.51 Y106.259 E.02379
G1 X111.028 Y124.741 E1.15595
G1 X111.565 Y124.741 E.02375
G1 X130.047 Y106.259 E1.15595
G1 X130.584 Y106.259 E.02375
G1 X112.102 Y124.741 E1.15595
