; generated by PrusaSlicer 2.7.4+win64 on 2024-04-12 at 13:46:36 UTC

; 

; external perimeters extrusion width = 0.42mm
; perimeters extrusion width = 0.44mm
; infill extrusion width = 0.44mm
; solid infill extrusion width = 0.44mm
; top infill extrusion width = 0.40mm
; support material extrusion width = 0.36mm
; first layer extrusion width = 0.42mm


; printing object ryobi_case_top.stl id:0 copy 0
; stop printing object ryobi_case_top.stl id:0 copy 0

;TYPE:Custom
; Ender 3 Custom Start G-code
G92 E0 ; Reset Extruder

M140 S55 ; set bed temp
M104 S160 ; set extruder temp
M109 S160 ; wait for extruder temp
M190 S55 ; wait for bed temp

G28 ; Home all axes
M104 S210 ; set extruder temp 
BED_MESH_CALIBRATE AREA_START=46.7406,65.7403 AREA_END=184.26,165.26

G1 Z2.0 F3000 ; Move Z Axis up little to prevent scratching of Heat Bed
M109 S210 ; wait for extruder temp
G1 X0.1 Y20 Z0.3 F5000.0 ; Move to start position

G1 X0.1 Y200.0 Z0.3 F1500.0 E15 ; Draw the first line
G1 X0.4 Y200.0 Z0.3 F5000.0 ; Move to side a little
G1 X0.4 Y20 Z0.3 F1500.0 E30 ; Draw the second line
G92 E0 ; Reset Extruder
G1 Z2.0 F3000 ; Move Z Axis up little to prevent scratching of Heat Bed
G1 X5 Y20 Z0.3 F5000.0 ; Move over to prevent blob squish
G21 ; set units to millimeters
G90 ; use absolute coordinates
M83 ; use relative distances for extrusion
; Filament gcode
M107
;LAYER_CHANGE
;Z:0.28
;HEIGHT:0.28
G1 E-1.6 F2400
G1 Z.28 F6000
G1 X51.203 Y75.298
G1 Z.28
G1 E1.6 F2400
M204 S500
;TYPE:Skirt/Brim
;WIDTH:0.42
G1 F1200
G1 X61.268 Y68.453 E.50998
G1 X62.829 Y67.925 E.06904
G1 X99 Y65.92 E1.5178
G1 X155.402 Y65.947 E2.3631
G1 X159.284 Y66.458 E.16405
G1 X160.061 Y66.666 E.0337
G1 X163.679 Y68.164 E.16406
G1 X164.353 Y68.55 E.03254
G1 X169.663 Y72.549 E.27851
G1 X174.614 Y77.726 E.30013
G1 X178.629 Y83.659 E.30015
G1 X181.593 Y90.181 E.30015
G1 X183.51 Y97.617 E.32174
G1 X184.08 Y104.5 E.28937
G1 X184.08 Y126.5 E.92174
G1 X183.424 Y133.893 E.31096
G1 X181.593 Y140.819 E.30015
G1 X178.629 Y147.341 E.30015
G1 X174.614 Y153.274 E.30015
G1 X169.663 Y158.451 E.30013
G1 X164.353 Y162.45 E.27851
G1 X163.679 Y162.836 E.03254
G1 X160.061 Y164.334 E.16406
G1 X159.284 Y164.542 E.0337
G1 X155.402 Y165.053 E.16405
G1 X98.829 Y165.075 E2.37027
G1 X62.829 Y163.075 E1.51063
G1 X61.268 Y162.547 E.06904
G1 X48.768 Y154.047 E.63333
G1 X47.744 Y152.874 E.06524
G1 X47.421 Y151.543 E.05738
G1 X46.921 Y115.457 E1.51206
G1 X47.421 Y79.457 E1.50845
G1 X47.835 Y77.957 E.0652
G1 X48.768 Y76.953 E.05742
G1 X51.153 Y75.332 E.12082
G1 X51.153 Y75.332 F6000
G1 X51.355 Y75.629
G1 F1200
G1 X61.471 Y68.751 E.51252
G1 X62.849 Y68.284 E.06096
G1 X99 Y66.28 E1.51696
G1 X155.355 Y66.303 E2.36113
G1 X159.237 Y66.815 E.16405
G1 X159.923 Y66.998 E.02975
G1 X163.541 Y68.497 E.16408
G1 X164.136 Y68.837 E.02871
G1 X169.446 Y72.837 E.27853
G1 X174.353 Y77.974 E.29764
G1 X178.329 Y83.859 E.29757
G1 X181.265 Y90.328 E.29764
G1 X183.152 Y97.647 E.31668
G1 X183.72 Y104.5 E.28811
G1 X183.72 Y126.5 E.92174
G1 X183.075 Y133.803 E.30717
G1 X181.265 Y140.672 E.29762
G1 X178.329 Y147.141 E.29764
G1 X174.353 Y153.026 E.29757
G1 X169.446 Y158.163 E.29764
G1 X164.136 Y162.163 E.27853
G1 X163.541 Y162.503 E.02871
G1 X159.923 Y164.002 E.16408
G1 X159.237 Y164.185 E.02975
G1 X155.355 Y164.697 E.16405
G1 X98.849 Y164.716 E2.36746
G1 X62.849 Y162.716 E1.51063
G1 X61.471 Y162.249 E.06096
G1 X48.971 Y153.749 E.63333
G1 X48.027 Y152.633 E.06124
G1 X47.78 Y151.538 E.04703
G1 X47.28 Y115.462 E1.51164
G1 X47.78 Y79.462 E1.50845
G1 X48.193 Y78.06 E.06124
G1 X48.971 Y77.251 E.04703
G1 X51.306 Y75.663 E.11831
G1 X51.306 Y75.663 F6000
G1 X51.508 Y75.961
G1 F1200
G1 X61.673 Y69.049 E.51502
G1 X62.869 Y68.644 E.0529
G1 X99 Y66.64 E1.51612
G1 X155.308 Y66.66 E2.35916
G1 X159.19 Y67.171 E.16405
G1 X159.785 Y67.331 E.02581
G1 X163.403 Y68.829 E.16406
G1 X163.92 Y69.125 E.02496
G1 X169.23 Y73.124 E.27851
G1 X174.091 Y78.221 E.2951
G1 X178.03 Y84.059 E.29507
G1 X180.936 Y90.475 E.2951
G1 X182.793 Y97.677 E.31161
G1 X183.36 Y104.5 E.28685
G1 X183.36 Y126.5 E.92174
G1 X182.727 Y133.714 E.30341
G1 X180.936 Y140.525 E.29506
G1 X178.03 Y146.941 E.2951
G1 X174.091 Y152.779 E.29507
G1 X169.23 Y157.876 E.2951
G1 X163.92 Y161.875 E.27851
G1 X163.403 Y162.171 E.02496
G1 X159.785 Y163.669 E.16406
G1 X159.19 Y163.829 E.02581
G1 X155.308 Y164.34 E.16405
G1 X98.869 Y164.356 E2.36465
G1 X62.869 Y162.356 E1.51063
G1 X61.673 Y161.951 E.0529
G1 X49.173 Y153.451 E.63333
G1 X48.317 Y152.396 E.05692
G1 X48.14 Y151.533 E.03691
G1 X47.64 Y115.467 E1.51122
G1 X48.14 Y79.467 E1.50845
G1 X48.55 Y78.171 E.05695
G1 X49.173 Y77.549 E.03688
G1 X51.459 Y75.994 E.11584
G1 E-1.12 F2400
;WIPE_START
G1 F4800
G1 X51.508 Y75.961 E-.02806
G1 X52.295 Y75.426 E-.45194
;WIPE_END
; printing object ryobi_case_top.stl id:0 copy 0
G1 X111.94 Y78.762 F6000
G1 E1.6 F2400
;TYPE:Support material
G1 F1200
G1 X114.54 Y78.762 E.10893
G1 X114.54 Y81.362 E.10893
G1 X122.34 Y81.362 E.3268
G1 X122.34 Y86.562 E.21787
G1 X122.959 Y86.562 E.02593
G1 X122.959 Y81.362 E.21787
G1 X132.059 Y81.362 E.38127
G1 X132.059 Y78.762 E.10893
G1 X133.359 Y78.762 E.05447
G1 X133.359 Y71.962 E.2849
G1 X148.338 Y71.962 E.62758
G1 X148.338 Y78.143 E.25897
G1 X147.038 Y78.143 E.05447
G1 X147.038 Y79.443 E.05447
G1 X143.138 Y79.443 E.1634
G1 X143.138 Y89.842 E.43569
G1 X140.538 Y89.842 E.10893
G1 X140.538 Y91.762 E.08044
G1 X146.358 Y91.762 E.24384
G1 X146.358 Y81.362 E.43573
G1 X148.958 Y81.362 E.10893
G1 X148.958 Y80.062 E.05447
G1 X152.857 Y80.062 E.16336
G1 X152.857 Y78.143 E.0804
G1 X151.558 Y78.143 E.05442
G1 X151.558 Y75.543 E.10893
G1 X150.258 Y75.543 E.05447
G1 X150.258 Y71.962 E.15003
G1 X154.806 Y71.962 E.19055
G1 X158.109 Y72.397 E.13958
G1 X160.403 Y73.347 E.10403
G1 X159.373 Y74.422 E.06238
G1 X158.538 Y77.661 E.14014
G1 X159.434 Y80.884 E.14016
G1 X161.716 Y83.166 E.13521
G1 X165.061 Y84.062 E.14509
G1 X168.178 Y83.227 E.1352
G1 X169.907 Y81.542 E.10115
G1 X173.466 Y86.807 E.26626
G1 X175.636 Y91.66 E.22273
G1 X175.636 Y130.759 E1.63815
G1 X177.567 Y130.759 E.0809
G1 X177.511 Y132.628 E.07834
G1 X175.976 Y138.58 E.25753
G1 X173.466 Y144.193 E.25761
G1 X169.907 Y149.458 E.26626
G1 X168.178 Y147.773 E.10115
G1 X164.939 Y146.938 E.14014
G1 X161.822 Y147.773 E.1352
G1 X159.434 Y150.116 E.14017
G1 X158.538 Y153.461 E.14509
G1 X159.373 Y156.578 E.1352
G1 X160.403 Y157.653 E.06238
G1 X158.109 Y158.603 E.10403
G1 X154.806 Y159.038 E.13958
G1 X150.258 Y159.038 E.19055
G1 X150.258 Y154.157 E.2045
G1 X151.558 Y154.157 E.05447
G1 X151.558 Y152.857 E.05447
G1 X152.857 Y152.857 E.05442
G1 X152.857 Y150.938 E.0804
G1 X148.958 Y150.938 E.16336
G1 X148.958 Y149.638 E.05447
G1 X146.358 Y149.638 E.10893
G1 X146.358 Y145.738 E.1634
G1 X143.758 Y145.738 E.10893
G1 X143.758 Y144.438 E.05447
G1 X143.138 Y144.438 E.02598
G1 X143.138 Y151.558 E.29831
G1 X147.038 Y151.558 E.1634
G1 X147.038 Y159.038 E.31339
G1 X133.359 Y159.038 E.57312
G1 X133.359 Y152.238 E.2849
G1 X132.059 Y152.238 E.05447
G1 X132.059 Y149.638 E.10893
G1 X122.959 Y149.638 E.38127
G1 X122.959 Y144.438 E.21787
G1 X122.34 Y144.438 E.02593
G1 X122.34 Y149.638 E.21787
G1 X114.54 Y149.638 E.3268
G1 X114.54 Y152.238 E.10893
G1 X111.94 Y152.238 E.10893
G1 X111.94 Y159.038 E.2849
G1 X99.082 Y159.038 E.53872
G1 X96.961 Y158.92 E.089
G1 X96.961 Y158.737 E.00767
G1 X95.661 Y158.737 E.05447
G1 X95.661 Y157.437 E.05447
G1 X94.361 Y157.437 E.05447
G1 X94.361 Y156.137 E.05447
G1 X93.061 Y156.137 E.05447
G1 X93.061 Y149.638 E.27229
G1 X90.462 Y149.638 E.10889
G1 X90.462 Y148.338 E.05447
G1 X89.162 Y148.338 E.05447
G1 X89.162 Y147.038 E.05447
G1 X87.862 Y147.038 E.05447
G1 X87.862 Y145.738 E.05447
G1 X85.942 Y145.738 E.08044
G1 X85.942 Y158.308 E.52665
G1 X73.563 Y157.62 E.51945
G1 X73.563 Y149.638 E.33443
G1 X70.343 Y149.638 E.13491
G1 X70.343 Y156.137 E.27229
G1 X69.043 Y156.137 E.05447
G1 X69.043 Y157.369 E.05162
G1 X63.985 Y157.088 E.21224
G1 X62.245 Y155.905 E.08815
G1 X64.027 Y154.078 E.10693
G1 X64.862 Y150.961 E.1352
G1 X63.966 Y147.616 E.14509
G1 X61.684 Y145.334 E.13521
G1 X60.775 Y145.058 E.0398
G1 X64.463 Y145.058 E.15452
G1 X64.463 Y144.438 E.02598
G1 X63.164 Y144.438 E.05442
G1 X63.164 Y132.059 E.51865
G1 X64.463 Y132.059 E.05442
G1 X64.463 Y119.06 E.54463
G1 X70.963 Y119.06 E.27233
G1 X70.963 Y111.94 E.29831
G1 X64.463 Y111.94 E.27233
G1 X64.463 Y98.941 E.54463
G1 X63.164 Y98.941 E.05442
G1 X63.164 Y86.562 E.51865
G1 X64.463 Y86.562 E.05442
G1 X64.463 Y85.942 E.02598
G1 X60.774 Y85.942 E.15456
G1 X61.684 Y85.666 E.03984
G1 X63.966 Y83.384 E.13521
G1 X64.862 Y80.039 E.14509
G1 X64.027 Y76.922 E.1352
G1 X62.245 Y75.095 E.10693
G1 X63.985 Y73.912 E.08815
G1 X69.043 Y73.631 E.21224
G1 X69.043 Y74.863 E.05162
G1 X70.343 Y74.863 E.05447
G1 X70.343 Y81.362 E.27229
G1 X73.563 Y81.362 E.13491
G1 X73.563 Y80.062 E.05447
G1 X74.863 Y80.062 E.05447
G1 X74.863 Y79.443 E.02593
G1 X73.563 Y79.443 E.05447
G1 X73.563 Y73.38 E.25402
G1 X85.942 Y72.692 E.51945
G1 X85.942 Y87.242 E.60961
G1 X84.642 Y87.242 E.05447
G1 X84.642 Y88.542 E.05447
G1 X83.342 Y88.542 E.05447
G1 X83.342 Y89.842 E.05447
G1 X80.742 Y89.842 E.10893
G1 X80.742 Y91.142 E.05447
G1 X74.243 Y91.142 E.27229
G1 X74.243 Y108.66 E.73396
G1 X74.863 Y108.66 E.02598
G1 X74.863 Y107.361 E.05442
G1 X76.163 Y107.361 E.05447
G1 X76.163 Y106.061 E.05447
G1 X77.463 Y106.061 E.05447
G1 X77.463 Y104.761 E.05447
G1 X78.762 Y104.761 E.05442
G1 X78.762 Y103.461 E.05447
G1 X80.062 Y103.461 E.05447
G1 X80.062 Y102.161 E.05447
G1 X81.362 Y102.161 E.05447
G1 X81.362 Y100.861 E.05447
G1 X82.662 Y100.861 E.05447
G1 X82.662 Y99.561 E.05447
G1 X83.962 Y99.561 E.05447
G1 X83.962 Y98.261 E.05447
G1 X85.262 Y98.261 E.05447
G1 X85.262 Y96.961 E.05447
G1 X86.562 Y96.961 E.05447
G1 X86.562 Y95.661 E.05447
G1 X87.862 Y95.661 E.05447
G1 X87.862 Y95.041 E.02598
G1 X86.562 Y95.041 E.05447
G1 X86.562 Y85.262 E.40972
G1 X87.862 Y85.262 E.05447
G1 X87.862 Y83.962 E.05447
G1 X89.162 Y83.962 E.05447
G1 X89.162 Y82.662 E.05447
G1 X90.462 Y82.662 E.05447
G1 X90.462 Y81.362 E.05447
G1 X93.061 Y81.362 E.10889
G1 X93.061 Y74.863 E.27229
G1 X94.361 Y74.863 E.05447
G1 X94.361 Y73.563 E.05447
G1 X95.661 Y73.563 E.05447
G1 X95.661 Y72.263 E.05447
G1 X96.961 Y72.263 E.05447
G1 X96.961 Y72.08 E.00767
G1 X99.082 Y71.962 E.089
G1 X111.94 Y71.962 E.53872
G1 X111.94 Y78.708 E.28264
G1 X111.94 Y78.708 F6000
G1 X100.241 Y144.438
G1 F1200
G1 X102.161 Y144.438 E.08044
G1 X102.161 Y146.358 E.08044
G1 X101.541 Y146.358 E.02598
G1 X101.541 Y145.058 E.05447
G1 X100.241 Y145.058 E.05447
G1 X100.241 Y144.492 E.02371
G1 X100.241 Y144.492 F6000
G1 X156.137 Y140.538
G1 F1200
G1 X159.357 Y140.538 E.13491
G1 X159.357 Y142.458 E.08044
G1 X158.737 Y142.458 E.02598
G1 X158.737 Y141.158 E.05447
G1 X156.137 Y141.158 E.10893
G1 X156.137 Y140.592 E.02371
G1 X156.137 Y140.592 F6000
G1 X141.838 Y140.538
G1 F1200
G1 X142.458 Y140.538 E.02598
G1 X142.458 Y141.158 E.02598
G1 X141.838 Y141.158 E.02598
G1 X141.838 Y140.592 E.02371
G1 X141.838 Y140.592 F6000
G1 X105.441 Y140.538
G1 F1200
G1 X106.061 Y140.538 E.02598
G1 X106.061 Y141.158 E.02598
G1 X105.441 Y141.158 E.02598
G1 X105.441 Y140.592 E.02371
G1 E-1.12 F2400
;WIPE_START
G1 F4800
G1 X105.441 Y141.158 E-.26885
G1 X105.885 Y141.158 E-.21115
;WIPE_END
G1 X74.243 Y122.34 F6000
G1 E1.6 F2400
G1 F1200
G1 X74.863 Y122.34 E.02598
G1 X74.863 Y123.64 E.05447
G1 X76.163 Y123.64 E.05447
G1 X76.163 Y124.939 E.05442
G1 X77.463 Y124.939 E.05447
G1 X77.463 Y126.239 E.05447
G1 X78.762 Y126.239 E.05442
G1 X78.762 Y127.539 E.05447
G1 X80.062 Y127.539 E.05447
G1 X80.062 Y128.839 E.05447
G1 X81.362 Y128.839 E.05447
G1 X81.362 Y130.139 E.05447
G1 X82.662 Y130.139 E.05447
G1 X82.662 Y131.439 E.05447
G1 X83.962 Y131.439 E.05447
G1 X83.962 Y132.739 E.05447
G1 X85.262 Y132.739 E.05447
G1 X85.262 Y134.039 E.05447
G1 X86.562 Y134.039 E.05447
G1 X86.562 Y134.659 E.02598
G1 X80.062 Y134.659 E.27233
G1 X80.062 Y135.959 E.05447
G1 X78.762 Y135.959 E.05447
G1 X78.762 Y139.858 E.16336
G1 X74.243 Y139.858 E.18933
G1 X74.243 Y122.394 E.7317
G1 E-1.12 F2400
;WIPE_START
G1 F4800
G1 X74.243 Y123.405 E-.48
;WIPE_END
G1 X160.037 Y98.941 F6000
G1 E1.6 F2400
G1 F1200
G1 X165.857 Y98.941 E.24384
G1 X165.857 Y132.059 E1.38756
G1 X160.037 Y132.059 E.24384
G1 X160.037 Y98.995 E1.3853
G1 X160.037 Y98.995 F6000
G1 X109.341 Y115.84
G1 F1200
G1 X122.959 Y115.84 E.57056
G1 X122.959 Y125.559 E.4072
G1 X121.66 Y125.559 E.05442
G1 X121.66 Y132.059 E.27233
G1 X109.341 Y132.059 E.51613
G1 X109.341 Y115.894 E.67727
G1 X109.341 Y115.894 F6000
G1 X98.941 Y128.839
G1 F1200
G1 X99.561 Y128.839 E.02598
G1 X99.561 Y129.459 E.02598
G1 X98.941 Y129.459 E.02598
G1 X98.941 Y128.893 E.02371
G1 E-1.12 F2400
;WIPE_START
G1 F4800
G1 X98.941 Y129.459 E-.26885
G1 X99.386 Y129.459 E-.21115
;WIPE_END
G1 X95.041 Y105.441 F6000
G1 E1.6 F2400
G1 F1200
G1 X95.661 Y105.441 E.02598
G1 X95.661 Y110.64 E.21782
G1 X96.961 Y110.64 E.05447
G1 X96.961 Y111.94 E.05447
G1 X99.561 Y111.94 E.10893
G1 X99.561 Y119.06 E.29831
G1 X96.961 Y119.06 E.10893
G1 X96.961 Y120.36 E.05447
G1 X95.661 Y120.36 E.05447
G1 X95.661 Y125.559 E.21782
G1 X95.041 Y125.559 E.02598
G1 X95.041 Y124.259 E.05447
G1 X93.742 Y124.259 E.05442
G1 X93.742 Y122.959 E.05447
G1 X92.442 Y122.959 E.05447
G1 X92.442 Y121.66 E.05442
G1 X91.142 Y121.66 E.05447
G1 X91.142 Y120.36 E.05447
G1 X89.842 Y120.36 E.05447
G1 X89.842 Y119.06 E.05447
G1 X88.542 Y119.06 E.05447
G1 X88.542 Y117.76 E.05447
G1 X87.242 Y117.76 E.05447
G1 X87.242 Y116.46 E.05447
G1 X85.942 Y116.46 E.05447
G1 X85.942 Y114.54 E.08044
G1 X87.242 Y114.54 E.05447
G1 X87.242 Y113.24 E.05447
G1 X88.542 Y113.24 E.05447
G1 X88.542 Y111.94 E.05447
G1 X89.842 Y111.94 E.05447
G1 X89.842 Y110.64 E.05447
G1 X91.142 Y110.64 E.05447
G1 X91.142 Y109.341 E.05442
G1 X92.442 Y109.341 E.05447
G1 X92.442 Y108.041 E.05447
G1 X93.742 Y108.041 E.05447
G1 X93.742 Y106.741 E.05447
G1 X95.041 Y106.741 E.05442
G1 X95.041 Y105.495 E.0522
G1 X95.041 Y105.495 F6000
G1 X109.341 Y98.941
G1 F1200
G1 X121.66 Y98.941 E.51613
G1 X121.66 Y104.761 E.24384
G1 X116.46 Y104.761 E.21787
G1 X116.46 Y106.061 E.05447
G1 X109.341 Y106.061 E.29827
G1 X109.341 Y98.995 E.29605
G1 X109.341 Y98.995 F6000
G1 X98.941 Y101.541
G1 F1200
G1 X99.561 Y101.541 E.02598
G1 X99.561 Y102.161 E.02598
G1 X98.941 Y102.161 E.02598
G1 X98.941 Y101.595 E.02371
G1 E-1.12 F2400
;WIPE_START
G1 F4800
G1 X98.941 Y102.161 E-.26885
G1 X99.386 Y102.161 E-.21115
;WIPE_END
G1 X158.737 Y88.542 F6000
G1 E1.6 F2400
G1 F1200
G1 X159.357 Y88.542 E.02598
G1 X159.357 Y90.462 E.08044
G1 X156.137 Y90.462 E.13491
G1 X156.137 Y89.842 E.02598
G1 X158.737 Y89.842 E.10893
G1 X158.737 Y88.596 E.0522
G1 E-1.12 F2400
;WIPE_START
G1 F4800
G1 X158.737 Y89.606 E-.48
;WIPE_END
G1 X177.085 Y133.631 F6000
G1 E1.6 F2400
G1 F1200
G1 X177.085 Y131.083 E.10675
G1 X176.685 Y131.083 E.01676
G1 X176.685 Y134.533 E.14455
G1 X176.285 Y136.084 E.06711
G1 X176.285 Y131.083 E.20953
G1 X175.885 Y131.083 E.01676
G1 X175.885 Y137.635 E.27451
G1 X175.485 Y138.884 E.05495
G1 X175.485 Y131.083 E.32684
G1 X175.312 Y131.083 E.00725
G1 X175.312 Y91.729 E1.64883
G1 X175.085 Y91.222 E.02327
G1 X175.085 Y139.778 E2.03437
G1 X174.685 Y140.672 E.04103
G1 X174.685 Y90.328 E2.10929
G1 X174.285 Y89.434 E.04103
G1 X174.285 Y141.566 E2.1842
G1 X173.886 Y142.461 E.04106
G1 X173.886 Y88.539 E2.2592
G1 X173.486 Y87.645 E.04103
G1 X173.486 Y143.355 E2.33411
G1 X173.086 Y144.178 E.03834
G1 X173.086 Y86.822 E2.40307
G1 X172.686 Y86.223 E.03018
G1 X172.686 Y144.777 E2.45326
G1 X172.286 Y145.376 E.03018
G1 X172.286 Y85.624 E2.50346
G1 X171.886 Y85.025 E.03018
G1 X171.886 Y145.975 E2.55365
G1 X171.486 Y146.574 E.03018
G1 X171.486 Y84.426 E2.60384
G1 X171.086 Y83.827 E.03018
G1 X171.086 Y147.173 E2.65404
G1 X170.686 Y147.771 E.03014
G1 X170.686 Y83.229 E2.70415
G1 X170.286 Y82.63 E.03018
G1 X170.286 Y148.37 E2.75434
G1 X169.887 Y148.969 E.03015
G1 X169.883 Y82.025 E2.80478
G1 X169.487 Y82.421 E.02346
G1 X169.487 Y148.579 E2.77185
G1 X169.087 Y148.179 E.0237
G1 X169.087 Y82.821 E2.73833
G1 X168.687 Y83.221 E.0237
G1 X168.687 Y147.779 E2.70482
G1 X168.287 Y147.467 E.02125
G1 X168.287 Y83.533 E2.67867
