; generated by PrusaSlicer 2.7.4+win64 on 2024-04-12 at 13:05:21 UTC

; 

; external perimeters extrusion width = 0.42mm
; perimeters extrusion width = 0.44mm
; infill extrusion width = 0.44mm
; solid infill extrusion width = 0.44mm
; top infill extrusion width = 0.40mm
; first layer extrusion width = 0.42mm


; printing object ryobi_case_top.stl id:0 copy 0
; stop printing object ryobi_case_top.stl id:0 copy 0

;TYPE:Custom
; Ender 3 Custom Start G-code
G92 E0 ; Reset Extruder

M140 S55 ; set bed temp
M104 S160 ; set extruder temp
M109 S160 ; wait for extruder temp
M190 S55 ; wait for bed temp

G28 ; Home all axes
M104 S210 ; set extruder temp 
BED_MESH_CALIBRATE AREA_START=46.7406,65.7403 AREA_END=184.26,165.26

G1 Z2.0 F3000 ; Move Z Axis up little to prevent scratching of Heat Bed
M109 S210 ; wait for extruder temp
G1 X0.1 Y20 Z0.3 F5000.0 ; Move to start position

G1 X0.1 Y200.0 Z0.3 F1500.0 E15 ; Draw the first line
G1 X0.4 Y200.0 Z0.3 F5000.0 ; Move to side a little
G1 X0.4 Y20 Z0.3 F1500.0 E30 ; Draw the second line
G92 E0 ; Reset Extruder
G1 Z2.0 F3000 ; Move Z Axis up little to prevent scratching of Heat Bed
G1 X5 Y20 Z0.3 F5000.0 ; Move over to prevent blob squish
G21 ; set units to millimeters
G90 ; use absolute coordinates
M83 ; use relative distances for extrusion
; Filament gcode
M107
;LAYER_CHANGE
;Z:0.28
;HEIGHT:0.28
G1 E-1.6 F2400
G1 Z.28 F6000
G1 X51.203 Y75.298
G1 Z.28
G1 E1.6 F2400
M204 S500
;TYPE:Skirt/Brim
;WIDTH:0.42
G1 F1200
G1 X61.268 Y68.453 E.50998
G1 X62.829 Y67.925 E.06904
G1 X99 Y65.92 E1.5178
G1 X155.402 Y65.947 E2.3631
G1 X159.284 Y66.458 E.16405
G1 X160.061 Y66.666 E.0337
G1 X163.679 Y68.164 E.16406
G1 X164.353 Y68.55 E.03254
G1 X169.663 Y72.549 E.27851
G1 X174.614 Y77.726 E.30013
G1 X178.629 Y83.659 E.30015
G1 X181.593 Y90.181 E.30015
G1 X183.51 Y97.617 E.32174
G1 X184.08 Y104.5 E.28937
G1 X184.08 Y126.5 E.92174
G1 X183.424 Y133.893 E.31096
G1 X181.593 Y140.819 E.30015
G1 X178.629 Y147.341 E.30015
G1 X174.614 Y153.274 E.30015
G1 X169.663 Y158.451 E.30013
G1 X164.353 Y162.45 E.27851
G1 X163.679 Y162.836 E.03254
G1 X160.061 Y164.334 E.16406
G1 X159.284 Y164.542 E.0337
G1 X155.402 Y165.053 E.16405
G1 X98.829 Y165.075 E2.37027
G1 X62.829 Y163.075 E1.51063
G1 X61.268 Y162.547 E.06904
G1 X48.768 Y154.047 E.63333
G1 X47.744 Y152.874 E.06524
G1 X47.421 Y151.543 E.05738
G1 X46.921 Y115.457 E1.51206
G1 X47.421 Y79.457 E1.50845
G1 X47.835 Y77.957 E.0652
G1 X48.768 Y76.953 E.05742
G1 X51.153 Y75.332 E.12082
G1 X51.153 Y75.332 F6000
G1 X51.355 Y75.629
G1 F1200
G1 X61.471 Y68.751 E.51252
G1 X62.849 Y68.284 E.06096
G1 X99 Y66.28 E1.51696
G1 X155.355 Y66.303 E2.36113
G1 X159.237 Y66.815 E.16405
G1 X159.923 Y66.998 E.02975
G1 X163.541 Y68.497 E.16408
G1 X164.136 Y68.837 E.02871
G1 X169.446 Y72.837 E.27853
G1 X174.353 Y77.974 E.29764
G1 X178.329 Y83.859 E.29757
G1 X181.265 Y90.328 E.29764
G1 X183.152 Y97.647 E.31668
G1 X183.72 Y104.5 E.28811
G1 X183.72 Y126.5 E.92174
G1 X183.075 Y133.803 E.30717
G1 X181.265 Y140.672 E.29762
G1 X178.329 Y147.141 E.29764
G1 X174.353 Y153.026 E.29757
G1 X169.446 Y158.163 E.29764
G1 X164.136 Y162.163 E.27853
G1 X163.541 Y162.503 E.02871
G1 X159.923 Y164.002 E.16408
G1 X159.237 Y164.185 E.02975
G1 X155.355 Y164.697 E.16405
G1 X98.849 Y164.716 E2.36746
G1 X62.849 Y162.716 E1.51063
G1 X61.471 Y162.249 E.06096
G1 X48.971 Y153.749 E.63333
G1 X48.027 Y152.633 E.06124
G1 X47.78 Y151.538 E.04703
G1 X47.28 Y115.462 E1.51164
G1 X47.78 Y79.462 E1.50845
G1 X48.193 Y78.06 E.06124
G1 X48.971 Y77.251 E.04703
G1 X51.306 Y75.663 E.11831
G1 X51.306 Y75.663 F6000
G1 X51.508 Y75.961
G1 F1200
G1 X61.673 Y69.049 E.51502
G1 X62.869 Y68.644 E.0529
G1 X99 Y66.64 E1.51612
G1 X155.308 Y66.66 E2.35916
G1 X159.19 Y67.171 E.16405
G1 X159.785 Y67.331 E.02581
G1 X163.403 Y68.829 E.16406
G1 X163.92 Y69.125 E.02496
G1 X169.23 Y73.124 E.27851
G1 X174.091 Y78.221 E.2951
G1 X178.03 Y84.059 E.29507
G1 X180.936 Y90.475 E.2951
G1 X182.793 Y97.677 E.31161
G1 X183.36 Y104.5 E.28685
G1 X183.36 Y126.5 E.92174
G1 X182.727 Y133.714 E.30341
G1 X180.936 Y140.525 E.29506
G1 X178.03 Y146.941 E.2951
G1 X174.091 Y152.779 E.29507
G1 X169.23 Y157.876 E.2951
G1 X163.92 Y161.875 E.27851
G1 X163.403 Y162.171 E.02496
G1 X159.785 Y163.669 E.16406
G1 X159.19 Y163.829 E.02581
G1 X155.308 Y164.34 E.16405
G1 X98.869 Y164.356 E2.36465
G1 X62.869 Y162.356 E1.51063
G1 X61.673 Y161.951 E.0529
G1 X49.173 Y153.451 E.63333
G1 X48.317 Y152.396 E.05692
G1 X48.14 Y151.533 E.03691
G1 X47.64 Y115.467 E1.51122
G1 X48.14 Y79.467 E1.50845
G1 X48.55 Y78.171 E.05695
G1 X49.173 Y77.549 E.03688
G1 X51.459 Y75.994 E.11584
G1 E-1.12 F2400
;WIPE_START
G1 F4800
G1 X51.508 Y75.961 E-.02806
G1 X52.295 Y75.426 E-.45194
;WIPE_END
; printing object ryobi_case_top.stl id:0 copy 0
G1 X52.27 Y82.43 F6000
G1 E1.6 F2400
;TYPE:Perimeter
G1 F1200
G1 X53.481 Y82.43 E.05074
G1 X55.747 Y84.696 E.13426
G1 X58.4 Y85.406 E.11507
G1 X61.053 Y84.696 E.11507
G1 X62.996 Y82.753 E.11513
G1 X63.706 Y80.1 E.11507
G1 X62.996 Y77.447 E.11507
G1 X60.477 Y74.929 E.14923
G1 X63.609 Y72.799 E.15869
G1 X99.051 Y70.83 E1.48722
G1 X154.88 Y70.83 E2.33909
G1 X158.405 Y71.294 E.14896
G1 X162.402 Y72.95 E.18127
G1 X160.404 Y74.947 E.11836
G1 X159.694 Y77.6 E.11507
G1 X160.404 Y80.253 E.11507
G1 X162.347 Y82.196 E.11513
G1 X165 Y82.906 E.11507
G1 X167.653 Y82.196 E.11507
G1 X169.931 Y79.919 E.13495
G1 X170.939 Y80.986 E.0615
G1 X174.46 Y86.258 E.26562
G1 X177.048 Y92.045 E.2656
G1 X178.638 Y98.211 E.26679
G1 X179.16 Y115.5 E.7247
G1 X178.638 Y132.789 E.7247
G1 X177.048 Y138.955 E.26679
G1 X174.46 Y144.742 E.2656
G1 X170.939 Y150.014 E.26562
G1 X169.93 Y151.082 E.06156
G1 X167.653 Y148.804 E.13495
G1 X165 Y148.094 E.11507
G1 X162.347 Y148.804 E.11507
G1 X160.404 Y150.747 E.11513
G1 X159.694 Y153.4 E.11507
G1 X160.404 Y156.053 E.11507
G1 X162.402 Y158.05 E.11836
G1 X158.405 Y159.706 E.18127
G1 X154.88 Y160.17 E.14896
G1 X99.051 Y160.17 E2.33909
G1 X63.609 Y158.201 E1.48722
G1 X60.477 Y156.071 E.15869
G1 X62.996 Y153.553 E.14923
G1 X63.706 Y150.9 E.11507
G1 X62.996 Y148.247 E.11507
G1 X61.053 Y146.304 E.11513
G1 X58.4 Y145.594 E.11507
G1 X55.747 Y146.304 E.11507
G1 X53.481 Y148.57 E.13426
G1 X52.267 Y148.57 E.05086
G1 X51.831 Y115.5 E1.38567
G1 X52.267 Y82.488 E1.38324
G1 X52.267 Y82.488 F6000
G1 X52.623 Y82.79
;TYPE:External perimeter
G1 F1200
G1 X53.332 Y82.79 E.02971
G1 X55.56 Y85.018 E.13201
G1 X58.4 Y85.779 E.12319
G1 X61.24 Y85.018 E.12319
G1 X63.318 Y82.94 E.12313
G1 X64.079 Y80.1 E.12319
G1 X63.318 Y77.26 E.12319
G1 X61.039 Y74.982 E.13501
G1 X63.729 Y73.153 E.13629
G1 X99.061 Y71.19 E1.4826
G1 X154.856 Y71.19 E2.33767
G1 X158.311 Y71.645 E.14601
G1 X161.766 Y73.076 E.15668
G1 X160.082 Y74.76 E.09978
G1 X159.321 Y77.6 E.12319
G1 X160.082 Y80.44 E.12319
G1 X162.16 Y82.518 E.12313
G1 X165 Y83.279 E.12319
G1 X167.84 Y82.518 E.12319
G1 X169.924 Y80.435 E.12345
G1 X170.657 Y81.211 E.04472
G1 X174.144 Y86.432 E.26305
G1 X176.707 Y92.164 E.26307
G1 X178.28 Y98.262 E.26385
G1 X178.8 Y115.5 E.72256
G1 X178.28 Y132.738 E.72256
G1 X176.707 Y138.836 E.26385
G1 X174.144 Y144.567 E.26303
G1 X170.657 Y149.789 E.26308
G1 X169.923 Y150.565 E.04475
G1 X167.84 Y148.482 E.12342
G1 X165 Y147.721 E.12319
G1 X162.16 Y148.482 E.12319
G1 X160.082 Y150.56 E.12313
G1 X159.321 Y153.4 E.12319
G1 X160.082 Y156.24 E.12319
G1 X161.766 Y157.924 E.09978
G1 X158.311 Y159.355 E.15668
G1 X154.856 Y159.81 E.14601
G1 X99.061 Y159.81 E2.33767
G1 X63.729 Y157.847 E1.4826
G1 X61.039 Y156.018 E.13629
G1 X63.318 Y153.74 E.13501
G1 X64.079 Y150.9 E.12319
G1 X63.318 Y148.06 E.12319
G1 X61.24 Y145.982 E.12313
G1 X58.4 Y145.221 E.12319
G1 X55.56 Y145.982 E.12319
G1 X53.332 Y148.21 E.13201
G1 X52.623 Y148.21 E.02971
G1 X52.19 Y115.5 E1.37059
G1 X52.622 Y82.85 E1.36807
G1 E-1.12 F2400
;WIPE_START
G1 F4800
G1 X52.623 Y82.79 E-.0285
G1 X53.332 Y82.79 E-.33678
G1 X53.503 Y82.961 E-.11472
;WIPE_END
G1 X56.222 Y80.159 F6000
G1 E1.6 F2400
;TYPE:Perimeter
G1 F1200
G1 X56.206 Y80.1 E.00256
G1 X56.5 Y79.003 E.04758
G1 X57.303 Y78.2 E.04758
G1 X58.174 Y77.967 E.03778
G1 X58.4 Y77.906 E.00981
G1 X59.497 Y78.2 E.04758
G1 X60.3 Y79.003 E.04758
G1 X60.594 Y80.1 E.04758
G1 X60.3 Y81.197 E.04758
G1 X59.497 Y82 E.04758
G1 X58.4 Y82.294 E.04758
G1 X57.303 Y82 E.04758
G1 X56.5 Y81.197 E.04758
G1 X56.238 Y80.217 E.0425
G1 X56.238 Y80.217 F6000
G1 X56.579 Y80.1
;TYPE:External perimeter
G1 F1200
G1 X56.823 Y79.19 E.03947
G1 X57.49 Y78.523 E.03952
G1 X58.267 Y78.315 E.0337
G1 X58.4 Y78.279 E.00577
G1 X59.31 Y78.523 E.03947
G1 X59.977 Y79.19 E.03952
G1 X60.221 Y80.1 E.03947
G1 X59.977 Y81.01 E.03947
G1 X59.31 Y81.677 E.03952
G1 X58.4 Y81.921 E.03947
G1 X57.49 Y81.677 E.03947
G1 X56.823 Y81.01 E.03952
G1 X56.595 Y80.158 E.03695
G1 E-1.12 F2400
;WIPE_START
G1 F4800
G1 X56.579 Y80.1 E-.02858
G1 X56.823 Y79.19 E-.44752
G1 X56.829 Y79.184 E-.0039
;WIPE_END
G1 X57.362 Y148.985 F6000
G1 E1.6 F2400
;TYPE:Perimeter
G1 F1200
G1 X58.174 Y148.767 E.03523
G1 X58.4 Y148.706 E.00981
G1 X59.497 Y149 E.04758
G1 X60.3 Y149.803 E.04758
G1 X60.594 Y150.9 E.04758
G1 X60.3 Y151.997 E.04758
G1 X59.497 Y152.8 E.04758
G1 X58.4 Y153.094 E.04758
G1 X57.303 Y152.8 E.04758
G1 X56.5 Y151.997 E.04758
G1 X56.206 Y150.9 E.04758
G1 X56.5 Y149.803 E.04758
G1 X57.303 Y149 E.04758
G1 X57.303 Y149 F6000
G1 X57.49 Y149.323
;TYPE:External perimeter
G1 F1200
G1 X58.267 Y149.115 E.0337
G1 X58.4 Y149.079 E.00577
G1 X59.31 Y149.323 E.03947
G1 X59.977 Y149.99 E.03952
G1 X60.221 Y150.9 E.03947
G1 X59.977 Y151.81 E.03947
G1 X59.31 Y152.477 E.03952
G1 X58.4 Y152.721 E.03947
G1 X57.49 Y152.477 E.03947
G1 X56.823 Y151.81 E.03952
G1 X56.579 Y150.9 E.03947
G1 X56.823 Y149.99 E.03947
G1 X57.447 Y149.365 E.037
G1 E-1.12 F2400
;WIPE_START
G1 F4800
G1 X57.49 Y149.323 E-.02855
G1 X58.267 Y149.115 E-.38207
G1 X58.4 Y149.079 E-.06545
G1 X58.408 Y149.081 E-.00393
;WIPE_END
G1 X164.941 Y151.222 F6000
G1 E1.6 F2400
;TYPE:Perimeter
G1 F1200
G1 X165 Y151.206 E.00256
G1 X166.097 Y151.5 E.04758
G1 X166.9 Y152.303 E.04758
G1 X167.194 Y153.4 E.04758
G1 X166.9 Y154.497 E.04758
G1 X166.097 Y155.3 E.04758
G1 X165 Y155.594 E.04758
G1 X163.903 Y155.3 E.04758
G1 X163.1 Y154.497 E.04758
G1 X162.806 Y153.4 E.04758
G1 X163.1 Y152.303 E.04758
G1 X163.903 Y151.5 E.04758
G1 X164.774 Y151.267 E.03778
G1 X164.883 Y151.238 E.00473
G1 X164.883 Y151.238 F6000
G1 X165 Y151.579
;TYPE:External perimeter
G1 F1200
G1 X165.91 Y151.823 E.03947
G1 X166.577 Y152.49 E.03952
G1 X166.821 Y153.4 E.03947
G1 X166.577 Y154.31 E.03947
G1 X165.91 Y154.977 E.03952
G1 X165 Y155.221 E.03947
G1 X164.09 Y154.977 E.03947
G1 X163.423 Y154.31 E.03952
G1 X163.179 Y153.4 E.03947
G1 X163.423 Y152.49 E.03947
G1 X164.09 Y151.823 E.03952
G1 X164.867 Y151.615 E.0337
G1 X164.942 Y151.595 E.00325
G1 E-1.12 F2400
;WIPE_START
G1 F4800
G1 X165 Y151.579 E-.02858
G1 X165.91 Y151.823 E-.44752
G1 X165.916 Y151.829 E-.0039
;WIPE_END
G1 X166.14 Y79.456 F6000
G1 E1.6 F2400
;TYPE:Perimeter
G1 F1200
G1 X166.097 Y79.5 E.00258
G1 X165 Y79.794 E.04758
G1 X163.903 Y79.5 E.04758
G1 X163.1 Y78.697 E.04758
G1 X162.806 Y77.6 E.04758
G1 X163.1 Y76.503 E.04758
G1 X163.903 Y75.7 E.04758
G1 X164.774 Y75.467 E.03778
G1 X165 Y75.406 E.00981
G1 X166.097 Y75.7 E.04758
G1 X166.9 Y76.503 E.04758
G1 X167.194 Y77.6 E.04758
G1 X166.9 Y78.697 E.04758
G1 X166.182 Y79.414 E.04251
G1 X166.182 Y79.414 F6000
G1 X165.91 Y79.177
;TYPE:External perimeter
G1 F1200
G1 X165 Y79.421 E.03947
G1 X164.09 Y79.177 E.03947
G1 X163.423 Y78.51 E.03952
G1 X163.179 Y77.6 E.03947
G1 X163.423 Y76.69 E.03947
G1 X164.09 Y76.023 E.03952
G1 X164.867 Y75.815 E.0337
G1 X165 Y75.779 E.00577
G1 X165.91 Y76.023 E.03947
G1 X166.577 Y76.69 E.03952
G1 X166.821 Y77.6 E.03947
G1 X166.577 Y78.51 E.03947
G1 X165.953 Y79.135 E.037
G1 E-1.12 F2400
;WIPE_START
G1 F4800
G1 X165.91 Y79.177 E-.02855
G1 X165 Y79.421 E-.44752
G1 X164.992 Y79.419 E-.00393
;WIPE_END
G1 X167.362 Y75.51 F6000
G1 E1.6 F2400
;TYPE:Perimeter
G1 F1200
G1 X171.85 Y80.26 E.27379
G1 X175.479 Y85.695 E.27381
G1 X178.147 Y91.66 E.27378
G1 X179.779 Y97.988 E.2738
G1 X180.33 Y104.528 E.27498
G1 X180.33 Y126.472 E.9194
G1 X179.779 Y133.012 E.27498
G1 X178.147 Y139.34 E.2738
G1 X175.479 Y145.305 E.27378
G1 X171.85 Y150.74 E.27381
G1 X167.362 Y155.49 E.27379
G1 X162.165 Y159.404 E.27259
G1 X158.707 Y160.836 E.15681
G1 X154.956 Y161.33 E.15851
G1 X99.019 Y161.33 E2.34362
G1 X63.223 Y159.341 E1.50208
G1 X51.165 Y151.142 E.61093
G1 X50.67 Y115.5 E1.49345
G1 X51.165 Y79.858 E1.49345
G1 X63.223 Y71.659 E.61093
G1 X99.019 Y69.67 E1.50208
G1 X155.048 Y69.682 E2.34747
G1 X158.707 Y70.164 E.15463
G1 X162.165 Y71.596 E.15681
G1 X167.314 Y75.474 E.27007
G1 X167.314 Y75.474 F6000
G1 X167.603 Y75.241
;TYPE:External perimeter
G1 F1200
G1 X172.132 Y80.035 E.27631
G1 X175.795 Y85.52 E.27634
G1 X178.488 Y91.541 E.27635
G1 X180.135 Y97.928 E.27635
G1 X180.69 Y104.513 E.27687
G1 X180.69 Y126.487 E.92065
G1 X180.135 Y133.072 E.27687
G1 X178.488 Y139.459 E.27635
G1 X175.795 Y145.48 E.27635
G1 X172.132 Y150.965 E.27634
G1 X167.603 Y155.759 E.27631
G1 X162.345 Y159.719 E.27579
G1 X158.801 Y161.187 E.16072
G1 X154.98 Y161.69 E.16147
G1 X99.009 Y161.69 E2.34504
G1 X63.103 Y159.695 E1.50669
G1 X50.808 Y151.334 E.62295
G1 X50.31 Y115.5 E1.5015
G1 X50.808 Y79.666 E1.5015
G1 X63.103 Y71.305 E.62295
G1 X99.009 Y69.31 E1.50669
G1 X154.98 Y69.31 E2.34504
G1 X155.095 Y69.325 E.00486
G1 X158.801 Y69.813 E.15661
G1 X162.345 Y71.281 E.16072
G1 X167.555 Y75.205 E.27327
G1 E-1.12 F2400
;WIPE_START
G1 F4800
G1 X167.603 Y75.241 E-.0285
G1 X168.256 Y75.932 E-.4515
;WIPE_END
G1 X172.719 Y81.769 F6000
G1 E1.6 F2400
;TYPE:Solid infill
;WIDTH:0.420304
G1 F1200
G1 X165.113 Y74.164 E.45102
G1 X163.049 Y72.609 E.10836
G1 X165.765 Y75.324 E.16103
G1 X166.24 Y75.452 E.02063
G1 X167.148 Y76.36 E.05385
G1 X167.276 Y76.835 E.02063
G1 X173.157 Y82.716 E.34875
G1 X174.181 Y84.25 E.07734
G1 X171.988 Y82.057 E.13005
G1 X171.157 Y80.813 E.06273
G1 X169.937 Y79.521 E.07451
G1 X169.694 Y79.763 E.01438
G1 X167.462 Y77.531 E.13236
G1 X167.48 Y77.6 E.00299
G1 X167.383 Y77.962 E.01572
G1 X169.44 Y80.018 E.12195
G1 X169.185 Y80.273 E.01512
G1 X167.276 Y78.364 E.11321
G1 X167.168 Y78.766 E.01745
G1 X168.93 Y80.527 E.10446
G1 X168.675 Y80.782 E.01512
G1 X166.941 Y79.048 E.10283
G1 X166.686 Y79.302 E.01509
G1 X168.42 Y81.037 E.10286
G1 X168.166 Y81.291 E.01506
G1 X166.431 Y79.557 E.10286
G1 X166.24 Y79.748 E.01133
G1 X166.14 Y79.775 E.00434
G1 X167.911 Y81.546 E.10502
G1 X167.656 Y81.801 E.01512
G1 X165.738 Y79.883 E.11374
G1 X165.336 Y79.99 E.01744
G1 X167.339 Y81.993 E.11878
G1 X166.937 Y82.1 E.01744
G1 X164.658 Y79.821 E.13515
G1 E-1.12 F2400
;WIPE_START
G1 F4800
G1 X165.373 Y80.536 E-.48
;WIPE_END
G1 X165.298 Y75.367 F6000
G1 E1.6 F2400
G1 F1200
G1 X161.288 Y71.358 E.23777
G1 E-1.12 F2400
;WIPE_START
G1 F4800
G1 X162.003 Y72.072 E-.48
;WIPE_END
G1 X162.468 Y73.046 F6000
G1 E1.6 F2400
G1 F1200
G1 X164.638 Y75.217 E.12871
G1 X164.236 Y75.324 E.01744
G1 X162.328 Y73.416 E.11315
G1 X162.073 Y73.67 E.01509
G1 X163.834 Y75.432 E.10446
G1 X163.76 Y75.452 E.00321
G1 X163.552 Y75.659 E.01231
G1 X161.818 Y73.925 E.10283
G1 X161.563 Y74.18 E.01512
G1 X163.298 Y75.914 E.10286
G1 X163.043 Y76.169 E.01512
G1 X161.309 Y74.434 E.10286
G1 X161.054 Y74.689 E.01512
G1 X162.825 Y76.46 E.10502
G1 X162.717 Y76.862 E.01745
G1 X160.799 Y74.944 E.11374
G1 X160.653 Y75.09 E.00866
G1 X160.607 Y75.261 E.00743
G1 X162.61 Y77.264 E.11878
G1 X162.52 Y77.6 E.01459
G1 X162.55 Y77.713 E.0049
G1 X160.5 Y75.663 E.12157
G1 X160.392 Y76.065 E.01745
G1 X162.736 Y78.409 E.139
G1 X162.852 Y78.84 E.01872
G1 X163.76 Y79.748 E.05385
G1 X164.191 Y79.864 E.01872
G1 X166.535 Y82.208 E.139
G1 X166.134 Y82.316 E.01741
G1 X160.284 Y76.466 E.34692
G1 X160.177 Y76.868 E.01744
G1 X165.732 Y82.423 E.32942
G1 X165.33 Y82.531 E.01745
G1 X160.069 Y77.27 E.31199
G1 X159.98 Y77.6 E.01433
G1 X160.014 Y77.724 E.00539
G1 X164.876 Y82.586 E.28833
G1 X164.18 Y82.4 E.03021
G1 X160.2 Y78.42 E.23602
G1 X160.387 Y79.116 E.03022
G1 X163.484 Y82.213 E.18366
G1 X162.788 Y82.027 E.03021
G1 X160.344 Y79.583 E.14493
G1 E-1.12 F2400
;WIPE_START
G1 F4800
G1 X161.059 Y80.298 E-.48
;WIPE_END
