; generated by PrusaSlicer 2.7.4+win64 on 2024-04-12 at 22:59:48 UTC

; 

; external perimeters extrusion width = 0.42mm
; perimeters extrusion width = 0.44mm
; infill extrusion width = 0.44mm
; solid infill extrusion width = 0.44mm
; top infill extrusion width = 0.40mm
; first layer extrusion width = 0.42mm


; printing object ryobi_case_bottom.stl id:0 copy 0
; stop printing object ryobi_case_bottom.stl id:0 copy 0

;TYPE:Custom
; Ender 3 Custom Start G-code
G92 E0 ; Reset Extruder

M140 S55 ; set bed temp
M104 S160 ; set extruder temp
M109 S160 ; wait for extruder temp
M190 S55 ; wait for bed temp

G28 ; Home all axes
M104 S210 ; set extruder temp 
BED_MESH_CALIBRATE AREA_START=45.7943,83.2714 AREA_END=182.447,182.117

G1 Z2.0 F3000 ; Move Z Axis up little to prevent scratching of Heat Bed
M109 S210 ; wait for extruder temp
G1 X0.1 Y20 Z0.3 F5000.0 ; Move to start position

G1 X0.1 Y200.0 Z0.3 F1500.0 E15 ; Draw the first line
G1 X0.4 Y200.0 Z0.3 F5000.0 ; Move to side a little
G1 X0.4 Y20 Z0.3 F1500.0 E30 ; Draw the second line
G92 E0 ; Reset Extruder
G1 Z2.0 F3000 ; Move Z Axis up little to prevent scratching of Heat Bed
G1 X5 Y20 Z0.3 F5000.0 ; Move over to prevent blob squish
G21 ; set units to millimeters
G90 ; use absolute coordinates
M83 ; use relative distances for extrusion
; Filament gcode
M107
;LAYER_CHANGE
;Z:0.32
;HEIGHT:0.32
G1 E-1.6 F2400
G1 Z.32 F6000
G1 X58.979 Y86.734
G1 Z.32
G1 E1.6 F2400
M204 S500
;TYPE:Skirt/Brim
;WIDTH:0.42
G1 F1200
G1 X60.102 Y85.97 E.06349
G1 X61.649 Y85.447 E.07633
G1 X97.725 Y83.447 E1.68881
G1 X147.093 Y83.449 E2.3075
G1 X154.057 Y83.742 E.32579
G1 X157.849 Y84.241 E.17877
G1 X158.619 Y84.447 E.03726
G1 X162.126 Y85.9 E.17743
G1 X162.795 Y86.282 E.03601
G1 X168.41 Y90.565 E.33008
G1 X173.241 Y95.741 E.33094
G1 X177.138 Y101.654 E.331
G1 X179.99 Y108.136 E.331
G1 X181.644 Y114.551 E.30965
G1 X181.739 Y115.221 E.03163
G1 X182.271 Y132.714 E.81801
G1 X181.739 Y150.392 E.82666
G1 X181.644 Y151.062 E.03163
G1 X179.82 Y157.962 E.33359
G1 X176.89 Y164.408 E.33096
G1 X172.921 Y170.273 E.33101
G1 X168.027 Y175.391 E.33099
G1 X162.795 Y179.331 E.30613
G1 X162.126 Y179.713 E.03601
G1 X158.619 Y181.166 E.17743
G1 X157.849 Y181.372 E.03726
G1 X154.057 Y181.872 E.17878
G1 X146.971 Y181.941 E.33122
G1 X97.556 Y181.937 E2.3097
G1 X61.649 Y179.942 E1.68091
G1 X60.102 Y179.418 E.07634
G1 X47.796 Y171.05 E.69558
G1 X46.777 Y169.881 E.07248
G1 X46.459 Y168.566 E.06324
G1 X45.97 Y132.652 E1.6788
G1 X46.459 Y96.822 E1.67488
G1 X46.873 Y95.328 E.07246
G1 X47.796 Y94.338 E.06326
G1 X58.929 Y86.767 E.62929
G1 X58.929 Y86.767 F6000
G1 X59.127 Y87.058
G1 F1200
G1 X60.299 Y86.261 E.06625
G1 X61.669 Y85.797 E.06761
G1 X97.725 Y83.798 E1.68787
G1 X147.079 Y83.801 E2.30684
G1 X153.767 Y84.069 E.31285
G1 X157.803 Y84.589 E.19021
G1 X158.485 Y84.772 E.033
G1 X161.992 Y86.224 E.17741
G1 X162.584 Y86.562 E.03186
G1 X168.154 Y90.806 E.32731
G1 X172.949 Y95.936 E.32822
G1 X176.817 Y101.797 E.32823
G1 X179.65 Y108.223 E.32825
G1 X181.304 Y114.639 E.30969
G1 X181.388 Y115.231 E.02795
G1 X181.92 Y132.724 E.81801
G1 X181.388 Y150.382 E.82572
G1 X181.304 Y150.974 E.02795
G1 X179.5 Y157.818 E.33082
G1 X176.598 Y164.213 E.32824
G1 X172.666 Y170.032 E.32826
G1 X167.816 Y175.11 E.32821
G1 X162.584 Y179.051 E.30616
G1 X161.992 Y179.389 E.03186
G1 X158.485 Y180.841 E.17741
G1 X157.803 Y181.024 E.033
G1 X154.012 Y181.523 E.17872
G1 X146.971 Y181.59 E.32912
G1 X97.575 Y181.586 E2.30881
G1 X61.669 Y179.591 E1.68086
G1 X60.299 Y179.127 E.06761
G1 X47.993 Y170.759 E.69558
G1 X47.054 Y169.646 E.06806
G1 X46.811 Y168.561 E.05197
G1 X46.321 Y132.731 E1.67488
G1 X46.81 Y96.827 E1.67834
G1 X47.222 Y95.43 E.06808
G1 X47.993 Y94.629 E.05197
G1 X59.077 Y87.092 E.6265
G1 X59.077 Y87.092 F6000
G1 X59.275 Y87.382
G1 F1200
G1 X60.497 Y86.551 E.06907
G1 X61.688 Y86.148 E.05877
G1 X97.725 Y84.15 E1.68698
G1 X147.065 Y84.152 E2.30619
G1 X153.753 Y84.42 E.31285
G1 X157.758 Y84.937 E.18875
G1 X158.351 Y85.096 E.0287
G1 X161.858 Y86.549 E.17743
G1 X162.372 Y86.843 E.02768
G1 X167.899 Y91.047 E.32458
G1 X172.657 Y96.132 E.3255
G1 X176.497 Y101.941 E.32548
G1 X179.309 Y108.311 E.32546
G1 X180.963 Y114.726 E.30965
G1 X181.037 Y115.242 E.02437
G1 X181.569 Y132.735 E.81801
G1 X181.037 Y150.371 E.8247
G1 X180.963 Y150.887 E.02437
G1 X179.179 Y157.675 E.32805
G1 X176.306 Y164.018 E.32547
G1 X172.411 Y169.79 E.32547
G1 X167.604 Y174.829 E.32551
G1 X162.372 Y178.77 E.30616
G1 X161.858 Y179.064 E.02768
G1 X158.351 Y180.517 E.17743
G1 X157.758 Y180.676 E.0287
G1 X153.966 Y181.175 E.17877
G1 X146.971 Y181.239 E.32697
G1 X97.595 Y181.235 E2.30787
G1 X61.688 Y179.24 E1.68091
G1 X60.497 Y178.837 E.05877
G1 X48.191 Y170.469 E.69558
G1 X47.337 Y169.415 E.06341
G1 X47.162 Y168.557 E.04093
G1 X46.673 Y132.726 E1.67493
G1 X47.162 Y96.832 E1.67787
G1 X47.571 Y95.538 E.06343
G1 X48.191 Y94.92 E.04092
G1 X59.225 Y87.416 E.6237
G1 E-1.12 F2400
;WIPE_START
G1 F4800
G1 X59.275 Y87.382 E-.02872
G1 X60.06 Y86.848 E-.45128
;WIPE_END
; printing object ryobi_case_bottom.stl id:0 copy 0
G1 X53.216 Y98.792 F6000
G1 E1.6 F2400
;TYPE:Perimeter
G1 F1200
G1 X53.163 Y98.828 E.00299
G1 X52.701 Y132.694 E1.58307
G1 X53.164 Y166.56 E1.58307
G1 X63.042 Y173.278 E.55836
G1 X97.827 Y175.21 E1.62838
G1 X146.31 Y175.21 E2.26613
G1 X146.31 Y178.226 E.14097
G1 X97.744 Y178.226 E2.27001
G1 X62.039 Y176.242 E1.67145
G1 X50.17 Y168.171 E.67088
G1 X49.685 Y132.694 E1.65838
G1 X50.169 Y97.217 E1.65838
G1 X62.039 Y89.146 E.67092
G1 X97.744 Y87.162 E1.67145
G1 X146.31 Y87.162 E2.27001
G1 X146.31 Y90.178 E.14097
G1 X97.827 Y90.178 E2.26613
G1 X63.042 Y92.111 E1.62839
G1 X53.265 Y98.759 E.55262
G1 X53.265 Y98.759 F6000
G1 X53.512 Y99.016
;TYPE:External perimeter
G1 F1200
G1 X53.052 Y132.694 E1.57428
G1 X53.512 Y166.373 E1.57433
G1 X63.159 Y172.932 E.54526
G1 X97.837 Y174.859 E1.62338
G1 X146.661 Y174.859 E2.28207
G1 X146.661 Y178.577 E.17378
G1 X97.734 Y178.577 E2.28689
G1 X61.922 Y176.588 E1.67646
G1 X49.821 Y168.359 E.684
G1 X49.334 Y132.694 E1.66717
G1 X49.821 Y97.03 E1.66712
G1 X61.922 Y88.801 E.684
G1 X97.734 Y86.811 E1.67646
G1 X146.661 Y86.811 E2.28689
G1 X146.661 Y90.529 E.17378
G1 X97.837 Y90.529 E2.28207
G1 X63.159 Y92.456 E1.62338
G1 X53.562 Y98.982 E.54246
G1 E-1.12 F2400
;WIPE_START
G1 F4800
G1 X53.512 Y99.016 E-.02872
G1 X53.499 Y99.966 E-.45128
;WIPE_END
G1 X145.485 Y87.275 F6000
G1 E1.6 F2400
;TYPE:Solid infill
;WIDTH:0.42086
G1 F1200
G1 X146.039 Y87.829 E.03671
G1 X146.039 Y88.327 E.02333
G1 X145.145 Y87.433 E.05924
G1 X144.647 Y87.433 E.02333
G1 X146.039 Y88.825 E.09224
G1 X146.039 Y89.323 E.02333
G1 X144.149 Y87.433 E.12524
G1 X143.651 Y87.433 E.02333
G1 X146.039 Y89.821 E.15824
G1 X146.039 Y89.908 E.00408
G1 X145.628 Y89.908 E.01926
G1 X143.153 Y87.433 E.164
G1 X142.655 Y87.433 E.02333
G1 X145.13 Y89.908 E.164
G1 X144.632 Y89.908 E.02333
G1 X142.157 Y87.433 E.164
G1 X141.659 Y87.433 E.02333
G1 X144.134 Y89.908 E.164
G1 X143.635 Y89.908 E.02338
G1 X141.161 Y87.433 E.16397
G1 X140.663 Y87.433 E.02333
G1 X143.137 Y89.908 E.16397
G1 X142.639 Y89.908 E.02333
G1 X140.165 Y87.433 E.16397
G1 X139.667 Y87.433 E.02333
G1 X142.141 Y89.908 E.16397
G1 X141.643 Y89.908 E.02333
G1 X139.168 Y87.433 E.164
G1 X138.67 Y87.433 E.02333
G1 X141.145 Y89.908 E.164
G1 X140.647 Y89.908 E.02333
G1 X138.172 Y87.433 E.164
G1 X137.674 Y87.433 E.02333
G1 X140.149 Y89.908 E.164
G1 X139.651 Y89.908 E.02333
G1 X137.176 Y87.433 E.164
G1 X136.678 Y87.433 E.02333
G1 X139.153 Y89.908 E.164
G1 X138.655 Y89.908 E.02333
G1 X136.18 Y87.433 E.164
G1 X135.682 Y87.433 E.02333
G1 X138.157 Y89.908 E.164
G1 X137.659 Y89.908 E.02333
G1 X135.184 Y87.433 E.164
G1 X134.686 Y87.433 E.02333
G1 X137.161 Y89.908 E.164
G1 X136.663 Y89.908 E.02333
G1 X134.188 Y87.433 E.164
G1 X133.69 Y87.433 E.02333
G1 X136.164 Y89.908 E.16397
G1 X135.666 Y89.908 E.02333
G1 X133.192 Y87.433 E.16397
G1 X132.694 Y87.433 E.02333
G1 X135.168 Y89.908 E.16397
G1 X134.67 Y89.908 E.02333
G1 X132.196 Y87.433 E.16397
G1 X131.697 Y87.433 E.02338
G1 X134.172 Y89.908 E.164
G1 X133.674 Y89.908 E.02333
G1 X131.199 Y87.433 E.164
G1 X130.701 Y87.433 E.02333
G1 X133.176 Y89.908 E.164
G1 X132.678 Y89.908 E.02333
G1 X130.203 Y87.433 E.164
G1 X129.705 Y87.433 E.02333
G1 X132.18 Y89.908 E.164
G1 X131.682 Y89.908 E.02333
G1 X129.207 Y87.433 E.164
G1 X128.709 Y87.433 E.02333
G1 X131.184 Y89.908 E.164
G1 X130.686 Y89.908 E.02333
G1 X128.211 Y87.433 E.164
G1 X127.713 Y87.433 E.02333
G1 X130.188 Y89.908 E.164
G1 X129.69 Y89.908 E.02333
G1 X127.215 Y87.433 E.164
G1 X126.717 Y87.433 E.02333
G1 X129.191 Y89.908 E.16397
G1 X128.693 Y89.908 E.02333
G1 X126.219 Y87.433 E.16397
G1 X125.721 Y87.433 E.02333
G1 X128.195 Y89.908 E.16397
G1 X127.697 Y89.908 E.02333
G1 X125.223 Y87.433 E.16397
G1 X124.725 Y87.433 E.02333
G1 X127.199 Y89.908 E.16397
G1 X126.701 Y89.908 E.02333
G1 X124.226 Y87.433 E.164
G1 X123.728 Y87.433 E.02333
G1 X126.203 Y89.908 E.164
G1 X125.705 Y89.908 E.02333
G1 X123.23 Y87.433 E.164
G1 X122.732 Y87.433 E.02333
G1 X125.207 Y89.908 E.164
G1 X124.709 Y89.908 E.02333
G1 X122.234 Y87.433 E.164
G1 X121.736 Y87.433 E.02333
G1 X124.211 Y89.908 E.164
G1 X123.713 Y89.908 E.02333
G1 X121.238 Y87.433 E.164
G1 X120.74 Y87.433 E.02333
G1 X123.215 Y89.908 E.164
G1 X122.717 Y89.908 E.02333
G1 X120.242 Y87.433 E.164
G1 X119.744 Y87.433 E.02333
G1 X122.219 Y89.908 E.164
G1 X121.72 Y89.908 E.02338
G1 X119.246 Y87.433 E.16397
G1 X118.748 Y87.433 E.02333
G1 X121.222 Y89.908 E.16397
G1 X120.724 Y89.908 E.02333
G1 X118.25 Y87.433 E.16397
G1 X117.752 Y87.433 E.02333
G1 X120.226 Y89.908 E.16397
G1 X119.728 Y89.908 E.02333
G1 X117.254 Y87.433 E.16397
G1 X116.755 Y87.433 E.02338
G1 X119.23 Y89.908 E.164
G1 X118.732 Y89.908 E.02333
G1 X116.257 Y87.433 E.164
G1 X115.759 Y87.433 E.02333
G1 X118.234 Y89.908 E.164
G1 X117.736 Y89.908 E.02333
G1 X115.261 Y87.433 E.164
G1 X114.763 Y87.433 E.02333
G1 X117.238 Y89.908 E.164
G1 X116.74 Y89.908 E.02333
G1 X114.265 Y87.433 E.164
G1 X113.767 Y87.433 E.02333
G1 X116.242 Y89.908 E.164
G1 X115.744 Y89.908 E.02333
G1 X113.269 Y87.433 E.164
G1 X112.771 Y87.433 E.02333
G1 X115.246 Y89.908 E.164
G1 X114.748 Y89.908 E.02333
G1 X112.273 Y87.433 E.164
G1 X111.775 Y87.433 E.02333
G1 X114.249 Y89.908 E.16397
G1 X113.751 Y89.908 E.02333
G1 X111.277 Y87.433 E.16397
G1 X110.779 Y87.433 E.02333
G1 X113.253 Y89.908 E.16397
G1 X112.755 Y89.908 E.02333
G1 X110.281 Y87.433 E.16397
G1 X109.783 Y87.433 E.02333
G1 X112.257 Y89.908 E.16397
G1 X111.759 Y89.908 E.02333
G1 X109.284 Y87.433 E.164
G1 X108.786 Y87.433 E.02333
G1 X111.261 Y89.908 E.164
G1 X110.763 Y89.908 E.02333
G1 X108.288 Y87.433 E.164
G1 X107.79 Y87.433 E.02333
G1 X110.265 Y89.908 E.164
G1 X109.767 Y89.908 E.02333
G1 X107.292 Y87.433 E.164
G1 X106.794 Y87.433 E.02333
G1 X109.269 Y89.908 E.164
G1 X108.771 Y89.908 E.02333
G1 X106.296 Y87.433 E.164
G1 X105.798 Y87.433 E.02333
G1 X108.273 Y89.908 E.164
G1 X107.775 Y89.908 E.02333
G1 X105.3 Y87.433 E.164
G1 X104.802 Y87.433 E.02333
G1 X107.277 Y89.908 E.164
G1 X106.778 Y89.908 E.02338
G1 X104.304 Y87.433 E.16397
G1 X103.806 Y87.433 E.02333
G1 X106.28 Y89.908 E.16397
G1 X105.782 Y89.908 E.02333
G1 X103.308 Y87.433 E.16397
G1 X102.81 Y87.433 E.02333
G1 X105.284 Y89.908 E.16397
G1 X104.786 Y89.908 E.02333
G1 X102.311 Y87.433 E.164
G1 X101.813 Y87.433 E.02333
G1 X104.288 Y89.908 E.164
G1 X103.79 Y89.908 E.02333
G1 X101.315 Y87.433 E.164
G1 X100.817 Y87.433 E.02333
G1 X103.292 Y89.908 E.164
G1 X102.794 Y89.908 E.02333
G1 X100.319 Y87.433 E.164
G1 X99.821 Y87.433 E.02333
G1 X102.296 Y89.908 E.164
G1 X101.798 Y89.908 E.02333
G1 X99.323 Y87.433 E.164
G1 X98.825 Y87.433 E.02333
G1 X101.3 Y89.908 E.164
G1 X100.802 Y89.908 E.02333
G1 X98.327 Y87.433 E.164
G1 X97.829 Y87.433 E.02333
G1 X100.304 Y89.908 E.164
G1 X99.806 Y89.908 E.02333
G1 X97.353 Y87.455 E.16254
G1 X96.881 Y87.481 E.02215
G1 X99.307 Y89.908 E.16079
G1 X98.809 Y89.908 E.02333
G1 X96.409 Y87.507 E.15906
G1 X95.937 Y87.534 E.02215
G1 X98.311 Y89.908 E.15731
G1 X97.814 Y89.908 E.02329
G1 X95.466 Y87.56 E.15559
G1 X94.994 Y87.586 E.02215
G1 X97.342 Y89.934 E.15559
G1 X96.87 Y89.96 E.02215
G1 X94.522 Y87.612 E.15559
G1 X94.05 Y87.638 E.02215
G1 X96.398 Y89.987 E.15562
G1 X95.926 Y90.013 E.02215
G1 X93.578 Y87.665 E.15559
G1 X93.106 Y87.691 E.02215
G1 X95.454 Y90.039 E.15559
G1 X94.982 Y90.065 E.02215
G1 X92.634 Y87.717 E.15559
G1 X92.163 Y87.743 E.0221
G1 X94.511 Y90.091 E.15559
G1 X94.039 Y90.118 E.02215
G1 X91.691 Y87.77 E.15559
G1 X91.219 Y87.796 E.02215
G1 X93.567 Y90.144 E.15559
G1 X93.095 Y90.17 E.02215
G1 X90.747 Y87.822 E.15559
G1 X90.275 Y87.848 E.02215
G1 X92.623 Y90.196 E.15559
G1 X92.151 Y90.222 E.02215
G1 X89.803 Y87.874 E.15559
G1 X89.331 Y87.901 E.02215
G1 X91.679 Y90.249 E.15559
G1 X91.208 Y90.275 E.0221
G1 X88.86 Y87.927 E.15559
G1 X88.388 Y87.953 E.02215
G1 X90.736 Y90.301 E.15559
G1 X90.264 Y90.327 E.02215
G1 X87.916 Y87.979 E.15559
G1 X87.444 Y88.005 E.02215
G1 X89.792 Y90.354 E.15562
G1 X89.32 Y90.38 E.02215
G1 X86.972 Y88.032 E.15559
G1 X86.5 Y88.058 E.02215
G1 X88.848 Y90.406 E.15559
G1 X88.377 Y90.432 E.0221
G1 X86.028 Y88.084 E.15562
G1 X85.557 Y88.11 E.0221
G1 X87.905 Y90.458 E.15559
G1 X87.433 Y90.485 E.02215
G1 X85.085 Y88.137 E.15559
G1 X84.613 Y88.163 E.02215
G1 X86.961 Y90.511 E.15559
G1 X86.489 Y90.537 E.02215
G1 X84.141 Y88.189 E.15559
G1 X83.669 Y88.215 E.02215
G1 X86.017 Y90.563 E.15559
G1 X85.545 Y90.589 E.02215
G1 X83.197 Y88.241 E.15559
G1 X82.725 Y88.268 E.02215
G1 X85.074 Y90.616 E.15562
G1 X84.602 Y90.642 E.02215
G1 X82.254 Y88.294 E.15559
G1 X81.782 Y88.32 E.02215
G1 X84.13 Y90.668 E.15559
G1 X83.658 Y90.694 E.02215
G1 X81.31 Y88.346 E.15559
G1 X80.838 Y88.372 E.02215
G1 X83.186 Y90.721 E.15562
G1 X82.714 Y90.747 E.02215
G1 X80.366 Y88.399 E.15559
G1 X79.894 Y88.425 E.02215
G1 X82.242 Y90.773 E.15559
G1 X81.771 Y90.799 E.0221
G1 X79.422 Y88.451 E.15562
G1 X78.951 Y88.477 E.0221
G1 X81.299 Y90.825 E.15559
G1 X80.827 Y90.852 E.02215
G1 X78.479 Y88.504 E.15559
G1 X78.007 Y88.53 E.02215
G1 X80.355 Y90.878 E.15559
G1 X79.883 Y90.904 E.02215
G1 X77.535 Y88.556 E.15559
G1 X77.063 Y88.582 E.02215
G1 X79.411 Y90.93 E.15559
G1 X78.939 Y90.956 E.02215
G1 X76.591 Y88.608 E.15559
G1 X76.12 Y88.635 E.02211
G1 X78.468 Y90.983 E.15559
G1 X77.996 Y91.009 E.02215
G1 X75.648 Y88.661 E.15559
G1 X75.176 Y88.687 E.02215
G1 X77.524 Y91.035 E.15559
G1 X77.052 Y91.061 E.02215
G1 X74.704 Y88.713 E.15559
G1 X74.232 Y88.739 E.02215
G1 X76.58 Y91.088 E.15562
G1 X76.108 Y91.114 E.02215
G1 X73.76 Y88.766 E.15559
G1 X73.288 Y88.792 E.02215
G1 X75.636 Y91.14 E.15559
G1 X75.165 Y91.166 E.0221
G1 X72.817 Y88.818 E.15559
G1 X72.345 Y88.844 E.02215
G1 X74.693 Y91.192 E.15559
G1 X74.221 Y91.219 E.02215
G1 X71.873 Y88.871 E.15559
G1 X71.401 Y88.897 E.02215
G1 X73.749 Y91.245 E.15559
G1 X73.277 Y91.271 E.02215
G1 X70.929 Y88.923 E.15559
G1 X70.457 Y88.949 E.02215
G1 X72.805 Y91.297 E.15559
G1 X72.334 Y91.323 E.0221
G1 X69.985 Y88.975 E.15562
G1 X69.514 Y89.002 E.02211
G1 X71.862 Y91.35 E.15559
G1 X71.39 Y91.376 E.02215
G1 X69.042 Y89.028 E.15559
G1 X68.57 Y89.054 E.02215
G1 X70.918 Y91.402 E.15559
G1 X70.446 Y91.428 E.02215
G1 X68.098 Y89.08 E.15559
G1 X67.626 Y89.106 E.02215
G1 X69.974 Y91.455 E.15562
G1 X69.502 Y91.481 E.02215
G1 X67.154 Y89.133 E.15559
G1 X66.682 Y89.159 E.02215
G1 X69.031 Y91.507 E.15562
G1 X68.559 Y91.533 E.02215
G1 X66.211 Y89.185 E.15559
G1 X65.739 Y89.211 E.02215
G1 X68.087 Y91.559 E.15559
G1 X67.615 Y91.586 E.02215
G1 X65.267 Y89.238 E.15559
G1 X64.795 Y89.264 E.02215
G1 X67.143 Y91.612 E.15559
G1 X66.671 Y91.638 E.02215
G1 X64.323 Y89.29 E.15559
G1 X63.851 Y89.316 E.02215
G1 X66.199 Y91.664 E.15559
G1 X65.728 Y91.69 E.0221
G1 X63.379 Y89.342 E.15562
G1 X62.908 Y89.369 E.02211
G1 X65.256 Y91.717 E.15559
G1 X64.784 Y91.743 E.02215
G1 X62.436 Y89.395 E.15559
G1 X62.129 Y89.412 E.01441
G1 X62.025 Y89.482 E.00587
G1 X64.312 Y91.769 E.15154
G1 X63.84 Y91.795 E.02215
G1 X61.729 Y89.684 E.13988
G1 X61.432 Y89.886 E.01683
G1 X63.368 Y91.822 E.12829
G1 X62.952 Y91.845 E.01952
G1 X62.917 Y91.868 E.00196
G1 X61.136 Y90.087 E.11801
G1 X60.839 Y90.289 E.01683
