; generated by PrusaSlicer 2.7.3+win64 on 2024-04-04 at 12:24:39 UTC

; 

; external perimeters extrusion width = 0.42mm
; perimeters extrusion width = 0.44mm
; infill extrusion width = 0.44mm
; solid infill extrusion width = 0.44mm
; top infill extrusion width = 0.40mm
; first layer extrusion width = 0.42mm


; printing object Shape-Box id:1 copy 0
; stop printing object Shape-Box id:1 copy 0

;TYPE:Custom
; Ender 3 Custom Start G-code
G92 E0 ; Reset Extruder

M140 S55 ; set bed temp
M104 S200 ; set extruder temp
M109 S200 ; wait for extruder temp
M190 S55 ; wait for bed temp

G28 ; Home all axes
M104 S215 ; set extruder temp 
BED_MESH_CALIBRATE AREA_START=82.1802,82.1802 AREA_END=148.82,148.82

G1 Z2.0 F3000 ; Move Z Axis up little to prevent scratching of Heat Bed
M109 S215 ; wait for extruder temp
G1 X0.1 Y20 Z0.3 F5000.0 ; Move to start position

G1 X0.1 Y200.0 Z0.3 F1500.0 E15 ; Draw the first line
G1 X0.4 Y200.0 Z0.3 F5000.0 ; Move to side a little
G1 X0.4 Y20 Z0.3 F1500.0 E30 ; Draw the second line
G92 E0 ; Reset Extruder
G1 Z2.0 F3000 ; Move Z Axis up little to prevent scratching of Heat Bed
G1 X5 Y20 Z0.3 F5000.0 ; Move over to prevent blob squish
G21 ; set units to millimeters
G90 ; use absolute coordinates
M83 ; use relative distances for extrusion
; Filament gcode
M107
;LAYER_CHANGE
;Z:0.2
;HEIGHT:0.2
G1 E-1.6 F2400
G1 Z.2 F6000
G1 X83.844 Y82.842
G1 Z.2
G1 E1.6 F2400
M204 S500
;TYPE:Skirt/Brim
;WIDTH:0.42
G1 F1200
G1 X85.5 Y82.369 E.05292
G1 X145.5 Y82.369 E1.84363
G1 X147.02 Y82.762 E.04824
G1 X148.158 Y83.844 E.04825
G1 X148.631 Y85.5 E.05292
G1 X148.631 Y145.5 E1.84363
G1 X148.238 Y147.02 E.04824
G1 X147.156 Y148.158 E.04825
G1 X145.5 Y148.631 E.05292
G1 X85.5 Y148.631 E1.84363
G1 X83.98 Y148.238 E.04824
G1 X82.842 Y147.156 E.04825
G1 X82.369 Y145.5 E.05292
G1 X82.369 Y85.5 E1.84363
G1 X82.762 Y83.98 E.04824
G1 X83.803 Y82.886 E.0464
G1 X83.803 Y82.886 F6000
G1 X84.085 Y83.183
G1 F1200
G1 X84.205 Y83.069 E.00509
G1 X85.5 Y82.746 E.04101
G1 X145.5 Y82.746 E1.84363
G1 X146.917 Y83.139 E.04518
G1 X147.931 Y84.205 E.04521
G1 X148.254 Y85.5 E.04101
G1 X148.254 Y145.5 E1.84363
G1 X147.861 Y146.917 E.04518
G1 X146.795 Y147.931 E.04521
G1 X145.5 Y148.254 E.04101
G1 X85.5 Y148.254 E1.84363
G1 X84.083 Y147.861 E.04518
G1 X83.069 Y146.795 E.04521
G1 X82.746 Y145.5 E.04101
G1 X82.746 Y85.5 E1.84363
G1 X83.139 Y84.083 E.04518
G1 X84.042 Y83.224 E.0383
G1 X84.042 Y83.224 F6000
G1 X84.301 Y83.534
G1 F1200
G1 X84.56 Y83.317 E.01038
G1 X85.5 Y83.123 E.02949
G1 X145.5 Y83.123 E1.84363
G1 X146.807 Y83.515 E.04193
G1 X147.683 Y84.56 E.0419
G1 X147.877 Y85.5 E.02949
G1 X147.877 Y145.5 E1.84363
G1 X147.485 Y146.807 E.04193
G1 X146.44 Y147.683 E.0419
G1 X145.5 Y147.877 E.02949
G1 X85.5 Y147.877 E1.84363
G1 X84.193 Y147.485 E.04193
G1 X83.317 Y146.44 E.0419
G1 X83.123 Y145.5 E.02949
G1 X83.123 Y85.5 E1.84363
G1 X83.515 Y84.193 E.04193
G1 X84.255 Y83.572 E.02968
G1 E-1.12 F2400
;WIPE_START
G1 F4800
G1 X84.301 Y83.534 E-.02834
G1 X84.56 Y83.317 E-.1605
G1 X85.16 Y83.193 E-.29116
;WIPE_END
; printing object Shape-Box id:1 copy 0
G1 X86.187 Y86.187 F6000
G1 E1.6 F2400
;TYPE:Perimeter
G1 F1200
G1 X144.813 Y86.187 E1.80141
G1 X144.813 Y144.813 E1.80141
G1 X86.187 Y144.813 E1.80141
G1 X86.187 Y86.247 E1.79957
G1 X85.81 Y85.81 F6000
;TYPE:External perimeter
G1 F1200
G1 X145.19 Y85.81 E1.82458
G1 X145.19 Y145.19 E1.82458
G1 X85.81 Y145.19 E1.82458
G1 X85.81 Y85.87 E1.82274
G1 E-1.12 F2400
;WIPE_START
G1 F4800
G1 X85.81 Y85.81 E-.0285
G1 X86.761 Y85.81 E-.4515
;WIPE_END
G1 X144.692 Y87.07 F6000
G1 E1.6 F2400
;TYPE:Solid infill
;WIDTH:0.420187
G1 F1200
G1 X144.099 Y86.477 E.02578
G1 X143.566 Y86.477 E.01639
G1 X144.523 Y87.434 E.04161
G1 X144.523 Y87.968 E.01642
G1 X143.032 Y86.477 E.06482
G1 X142.499 Y86.477 E.01639
G1 X144.523 Y88.501 E.088
G1 X144.523 Y89.035 E.01642
G1 X141.965 Y86.477 E.11121
G1 X141.432 Y86.477 E.01639
G1 X144.523 Y89.568 E.13439
G1 X144.523 Y90.102 E.01642
G1 X140.898 Y86.477 E.1576
G1 X140.365 Y86.477 E.01639
G1 X144.523 Y90.635 E.18078
G1 X144.523 Y91.169 E.01642
G1 X139.831 Y86.477 E.20399
G1 X139.297 Y86.477 E.01642
G1 X144.523 Y91.703 E.22721
G1 X144.523 Y92.236 E.01639
G1 X138.764 Y86.477 E.25038
G1 X138.23 Y86.477 E.01642
G1 X144.523 Y92.77 E.2736
G1 X144.523 Y93.303 E.01639
G1 X137.697 Y86.477 E.29677
G1 X137.163 Y86.477 E.01642
G1 X144.523 Y93.837 E.31999
G1 X144.523 Y94.37 E.01639
G1 X136.63 Y86.477 E.34316
G1 X136.096 Y86.477 E.01642
G1 X144.523 Y94.904 E.36638
G1 X144.523 Y95.437 E.01639
G1 X135.563 Y86.477 E.38955
G1 X135.029 Y86.477 E.01642
G1 X144.523 Y95.971 E.41277
G1 X144.523 Y96.504 E.01639
G1 X134.496 Y86.477 E.43594
G1 X133.962 Y86.477 E.01642
G1 X144.523 Y97.038 E.45915
G1 X144.523 Y97.571 E.01639
G1 X133.429 Y86.477 E.48233
G1 X132.895 Y86.477 E.01642
G1 X144.523 Y98.105 E.50554
G1 X144.523 Y98.639 E.01642
G1 X132.361 Y86.477 E.52876
G1 X131.828 Y86.477 E.01639
G1 X144.523 Y99.172 E.55193
G1 X144.523 Y99.706 E.01642
G1 X131.294 Y86.477 E.57515
G1 X130.761 Y86.477 E.01639
G1 X144.523 Y100.239 E.59832
G1 X144.523 Y100.773 E.01642
G1 X130.227 Y86.477 E.62154
G1 X129.694 Y86.477 E.01639
G1 X144.523 Y101.306 E.64471
G1 X144.523 Y101.84 E.01642
G1 X129.16 Y86.477 E.66793
G1 X128.627 Y86.477 E.01639
G1 X144.523 Y102.373 E.6911
G1 X144.523 Y102.907 E.01642
G1 X128.093 Y86.477 E.71432
G1 X127.56 Y86.477 E.01639
G1 X144.523 Y103.44 E.73749
G1 X144.523 Y103.974 E.01642
G1 X127.026 Y86.477 E.76071
G1 X126.493 Y86.477 E.01639
G1 X144.523 Y104.507 E.78388
G1 X144.523 Y105.041 E.01642
G1 X125.959 Y86.477 E.8071
G1 X125.426 Y86.477 E.01639
G1 X144.523 Y105.574 E.83027
G1 X144.523 Y106.108 E.01642
G1 X124.892 Y86.477 E.85349
G1 X124.358 Y86.477 E.01642
G1 X144.523 Y106.642 E.8767
G1 X144.523 Y107.175 E.01639
G1 X123.825 Y86.477 E.89988
G1 X123.291 Y86.477 E.01642
G1 X144.523 Y107.709 E.92309
G1 X144.523 Y108.242 E.01639
G1 X122.758 Y86.477 E.94626
G1 X122.224 Y86.477 E.01642
G1 X144.523 Y108.776 E.96948
G1 X144.523 Y109.309 E.01639
G1 X121.691 Y86.477 E.99265
G1 X121.157 Y86.477 E.01642
G1 X144.523 Y109.843 E1.01587
G1 X144.523 Y110.376 E.01639
G1 X120.624 Y86.477 E1.03904
G1 X120.09 Y86.477 E.01642
G1 X144.523 Y110.91 E1.06226
G1 X144.523 Y111.443 E.01639
G1 X119.557 Y86.477 E1.08543
G1 X119.023 Y86.477 E.01642
G1 X144.523 Y111.977 E1.10865
G1 X144.523 Y112.51 E.01639
G1 X118.49 Y86.477 E1.13182
G1 X117.956 Y86.477 E.01642
G1 X144.523 Y113.044 E1.15504
G1 X144.523 Y113.578 E.01642
G1 X117.422 Y86.477 E1.17825
G1 X116.889 Y86.477 E.01639
G1 X144.523 Y114.111 E1.20143
G1 X144.523 Y114.645 E.01642
G1 X116.355 Y86.477 E1.22464
G1 X115.822 Y86.477 E.01639
G1 X144.523 Y115.178 E1.24782
G1 X144.523 Y115.712 E.01642
G1 X115.288 Y86.477 E1.27103
G1 X114.755 Y86.477 E.01639
G1 X144.523 Y116.245 E1.29421
G1 X144.523 Y116.779 E.01642
G1 X114.221 Y86.477 E1.31742
G1 X113.688 Y86.477 E.01639
G1 X144.523 Y117.312 E1.3406
G1 X144.523 Y117.846 E.01642
G1 X113.154 Y86.477 E1.36381
G1 X112.621 Y86.477 E.01639
G1 X144.523 Y118.379 E1.38699
G1 X144.523 Y118.913 E.01642
G1 X112.087 Y86.477 E1.4102
G1 X111.554 Y86.477 E.01639
G1 X144.523 Y119.446 E1.43337
G1 X144.523 Y119.98 E.01642
G1 X111.02 Y86.477 E1.45659
G1 X110.487 Y86.477 E.01639
G1 X144.523 Y120.514 E1.47979
G1 X144.523 Y121.047 E.01639
G1 X109.953 Y86.477 E1.50298
G1 X109.419 Y86.477 E.01642
G1 X144.523 Y121.581 E1.5262
G1 X144.523 Y122.114 E.01639
G1 X108.886 Y86.477 E1.54937
G1 X108.352 Y86.477 E.01642
G1 X144.523 Y122.648 E1.57259
G1 X144.523 Y123.181 E.01639
G1 X107.819 Y86.477 E1.59576
G1 X107.285 Y86.477 E.01642
G1 X144.523 Y123.715 E1.61898
G1 X144.523 Y124.248 E.01639
G1 X106.752 Y86.477 E1.64215
G1 X106.218 Y86.477 E.01642
G1 X144.523 Y124.782 E1.66536
G1 X144.523 Y125.315 E.01639
G1 X105.685 Y86.477 E1.68854
G1 X105.151 Y86.477 E.01642
G1 X144.523 Y125.849 E1.71175
G1 X144.523 Y126.382 E.01639
G1 X104.618 Y86.477 E1.73493
G1 X104.084 Y86.477 E.01642
G1 X144.523 Y126.916 E1.75814
G1 X144.523 Y127.449 E.01639
G1 X103.551 Y86.477 E1.78132
G1 X103.017 Y86.477 E.01642
G1 X144.523 Y127.983 E1.80453
G1 X144.523 Y128.517 E.01642
G1 X102.483 Y86.477 E1.82775
G1 X101.95 Y86.477 E.01639
G1 X144.523 Y129.05 E1.85092
G1 X144.523 Y129.584 E.01642
G1 X101.416 Y86.477 E1.87414
G1 X100.883 Y86.477 E.01639
G1 X144.523 Y130.117 E1.89731
G1 X144.523 Y130.651 E.01642
G1 X100.349 Y86.477 E1.92053
G1 X99.816 Y86.477 E.01639
G1 X144.523 Y131.184 E1.9437
G1 X144.523 Y131.718 E.01642
G1 X99.282 Y86.477 E1.96692
G1 X98.749 Y86.477 E.01639
G1 X144.523 Y132.251 E1.99009
G1 X144.523 Y132.785 E.01642
G1 X98.215 Y86.477 E2.01331
G1 X97.682 Y86.477 E.01639
G1 X144.523 Y133.318 E2.03648
G1 X144.523 Y133.852 E.01642
G1 X97.148 Y86.477 E2.0597
G1 X96.615 Y86.477 E.01639
G1 X144.523 Y134.385 E2.08287
G1 X144.523 Y134.919 E.01642
G1 X96.081 Y86.477 E2.10609
G1 X95.547 Y86.477 E.01642
G1 X144.523 Y135.453 E2.1293
G1 X144.523 Y135.986 E.01639
G1 X95.014 Y86.477 E2.15247
G1 X94.48 Y86.477 E.01642
G1 X144.523 Y136.52 E2.17569
G1 X144.523 Y137.053 E.01639
G1 X93.947 Y86.477 E2.19886
G1 X93.413 Y86.477 E.01642
G1 X144.523 Y137.587 E2.22208
G1 X144.523 Y138.12 E.01639
G1 X92.88 Y86.477 E2.24525
G1 X92.346 Y86.477 E.01642
G1 X144.523 Y138.654 E2.26847
G1 X144.523 Y139.187 E.01639
G1 X91.813 Y86.477 E2.29164
G1 X91.279 Y86.477 E.01642
G1 X144.523 Y139.721 E2.31486
G1 X144.523 Y140.254 E.01639
G1 X90.746 Y86.477 E2.33803
G1 X90.212 Y86.477 E.01642
G1 X144.523 Y140.788 E2.36125
G1 X144.523 Y141.321 E.01639
G1 X89.679 Y86.477 E2.38442
G1 X89.145 Y86.477 E.01642
G1 X144.523 Y141.855 E2.40764
G1 X144.523 Y142.388 E.01639
G1 X88.612 Y86.477 E2.43081
G1 X88.078 Y86.477 E.01642
G1 X144.523 Y142.922 E2.45403
G1 X144.523 Y143.456 E.01642
G1 X87.544 Y86.477 E2.47724
G1 X87.011 Y86.477 E.01639
G1 X144.523 Y143.989 E2.50042
G1 X144.523 Y144.523 E.01642
G1 X86.477 Y86.477 E2.52363
G1 X86.477 Y87.011 E.01642
G1 X143.989 Y144.523 E2.50042
G1 X143.455 Y144.523 E.01642
G1 X86.477 Y87.545 E2.4772
G1 X86.477 Y88.078 E.01639
G1 X142.922 Y144.523 E2.45403
G1 X142.388 Y144.523 E.01642
G1 X86.477 Y88.612 E2.43081
G1 X86.477 Y89.145 E.01639
G1 X141.855 Y144.523 E2.40764
G1 X141.321 Y144.523 E.01642
G1 X86.477 Y89.679 E2.38442
G1 X86.477 Y90.212 E.01639
G1 X140.788 Y144.523 E2.36125
G1 X140.254 Y144.523 E.01642
G1 X86.477 Y90.746 E2.33803
G1 X86.477 Y91.279 E.01639
G1 X139.721 Y144.523 E2.31486
G1 X139.187 Y144.523 E.01642
G1 X86.477 Y91.813 E2.29164
G1 X86.477 Y92.346 E.01639
G1 X138.654 Y144.523 E2.26847
G1 X138.12 Y144.523 E.01642
G1 X86.477 Y92.88 E2.24525
G1 X86.477 Y93.413 E.01639
G1 X137.587 Y144.523 E2.22208
G1 X137.053 Y144.523 E.01642
G1 X86.477 Y93.947 E2.19886
G1 X86.477 Y94.481 E.01642
G1 X136.519 Y144.523 E2.17565
G1 X135.986 Y144.523 E.01639
G1 X86.477 Y95.014 E2.15247
G1 X86.477 Y95.548 E.01642
G1 X135.452 Y144.523 E2.12926
G1 X134.919 Y144.523 E.01639
G1 X86.477 Y96.081 E2.10609
G1 X86.477 Y96.615 E.01642
G1 X134.385 Y144.523 E2.08287
G1 X133.852 Y144.523 E.01639
G1 X86.477 Y97.148 E2.0597
G1 X86.477 Y97.682 E.01642
G1 X133.318 Y144.523 E2.03648
G1 X132.785 Y144.523 E.01639
G1 X86.477 Y98.215 E2.01331
G1 X86.477 Y98.749 E.01642
G1 X132.251 Y144.523 E1.99009
G1 X131.718 Y144.523 E.01639
G1 X86.477 Y99.282 E1.96692
G1 X86.477 Y99.816 E.01642
G1 X131.184 Y144.523 E1.9437
G1 X130.651 Y144.523 E.01639
G1 X86.477 Y100.349 E1.92053
G1 X86.477 Y100.883 E.01642
G1 X130.117 Y144.523 E1.89731
G1 X129.584 Y144.523 E.01639
G1 X86.477 Y101.416 E1.87414
G1 X86.477 Y101.95 E.01642
G1 X129.05 Y144.523 E1.85092
G1 X128.516 Y144.523 E.01642
G1 X86.477 Y102.484 E1.82771
G1 X86.477 Y103.017 E.01639
G1 X127.983 Y144.523 E1.80453
G1 X127.449 Y144.523 E.01642
G1 X86.477 Y103.551 E1.78132
G1 X86.477 Y104.084 E.01639
G1 X126.916 Y144.523 E1.75814
G1 X126.382 Y144.523 E.01642
G1 X86.477 Y104.618 E1.73493
G1 X86.477 Y105.151 E.01639
G1 X125.849 Y144.523 E1.71175
G1 X125.315 Y144.523 E.01642
G1 X86.477 Y105.685 E1.68854
G1 X86.477 Y106.218 E.01639
G1 X124.782 Y144.523 E1.66536
G1 X124.248 Y144.523 E.01642
G1 X86.477 Y106.752 E1.64215
G1 X86.477 Y107.285 E.01639
G1 X123.715 Y144.523 E1.61898
G1 X123.181 Y144.523 E.01642
G1 X86.477 Y107.819 E1.59576
G1 X86.477 Y108.352 E.01639
G1 X122.648 Y144.523 E1.57259
G1 X122.114 Y144.523 E.01642
G1 X86.477 Y108.886 E1.54937
G1 X86.477 Y109.42 E.01642
G1 X121.58 Y144.523 E1.52615
G1 X121.047 Y144.523 E.01639
G1 X86.477 Y109.953 E1.50298
G1 X86.477 Y110.487 E.01642
G1 X120.513 Y144.523 E1.47976
G1 X119.98 Y144.523 E.01639
G1 X86.477 Y111.02 E1.45659
G1 X86.477 Y111.554 E.01642
G1 X119.446 Y144.523 E1.43337
G1 X118.913 Y144.523 E.01639
G1 X86.477 Y112.087 E1.4102
G1 X86.477 Y112.621 E.01642
G1 X118.379 Y144.523 E1.38699
G1 X117.846 Y144.523 E.01639
G1 X86.477 Y113.154 E1.36381
G1 X86.477 Y113.688 E.01642
G1 X117.312 Y144.523 E1.3406
G1 X116.779 Y144.523 E.01639
G1 X86.477 Y114.221 E1.31742
G1 X86.477 Y114.755 E.01642
G1 X116.245 Y144.523 E1.29421
G1 X115.712 Y144.523 E.01639
G1 X86.477 Y115.288 E1.27103
G1 X86.477 Y115.822 E.01642
G1 X115.178 Y144.523 E1.24782
G1 X114.644 Y144.523 E.01642
G1 X86.477 Y116.356 E1.2246
G1 X86.477 Y116.889 E.01639
G1 X114.111 Y144.523 E1.20143
G1 X113.577 Y144.523 E.01642
G1 X86.477 Y117.423 E1.17821
G1 X86.477 Y117.956 E.01639
G1 X113.044 Y144.523 E1.15504
G1 X112.51 Y144.523 E.01642
G1 X86.477 Y118.49 E1.13182
G1 X86.477 Y119.023 E.01639
G1 X111.977 Y144.523 E1.10865
G1 X111.443 Y144.523 E.01642
G1 X86.477 Y119.557 E1.08543
G1 X86.477 Y120.09 E.01639
G1 X110.91 Y144.523 E1.06226
G1 X110.376 Y144.523 E.01642
G1 X86.477 Y120.624 E1.03904
G1 X86.477 Y121.157 E.01639
G1 X109.843 Y144.523 E1.01587
G1 X109.309 Y144.523 E.01642
G1 X86.477 Y121.691 E.99265
G1 X86.477 Y122.224 E.01639
G1 X108.776 Y144.523 E.96948
G1 X108.242 Y144.523 E.01642
G1 X86.477 Y122.758 E.94626
G1 X86.477 Y123.291 E.01639
G1 X107.709 Y144.523 E.92309
G1 X107.175 Y144.523 E.01642
G1 X86.477 Y123.825 E.89988
G1 X86.477 Y124.359 E.01642
G1 X106.641 Y144.523 E.87666
G1 X106.108 Y144.523 E.01639
G1 X86.477 Y124.892 E.85349
G1 X86.477 Y125.426 E.01642
G1 X105.574 Y144.523 E.83027
G1 X105.041 Y144.523 E.01639
G1 X86.477 Y125.959 E.8071
G1 X86.477 Y126.493 E.01642
G1 X104.507 Y144.523 E.78388
G1 X103.974 Y144.523 E.01639
G1 X86.477 Y127.026 E.76071
G1 X86.477 Y127.56 E.01642
G1 X103.44 Y144.523 E.73749
G1 X102.907 Y144.523 E.01639
G1 X86.477 Y128.093 E.71432
G1 X86.477 Y128.627 E.01642
G1 X102.373 Y144.523 E.6911
G1 X101.84 Y144.523 E.01639
G1 X86.477 Y129.16 E.66793
G1 X86.477 Y129.694 E.01642
G1 X101.306 Y144.523 E.64471
G1 X100.773 Y144.523 E.01639
G1 X86.477 Y130.227 E.62154
G1 X86.477 Y130.761 E.01642
G1 X100.239 Y144.523 E.59832
G1 X99.705 Y144.523 E.01642
G1 X86.477 Y131.295 E.57511
G1 X86.477 Y131.828 E.01639
G1 X99.172 Y144.523 E.55193
G1 X98.638 Y144.523 E.01642
G1 X86.477 Y132.362 E.52872
G1 X86.477 Y132.895 E.01639
G1 X98.105 Y144.523 E.50554
G1 X97.571 Y144.523 E.01642
G1 X86.477 Y133.429 E.48233
G1 X86.477 Y133.962 E.01639
G1 X97.038 Y144.523 E.45915
G1 X96.504 Y144.523 E.01642
G1 X86.477 Y134.496 E.43594
G1 X86.477 Y135.029 E.01639
G1 X95.971 Y144.523 E.41277
G1 X95.437 Y144.523 E.01642
G1 X86.477 Y135.563 E.38955
G1 X86.477 Y136.096 E.01639
G1 X94.904 Y144.523 E.36638
G1 X94.37 Y144.523 E.01642
G1 X86.477 Y136.63 E.34316
G1 X86.477 Y137.163 E.01639
G1 X93.837 Y144.523 E.31999
G1 X93.303 Y144.523 E.01642
G1 X86.477 Y137.697 E.29677
G1 X86.477 Y138.23 E.01639
G1 X92.77 Y144.523 E.2736
G1 X92.236 Y144.523 E.01642
G1 X86.477 Y138.764 E.25038
G1 X86.477 Y139.298 E.01642
G1 X91.702 Y144.523 E.22716
G1 X91.169 Y144.523 E.01639
G1 X86.477 Y139.831 E.20399
G1 X86.477 Y140.365 E.01642
G1 X90.635 Y144.523 E.18078
G1 X90.102 Y144.523 E.01639
G1 X86.477 Y140.898 E.1576
G1 X86.477 Y141.432 E.01642
G1 X89.568 Y144.523 E.13439
G1 X89.035 Y144.523 E.01639
G1 X86.477 Y141.965 E.11121
G1 X86.477 Y142.499 E.01642
G1 X88.501 Y144.523 E.088
G1 X87.968 Y144.523 E.01639
G1 X86.477 Y143.032 E.06482
G1 X86.477 Y143.566 E.01642
G1 X87.434 Y144.523 E.04161
G1 X86.901 Y144.523 E.01639
G1 X86.308 Y143.93 E.02578
; stop printing object Shape-Box id:1 copy 0
G1 E-1.12 F2400
;WIPE_START
G1 F4800;_WIPE
