; generated by PrusaSlicer 2.6.0-alpha6+MacOS-x64 on 2023-05-04 at 20:47:17 UTC

; 

; external perimeters extrusion width = 0.40mm
; perimeters extrusion width = 0.40mm
; infill extrusion width = 0.40mm
; solid infill extrusion width = 0.40mm
; top infill extrusion width = 0.40mm
; first layer extrusion width = 0.40mm

M201 X400 Y400 Z100 E5000 ; sets maximum accelerations, mm/sec^2
M203 X48 Y48 Z10 E60 ; sets maximum feedrates, mm / sec
M204 S400 T1000 ; sets acceleration (S) and retract acceleration (R), mm/sec^2
M205 X8.00 Y8.00 Z0.40 E5.00 ; sets the jerk limits, mm/sec
M205 S0 T0 ; sets the minimum extruding and travel feed rate, mm/sec
;TYPE:Custom
; Ender 3 Custom Start G-code
G92 E0 ; Reset Extruder

M140 S40 ; set bed temp
M190 S40 ; wait for bed temp

G28 ; Home all axes
M104 S195 ; set extruder temp 
BED_MESH_CALIBRATE AREA_START=107.25,107.25 AREA_END=123.75,123.75

G1 Z2.0 F3000 ; Move Z Axis up little to prevent scratching of Heat Bed
M109 S195 ; wait for extruder temp
G1 X0.1 Y20 Z0.3 F5000.0 ; Move to start position

G1 X0.1 Y200.0 Z0.3 F1500.0 E15 ; Draw the first line
G1 X0.4 Y200.0 Z0.3 F5000.0 ; Move to side a little
G1 X0.4 Y20 Z0.3 F1500.0 E30 ; Draw the second line
G92 E0 ; Reset Extruder
G1 Z2.0 F3000 ; Move Z Axis up little to prevent scratching of Heat Bed
G1 X5 Y20 Z0.3 F5000.0 ; Move over to prevent blob squish
G21 ; set units to millimeters
G90 ; use absolute coordinates
M83 ; use relative distances for extrusion
; Filament gcode
M107
;LAYER_CHANGE
;Z:0.2
;HEIGHT:0.2
TIMELAPSE_TAKE_FRAME
;BEFORE_LAYER_CHANGE
G92 E0
;0.2


G1 E-5 F3600
G1 Z.2 F4800
;AFTER_LAYER_CHANGE
;0.2
G1 X108.932 Y108.34
G1 E5 F2400
M204 S400
;TYPE:Skirt/Brim
;WIDTH:0.4
G1 F1229
G1 X110.539 Y107.544 E.05325
G1 X111.5 Y107.429 E.02874
G1 X119.5 Y107.429 E.23753
G1 X121.25 Y107.824 E.05327
G1 X122.66 Y108.932 E.05324
G1 X123.456 Y110.539 E.05325
G1 X123.571 Y111.5 E.02874
G1 X123.571 Y119.5 E.23753
G1 X123.176 Y121.25 E.05327
G1 X122.068 Y122.66 E.05324
G1 X120.461 Y123.456 E.05325
G1 X119.5 Y123.571 E.02874
G1 X111.5 Y123.571 E.23753
G1 X109.75 Y123.176 E.05327
G1 X108.34 Y122.068 E.05324
G1 X107.544 Y120.461 E.05325
G1 X107.429 Y119.5 E.02874
G1 X107.429 Y111.5 E.23753
G1 X107.824 Y109.75 E.05327
G1 X108.895 Y108.388 E.05144
G1 X109.188 Y108.633 F4800
G1 F1229
G1 X109.28 Y108.522 E.00428
G1 X111.5 Y107.786 E.06944
G1 X119.5 Y107.786 E.23753
G1 X121.166 Y108.18 E.05083
G1 X122.478 Y109.28 E.05083
G1 X123.214 Y111.5 E.06944
G1 X123.214 Y119.5 E.23753
G1 X122.82 Y121.166 E.05083
G1 X121.72 Y122.478 E.05083
G1 X119.5 Y123.214 E.06944
G1 X111.5 Y123.214 E.23753
G1 X109.834 Y122.82 E.05083
G1 X108.522 Y121.72 E.05083
G1 X107.786 Y119.5 E.06944
G1 X107.786 Y111.5 E.23753
G1 X108.18 Y109.834 E.05083
G1 X109.149 Y108.679 E.04476
G1 X109.43 Y108.932 F4800
G1 F1229
G1 X109.627 Y108.714 E.00872
G1 X111.5 Y108.143 E.05814
G1 X119.5 Y108.143 E.23753
G1 X121.078 Y108.537 E.04829
G1 X122.286 Y109.627 E.04831
G1 X122.857 Y111.5 E.05814
G1 X122.857 Y119.5 E.23753
G1 X122.463 Y121.078 E.04829
G1 X121.373 Y122.286 E.04831
G1 X119.5 Y122.857 E.05814
G1 X111.5 Y122.857 E.23753
G1 X109.922 Y122.463 E.04829
G1 X108.714 Y121.373 E.04831
G1 X108.143 Y119.5 E.05814
G1 X108.143 Y111.5 E.23753
G1 X108.537 Y109.922 E.04829
G1 X109.39 Y108.977 E.0378
; printing object Shape-Box id:0 copy 0
G1 E-3.5 F3600
;WIPE_START
G1 F3840
G1 X109.627 Y108.714 E-.31531
G1 X110.899 Y108.326 E-1.18469
;WIPE_END
G1 X118.486 Y118.486 F4800
G1 E5 F2400
;TYPE:Perimeter
;WIDTH:0.399999
G1 F1229
G1 X112.514 Y118.486 E.17732
G1 X112.514 Y112.514 E.17732
G1 X118.486 Y112.514 E.17732
G1 X118.486 Y118.426 E.17553
G1 X118.843 Y118.843 F4800
G1 F1229
G1 X112.157 Y118.843 E.19852
G1 X112.157 Y112.157 E.19852
G1 X118.843 Y112.157 E.19852
G1 X118.843 Y118.783 E.19673
G1 X119.2 Y119.2 F4800
;TYPE:External perimeter
G1 F1229
G1 X111.8 Y119.2 E.21972
G1 X111.8 Y111.8 E.21972
G1 X119.2 Y111.8 E.21972
G1 X119.2 Y119.14 E.21793
G1 X118.814 Y119.096 F4800
G1 E-3.5 F3600
;WIPE_START
G1 F3840
G1 X117.516 Y119.154 E-1.5
;WIPE_END
G1 X117.619 Y112.628 F4800
G1 E5 F2400
;TYPE:Solid infill
;WIDTH:0.414399
G1 F1229
G1 X118.211 Y113.22 E.02586
G1 X118.211 Y113.745 E.01622
G1 X117.255 Y112.789 E.04176
G1 X116.729 Y112.789 E.01625
G1 X118.211 Y114.271 E.06474
G1 X118.211 Y114.796 E.01622
G1 X116.204 Y112.789 E.08767
G1 X115.678 Y112.789 E.01625
G1 X118.211 Y115.322 E.11065
G1 X118.211 Y115.847 E.01622
G1 X115.153 Y112.789 E.13358
G1 X114.628 Y112.789 E.01622
G1 X118.211 Y116.372 E.15652
G1 X118.211 Y116.898 E.01625
G1 X114.102 Y112.789 E.17949
G1 X113.577 Y112.789 E.01622
G1 X118.211 Y117.423 E.20243
G1 X118.211 Y117.948 E.01622
G1 X113.052 Y112.789 E.22536
G1 X112.789 Y112.789 E.00812
G1 X112.789 Y113.052 E.00812
G1 X117.948 Y118.211 E.22536
G1 X117.423 Y118.211 E.01622
G1 X112.789 Y113.577 E.20243
G1 X112.789 Y114.103 E.01625
G1 X116.897 Y118.211 E.17945
G1 X116.372 Y118.211 E.01622
G1 X112.789 Y114.628 E.15652
G1 X112.789 Y115.153 E.01622
G1 X115.847 Y118.211 E.13358
G1 X115.321 Y118.211 E.01625
G1 X112.789 Y115.679 E.11061
G1 X112.789 Y116.204 E.01622
G1 X114.796 Y118.211 E.08767
G1 X114.271 Y118.211 E.01622
G1 X112.789 Y116.729 E.06474
G1 X112.789 Y117.255 E.01625
G1 X113.745 Y118.211 E.04176
G1 X113.22 Y118.211 E.01622
G1 X112.628 Y117.619 E.02586
; stop printing object Shape-Box id:0 copy 0
M106 S255
;LAYER_CHANGE
;Z:0.4
;HEIGHT:0.2
TIMELAPSE_TAKE_FRAME
;BEFORE_LAYER_CHANGE
G92 E0
;0.4


G1 E-3.5 F3600
;WIPE_START
G1 F3840
G1 X113.22 Y118.211 E-.74564
G1 X113.745 Y118.211 E-.46758
G1 X113.517 Y117.983 E-.28678
;WIPE_END
G1 Z.4 F4800
;AFTER_LAYER_CHANGE
;0.4
; printing object Shape-Box id:0 copy 0
G1 X118.586 Y118.586
G1 E5 F2400
;TYPE:Perimeter
;WIDTH:0.399999
G1 F900
G1 X112.414 Y118.586 E.18325
G1 X112.414 Y112.414 E.18325
G1 X118.586 Y112.414 E.18325
G1 X118.586 Y118.526 E.18147
G1 X118.943 Y118.943 F4800
G1 F900
G1 X112.057 Y118.943 E.20445
G1 X112.057 Y112.057 E.20445
G1 X118.943 Y112.057 E.20445
G1 X118.943 Y118.883 E.20267
G1 X119.3 Y119.3 F4800
;TYPE:External perimeter
G1 F900
G1 X111.7 Y119.3 E.22565
G1 X111.7 Y111.7 E.22565
G1 X119.3 Y111.7 E.22565
G1 X119.3 Y119.24 E.22387
G1 X118.914 Y119.196 F4800
G1 E-3.5 F3600
;WIPE_START
G1 F3840
G1 X117.616 Y119.253 E-1.5
;WIPE_END
G1 X112.689 Y112.689 F4800
G1 E5 F2400
;TYPE:Solid infill
G1 F900
G1 X112.689 Y118.311 E.16692
G1 X118.311 Y118.311 E.16692
G1 X118.311 Y112.689 E.16692
G1 X112.749 Y112.689 E.16514
G1 X113.046 Y113.046 F4800
G1 F900
G1 X113.046 Y117.954 E.14572
G1 X117.954 Y117.954 E.14572
G1 X117.954 Y113.046 E.14572
G1 X113.106 Y113.046 E.14394
G1 X113.403 Y113.403 F4800
G1 F900
G1 X113.403 Y117.597 E.12453
G1 X117.597 Y117.597 E.12453
G1 X117.597 Y113.403 E.12453
G1 X113.463 Y113.403 E.12274
G1 X113.76 Y113.76 F4800
G1 F900
G1 X113.76 Y117.24 E.10333
G1 X117.24 Y117.24 E.10333
G1 X117.24 Y113.76 E.10333
G1 X113.82 Y113.76 E.10154
G1 X114.117 Y114.117 F4800
G1 F900
G1 X114.117 Y116.883 E.08213
G1 X116.883 Y116.883 E.08213
G1 X116.883 Y114.117 E.08213
G1 X114.177 Y114.117 E.08034
G1 X114.475 Y114.475 F4800
G1 F900
G1 X114.475 Y116.526 E.0609
G1 X116.526 Y116.526 E.0609
G1 X116.526 Y114.475 E.0609
G1 X114.535 Y114.475 E.05912
G1 X114.832 Y114.832 F4800
G1 F900
G1 X114.832 Y116.168 E.03967
G1 X116.168 Y116.168 E.03967
G1 X116.168 Y114.832 E.03967
G1 X114.892 Y114.832 E.03789
G1 X115.255 Y115.255 F4800
;WIDTH:0.5328
G1 F900
G1 X115.255 Y115.745 E.01996
G1 X115.745 Y115.745 E.01996
G1 X115.745 Y115.255 E.01996
G1 X115.315 Y115.255 E.01752
; stop printing object Shape-Box id:0 copy 0
;LAYER_CHANGE
;Z:0.6
;HEIGHT:0.2
TIMELAPSE_TAKE_FRAME
;BEFORE_LAYER_CHANGE
G92 E0
;0.6


G1 E-3.5 F3600
;WIPE_START
G1 F3840
G1 X115.745 Y115.255 E-.38297
G1 X115.745 Y115.745 E-.43641
G1 X115.255 Y115.745 E-.43641
G1 X115.255 Y115.471 E-.24421
;WIPE_END
G1 Z.6 F4800
;AFTER_LAYER_CHANGE
;0.6
; printing object Shape-Box id:0 copy 0
G1 X118.586 Y118.586
G1 E5 F2400
;TYPE:Perimeter
;WIDTH:0.399999
G1 F900
G1 X112.414 Y118.586 E.18325
G1 X112.414 Y112.414 E.18325
G1 X118.586 Y112.414 E.18325
G1 X118.586 Y118.526 E.18147
G1 X118.943 Y118.943 F4800
G1 F900
G1 X112.057 Y118.943 E.20445
G1 X112.057 Y112.057 E.20445
G1 X118.943 Y112.057 E.20445
G1 X118.943 Y118.883 E.20267
G1 X119.3 Y119.3 F4800
;TYPE:External perimeter
G1 F900
G1 X111.7 Y119.3 E.22565
G1 X111.7 Y111.7 E.22565
G1 X119.3 Y111.7 E.22565
G1 X119.3 Y119.24 E.22387
G1 X118.914 Y119.196 F4800
G1 E-3.5 F3600
;WIPE_START
G1 F3840
G1 X117.616 Y119.253 E-1.5
;WIPE_END
G1 X118.472 Y113.422 F4800
G1 E5 F2400
;TYPE:Internal infill
;WIDTH:0.4
G1 F900
G1 X117.739 Y112.689 E.03078
G1 X112.689 Y112.689 E.14994
G1 X118.311 Y118.311 E.23607
G1 X113.261 Y118.311 E.14994
G1 X112.528 Y117.578 E.03078
; stop printing object Shape-Box id:0 copy 0
;LAYER_CHANGE
;Z:0.8
;HEIGHT:0.2
TIMELAPSE_TAKE_FRAME
;BEFORE_LAYER_CHANGE
G92 E0
;0.8


G1 E-3.5 F3600
;WIPE_START
G1 F3840
G1 X113.261 Y118.311 E-.92324
G1 X113.909 Y118.311 E-.57676
;WIPE_END
G1 Z.8 F4800
;AFTER_LAYER_CHANGE
;0.8
; printing object Shape-Box id:0 copy 0
G1 X118.586 Y118.586
G1 E5 F2400
;TYPE:Perimeter
;WIDTH:0.399999
G1 F900
G1 X112.414 Y118.586 E.18325
G1 X112.414 Y112.414 E.18325
G1 X118.586 Y112.414 E.18325
G1 X118.586 Y118.526 E.18147
G1 X118.943 Y118.943 F4800
G1 F900
G1 X112.057 Y118.943 E.20445
G1 X112.057 Y112.057 E.20445
G1 X118.943 Y112.057 E.20445
G1 X118.943 Y118.883 E.20267
G1 X119.3 Y119.3 F4800
;TYPE:External perimeter
G1 F900
G1 X111.7 Y119.3 E.22565
G1 X111.7 Y111.7 E.22565
G1 X119.3 Y111.7 E.22565
G1 X119.3 Y119.24 E.22387
G1 X118.914 Y119.196 F4800
G1 E-3.5 F3600
;WIPE_START
G1 F3840
G1 X117.616 Y119.253 E-1.5
;WIPE_END
G1 X118.472 Y113.422 F4800
G1 E5 F2400
;TYPE:Internal infill
;WIDTH:0.4
G1 F900
G1 X117.739 Y112.689 E.03078
G1 X112.689 Y112.689 E.14994
G1 X118.311 Y118.311 E.23607
G1 X113.261 Y118.311 E.14994
G1 X112.528 Y117.578 E.03078
; stop printing object Shape-Box id:0 copy 0
;LAYER_CHANGE
;Z:1
;HEIGHT:0.2
TIMELAPSE_TAKE_FRAME
;BEFORE_LAYER_CHANGE
G92 E0
;1


G1 E-3.5 F3600
;WIPE_START
G1 F3840
G1 X113.261 Y118.311 E-.92324
G1 X113.909 Y118.311 E-.57676
;WIPE_END
G1 Z1 F4800
;AFTER_LAYER_CHANGE
;1
; printing object Shape-Box id:0 copy 0
G1 X118.586 Y118.586
G1 E5 F2400
;TYPE:Perimeter
;WIDTH:0.399999
G1 F900
G1 X112.414 Y118.586 E.18325
G1 X112.414 Y112.414 E.18325
G1 X118.586 Y112.414 E.18325
G1 X118.586 Y118.526 E.18147
G1 X118.943 Y118.943 F4800
G1 F900
G1 X112.057 Y118.943 E.20445
G1 X112.057 Y112.057 E.20445
G1 X118.943 Y112.057 E.20445
G1 X118.943 Y118.883 E.20267
G1 X119.3 Y119.3 F4800
;TYPE:External perimeter
G1 F900
G1 X111.7 Y119.3 E.22565
G1 X111.7 Y111.7 E.22565
G1 X119.3 Y111.7 E.22565
G1 X119.3 Y119.24 E.22387
G1 X118.914 Y119.196 F4800
G1 E-3.5 F3600
;WIPE_START
G1 F3840
G1 X117.616 Y119.253 E-1.5
;WIPE_END
G1 X118.472 Y113.422 F4800
G1 E5 F2400
;TYPE:Internal infill
;WIDTH:0.4
G1 F900
G1 X117.739 Y112.689 E.03078
G1 X112.689 Y112.689 E.14994
G1 X118.311 Y118.311 E.23607
G1 X113.261 Y118.311 E.14994
G1 X112.528 Y117.578 E.03078
; stop printing object Shape-Box id:0 copy 0
;LAYER_CHANGE
;Z:1.2
;HEIGHT:0.2
TIMELAPSE_TAKE_FRAME
;BEFORE_LAYER_CHANGE
G92 E0
;1.2


G1 E-3.5 F3600
;WIPE_START
G1 F3840
G1 X113.261 Y118.311 E-.92324
G1 X113.909 Y118.311 E-.57676
;WIPE_END
G1 Z1.2 F4800
;AFTER_LAYER_CHANGE
;1.2
; printing object Shape-Box id:0 copy 0
G1 X118.586 Y118.586
G1 E5 F2400
;TYPE:Perimeter
;WIDTH:0.399999
G1 F900
G1 X112.414 Y118.586 E.18325
G1 X112.414 Y112.414 E.18325
G1 X118.586 Y112.414 E.18325
G1 X118.586 Y118.526 E.18147
G1 X118.943 Y118.943 F4800
G1 F900
G1 X112.057 Y118.943 E.20445
G1 X112.057 Y112.057 E.20445
G1 X118.943 Y112.057 E.20445
G1 X118.943 Y118.883 E.20267
G1 X119.3 Y119.3 F4800
;TYPE:External perimeter
G1 F900
G1 X111.7 Y119.3 E.22565
G1 X111.7 Y111.7 E.22565
G1 X119.3 Y111.7 E.22565
G1 X119.3 Y119.24 E.22387
G1 X118.914 Y119.196 F4800
G1 E-3.5 F3600
;WIPE_START
G1 F3840
G1 X117.616 Y119.253 E-1.5
;WIPE_END
G1 X118.472 Y113.422 F4800
G1 E5 F2400
;TYPE:Internal infill
;WIDTH:0.4
G1 F900
G1 X117.739 Y112.689 E.03078
G1 X112.689 Y112.689 E.14994
G1 X118.311 Y118.311 E.23607
G1 X113.261 Y118.311 E.14994
G1 X112.528 Y117.578 E.03078
; stop printing object Shape-Box id:0 copy 0
;LAYER_CHANGE
;Z:1.4
;HEIGHT:0.2
TIMELAPSE_TAKE_FRAME
;BEFORE_LAYER_CHANGE
G92 E0
;1.4


G1 E-3.5 F3600
;WIPE_START
G1 F3840
G1 X113.261 Y118.311 E-.92324
G1 X113.909 Y118.311 E-.57676
;WIPE_END
G1 Z1.4 F4800
;AFTER_LAYER_CHANGE
;1.4
; printing object Shape-Box id:0 copy 0
G1 X118.586 Y118.586
G1 E5 F2400
;TYPE:Perimeter
;WIDTH:0.399999
G1 F900
G1 X112.414 Y118.586 E.18325
G1 X112.414 Y112.414 E.18325
G1 X118.586 Y112.414 E.18325
G1 X118.586 Y118.526 E.18147
G1 X118.943 Y118.943 F4800
G1 F900
G1 X112.057 Y118.943 E.20445
G1 X112.057 Y112.057 E.20445
G1 X118.943 Y112.057 E.20445
G1 X118.943 Y118.883 E.20267
G1 X119.3 Y119.3 F4800
;TYPE:External perimeter
G1 F900
G1 X111.7 Y119.3 E.22565
G1 X111.7 Y111.7 E.22565
G1 X119.3 Y111.7 E.22565
G1 X119.3 Y119.24 E.22387
G1 X118.914 Y119.196 F4800
G1 E-3.5 F3600
;WIPE_START
G1 F3840
G1 X117.616 Y119.253 E-1.5
;WIPE_END
G1 X118.472 Y113.422 F4800
G1 E5 F2400
;TYPE:Internal infill
;WIDTH:0.4
G1 F900
G1 X117.739 Y112.689 E.03078
G1 X112.689 Y112.689 E.14994
G1 X118.311 Y118.311 E.23607
G1 X113.261 Y118.311 E.14994
G1 X112.528 Y117.578 E.03078
; stop printing object Shape-Box id:0 copy 0
;LAYER_CHANGE
;Z:1.6
;HEIGHT:0.2
TIMELAPSE_TAKE_FRAME
;BEFORE_LAYER_CHANGE
G92 E0
;1.6


G1 E-3.5 F3600
;WIPE_START
G1 F3840
G1 X113.261 Y118.311 E-.92324
G1 X113.909 Y118.311 E-.57676
;WIPE_END
G1 Z1.6 F4800
;AFTER_LAYER_CHANGE
;1.6
; printing object Shape-Box id:0 copy 0
G1 X118.586 Y118.586
G1 E5 F2400
;TYPE:Perimeter
;WIDTH:0.399999
G1 F900
G1 X112.414 Y118.586 E.18325
G1 X112.414 Y112.414 E.18325
G1 X118.586 Y112.414 E.18325
G1 X118.586 Y118.526 E.18147
G1 X118.943 Y118.943 F4800
G1 F900
G1 X112.057 Y118.943 E.20445
G1 X112.057 Y112.057 E.20445
G1 X118.943 Y112.057 E.20445
G1 X118.943 Y118.883 E.20267
G1 X119.3 Y119.3 F4800
;TYPE:External perimeter
G1 F900
G1 X111.7 Y119.3 E.22565
G1 X111.7 Y111.7 E.22565
G1 X119.3 Y111.7 E.22565
G1 X119.3 Y119.24 E.22387
G1 X118.914 Y119.196 F4800
G1 E-3.5 F3600
;WIPE_START
G1 F3840
G1 X117.616 Y119.253 E-1.5
;WIPE_END
G1 X118.472 Y113.422 F4800
G1 E5 F2400
;TYPE:Internal infill
;WIDTH:0.4
G1 F900
G1 X117.739 Y112.689 E.03078
G1 X112.689 Y112.689 E.14994
G1 X118.311 Y118.311 E.23607
G1 X113.261 Y118.311 E.14994
G1 X112.528 Y117.578 E.03078
; stop printing object Shape-Box id:0 copy 0
;LAYER_CHANGE
;Z:1.8
;HEIGHT:0.2
TIMELAPSE_TAKE_FRAME
;BEFORE_LAYER_CHANGE
G92 E0
;1.8


G1 E-3.5 F3600
;WIPE_START
G1 F3840
G1 X113.261 Y118.311 E-.92324
G1 X113.909 Y118.311 E-.57676
;WIPE_END
G1 Z1.8 F4800
;AFTER_LAYER_CHANGE
;1.8
; printing object Shape-Box id:0 copy 0
G1 X118.586 Y118.586
G1 E5 F2400
;TYPE:Perimeter
;WIDTH:0.399999
G1 F900
G1 X112.414 Y118.586 E.18325
G1 X112.414 Y112.414 E.18325
G1 X118.586 Y112.414 E.18325
G1 X118.586 Y118.526 E.18147
G1 X118.943 Y118.943 F4800
G1 F900
G1 X112.057 Y118.943 E.20445
G1 X112.057 Y112.057 E.20445
G1 X118.943 Y112.057 E.20445
G1 X118.943 Y118.883 E.20267
G1 X119.3 Y119.3 F4800
;TYPE:External perimeter
G1 F900
G1 X111.7 Y119.3 E.22565
G1 X111.7 Y111.7 E.22565
G1 X119.3 Y111.7 E.22565
G1 X119.3 Y119.24 E.22387
G1 X118.914 Y119.196 F4800
G1 E-3.5 F3600
;WIPE_START
G1 F3840
G1 X117.616 Y119.253 E-1.5
;WIPE_END
G1 X118.472 Y113.422 F4800
G1 E5 F2400
;TYPE:Internal infill
;WIDTH:0.4
G1 F900
G1 X117.739 Y112.689 E.03078
G1 X112.689 Y112.689 E.14994
G1 X118.311 Y118.311 E.23607
G1 X113.261 Y118.311 E.14994
G1 X112.528 Y117.578 E.03078
; stop printing object Shape-Box id:0 copy 0
;LAYER_CHANGE
;Z:2
;HEIGHT:0.2
TIMELAPSE_TAKE_FRAME
;BEFORE_LAYER_CHANGE
G92 E0
;2


G1 E-3.5 F3600
;WIPE_START
G1 F3840
G1 X113.261 Y118.311 E-.92324
G1 X113.909 Y118.311 E-.57676
;WIPE_END
G1 Z2 F4800
;AFTER_LAYER_CHANGE
;2
; printing object Shape-Box id:0 copy 0
G1 X118.586 Y118.586
G1 E5 F2400
;TYPE:Perimeter
;WIDTH:0.399999
G1 F900
G1 X112.414 Y118.586 E.18325
G1 X112.414 Y112.414 E.18325
G1 X118.586 Y112.414 E.18325
