; generated by PrusaSlicer 2.7.2+win64 on 2024-03-25 at 22:13:00 UTC

; 

; external perimeters extrusion width = 0.42mm
; perimeters extrusion width = 0.44mm
; infill extrusion width = 0.44mm
; solid infill extrusion width = 0.44mm
; top infill extrusion width = 0.40mm
; first layer extrusion width = 0.42mm


; printing object Scalono id:0 copy 0
; stop printing object Scalono id:0 copy 0

;TYPE:Custom
; Ender 3 Custom Start G-code
G92 E0 ; Reset Extruder

M140 S55 ; set bed temp
M104 S160 ; set extruder temp
M109 S160 ; wait for extruder temp
M190 S55 ; wait for bed temp

G28 ; Home all axes
M104 S210 ; set extruder temp 
BED_MESH_CALIBRATE AREA_START=92.4134,96.658 AREA_END=149.053,133.444

G1 Z2.0 F3000 ; Move Z Axis up little to prevent scratching of Heat Bed
M109 S210 ; wait for extruder temp
G1 X0.1 Y20 Z0.3 F5000.0 ; Move to start position

G1 X0.1 Y200.0 Z0.3 F1500.0 E15 ; Draw the first line
G1 X0.4 Y200.0 Z0.3 F5000.0 ; Move to side a little
G1 X0.4 Y20 Z0.3 F1500.0 E30 ; Draw the second line
G92 E0 ; Reset Extruder
G1 Z2.0 F3000 ; Move Z Axis up little to prevent scratching of Heat Bed
G1 X5 Y20 Z0.3 F5000.0 ; Move over to prevent blob squish
G21 ; set units to millimeters
G90 ; use absolute coordinates
M83 ; use relative distances for extrusion
; Filament gcode
M107
;LAYER_CHANGE
;Z:0.2
;HEIGHT:0.2
G1 E-1.6 F2400
G1 Z.2 F6000
G1 X97.083 Y100.28
G1 Z.2
G1 E1.6 F2400
M204 S500
;TYPE:Skirt/Brim
;WIDTH:0.42
G1 F1200
G1 X98.172 Y99.402 E.04386
G1 X99.287 Y98.676 E.04172
G1 X100.4 Y98.096 E.03935
G1 X101.66 Y97.587 E.04261
G1 X103.007 Y97.198 E.04396
G1 X104.224 Y96.973 E.0388
G1 X105.563 Y96.855 E.04215
G1 X135.422 Y96.847 E.93621
G1 X136.842 Y96.923 E.04459
G1 X138.23 Y97.146 E.04408
G1 X139.578 Y97.51 E.04378
G1 X140.896 Y98.018 E.04429
G1 X142.098 Y98.629 E.04228
G1 X143.34 Y99.434 E.04641
G1 X144.428 Y100.32 E.04399
G1 X145.432 Y101.328 E.04461
G1 X146.309 Y102.416 E.04382
G1 X147.063 Y103.581 E.04351
G1 X147.709 Y104.851 E.04468
G1 X148.215 Y106.177 E.0445
G1 X148.578 Y107.541 E.04426
G1 X148.796 Y108.945 E.04455
G1 X148.864 Y110.489 E.04846
G1 X148.788 Y111.75 E.03961
G1 X148.413 Y113.769 E.06439
G1 X147.783 Y115.597 E.06062
G1 X146.839 Y117.411 E.06412
G1 X145.694 Y118.989 E.06113
G1 X135.282 Y129.615 E.46645
G1 X133.634 Y130.933 E.06616
G1 X131.744 Y132.003 E.0681
G1 X130.256 Y132.59 E.05015
G1 X128.666 Y133.004 E.05152
G1 X126.999 Y133.224 E.05272
G1 X125.391 Y133.239 E.05042
G1 X110.776 Y131.491 E.46151
G1 X109.45 Y131.209 E.04251
G1 X108.234 Y130.783 E.0404
G1 X107.268 Y130.315 E.03366
G1 X106.438 Y129.806 E.03053
G1 X105.578 Y129.153 E.03386
G1 X104.807 Y128.431 E.03312
G1 X96.035 Y119.291 E.39721
G1 X94.88 Y117.806 E.05899
G1 X93.854 Y115.981 E.06564
G1 X93.342 Y114.714 E.04285
G1 X92.955 Y113.379 E.04358
G1 X92.727 Y112.151 E.03916
G1 X92.61 Y110.812 E.04214
G1 X92.621 Y109.57 E.03894
G1 X92.765 Y108.219 E.0426
G1 X93.01 Y107.017 E.03846
G1 X93.427 Y105.667 E.0443
G1 X93.969 Y104.398 E.04327
G1 X94.627 Y103.208 E.04264
G1 X95.43 Y102.052 E.04413
G1 X96.197 Y101.15 E.03712
G1 X97.04 Y100.322 E.03705
G1 X97.04 Y100.322 F6000
G1 X97.307 Y100.607
G1 F1200
G1 X97.627 Y100.307 E.01375
G1 X98.565 Y99.585 E.03711
G1 X99.548 Y98.961 E.03651
G1 X100.757 Y98.348 E.0425
G1 X101.83 Y97.927 E.03614
G1 X103.095 Y97.565 E.04126
G1 X104.272 Y97.347 E.03753
G1 X105.58 Y97.232 E.04117
G1 X135.419 Y97.224 E.93558
G1 X136.798 Y97.297 E.0433
G1 X138.148 Y97.514 E.04287
G1 X139.459 Y97.868 E.04258
G1 X140.739 Y98.361 E.04301
G1 X141.914 Y98.957 E.04131
G1 X143.115 Y99.737 E.0449
G1 X144.174 Y100.598 E.04279
G1 X145.149 Y101.577 E.04332
G1 X146.002 Y102.635 E.04261
G1 X146.735 Y103.768 E.04231
G1 X147.363 Y105.002 E.04341
G1 X147.855 Y106.29 E.04323
G1 X148.208 Y107.616 E.04302
G1 X148.421 Y108.979 E.04325
G1 X148.487 Y110.489 E.04739
G1 X148.414 Y111.706 E.03823
G1 X148.048 Y113.674 E.06276
G1 X147.437 Y115.447 E.0588
G1 X146.517 Y117.215 E.06249
G1 X145.408 Y118.743 E.0592
G1 X134.984 Y129.377 E.4669
G1 X133.362 Y130.662 E.06488
G1 X131.381 Y131.754 E.07092
G1 X129.89 Y132.31 E.04989
G1 X128.369 Y132.676 E.04905
G1 X126.79 Y132.86 E.04984
G1 X125.357 Y132.86 E.04493
G1 X110.834 Y131.119 E.45862
G1 X109.549 Y130.845 E.0412
G1 X108.338 Y130.417 E.04027
G1 X106.652 Y129.496 E.06024
G1 X105.823 Y128.867 E.03263
G1 X105.078 Y128.17 E.03199
G1 X96.199 Y118.907 E.40231
G1 X95.074 Y117.413 E.05864
G1 X94.103 Y115.618 E.06399
G1 X93.682 Y114.544 E.03617
G1 X93.31 Y113.238 E.04258
G1 X93.101 Y112.103 E.03619
G1 X92.984 Y110.72 E.04352
G1 X93.009 Y109.414 E.04096
G1 X93.171 Y108.073 E.04235
G1 X93.476 Y106.736 E.043
G1 X93.851 Y105.611 E.03718
G1 X94.413 Y104.353 E.0432
G1 X95.069 Y103.213 E.04124
G1 X95.776 Y102.222 E.03817
G1 X96.631 Y101.24 E.04083
G1 X97.263 Y100.648 E.02715
G1 X97.263 Y100.648 F6000
G1 X97.52 Y100.924
G1 F1200
G1 X97.907 Y100.564 E.01657
G1 X98.932 Y99.79 E.04027
G1 X99.919 Y99.185 E.0363
G1 X101.077 Y98.62 E.0404
G1 X102.159 Y98.216 E.03621
G1 X103.395 Y97.884 E.04013
G1 X104.52 Y97.695 E.03577
G1 X105.661 Y97.607 E.03588
G1 X135.416 Y97.601 E.93295
G1 X136.754 Y97.672 E.04201
G1 X138.066 Y97.882 E.04166
G1 X139.516 Y98.284 E.04718
G1 X140.748 Y98.779 E.04163
G1 X141.785 Y99.319 E.03666
G1 X143.031 Y100.145 E.04687
G1 X144.053 Y100.999 E.04176
G1 X144.984 Y101.961 E.04198
G1 X145.82 Y103.03 E.04255
G1 X146.526 Y104.163 E.04186
G1 X147.176 Y105.524 E.04729
G1 X147.61 Y106.776 E.04155
G1 X147.914 Y108.081 E.04201
G1 X148.078 Y109.391 E.04139
G1 X148.104 Y110.734 E.04212
G1 X147.992 Y112.043 E.04119
G1 X147.613 Y113.832 E.05734
G1 X147.006 Y115.491 E.05539
G1 X146.078 Y117.204 E.06109
G1 X144.984 Y118.657 E.05703
G1 X134.729 Y129.099 E.45889
G1 X133.004 Y130.446 E.06862
G1 X131.066 Y131.48 E.06887
G1 X129.607 Y132.001 E.04858
G1 X128.261 Y132.312 E.04331
G1 X126.722 Y132.486 E.04856
G1 X125.202 Y132.472 E.04766
G1 X110.892 Y130.746 E.45193
G1 X109.595 Y130.466 E.0416
G1 X108.374 Y130.022 E.04074
G1 X106.916 Y129.219 E.05219
G1 X105.606 Y128.164 E.05274
G1 X96.908 Y119.124 E.39334
G1 X95.511 Y117.392 E.06977
G1 X94.94 Y116.456 E.03438
G1 X94.377 Y115.303 E.04023
G1 X93.97 Y114.216 E.03639
G1 X93.629 Y112.935 E.04156
G1 X93.428 Y111.67 E.04016
G1 X93.358 Y110.505 E.03659
G1 X93.404 Y109.199 E.04097
G1 X93.583 Y107.916 E.04062
G1 X93.855 Y106.782 E.03656
G1 X94.266 Y105.584 E.03971
G1 X94.747 Y104.527 E.03641
G1 X95.408 Y103.384 E.0414
G1 X96.07 Y102.458 E.03569
G1 X96.935 Y101.467 E.04124
G1 X97.476 Y100.965 E.02314
; printing object Scalono id:0 copy 0
G1 E-1.12 F2400
;WIPE_START
G1 F4800
G1 X97.52 Y100.924 E-.02857
G1 X97.907 Y100.564 E-.25106
G1 X98.244 Y100.31 E-.20037
;WIPE_END
G1 X124.596 Y109.501 F6000
G1 E1.6 F2400
;TYPE:Perimeter
G1 F1200
G1 X124.609 Y109.327 E.00547
G1 X124.687 Y109.096 E.00764
G1 X124.818 Y108.95 E.00615
G1 X124.953 Y108.89 E.00463
G1 X125.115 Y108.886 E.00508
G1 X125.252 Y108.951 E.00475
G1 X125.325 Y109.056 E.00401
G1 X125.364 Y109.162 E.00354
G1 X125.497 Y109.768 E.01945
G1 X125.387 Y109.899 E.00536
G1 X125.257 Y109.988 E.00494
G1 X125.106 Y110.026 E.00488
G1 X124.931 Y110.018 E.00549
G1 X124.78 Y109.96 E.00507
G1 X124.673 Y109.849 E.00483
G1 X124.636 Y109.772 E.00268
G1 X124.605 Y109.561 E.00669
G1 E-1.12 F2400
;WIPE_START
G1 F4800
G1 X124.596 Y109.501 E-.02882
G1 X124.609 Y109.327 E-.08288
G1 X124.687 Y109.096 E-.11581
G1 X124.818 Y108.95 E-.09317
G1 X124.953 Y108.89 E-.07017
G1 X125.115 Y108.886 E-.07697
G1 X125.138 Y108.897 E-.01218
;WIPE_END
G1 X121.241 Y107.053 F6000
G1 E1.6 F2400
G1 F1200
G1 X121.234 Y110.092 E.09529
G1 X121.184 Y110.743 E.02047
G1 X122.541 Y110.065 E.04756
G1 X122.561 Y112.189 E.0666
G1 X121.729 Y112.648 E.02979
G1 X121.362 Y112.928 E.01447
G1 X121.077 Y113.221 E.01282
G1 X120.995 Y113.333 E.00435
G1 X120.715 Y113.818 E.01756
G1 X119.206 Y113.818 E.04731
G1 X119.206 Y107.053 E.21211
G1 X121.181 Y107.053 E.06192
G1 X121.181 Y107.053 F6000
G1 X120.863 Y107.43
;TYPE:External perimeter
G1 F1200
G1 X120.857 Y110.08 E.08309
G1 X120.829 Y110.562 E.01514
G1 X120.763 Y111.022 E.01457
G1 X120.766 Y111.51 E.0153
G1 X121.056 Y111.316 E.01094
G1 X121.403 Y111.049 E.01373
G1 X122.169 Y110.67 E.0268
G1 X122.182 Y111.968 E.0407
G1 X121.522 Y112.331 E.02362
G1 X121.111 Y112.646 E.01624
G1 X120.789 Y112.977 E.01448
G1 X120.679 Y113.126 E.00581
G1 X120.497 Y113.441 E.01141
G1 X119.583 Y113.441 E.02866
G1 X119.583 Y107.43 E.18847
G1 X120.803 Y107.43 E.03825
G1 E-1.12 F2400
;WIPE_START
G1 F4800
G1 X120.863 Y107.43 E-.0285
G1 X120.861 Y108.381 E-.4515
;WIPE_END
G1 X117.92 Y107.053 F6000
G1 E1.6 F2400
;TYPE:Perimeter
G1 F1200
G1 X117.855 Y108.148 E.03439
G1 X117.719 Y108.984 E.02656
G1 X117.465 Y109.923 E.0305
G1 X117.292 Y110.404 E.01603
G1 X117.092 Y110.871 E.01593
G1 X116.853 Y111.338 E.01645
G1 X116.584 Y111.754 E.01553
G1 X117.045 Y111.724 E.01448
G1 X118.629 Y111.716 E.04967
G1 X118.629 Y113.727 E.06305
G1 X113.779 Y113.727 E.15207
G1 X113.779 Y112.271 E.04565
G1 X114.187 Y111.8 E.01954
G1 X114.41 Y111.502 E.01167
G1 X114.886 Y110.737 E.02825
G1 X115.103 Y110.321 E.01471
G1 X115.295 Y109.895 E.01465
G1 X115.458 Y109.469 E.0143
G1 X115.68 Y108.716 E.02461
G1 X115.795 Y108.045 E.02135
G1 X115.887 Y107.053 E.03124
G1 X117.86 Y107.053 E.06186
G1 X117.86 Y107.053 F6000
G1 X117.52 Y107.43
;TYPE:External perimeter
G1 F1200
G1 X117.48 Y108.106 E.02123
G1 X117.35 Y108.905 E.02538
G1 X117.106 Y109.81 E.02939
G1 X116.941 Y110.266 E.0152
G1 X116.75 Y110.711 E.01518
G1 X116.526 Y111.149 E.01542
G1 X116.259 Y111.562 E.01542
G1 X115.966 Y111.898 E.01398
G1 X115.757 Y112.196 E.01141
G1 X116.173 Y112.196 E.01304
G1 X116.604 Y112.13 E.01367
G1 X117.058 Y112.101 E.01426
G1 X118.252 Y112.095 E.03744
G1 X118.252 Y113.35 E.03935
G1 X114.156 Y113.35 E.12843
G1 X114.156 Y112.411 E.02944
G1 X114.481 Y112.037 E.01554
G1 X114.722 Y111.715 E.01261
G1 X115.214 Y110.924 E.02921
G1 X115.442 Y110.486 E.01548
G1 X115.643 Y110.04 E.01534
G1 X115.816 Y109.59 E.01512
G1 X116.048 Y108.801 E.02579
G1 X116.169 Y108.094 E.02249
G1 X116.231 Y107.43 E.02091
G1 X117.46 Y107.43 E.03853
G1 E-1.12 F2400
;WIPE_START
G1 F4800
G1 X117.52 Y107.43 E-.0285
G1 X117.48 Y108.106 E-.32166
G1 X117.436 Y108.376 E-.12984
;WIPE_END
G1 X122.773 Y111.717 F6000
G1 E1.6 F2400
;TYPE:Perimeter
G1 F1200
G1 X123.79 Y111.72 E.03189
G1 X123.562 Y111.599 E.00809
G1 X123.2 Y111.298 E.01476
G1 X122.901 Y110.929 E.01489
G1 X122.685 Y110.506 E.01489
G1 X122.558 Y110.046 E.01496
G1 X122.518 Y109.563 E.0152
G1 X122.553 Y109.101 E.01453
G1 X122.661 Y108.66 E.01424
G1 X122.842 Y108.247 E.01414
G1 X123.096 Y107.867 E.01433
G1 X123.483 Y107.475 E.01727
G1 X123.952 Y107.185 E.01729
G1 X124.467 Y107.017 E.01698
G1 X124.783 Y106.973 E.01
G1 X125.051 Y106.961 E.00841
G1 X125.499 Y106.993 E.01408
G1 X125.933 Y107.099 E.01401
G1 X126.337 Y107.282 E.01391
G1 X126.697 Y107.541 E.01391
G1 X126.996 Y107.863 E.01378
G1 X127.223 Y108.234 E.01364
G1 X127.375 Y108.643 E.01368
G1 X127.576 Y109.769 E.03586
G1 X127.443 Y109.78 E.00418
G1 X126.7 Y113.723 E.12581
G1 X122.773 Y113.723 E.12313
G1 X122.773 Y111.777 E.06102
G1 X122.773 Y111.777 F6000
G1 X123.15 Y112.095
;TYPE:External perimeter
G1 F1200
G1 X125.181 Y112.101 E.06368
G1 X125.411 Y112.116 E.00723
G1 X125.496 Y111.87 E.00816
G1 X125.595 Y111.359 E.01632
G1 X125.468 Y111.414 E.00434
G1 X124.904 Y111.577 E.01841
G1 X124.493 Y111.566 E.01289
G1 X124.115 Y111.466 E.01226
G1 X123.773 Y111.284 E.01215
G1 X123.469 Y111.032 E.01238
G1 X123.218 Y110.722 E.01251
G1 X123.038 Y110.369 E.01242
G1 X122.931 Y109.98 E.01265
G1 X122.897 Y109.562 E.01315
G1 X122.927 Y109.16 E.01264
G1 X123.019 Y108.782 E.0122
G1 X123.174 Y108.429 E.01209
G1 X123.39 Y108.106 E.01218
G1 X123.72 Y107.772 E.01472
G1 X124.112 Y107.529 E.01446
G1 X124.552 Y107.386 E.01451
G1 X124.818 Y107.349 E.00842
G1 X125.046 Y107.338 E.00716
G1 X125.44 Y107.367 E.01239
G1 X125.81 Y107.457 E.01194
G1 X126.147 Y107.61 E.0116
G1 X126.446 Y107.825 E.01155
G1 X126.694 Y108.092 E.01143
G1 X126.883 Y108.4 E.01133
G1 X127.01 Y108.743 E.01147
G1 X127.132 Y109.427 E.02178
G1 X125.832 Y109.535 E.0409
G1 X125.726 Y109.055 E.01541
G1 X125.667 Y108.895 E.00535
G1 X125.594 Y108.769 E.00457
G1 X125.509 Y108.673 E.00402
G1 X125.41 Y108.599 E.00388
G1 X125.18 Y108.513 E.0077
G1 X125.045 Y108.502 E.00425
G1 X124.877 Y108.519 E.00529
G1 X124.73 Y108.566 E.00484
G1 X124.595 Y108.644 E.00489
G1 X124.467 Y108.759 E.0054
G1 X124.361 Y108.903 E.00561
G1 X124.284 Y109.07 E.00577
G1 X124.235 Y109.268 E.0064
G1 X124.218 Y109.502 E.00736
G1 X124.234 Y109.719 E.00682
G1 X124.28 Y109.9 E.00586
G1 X124.351 Y110.049 E.00518
G1 X124.45 Y110.175 E.00502
G1 X124.569 Y110.275 E.00487
G1 X124.705 Y110.346 E.00481
G1 X124.864 Y110.391 E.00518
G1 X125.164 Y110.401 E.00941
G1 X125.387 Y110.344 E.00722
G1 X125.469 Y110.304 E.00286
G1 X125.645 Y110.178 E.00679
G1 X125.903 Y109.871 E.01257
G1 X127.015 Y110.013 E.03515
G1 X126.387 Y113.346 E.10634
G1 X123.15 Y113.346 E.10149
G1 X123.15 Y112.155 E.03734
G1 E-1.12 F2400
;WIPE_START
G1 F4800
G1 X123.15 Y112.095 E-.0285
G1 X124.101 Y112.098 E-.4515
;WIPE_END
G1 X129.31 Y109.066 F6000
G1 E1.6 F2400
;TYPE:Perimeter
G1 F1200
G1 X129.31 Y107.053 E.06312
G1 X134.28 Y107.053 E.15583
G1 X134.211 Y108.089 E.03256
G1 X134.119 Y108.426 E.01095
G1 X134.004 Y108.692 E.00909
G1 X133.74 Y109.129 E.01601
G1 X133.557 Y109.363 E.00931
G1 X133.143 Y109.791 E.01867
G1 X132.062 Y110.727 E.04483
G1 X131.686 Y111.098 E.01656
G1 X131.456 Y111.404 E.012
G1 X131.378 Y111.598 E.00656
G1 X131.388 Y111.744 E.00459
G1 X131.44 Y111.815 E.00276
G1 X131.527 Y111.871 E.00324
G1 X131.693 Y111.896 E.00526
G1 X131.803 Y111.887 E.00346
G1 X131.877 Y111.868 E.0024
G1 X131.965 Y111.812 E.00327
G1 X132.022 Y111.72 E.00339
G1 X132.044 Y111.633 E.00281
G1 X132.116 Y110.754 E.02765
G1 X134.218 Y110.969 E.06625
G1 X134.031 Y112.103 E.03604
G1 X133.883 Y112.533 E.01426
G1 X133.657 Y112.922 E.01411
G1 X133.354 Y113.251 E.01402
G1 X132.991 Y113.508 E.01395
G1 X132.582 Y113.686 E.01399
G1 X132.143 Y113.788 E.01413
G1 X131.677 Y113.82 E.01465
G1 X131.204 Y113.785 E.01487
G1 X130.756 Y113.675 E.01446
G1 X130.342 Y113.481 E.01434
G1 X129.982 Y113.206 E.0142
G1 X129.692 Y112.872 E.01387
G1 X129.481 Y112.493 E.0136
G1 X129.355 Y112.077 E.01363
G1 X129.314 Y111.637 E.01386
G1 X129.361 Y111.181 E.01437
G1 X129.501 Y110.738 E.01457
G1 X129.737 Y110.307 E.01541
G1 X130.061 Y109.895 E.01643
G1 X130.511 Y109.443 E.02
G1 X130.983 Y109.046 E.01934
G1 X129.37 Y109.066 E.05058
G1 X129.37 Y109.066 F6000
G1 X129.687 Y108.686
;TYPE:External perimeter
G1 F1200
G1 X129.687 Y107.43 E.03938
G1 X133.877 Y107.43 E.13137
G1 X133.837 Y108.026 E.01873
G1 X133.762 Y108.301 E.00894
G1 X133.668 Y108.519 E.00744
G1 X133.429 Y108.914 E.01448
G1 X133.272 Y109.115 E.008
G1 X132.884 Y109.517 E.01752
G1 X131.806 Y110.45 E.0447
G1 X131.408 Y110.843 E.01754
G1 X131.24 Y111.044 E.00821
G1 X131.126 Y111.22 E.00657
G1 X131.049 Y111.381 E.0056
G1 X131.007 Y111.525 E.0047
G1 X130.994 Y111.656 E.00413
G1 X131.005 Y111.783 E.004
G1 X131.095 Y111.993 E.00716
G1 X131.179 Y112.089 E.004
G1 X131.281 Y112.17 E.00408
G1 X131.395 Y112.226 E.00398
G1 X131.53 Y112.262 E.00438
G1 X131.693 Y112.274 E.00512
G1 X131.867 Y112.261 E.00547
G1 X132.011 Y112.222 E.00468
G1 X132.131 Y112.162 E.00421
G1 X132.233 Y112.08 E.0041
G1 X132.316 Y111.976 E.00417
G1 X132.377 Y111.851 E.00436
G1 X132.418 Y111.696 E.00503
G1 X132.461 Y111.168 E.01661
G1 X133.781 Y111.304 E.04161
G1 X133.664 Y112.011 E.02247
G1 X133.539 Y112.375 E.01207
G1 X133.351 Y112.697 E.01169
G1 X133.103 Y112.966 E.01147
G1 X132.804 Y113.178 E.01149
G1 X132.463 Y113.327 E.01167
G1 X132.087 Y113.414 E.0121
G1 X131.677 Y113.442 E.01289
G1 X131.263 Y113.412 E.01301
G1 X130.882 Y113.318 E.0123
G1 X130.539 Y113.157 E.01188
G1 X130.242 Y112.93 E.01172
G1 X130.003 Y112.654 E.01145
G1 X129.83 Y112.345 E.0111
G1 X129.727 Y112.004 E.01117
G1 X129.693 Y111.639 E.01149
G1 X129.732 Y111.258 E.01201
G1 X129.849 Y110.887 E.0122
G1 X130.053 Y110.516 E.01328
G1 X130.344 Y110.146 E.01476
G1 X130.77 Y109.718 E.01893
G1 X131.065 Y109.457 E.01235
G1 X131.43 Y109.18 E.01437
G1 X131.735 Y109.004 E.01104
