; generated by PrusaSlicer 2.7.2+win64 on 2024-03-26 at 22:01:58 UTC

; 

; external perimeters extrusion width = 0.42mm
; perimeters extrusion width = 0.44mm
; infill extrusion width = 0.44mm
; solid infill extrusion width = 0.44mm
; top infill extrusion width = 0.40mm
; first layer extrusion width = 0.42mm


; printing object Shape-Box id:0 copy 0
; stop printing object Shape-Box id:0 copy 0

;TYPE:Custom
; Ender 3 Custom Start G-code
G92 E0 ; Reset Extruder

M140 S55 ; set bed temp
M104 S160 ; set extruder temp
M109 S160 ; wait for extruder temp
M190 S55 ; wait for bed temp

G28 ; Home all axes
M104 S210 ; set extruder temp 
BED_MESH_CALIBRATE AREA_START=83.7684,88.5669 AREA_END=143.763,126.207

G1 Z2.0 F3000 ; Move Z Axis up little to prevent scratching of Heat Bed
M109 S210 ; wait for extruder temp
G1 X0.1 Y20 Z0.3 F5000.0 ; Move to start position

G1 X0.1 Y200.0 Z0.3 F1500.0 E15 ; Draw the first line
G1 X0.4 Y200.0 Z0.3 F5000.0 ; Move to side a little
G1 X0.4 Y20 Z0.3 F1500.0 E30 ; Draw the second line
G92 E0 ; Reset Extruder
G1 Z2.0 F3000 ; Move Z Axis up little to prevent scratching of Heat Bed
G1 X5 Y20 Z0.3 F5000.0 ; Move over to prevent blob squish
G21 ; set units to millimeters
G90 ; use absolute coordinates
M83 ; use relative distances for extrusion
; Filament gcode
M107
;LAYER_CHANGE
;Z:0.2
;HEIGHT:0.2
G1 E-1.6 F2400
G1 Z.2 F6000
G1 X87.857 Y91.701
G1 Z.2
G1 E1.6 F2400
M204 S500
;TYPE:Skirt/Brim
;WIDTH:0.42
G1 F1200
G1 X88.725 Y90.996 E.03506
G1 X89.656 Y90.382 E.03497
G1 X91.322 Y89.564 E.05819
G1 X93.099 Y89.026 E.05821
G1 X94.721 Y88.79 E.05139
G1 X132.884 Y88.805 E1.19657
G1 X133.843 Y88.938 E.03036
G1 X135.87 Y89.494 E.0659
G1 X137.7 Y90.365 E.06355
G1 X139.14 Y91.376 E.05517
G1 X140.583 Y92.775 E.06302
G1 X141.374 Y93.79 E.04035
G1 X141.835 Y94.519 E.02704
G1 X142.681 Y96.304 E.06194
G1 X143.24 Y98.341 E.06623
G1 X143.425 Y100.341 E.06298
G1 X143.575 Y114.341 E.43899
G1 X143.503 Y115.668 E.04167
G1 X143.296 Y116.888 E.0388
G1 X142.676 Y118.864 E.06493
G1 X141.69 Y120.733 E.06626
G1 X140.467 Y122.296 E.06223
G1 X139.688 Y123.064 E.0343
G1 X138.815 Y123.771 E.03522
G1 X137.173 Y124.778 E.06039
G1 X136.08 Y125.257 E.03742
G1 X134.281 Y125.783 E.05877
G1 X132.523 Y126.003 E.05555
G1 X95.078 Y126.009 E1.17406
G1 X93.39 Y125.81 E.05329
G1 X92.295 Y125.542 E.03535
G1 X91.185 Y125.153 E.03688
G1 X89.854 Y124.506 E.0464
G1 X88.8 Y123.835 E.03918
G1 X87.851 Y123.075 E.03812
G1 X86.76 Y121.96 E.04891
G1 X86.154 Y121.19 E.03072
G1 X85.328 Y119.862 E.04904
G1 X84.772 Y118.665 E.04138
G1 X84.319 Y117.276 E.04581
G1 X84.013 Y115.506 E.05632
G1 X83.957 Y114.505 E.03143
G1 X83.987 Y99.578 E.46803
G1 X84.339 Y97.433 E.06815
G1 X84.956 Y95.673 E.05848
G1 X85.359 Y94.854 E.02862
G1 X86.242 Y93.468 E.05153
G1 X86.875 Y92.684 E.03159
G1 X87.814 Y91.744 E.04166
G1 X87.814 Y91.744 F6000
G1 X88.08 Y92.01
G1 F1200
G1 X88.109 Y91.982 E.00126
G1 X88.937 Y91.308 E.03348
G1 X89.836 Y90.714 E.03378
G1 X91.455 Y89.917 E.05658
G1 X92.992 Y89.437 E.05049
G1 X94.74 Y89.166 E.05546
G1 X131.692 Y89.133 E1.1586
G1 X133.767 Y89.308 E.06529
G1 X135.748 Y89.851 E.0644
G1 X137.509 Y90.69 E.06116
G1 X138.893 Y91.661 E.05301
G1 X140.304 Y93.029 E.06162
G1 X141.07 Y94.013 E.0391
G1 X141.565 Y94.802 E.0292
G1 X142.414 Y96.673 E.06442
G1 X142.882 Y98.473 E.05831
G1 X143.048 Y100.345 E.05893
G1 X143.198 Y114.345 E.43899
G1 X143.13 Y115.614 E.03985
G1 X142.924 Y116.824 E.03848
G1 X142.331 Y118.712 E.06205
G1 X141.369 Y120.534 E.0646
G1 X140.198 Y122.031 E.05959
G1 X139.594 Y122.642 E.02694
G1 X138.603 Y123.459 E.04027
G1 X136.981 Y124.453 E.05965
G1 X135.395 Y125.098 E.05368
G1 X134.218 Y125.411 E.03819
G1 X132.355 Y125.634 E.05883
G1 X95.105 Y125.633 E1.16795
G1 X93.449 Y125.437 E.05229
G1 X92.304 Y125.154 E.03698
G1 X91.337 Y124.807 E.03221
G1 X90.03 Y124.173 E.04555
G1 X89.019 Y123.528 E.0376
G1 X88.102 Y122.794 E.03683
G1 X87.039 Y121.706 E.04769
G1 X86.452 Y120.958 E.02981
G1 X85.657 Y119.676 E.0473
G1 X85.128 Y118.539 E.03932
G1 X84.684 Y117.182 E.04477
G1 X84.387 Y115.46 E.05479
G1 X84.334 Y114.505 E.02999
G1 X84.363 Y99.603 E.46724
G1 X84.7 Y97.541 E.06551
G1 X85.307 Y95.811 E.05748
G1 X85.705 Y95.004 E.02821
G1 X86.553 Y93.681 E.04927
G1 X87.156 Y92.934 E.0301
G1 X88.038 Y92.052 E.03911
G1 X88.038 Y92.052 F6000
G1 X88.304 Y92.318
G1 F1200
G1 X88.361 Y92.262 E.00251
G1 X89.149 Y91.62 E.03187
G1 X90.029 Y91.037 E.0331
G1 X91.588 Y90.27 E.05448
G1 X93.208 Y89.774 E.05312
G1 X94.758 Y89.543 E.04914
G1 X131.692 Y89.51 E1.15804
G1 X133.69 Y89.677 E.06286
G1 X135.628 Y90.208 E.063
G1 X137.318 Y91.015 E.05872
G1 X138.647 Y91.947 E.0509
G1 X140.013 Y93.269 E.0596
G1 X140.766 Y94.236 E.03843
G1 X141.237 Y94.988 E.02782
G1 X142.054 Y96.785 E.06189
G1 X142.512 Y98.545 E.05702
G1 X142.671 Y100.349 E.05678
G1 X142.821 Y114.349 E.43899
G1 X142.744 Y115.641 E.04058
G1 X142.521 Y116.917 E.04061
G1 X142.276 Y117.78 E.02813
G1 X141.409 Y119.75 E.06749
G1 X140.675 Y120.874 E.04209
G1 X140.018 Y121.672 E.03241
G1 X139.333 Y122.37 E.03066
G1 X138.39 Y123.147 E.03831
G1 X136.804 Y124.12 E.05834
G1 X135.27 Y124.742 E.0519
G1 X134.141 Y125.042 E.03663
G1 X132.345 Y125.257 E.05671
G1 X95.131 Y125.257 E1.16682
G1 X93.508 Y125.065 E.05124
G1 X92.409 Y124.792 E.03551
G1 X91.488 Y124.462 E.03068
G1 X90.206 Y123.839 E.04469
G1 X89.238 Y123.221 E.03601
G1 X88.306 Y122.47 E.03753
G1 X87.318 Y121.453 E.04446
G1 X86.76 Y120.741 E.02836
G1 X85.985 Y119.491 E.04611
G1 X85.483 Y118.413 E.03729
G1 X85.05 Y117.087 E.04374
G1 X84.761 Y115.415 E.0532
G1 X84.739 Y99.629 E.49496
G1 X85.061 Y97.651 E.06284
G1 X85.658 Y95.948 E.05658
G1 X86.04 Y95.178 E.02695
G1 X86.862 Y93.897 E.04772
G1 X87.438 Y93.185 E.02871
G1 X88.262 Y92.361 E.03654
; printing object Shape-Box id:0 copy 0
G1 E-1.12 F2400
;WIPE_START
G1 F4800
G1 X88.304 Y92.318 E-.02855
G1 X88.361 Y92.262 E-.03796
G1 X89.036 Y91.712 E-.41349
;WIPE_END
G1 X128.327 Y101.941 F6000
G1 E1.6 F2400
;TYPE:Perimeter
G1 F1200
G1 X128.35 Y101.962 E.00098
G1 X128.399 Y102.094 E.00441
G1 X128.414 Y102.225 E.00413
G1 X128.385 Y102.392 E.00531
G1 X128.302 Y102.517 E.0047
G1 X128.178 Y102.6 E.00468
G1 X127.999 Y102.631 E.0057
G1 X127.809 Y102.598 E.00605
G1 X127.675 Y102.509 E.00504
G1 X127.585 Y102.378 E.00498
G1 X127.553 Y102.194 E.00586
G1 X127.584 Y102.014 E.00573
G1 X127.666 Y101.893 E.00458
G1 X127.791 Y101.81 E.0047
G1 X127.856 Y101.792 E.00211
G1 X128.093 Y101.791 E.00743
G1 X128.219 Y101.84 E.00424
G1 X128.283 Y101.9 E.00275
G1 X128.283 Y101.9 F6000
G1 X128.633 Y101.718
;TYPE:External perimeter
G1 F1200
G1 X128.691 Y101.798 E.0031
G1 X128.768 Y102.006 E.00695
G1 X128.793 Y102.218 E.00669
G1 X128.779 Y102.384 E.00522
G1 X128.737 Y102.532 E.00482
G1 X128.668 Y102.664 E.00467
G1 X128.571 Y102.784 E.00484
G1 X128.451 Y102.882 E.00486
G1 X128.318 Y102.952 E.00471
G1 X128.169 Y102.994 E.00485
G1 X127.999 Y103.009 E.00535
G1 X127.824 Y102.994 E.00551
G1 X127.67 Y102.951 E.00501
G1 X127.533 Y102.88 E.00484
G1 X127.409 Y102.779 E.00501
G1 X127.306 Y102.656 E.00503
G1 X127.234 Y102.521 E.0048
G1 X127.19 Y102.368 E.00499
G1 X127.174 Y102.194 E.00548
G1 X127.189 Y102.023 E.00538
G1 X127.232 Y101.874 E.00486
G1 X127.301 Y101.742 E.00467
G1 X127.399 Y101.623 E.00483
G1 X127.519 Y101.526 E.00484
G1 X127.653 Y101.457 E.00473
G1 X127.8 Y101.417 E.00478
G1 X128.094 Y101.408 E.00922
G1 X128.196 Y101.426 E.00325
G1 X128.405 Y101.508 E.00704
G1 X128.573 Y101.635 E.0066
G1 X128.598 Y101.669 E.00132
G1 X128.598 Y101.669 F6000
G1 X128.27 Y102.347
;TYPE:Solid infill
;WIDTH:0.495415
G1 F1200
G1 X127.844 Y101.921 E.02267
G1 E-1.12 F2400
;WIPE_START
G1 F4800
G1 X128.27 Y102.347 E-.28617
;WIPE_END
G1 E-.19383 F2400
G1 X127.813 Y104.366 F6000
G1 E1.6 F2400
;TYPE:Perimeter
;WIDTH:0.42
G1 F1200
G1 X127.871 Y104.329 E.00216
G1 X128.048 Y104.317 E.00556
G1 X128.135 Y104.346 E.00288
G1 X128.185 Y104.396 E.00222
G1 X128.211 Y104.464 E.00228
G1 X128.205 Y104.588 E.00389
G1 X128.164 Y104.645 E.0022
G1 X128.098 Y104.688 E.00247
G1 X127.99 Y104.705 E.00343
G1 X127.889 Y104.689 E.00321
G1 X127.821 Y104.642 E.00259
G1 X127.776 Y104.579 E.00243
G1 X127.762 Y104.495 E.00267
G1 X127.774 Y104.422 E.00232
G1 X127.779 Y104.415 E.00027
G1 X127.779 Y104.415 F6000
G1 X128.501 Y104.186
;TYPE:External perimeter
G1 F1200
G1 X128.584 Y104.397 E.00711
G1 X128.584 Y104.639 E.00759
G1 X128.502 Y104.83 E.00652
G1 X128.336 Y104.99 E.00723
G1 X128.121 Y105.073 E.00723
G1 X127.86 Y105.073 E.00818
G1 X127.648 Y104.988 E.00716
G1 X127.479 Y104.821 E.00745
G1 X127.394 Y104.617 E.00693
G1 X127.394 Y104.379 E.00746
G1 X127.475 Y104.183 E.00665
G1 X127.637 Y104.025 E.0071
G1 X127.849 Y103.944 E.00712
G1 X128.11 Y103.943 E.00818
G1 X128.24 Y103.977 E.00421
G1 X128.34 Y104.027 E.00351
G1 X128.458 Y104.144 E.00521
G1 E-1.12 F2400
;WIPE_START
G1 F4800
G1 X128.501 Y104.186 E-.02855
G1 X128.584 Y104.397 E-.1077
G1 X128.584 Y104.639 E-.11495
G1 X128.502 Y104.83 E-.09873
G1 X128.336 Y104.99 E-.10951
G1 X128.296 Y105.006 E-.02056
;WIPE_END
G1 X104.274 Y111.144 F6000
G1 E1.6 F2400
G1 F1200
G1 X103.631 Y112.07 E.03535
G1 X103.316 Y112.523 E.0173
G1 X103.316 Y111.144 E.04324
G1 X104.214 Y111.144 E.02816
G1 E-1.12 F2400
;WIPE_START
G1 F4800
G1 X104.274 Y111.144 E-.0285
G1 X103.732 Y111.925 E-.4515
;WIPE_END
G1 X94.991 Y111.143 F6000
G1 E1.6 F2400
;TYPE:Perimeter
G1 F1200
G1 X94.943 Y111.077 E.00256
G1 X94.89 Y110.843 E.00752
G1 X94.89 Y110.671 E.00539
G1 X94.911 Y110.521 E.00475
G1 X94.993 Y110.33 E.00652
G1 X95.053 Y110.263 E.00282
G1 X95.161 Y110.195 E.004
G1 X95.305 Y110.186 E.00452
G1 X95.469 Y110.258 E.00562
G1 X95.597 Y110.422 E.00652
G1 X95.665 Y110.625 E.00671
G1 X95.678 Y110.868 E.00763
G1 X95.628 Y111.065 E.00637
G1 X95.522 Y111.199 E.00536
G1 X95.394 Y111.271 E.0046
G1 X95.226 Y111.286 E.00529
G1 X95.152 Y111.271 E.00237
G1 X95.038 Y111.206 E.00411
G1 X95.027 Y111.191 E.00058
G1 X95.027 Y111.191 F6000
G1 X94.68 Y111.373
;TYPE:External perimeter
G1 F1200
G1 X94.598 Y111.235 E.00503
G1 X94.542 Y111.069 E.00549
G1 X94.512 Y110.871 E.00628
G1 X94.513 Y110.644 E.00712
G1 X94.543 Y110.435 E.00662
G1 X94.601 Y110.258 E.00584
G1 X94.685 Y110.11 E.00534
G1 X94.794 Y109.986 E.00518
G1 X94.914 Y109.894 E.00474
G1 X95.039 Y109.835 E.00433
G1 X95.173 Y109.806 E.0043
G1 X95.348 Y109.809 E.00549
G1 X95.443 Y109.829 E.00304
G1 X95.65 Y109.923 E.00713
G1 X95.728 Y109.981 E.00305
G1 X95.888 Y110.169 E.00774
G1 X95.944 Y110.27 E.00362
G1 X96.032 Y110.534 E.00873
G1 X96.056 Y110.897 E.01141
G1 X96.026 Y111.078 E.00575
G1 X95.968 Y111.234 E.00522
G1 X95.882 Y111.369 E.00502
G1 X95.768 Y111.487 E.00514
G1 X95.642 Y111.575 E.00482
G1 X95.505 Y111.633 E.00466
G1 X95.354 Y111.663 E.00483
G1 X95.19 Y111.663 E.00514
G1 X95.04 Y111.634 E.00479
G1 X94.907 Y111.576 E.00455
G1 X94.787 Y111.49 E.00463
G1 X94.72 Y111.418 E.00308
G1 E-1.12 F2400
;WIPE_START
G1 F4800
G1 X94.68 Y111.373 E-.0286
G1 X94.598 Y111.235 E-.07625
G1 X94.542 Y111.069 E-.08322
G1 X94.512 Y110.871 E-.09512
G1 X94.513 Y110.644 E-.10783
G1 X94.539 Y110.458 E-.08898
;WIPE_END
G1 X99.391 Y104.6 F6000
G1 E1.6 F2400
;TYPE:Perimeter
G1 F1200
G1 X99.317 Y104.57 E.0025
G1 X99.239 Y104.488 E.00355
G1 X99.191 Y104.391 E.00339
G1 X99.127 Y104.138 E.00818
G1 X99.071 Y103.513 E.01967
G1 X99.071 Y102.976 E.01684
G1 X99.131 Y102.332 E.02028
G1 X99.191 Y102.094 E.0077
G1 X99.247 Y101.981 E.00395
G1 X99.335 Y101.893 E.0039
G1 X99.446 Y101.906 E.0035
G1 X99.518 Y101.979 E.00321
G1 X99.572 Y102.088 E.00381
G1 X99.633 Y102.335 E.00798
G1 X99.678 Y102.72 E.01215
G1 X99.69 Y103.508 E.02471
G1 X99.624 Y104.168 E.0208
G1 X99.597 Y104.288 E.00386
G1 X99.522 Y104.494 E.00687
G1 X99.466 Y104.572 E.00301
G1 X99.447 Y104.579 E.00063
G1 X99.447 Y104.579 F6000
G1 X99.389 Y104.98
;TYPE:External perimeter
G1 F1200
G1 X99.266 Y104.965 E.00389
G1 X99.091 Y104.88 E.0061
G1 X98.927 Y104.706 E.0075
G1 X98.835 Y104.522 E.00645
G1 X98.757 Y104.212 E.01002
G1 X98.728 Y104.017 E.00618
G1 X98.694 Y103.526 E.01543
G1 X98.694 Y102.959 E.01778
G1 X98.758 Y102.268 E.02176
G1 X98.835 Y101.963 E.00986
G1 X98.93 Y101.772 E.00669
G1 X99.036 Y101.646 E.00516
G1 X99.146 Y101.563 E.00432
G1 X99.251 Y101.52 E.00356
G1 X99.444 Y101.508 E.00606
G1 X99.623 Y101.567 E.00591
G1 X99.729 Y101.646 E.00415
G1 X99.835 Y101.769 E.00509
G1 X99.928 Y101.959 E.00663
G1 X100.005 Y102.268 E.00998
G1 X100.055 Y102.696 E.01351
G1 X100.067 Y103.524 E.02596
G1 X99.997 Y104.228 E.02218
G1 X99.959 Y104.395 E.00537
G1 X99.861 Y104.665 E.00901
G1 X99.762 Y104.813 E.00558
G1 X99.676 Y104.891 E.00364
G1 X99.51 Y104.966 E.00571
G1 X99.449 Y104.973 E.00193
G1 X99.449 Y104.973 F6000
G1 X99.391 Y104.288
;TYPE:Gap fill
;WIDTH:0.173817
G1 F1200
G1 X99.376 Y104.089 E.00217
;WIDTH:0.249897
G1 X99.384 Y102.56 E.02631
;WIDTH:0.175234
G1 X99.367 Y102.186 E.00412
G1 E-1.12 F2400
;WIPE_START
G1 F4800
G1 X99.384 Y102.56 E-.17783
G1 X99.381 Y103.196 E-.30217
;WIPE_END
G1 X103.53 Y104.572 F6000
G1 E1.6 F2400
;TYPE:Perimeter
;WIDTH:0.42
G1 F1200
G1 X103.455 Y104.6 E.00251
G1 X103.381 Y104.57 E.0025
G1 X103.303 Y104.488 E.00355
G1 X103.255 Y104.391 E.00339
G1 X103.191 Y104.138 E.00818
G1 X103.135 Y103.513 E.01967
G1 X103.135 Y102.976 E.01684
G1 X103.195 Y102.332 E.02028
G1 X103.255 Y102.094 E.0077
G1 X103.311 Y101.981 E.00395
G1 X103.399 Y101.893 E.0039
G1 X103.51 Y101.906 E.0035
G1 X103.582 Y101.979 E.00321
G1 X103.635 Y102.088 E.0038
G1 X103.697 Y102.335 E.00798
G1 X103.742 Y102.72 E.01215
G1 X103.754 Y103.508 E.02471
G1 X103.688 Y104.168 E.0208
G1 X103.661 Y104.288 E.00386
G1 X103.586 Y104.494 E.00687
G1 X103.565 Y104.523 E.00112
G1 X103.565 Y104.523 F6000
G1 X103.74 Y104.891
;TYPE:External perimeter
G1 F1200
G1 X103.574 Y104.966 E.00571
G1 X103.453 Y104.98 E.00382
G1 X103.33 Y104.965 E.00389
G1 X103.155 Y104.88 E.0061
G1 X102.991 Y104.706 E.0075
G1 X102.899 Y104.522 E.00645
G1 X102.821 Y104.212 E.01002
G1 X102.792 Y104.017 E.00618
G1 X102.758 Y103.526 E.01543
G1 X102.758 Y102.959 E.01778
G1 X102.822 Y102.268 E.02176
G1 X102.899 Y101.963 E.00986
G1 X102.993 Y101.772 E.00667
G1 X103.1 Y101.646 E.00518
G1 X103.21 Y101.563 E.00432
G1 X103.315 Y101.52 E.00356
G1 X103.508 Y101.508 E.00606
G1 X103.687 Y101.567 E.00591
G1 X103.793 Y101.646 E.00415
G1 X103.899 Y101.769 E.00509
G1 X103.992 Y101.959 E.00663
G1 X104.069 Y102.268 E.00998
G1 X104.119 Y102.696 E.01351
G1 X104.131 Y103.524 E.02596
G1 X104.061 Y104.228 E.02218
G1 X104.023 Y104.395 E.00537
G1 X103.925 Y104.665 E.00901
G1 X103.826 Y104.813 E.00558
G1 X103.784 Y104.851 E.00178
G1 X103.784 Y104.851 F6000
G1 X103.455 Y104.288
;TYPE:Gap fill
;WIDTH:0.173814
G1 F1200
G1 X103.44 Y104.089 E.00217
;WIDTH:0.249898
G1 X103.448 Y102.56 E.02631
;WIDTH:0.175233
G1 X103.431 Y102.186 E.00412
G1 E-1.12 F2400
;WIPE_START
G1 F4800
G1 X103.448 Y102.56 E-.17783
G1 X103.445 Y103.196 E-.30217
;WIPE_END
G1 X118.207 Y111.025 F6000
G1 E1.6 F2400
;TYPE:Perimeter
;WIDTH:0.42
G1 F1200
G1 X118.052 Y111.174 E.00674
G1 X117.872 Y111.254 E.00618
G1 X117.739 Y111.257 E.00417
G1 X117.557 Y111.205 E.00593
G1 X117.449 Y111.071 E.0054
G1 X117.41 Y110.9 E.0055
G1 X117.419 Y110.662 E.00747
G1 X117.466 Y110.501 E.00526
G1 X117.538 Y110.392 E.0041
G1 X117.623 Y110.323 E.00343
G1 X117.718 Y110.287 E.00319
G1 X117.836 Y110.285 E.0037
G1 X117.925 Y110.322 E.00302
G1 X118.012 Y110.44 E.0046
G1 X118.188 Y110.968 E.01745
G1 E-1.12 F2400
;WIPE_START
G1 F4800
G1 X118.207 Y111.025 E-.02854
G1 X118.052 Y111.174 E-.10213
G1 X117.872 Y111.254 E-.09356
G1 X117.739 Y111.257 E-.06319
G1 X117.557 Y111.205 E-.08991
G1 X117.449 Y111.071 E-.08175
G1 X117.439 Y111.028 E-.02092
;WIPE_END
G1 X123.663 Y112.813 F6000
G1 E1.6 F2400
G1 F1200
G1 X123.687 Y112.711 E.00329
G1 X123.813 Y112.491 E.00795
G1 X123.942 Y112.335 E.00635
G1 X124.267 Y112.015 E.0143
G1 X124.183 Y112.855 E.02647
G1 X124.157 Y112.912 E.00196
G1 X124.071 Y112.98 E.00344
G1 X123.915 Y113.004 E.00495
G1 X123.83 Y112.997 E.00267
G1 X123.756 Y112.973 E.00244
G1 X123.687 Y112.913 E.00287
G1 X123.677 Y112.871 E.00135
G1 E-1.12 F2400
;WIPE_START
G1 F4800
G1 X123.663 Y112.813 E-.02834
G1 X123.687 Y112.711 E-.04977
G1 X123.813 Y112.491 E-.12043
G1 X123.942 Y112.335 E-.09615
