; generated by PrusaSlicer 2.7.2+win64 on 2024-03-08 at 22:04:15 UTC

; 

; external perimeters extrusion width = 0.42mm
; perimeters extrusion width = 0.44mm
; infill extrusion width = 0.44mm
; solid infill extrusion width = 0.44mm
; top infill extrusion width = 0.40mm
; first layer extrusion width = 0.42mm


; printing object Shape-Box id:0 copy 0
; stop printing object Shape-Box id:0 copy 0

;TYPE:Custom
; Ender 3 Custom Start G-code
G92 E0 ; Reset Extruder

M140 S55 ; set bed temp
M104 S160 ; set extruder temp
M109 S160 ; wait for extruder temp
M190 S55 ; wait for bed temp

G28 ; Home all axes
M104 S210 ; set extruder temp 
BED_MESH_CALIBRATE AREA_START=91.8167,94.3025 AREA_END=135.805,122.642

G1 Z2.0 F3000 ; Move Z Axis up little to prevent scratching of Heat Bed
M109 S210 ; wait for extruder temp
G1 X0.1 Y20 Z0.3 F5000.0 ; Move to start position

G1 X0.1 Y200.0 Z0.3 F1500.0 E15 ; Draw the first line
G1 X0.4 Y200.0 Z0.3 F5000.0 ; Move to side a little
G1 X0.4 Y20 Z0.3 F1500.0 E30 ; Draw the second line
G92 E0 ; Reset Extruder
G1 Z2.0 F3000 ; Move Z Axis up little to prevent scratching of Heat Bed
G1 X5 Y20 Z0.3 F5000.0 ; Move over to prevent blob squish
G21 ; set units to millimeters
G90 ; use absolute coordinates
M83 ; use relative distances for extrusion
; Filament gcode
M107
;LAYER_CHANGE
;Z:0.2
;HEIGHT:0.2
G1 E-1.6 F2400
G1 Z.2 F6000
G1 X95.044 Y96.796
G1 Z.2
G1 E1.6 F2400
M204 S500
;TYPE:Skirt/Brim
;WIDTH:0.42
G1 F1200
G1 X95.752 Y96.224 E.02683
G1 X96.483 Y95.745 E.02576
G1 X97.772 Y95.116 E.04227
G1 X99.164 Y94.698 E.04284
G1 X100.436 Y94.516 E.03787
G1 X126.358 Y94.491 E.764
G1 X127.821 Y94.599 E.04324
G1 X129.198 Y94.925 E.04171
G1 X130.468 Y95.44 E.04039
G1 X132.014 Y96.415 E.05387
G1 X133.158 Y97.478 E.04603
G1 X134.037 Y98.611 E.04226
G1 X134.714 Y99.856 E.04177
G1 X135.243 Y101.392 E.04788
G1 X135.407 Y102.219 E.02485
G1 X135.511 Y103.53 E.03876
G1 X135.616 Y113.33 E.28885
G1 X135.541 Y114.503 E.03464
G1 X135.18 Y116.145 E.04955
G1 X134.44 Y117.846 E.05467
G1 X133.846 Y118.758 E.03208
G1 X133.297 Y119.432 E.02562
G1 X132.072 Y120.571 E.0493
G1 X130.699 Y121.442 E.04792
G1 X129.749 Y121.865 E.03065
G1 X128.329 Y122.275 E.04356
G1 X127.015 Y122.44 E.03903
G1 X100.663 Y122.445 E.77667
G1 X99.403 Y122.296 E.03739
G1 X98.552 Y122.092 E.02579
G1 X97.626 Y121.768 E.02891
G1 X96.636 Y121.288 E.03243
G1 X95.801 Y120.759 E.02913
G1 X95.063 Y120.171 E.02781
G1 X93.803 Y118.795 E.05499
G1 X93.089 Y117.672 E.03922
G1 X92.63 Y116.68 E.03222
G1 X92.288 Y115.627 E.03263
G1 X92.051 Y114.269 E.04063
G1 X92.028 Y102.939 E.33393
G1 X92.146 Y102.002 E.02783
G1 X92.45 Y100.773 E.03731
G1 X93.184 Y99.1 E.05385
G1 X94.297 Y97.542 E.05643
G1 X95.001 Y96.839 E.02932
G1 X95.001 Y96.839 F6000
G1 X95.286 Y97.152
G1 F1200
G1 X95.964 Y96.536 E.027
G1 X96.664 Y96.076 E.02469
G1 X97.905 Y95.469 E.04072
G1 X99.236 Y95.068 E.04097
G1 X100.455 Y94.893 E.0363
G1 X126.358 Y94.868 E.76344
G1 X127.979 Y95.008 E.04795
G1 X129.467 Y95.416 E.04547
G1 X130.847 Y96.071 E.04502
G1 X131.94 Y96.839 E.03937
G1 X133.026 Y97.897 E.04469
G1 X133.987 Y99.253 E.04898
G1 X134.571 Y100.499 E.04056
G1 X134.992 Y102.018 E.04646
G1 X135.134 Y103.534 E.04488
G1 X135.239 Y113.334 E.28885
G1 X135.184 Y114.349 E.02996
G1 X135.037 Y115.215 E.02589
G1 X134.562 Y116.733 E.04688
G1 X133.837 Y118.109 E.04584
G1 X132.901 Y119.304 E.04474
G1 X131.661 Y120.407 E.04891
G1 X130.464 Y121.141 E.04138
G1 X129.604 Y121.517 E.02766
G1 X128.266 Y121.904 E.04105
G1 X126.986 Y122.064 E.03802
G1 X100.69 Y122.069 E.77502
G1 X99.462 Y121.924 E.03644
G1 X98.559 Y121.703 E.0274
G1 X97.777 Y121.423 E.02448
G1 X96.812 Y120.954 E.03162
G1 X96.02 Y120.452 E.02764
G1 X95.294 Y119.872 E.02739
G1 X94.024 Y118.46 E.05597
G1 X93.418 Y117.486 E.03381
G1 X92.985 Y116.554 E.03029
G1 X92.653 Y115.533 E.03164
G1 X92.425 Y114.224 E.03916
G1 X92.405 Y102.965 E.33184
G1 X92.673 Y101.343 E.04845
G1 X93.12 Y100.069 E.03979
G1 X93.435 Y99.424 E.02116
G1 X93.827 Y98.773 E.0224
G1 X94.565 Y97.808 E.03581
G1 X95.242 Y97.193 E.02696
G1 X95.242 Y97.193 F6000
G1 X95.494 Y97.469
G1 F1200
G1 X96.175 Y96.848 E.02716
G1 X96.857 Y96.4 E.02405
G1 X98.038 Y95.822 E.03875
G1 X99.274 Y95.445 E.03809
G1 X100.474 Y95.269 E.03575
G1 X126.358 Y95.245 E.76288
G1 X127.902 Y95.377 E.04567
G1 X129.344 Y95.772 E.04407
G1 X130.656 Y96.396 E.04282
G1 X131.693 Y97.124 E.03734
G1 X132.735 Y98.137 E.04283
G1 X133.659 Y99.439 E.04706
G1 X134.223 Y100.643 E.03919
G1 X134.623 Y102.097 E.04445
G1 X134.757 Y103.538 E.04265
G1 X134.862 Y113.338 E.28885
G1 X134.81 Y114.295 E.02825
G1 X134.665 Y115.152 E.02562
G1 X134.217 Y116.581 E.04414
G1 X133.486 Y117.958 E.04595
G1 X132.632 Y119.04 E.04063
G1 X131.449 Y120.095 E.04672
G1 X130.287 Y120.808 E.04018
G1 X129.48 Y121.161 E.02596
G1 X128.277 Y121.518 E.03698
G1 X126.957 Y121.688 E.03923
G1 X100.717 Y121.693 E.77337
G1 X99.521 Y121.552 E.03549
G1 X98.665 Y121.341 E.02598
G1 X96.988 Y120.621 E.05379
G1 X96.225 Y120.136 E.02665
G1 X95.499 Y119.548 E.02754
G1 X94.332 Y118.242 E.05162
G1 X93.746 Y117.3 E.0327
G1 X93.341 Y116.429 E.02831
G1 X93.018 Y115.438 E.03072
G1 X92.8 Y114.178 E.03769
G1 X92.781 Y102.99 E.32974
G1 X93.034 Y101.453 E.04591
G1 X93.471 Y100.207 E.03892
G1 X93.77 Y99.598 E.02
G1 X94.847 Y98.059 E.05536
G1 X95.45 Y97.51 E.02403
; printing object Shape-Box id:0 copy 0
G1 E-1.12 F2400
;WIPE_START
G1 F4800
G1 X95.494 Y97.469 E-.02857
G1 X96.175 Y96.848 E-.43777
G1 X96.199 Y96.832 E-.01366
;WIPE_END
G1 X114.312 Y107.839 F6000
G1 E1.6 F2400
;TYPE:External perimeter
G1 F1200
G1 X114.033 Y107.769 E.00848
G1 X113.749 Y107.773 E.00837
G1 X113.585 Y107.804 E.00492
G1 X113.311 Y107.917 E.00874
G1 X113.416 Y107.589 E.01015
G1 X113.53 Y107.428 E.00581
G1 X113.691 Y107.342 E.00538
G1 X113.809 Y107.313 E.00358
G1 X113.962 Y107.314 E.00451
G1 X114.14 Y107.381 E.00561
G1 X114.166 Y107.407 E.00108
G1 X114.293 Y107.782 E.01167
G1 E-1.12 F2400
;WIPE_START
G1 F4800
G1 X114.312 Y107.839 E-.02854
G1 X114.033 Y107.769 E-.13663
G1 X113.749 Y107.773 E-.13491
G1 X113.585 Y107.804 E-.07928
G1 X113.389 Y107.885 E-.10064
;WIPE_END
G1 X99.733 Y109.554 F6000
G1 E1.6 F2400
G1 F1200
G1 X99.626 Y109.214 E.01051
G1 X99.892 Y109.281 E.00808
G1 X100.168 Y109.279 E.00813
G1 X100.325 Y109.25 E.00471
G1 X100.623 Y109.132 E.00945
G1 X100.566 Y109.353 E.00673
G1 X100.519 Y109.453 E.00326
G1 X100.394 Y109.622 E.0062
G1 X100.262 Y109.699 E.0045
G1 X100.083 Y109.743 E.00543
G1 X99.906 Y109.71 E.00531
G1 X99.8 Y109.661 E.00344
G1 X99.765 Y109.605 E.00195
G1 E-1.12 F2400
;WIPE_START
G1 F4800
G1 X99.733 Y109.554 E-.0286
G1 X99.626 Y109.214 E-.16931
G1 X99.892 Y109.281 E-.1303
G1 X100.168 Y109.279 E-.1311
G1 X100.211 Y109.271 E-.02069
;WIPE_END
G1 X111.972 Y108.721 F6000
G1 E1.6 F2400
;TYPE:Perimeter
G1 F1200
G1 X111.523 Y108.616 E.01359
G1 X111.955 Y108.227 E.01713
G1 X111.951 Y108.276 E.00145
G1 X111.969 Y108.661 E.01136
G1 E-1.12 F2400
;WIPE_START
G1 F4800
G1 X111.972 Y108.721 E-.02854
G1 X111.523 Y108.616 E-.21903
G1 X111.887 Y108.288 E-.23243
;WIPE_END
G1 X107.627 Y107.974 F6000
G1 E1.6 F2400
;TYPE:External perimeter
G1 F1200
G1 X106.763 Y107.983 E.02547
G1 X106.582 Y107.718 E.00946
G1 X106.497 Y107.524 E.00624
G1 X106.375 Y107.427 E.00459
G1 X106.256 Y107.385 E.00372
G1 X106.088 Y107.388 E.00495
G1 X105.98 Y107.425 E.00336
G1 X105.879 Y107.503 E.00376
G1 X105.801 Y107.595 E.00355
G1 X105.743 Y107.829 E.00711
G1 X105.834 Y108.069 E.00756
G1 X105.96 Y108.161 E.0046
G1 X106.067 Y108.208 E.00344
G1 X106.698 Y108.252 E.01864
G1 X106.588 Y109.037 E.02336
G1 X106.259 Y109.053 E.00971
G1 X106.008 Y109.197 E.00853
G1 X105.935 Y109.282 E.0033
G1 X105.905 Y109.494 E.00631
G1 X105.994 Y109.616 E.00445
G1 X106.189 Y109.676 E.00601
G1 X106.337 Y109.656 E.0044
G1 X106.444 Y109.6 E.00356
G1 X106.584 Y109.449 E.00607
G1 X106.678 Y109.123 E.01
G1 X107.601 Y109.166 E.02723
G1 X107.5 Y109.708 E.01625
G1 X107.412 Y109.947 E.00751
G1 X107.278 Y110.157 E.00734
G1 X107.109 Y110.333 E.00719
G1 X106.91 Y110.474 E.00719
G1 X106.69 Y110.574 E.00712
G1 X106.451 Y110.632 E.00725
G1 X106.195 Y110.651 E.00757
G1 X105.848 Y110.612 E.01029
G1 X105.52 Y110.489 E.01032
G1 X105.241 Y110.291 E.01008
G1 X105.028 Y110.032 E.00988
G1 X104.959 Y109.861 E.00543
G1 X104.855 Y109.412 E.01358
G1 X104.935 Y109.111 E.00918
G1 X105.067 Y108.799 E.00998
G1 X105.221 Y108.734 E.00493
G1 X105.181 Y108.704 E.00147
G1 X105.052 Y108.698 E.00381
G1 X104.931 Y108.55 E.00563
G1 X104.712 Y108.144 E.0136
G1 X104.679 Y107.821 E.00957
G1 X104.7 Y107.536 E.00842
G1 X104.784 Y107.266 E.00833
G1 X104.921 Y107.02 E.0083
G1 X105.11 Y106.802 E.0085
G1 X105.34 Y106.623 E.00859
G1 X105.599 Y106.495 E.00851
G1 X105.881 Y106.419 E.00861
G1 X106.137 Y106.396 E.00758
G1 X106.456 Y106.415 E.00942
G1 X106.718 Y106.482 E.00797
G1 X106.957 Y106.595 E.00779
G1 X107.171 Y106.754 E.00786
G1 X107.348 Y106.95 E.00778
G1 X107.483 Y107.176 E.00776
G1 X107.563 Y107.429 E.00782
G1 X107.62 Y107.914 E.01439
G1 X107.62 Y107.914 F6000
G1 X106.225 Y107.841
;TYPE:Perimeter
G1 F1200
G1 X106.146 Y107.83 E.00235
G1 X106.146 Y107.773 E.00168
G1 X106.192 Y107.763 E.00139
G1 X106.202 Y107.786 E.00074
G1 X106.202 Y107.786 F6000
G1 X104.302 Y107.838
G1 F1200
G1 X104.344 Y108.257 E.01241
G1 X104.654 Y108.807 E.01861
G1 X104.578 Y108.989 E.00581
G1 X104.522 Y109.2 E.00643
G1 X103.75 Y109.223 E.02276
G1 X103.904 Y108.959 E.00901
G1 X104.059 Y108.629 E.01075
G1 X104.186 Y108.284 E.01084
G1 X104.287 Y107.896 E.01182
G1 X104.287 Y107.896 F6000
G1 X104.552 Y109.576
;TYPE:External perimeter
G1 F1200
G1 X104.588 Y110.58 E.02961
G1 X101.663 Y110.579 E.08621
G1 X101.716 Y109.844 E.02172
G1 X101.988 Y109.468 E.01368
G1 X102.382 Y108.828 E.02215
G1 X102.529 Y108.545 E.0094
G1 X102.775 Y107.955 E.01884
G1 X102.868 Y107.663 E.00903
G1 X102.968 Y107.226 E.01321
G1 X103.056 Y106.458 E.02278
G1 X104.109 Y106.458 E.03104
G1 X104.079 Y107.02 E.01659
G1 X104.02 Y107.422 E.01198
G1 X103.826 Y108.171 E.0228
G1 X103.711 Y108.483 E.0098
G1 X103.57 Y108.784 E.0098
G1 X103.396 Y109.083 E.0102
G1 X103.184 Y109.322 E.00942
G1 X102.968 Y109.649 E.01155
G1 X103.396 Y109.65 E.01261
G1 X103.829 Y109.593 E.01287
G1 X104.492 Y109.578 E.01955
G1 E-1.12 F2400
;WIPE_START
G1 F4800
G1 X104.552 Y109.576 E-.02852
G1 X104.586 Y110.525 E-.45148
;WIPE_END
G1 X98.769 Y109.551 F6000
G1 E1.6 F2400
G1 F1200
G1 X98.892 Y109.255 E.00945
G1 X99.579 Y109.202 E.02031
G1 X99.535 Y109.191 E.00134
G1 X99.228 Y108.994 E.01075
G1 X98.861 Y108.631 E.01521
G1 X98.706 Y108.232 E.01262
G1 X98.667 Y107.925 E.00912
G1 X98.706 Y107.537 E.01149
G1 X98.765 Y107.335 E.0062
G1 X98.936 Y106.996 E.01119
G1 X99.059 Y106.839 E.00588
G1 X99.203 Y106.701 E.00588
G1 X99.516 Y106.51 E.01081
G1 X99.705 Y106.445 E.00589
G1 X99.923 Y106.407 E.00652
G1 X100.251 Y106.404 E.00967
G1 X100.558 Y106.466 E.00923
G1 X100.716 Y106.527 E.00499
G1 X100.981 Y106.685 E.00909
G1 X101.212 Y106.904 E.00938
G1 X101.323 Y107.053 E.00548
G1 X101.48 Y107.376 E.01058
G1 X101.58 Y107.759 E.01167
G1 X101.627 Y108.195 E.01292
G1 X101.625 Y108.702 E.01494
G1 X101.561 Y109.18 E.01421
G1 X101.508 Y109.408 E.0069
G1 X101.282 Y109.954 E.01742
G1 X101.07 Y110.237 E.01042
G1 X100.829 Y110.439 E.00927
G1 X100.675 Y110.522 E.00516
G1 X100.376 Y110.62 E.00927
G1 X100.045 Y110.652 E.0098
G1 X99.682 Y110.61 E.01077
G1 X99.451 Y110.531 E.0072
G1 X99.247 Y110.408 E.00702
G1 X99.069 Y110.249 E.00703
G1 X98.925 Y110.048 E.00729
G1 X98.811 Y109.73 E.00996
G1 X98.782 Y109.609 E.00367
G1 E-1.12 F2400
;WIPE_START
G1 F4800
G1 X98.769 Y109.551 E-.02823
G1 X98.892 Y109.255 E-.15226
G1 X99.521 Y109.206 E-.29951
;WIPE_END
G1 X123.368 Y107.874 F6000
G1 E1.6 F2400
;TYPE:Perimeter
G1 F1200
G1 X123.353 Y107.779 E.00283
G1 X123.473 Y107.784 E.00354
G1 X123.414 Y107.835 E.0023
G1 E-1.12 F2400
;WIPE_START
G1 F4800
G1 X123.368 Y107.874 E-.02865
G1 X123.353 Y107.779 E-.04568
G1 X123.473 Y107.784 E-.05705
G1 X123.414 Y107.835 E-.03704
;WIPE_END
G1 E-.31158 F2400
G1 X117.512 Y106.16 F6000
G1 E1.6 F2400
G1 F1200
G1 X117.548 Y106.171 E.00111
G1 X117.877 Y106.373 E.01138
G1 X118.141 Y106.638 E.01102
G1 X118.29 Y106.855 E.00776
G1 X118.475 Y107.264 E.01323
G1 X118.59 Y107.733 E.01423
G1 X118.642 Y108.248 E.01526
G1 X118.639 Y108.861 E.01807
G1 X118.588 Y109.333 E.01399
G1 X118.485 Y109.758 E.01289
G1 X118.318 Y110.14 E.01229
G1 X118.081 Y110.477 E.01214
G1 X117.763 Y110.758 E.01251
G1 X117.371 Y110.946 E.01281
G1 X116.952 Y111.025 E.01257
G1 X116.577 Y111.019 E.01105
G1 X116.164 Y110.921 E.01251
G1 X115.783 Y110.713 E.01279
G1 X115.479 Y110.407 E.01271
G1 X115.341 Y110.166 E.00819
G1 X115.145 Y110.456 E.01032
G1 X114.866 Y110.713 E.01118
G1 X114.543 Y110.893 E.0109
G1 X114.196 Y110.997 E.01068
G1 X113.84 Y111.029 E.01053
G1 X113.568 Y111.011 E.00803
G1 X113.305 Y110.954 E.00793
G1 X113.044 Y110.852 E.00826
G1 X112.706 Y110.642 E.01173
G1 X112.493 Y110.428 E.0089
G1 X112.323 Y110.187 E.00869
G1 X112.251 Y110.308 E.00415
G1 X112.059 Y110.549 E.00908
G1 X111.883 Y110.704 E.00691
G1 X111.456 Y110.923 E.01414
G1 X111.098 Y111.008 E.01084
G1 X110.598 Y111.025 E.01475
G1 X110.244 Y110.97 E.01056
G1 X109.914 Y110.854 E.01031
G1 X109.614 Y110.673 E.01033
G1 X109.363 Y110.435 E.01019
G1 X109.169 Y110.16 E.00992
G1 X109.032 Y109.836 E.01037
G1 X108.965 Y109.364 E.01405
G1 X109.002 Y109.001 E.01075
G1 X109.11 Y108.66 E.01054
G1 X109.29 Y108.337 E.0109
G1 X109.532 Y108.038 E.01134
G1 X109.731 Y107.852 E.00803
G1 X108.99 Y107.9 E.02189
G1 X108.955 Y106.085 E.0535
G1 X112.698 Y106.097 E.11032
G1 X112.687 Y106.458 E.01064
G1 X113.041 Y106.212 E.01271
G1 X113.445 Y106.067 E.01265
G1 X113.771 Y106.022 E.0097
G1 X114.185 Y106.039 E.01221
G1 X114.494 Y106.115 E.00938
G1 X114.777 Y106.246 E.00919
G1 X115.037 Y106.438 E.00953
G1 X115.257 Y106.7 E.01008
G1 X115.336 Y106.874 E.00563
G1 X115.509 Y106.595 E.00968
G1 X115.83 Y106.298 E.01289
G1 X116.227 Y106.102 E.01305
G1 X116.677 Y106.02 E.01348
G1 X117.173 Y106.051 E.01465
G1 X117.455 Y106.142 E.00873
G1 E-1.12 F2400
;WIPE_START
G1 F4800
G1 X117.512 Y106.16 E-.02839
G1 X117.548 Y106.171 E-.01788
G1 X117.877 Y106.373 E-.18338
G1 X118.141 Y106.638 E-.17768
G1 X118.228 Y106.764 E-.07267
;WIPE_END
G1 X115.066 Y107.785 F6000
G1 E1.6 F2400
;TYPE:External perimeter
G1 F1200
G1 X114.359 Y107.851 E.02093
G1 X114.705 Y108.057 E.01187
G1 X114.973 Y108.35 E.0117
G1 X115.116 Y108.724 E.0118
G1 X115.165 Y109.135 E.0122
G1 X115.123 Y109.687 E.01632
G1 X115.022 Y109.965 E.00872
G1 X114.858 Y110.208 E.00864
G1 X114.644 Y110.405 E.00857
G1 X114.395 Y110.544 E.0084
G1 X114.124 Y110.625 E.00834
G1 X113.836 Y110.651 E.00852
G1 X113.621 Y110.636 E.00635
G1 X113.414 Y110.591 E.00624
G1 X113.213 Y110.513 E.00635
G1 X112.943 Y110.345 E.00937
G1 X112.783 Y110.185 E.00667
G1 X112.653 Y110.001 E.00664
G1 X112.523 Y109.693 E.00985
G1 X112.415 Y108.967 E.02163
G1 X112.342 Y108.647 E.00967
G1 X112.329 Y108.286 E.01065
G1 X112.357 Y107.966 E.00947
G1 X112.415 Y107.671 E.00886
G1 X112.697 Y107.014 E.02107
G1 X112.932 Y106.747 E.01048
G1 X113.215 Y106.55 E.01016
G1 X113.536 Y106.435 E.01005
G1 X113.789 Y106.4 E.00753
G1 X114.132 Y106.414 E.01012
G1 X114.369 Y106.472 E.00719
G1 X114.584 Y106.572 E.00699
G1 X114.776 Y106.714 E.00704
G1 X114.935 Y106.903 E.00728
G1 X115.079 Y107.219 E.01023
G1 X115.121 Y107.484 E.00791
G1 X115.077 Y107.726 E.00725
G1 E-1.12 F2400
;WIPE_START
G1 F4800
G1 X115.066 Y107.785 E-.02851
G1 X114.359 Y107.851 E-.33729
G1 X114.566 Y107.974 E-.1142
;WIPE_END
G1 X117.389 Y106.517 F6000
G1 E1.6 F2400
G1 F1200
G1 X117.641 Y106.671 E.0087
G1 X117.85 Y106.88 E.00871
G1 X117.96 Y107.041 E.00575
G1 X118.117 Y107.387 E.0112
G1 X118.217 Y107.797 E.01244
G1 X118.265 Y108.266 E.0139
G1 X118.262 Y108.84 E.01692
G1 X118.216 Y109.268 E.01269
G1 X118.126 Y109.637 E.01119
G1 X117.987 Y109.954 E.0102
G1 X117.798 Y110.224 E.00971
G1 X117.552 Y110.441 E.00967
G1 X117.253 Y110.585 E.00978
G1 X116.92 Y110.647 E.00998
G1 X116.624 Y110.642 E.00873
G1 X116.3 Y110.566 E.00981
G1 X116.012 Y110.408 E.00968
G1 X115.782 Y110.177 E.00961
G1 X115.621 Y109.895 E.00957
G1 X115.564 Y109.721 E.0054
G1 X115.463 Y109.125 E.01782
G1 X115.436 Y108.785 E.01005
