;FLAVOR:Marlin
;TIME:1071
;Filament used: 1.29925m
;Layer height: 0.15
;MINX:102.503
;MINY:102.505
;MINZ:0.3
;MAXX:132.495
;MAXY:132.496
;MAXZ:19.95
;Generated with Cura_SteamEngine 5.3.1
M140 S70
M105
M190 S70
M104 S200
M105
M109 S200
M82 ;absolute extrusion mode
G90
G92 E0 ; Reset Extruder
G28 ; Home all axes
BED_MESH_CALIBRATE
G1 Z2.0 F3000
G1 X5.1 Y20 Z0.3 F5000.0
G1 X5.1 Y200.0 Z0.3 F1500.0 E15
G1 X5.4 Y200.0 Z0.3 F5000.0
G1 X5.4 Y20 Z0.3 F1500.0 E30
G92 E0
G1 Z2.0 F3000
G1 X5 Y20 Z0.3 F5000.0
G92 E0
G92 E0
G1 F1500 E-1
;LAYER_COUNT:132
;LAYER:0
M107
M204 S1000
G0 F3600 X104 Y103.898 Z0.3
;TYPE:SUPPORT
G1 F1500 E0
G1 F2100 X104 Y111.102 E0.35941
G1 F1500 E-0.64059
G0 F3600 X105.269 Y112
G1 F1500 E0.35941
G1 F2100 X106.84 Y112 E0.43779
G1 F1500 E-0.56221
G0 F3600 X106.84 Y108
G1 F1500 E0.43779
G1 F2100 X102.504 Y108 E0.65411
G1 F1500 E-0.34589
G0 F3600 X103.898 Y104
G1 F1500 E0.65411
G1 F2100 X111.102 Y104 E1.01352
G1 F1500 E0.01352
G0 F3600 X112 Y105.27
G1 F1500 E1.01352
G1 F2100 X112 Y106.84 E1.09185
G1 F1500 E0.09185
G0 F3600 X108 Y106.84
G1 F1500 E1.09185
G1 F2100 X108 Y102.505 E1.30812
G1 F1500 E0.30812
G0 F3600 X106.847 Y106.847
G0 X106.839 Y124
G1 F1500 E1.30812
G1 F2100 X103.897 Y124 E1.4549
G1 X104 Y123.898
G1 X104 Y131.102 E1.81431
G1 F1500 E0.81431
G0 F3600 X105.268 Y132
G1 F1500 E1.81431
G1 F2100 X109.729 Y132 E2.03687
G1 F1500 E1.03687
G0 F3600 X108 Y132.496
G1 F1500 E2.03687
G1 F2100 X108 Y128.16 E2.25319
G1 F1500 E1.25319
G0 F3600 X106.839 Y128
G1 F1500 E2.25319
G1 F2100 X102.503 Y128 E2.46952
G1 F1500 E1.46952
G0 F3600 X106.021 Y128.123
G0 X112 Y128.16
G1 F1500 E2.46952
G1 F2100 X112 Y129.731 E2.54789
G1 F1500 E1.54789
G0 F3600 X124 Y131.102
G1 F1500 E2.54789
G1 F2100 X124 Y128.16 E2.69467
G1 F1500 E1.69467
G0 F3600 X128 Y128.16
G1 F1500 E2.69467
G1 F2100 X128 Y132.496 E2.91099
G1 F1500 E1.91099
G0 F3600 X129.729 Y132
G1 F1500 E2.91099
G1 F2100 X125.268 Y132 E3.13355
G1 F1500 E2.13355
G0 F3600 X128.153 Y128.153
G0 X128.159 Y128
G1 F1500 E3.13355
G1 F2100 X132.495 Y128 E3.34988
G1 F1500 E2.34988
G0 F3600 X132 Y129.731
G1 F1500 E3.34988
G1 F2100 X132 Y125.27 E3.57244
G1 F1500 E2.57244
G0 F3600 X131.103 Y124
G1 F1500 E3.57244
G1 F2100 X128.159 Y124 E3.71931
G1 F1500 E2.71931
G0 F3600 X128.16 Y112
G1 F1500 E3.71931
G1 F2100 X129.728 Y112 E3.79754
G1 F1500 E2.79754
G0 F3600 X132 Y109.731
G1 F1500 E3.79754
G1 F2100 X132 Y105.27 E4.0201
G1 F1500 E3.0201
G0 F3600 X131.103 Y104
G1 F1500 E4.0201
G1 F2100 X123.897 Y104 E4.37961
G1 X124 Y103.898
G1 X124 Y106.84 E4.52639
G1 F1500 E3.52639
G0 F3600 X128 Y106.84
G1 F1500 E4.52639
G1 F2100 X128 Y102.505 E4.74266
G1 F1500 E3.74266
G0 F3600 X128.16 Y108
G1 F1500 E4.74266
G1 F2100 X132.495 Y108 E4.95894
G1 F1500 E3.95894
;MESH:CalibrationCube
G0 F3600 X128.165 Y108
G0 X127.08 Y108
G0 X126.5 Y126.5
;TYPE:WALL-INNER
G1 F1500 E4.95894
G1 F2100 X126.5 Y108.5 E5.85696
G1 X108.5 Y108.5 E6.75498
G1 X108.5 Y126.5 E7.65301
G1 X126.5 Y126.5 E8.55103
G0 F3600 X126.9 Y126.9
G1 F2100 X126.9 Y108.1 E9.48897
G1 X108.1 Y108.1 E10.4269
G1 X108.1 Y126.9 E11.36484
G1 X126.9 Y126.9 E12.30277
G0 F3600 X127.3 Y127.3
;TYPE:WALL-OUTER
G1 F2100 X127.3 Y107.7 E13.28062
G1 X107.7 Y107.7 E14.25847
G1 X107.7 Y127.3 E15.23632
G1 X127.3 Y127.3 E16.21417
G0 F3600 X127.3 Y127.1
G0 X126.63 Y126.63
G0 X126.12 Y126.12
;TYPE:SKIN
G1 F2100 X108.88 Y126.12 E17.07427
G1 X108.88 Y108.88 E17.93438
G1 X126.12 Y108.88 E18.79449
G1 X126.12 Y126.12 E19.65459
G0 F3600 X126.4 Y126.12
G0 X126.4 Y109.514
G0 X125.919 Y109.514
G1 F2100 X125.485 Y109.08 E19.68522
G0 F3600 X124.919 Y109.08
G1 F2100 X125.919 Y110.08 E19.75577
G0 F3600 X125.919 Y110.645
G1 F2100 X124.353 Y109.08 E19.86623
G0 F3600 X123.788 Y109.08
G1 F2100 X125.919 Y111.211 E20.01658
G0 F3600 X125.919 Y111.777
G1 F2100 X123.222 Y109.08 E20.20687
G0 F3600 X122.656 Y109.08
G1 F2100 X125.919 Y112.343 E20.43709
G0 F3600 X125.919 Y112.908
G1 F2100 X122.091 Y109.08 E20.70718
G0 F3600 X121.525 Y109.08
G1 F2100 X125.919 Y113.474 E21.0172
G0 F3600 X125.919 Y114.04
G1 F2100 X120.959 Y109.08 E21.36715
G0 F3600 X120.394 Y109.08
G1 F2100 X125.919 Y114.605 E21.75697
G0 F3600 X125.919 Y115.171
G1 F2100 X119.828 Y109.08 E22.18672
G0 F3600 X119.262 Y109.08
G1 F2100 X125.919 Y115.737 E22.65641
G0 F3600 X125.919 Y116.302
G1 F2100 X118.697 Y109.08 E23.16596
G0 F3600 X118.131 Y109.08
G1 F2100 X125.919 Y116.868 E23.71545
G0 F3600 X125.919 Y117.434
G1 F2100 X117.565 Y109.08 E24.30487
G0 F3600 X117 Y109.08
G1 F2100 X125.919 Y117.999 E24.93415
G0 F3600 X125.919 Y118.565
G1 F2100 X116.434 Y109.08 E25.60337
G0 F3600 X115.868 Y109.08
G1 F2100 X125.919 Y119.131 E26.31252
G0 F3600 X125.919 Y119.696
G1 F2100 X115.302 Y109.08 E27.06157
G0 F3600 X114.737 Y109.08
G1 F2100 X125.919 Y120.262 E27.85052
G0 F3600 X125.919 Y120.828
G1 F2100 X114.171 Y109.08 E28.67941
G0 F3600 X113.605 Y109.08
G1 F2100 X125.919 Y121.393 E29.54819
G0 F3600 X125.919 Y121.959
G1 F2100 X113.04 Y109.08 E30.45687
G0 F3600 X112.474 Y109.08
G1 F2100 X125.919 Y122.525 E31.40549
G0 F3600 X125.919 Y123.091
G1 F2100 X111.908 Y109.08 E32.39404
G0 F3600 X111.343 Y109.08
G1 F2100 X125.919 Y123.656 E33.42246
G0 F3600 X125.919 Y124.222
G1 F2100 X110.777 Y109.08 E34.49081
G0 F3600 X110.211 Y109.08
G1 F2100 X125.919 Y124.788 E35.59909
G0 F3600 X125.919 Y125.353
G1 F2100 X109.646 Y109.08 E36.74724
G0 F3600 X109.079 Y109.079
G1 F2100 X125.919 Y125.919 E37.93539
G0 F3600 X125.353 Y125.919
G1 F2100 X109.079 Y109.645 E39.08361
G0 F3600 X109.079 Y110.211
G1 F2100 X124.788 Y125.919 E40.19193
G0 F3600 X124.222 Y125.919
G1 F2100 X109.079 Y110.776 E41.26035
G0 F3600 X109.079 Y111.342
G1 F2100 X123.656 Y125.919 E42.28884
G0 F3600 X123.091 Y125.919
G1 F2100 X109.079 Y111.908 E43.27742
G0 F3600 X109.079 Y112.473
G1 F2100 X122.525 Y125.919 E44.22611
G0 F3600 X121.959 Y125.919
G1 F2100 X109.079 Y113.039 E45.13487
G0 F3600 X109.079 Y113.605
G1 F2100 X121.393 Y125.919 E46.00369
G0 F3600 X120.828 Y125.919
G1 F2100 X109.079 Y114.17 E46.83264
G0 F3600 X109.079 Y114.736
G1 F2100 X120.262 Y125.919 E47.62166
G0 F3600 X119.696 Y125.919
G1 F2100 X109.079 Y115.302 E48.37075
G0 F3600 X109.079 Y115.867
G1 F2100 X119.131 Y125.919 E49.07997
G0 F3600 X118.565 Y125.919
G1 F2100 X109.079 Y116.433 E49.74926
G0 F3600 X109.079 Y116.999
G1 F2100 X117.999 Y125.919 E50.37861
G0 F3600 X117.434 Y125.919
G1 F2100 X109.079 Y117.564 E50.9681
G0 F3600 X109.079 Y118.13
G1 F2100 X116.868 Y125.919 E51.51766
G0 F3600 X116.302 Y125.919
G1 F2100 X109.079 Y118.696 E52.02728
G0 F3600 X109.079 Y119.262
G1 F2100 X115.737 Y125.919 E52.497
G0 F3600 X115.171 Y125.919
G1 F2100 X109.079 Y119.827 E52.92683
G0 F3600 X109.079 Y120.393
G1 F2100 X114.605 Y125.919 E53.31672
G0 F3600 X114.04 Y125.919
G1 F2100 X109.079 Y120.959 E53.66671
G0 F3600 X109.079 Y121.524
G1 F2100 X113.474 Y125.919 E53.9768
G0 F3600 X112.908 Y125.919
G1 F2100 X109.079 Y122.09 E54.24696
G0 F3600 X109.079 Y122.656
G1 F2100 X112.343 Y125.919 E54.47721
G0 F3600 X111.777 Y125.919
G1 F2100 X109.079 Y123.221 E54.66757
G0 F3600 X109.079 Y123.787
G1 F2100 X111.211 Y125.919 E54.818
G0 F3600 X110.645 Y125.919
G1 F2100 X109.079 Y124.353 E54.92849
G0 F3600 X109.079 Y124.918
G1 F2100 X110.08 Y125.919 E54.99911
G0 F3600 X109.514 Y125.919
G1 F2100 X109.079 Y125.484 E55.0298
;MESH:NONMESH
G0 F600 X109.079 Y125.484 Z0.45
G0 F3600 X108.6 Y125.484
G0 X108.672 Y126.328
G0 X126.5 Y126.5
;TIME_ELAPSED:45.008151
;LAYER:1
M140 S60
M106 S255
M204 S1250
;TYPE:WALL-INNER
;MESH:CalibrationCube
G1 F2850 X126.5 Y108.5 E55.47881
G1 X108.5 Y108.5 E55.92783
G1 X108.5 Y126.5 E56.37684
G1 X126.5 Y126.5 E56.82585
M204 S1750
G0 F7800 X126.9 Y126.9
M204 S1250
G1 F2850 X126.9 Y108.1 E57.29482
G1 X108.1 Y108.1 E57.76379
G1 X108.1 Y126.9 E58.23275
G1 X126.9 Y126.9 E58.70172
M204 S1750
G0 F7800 X127.3 Y127.3
M204 S1250
;TYPE:WALL-OUTER
G1 F2850 X127.3 Y107.7 E59.19065
G1 X107.7 Y107.7 E59.67957
G1 X107.7 Y127.3 E60.16849
G1 X127.3 Y127.3 E60.65742
M204 S1750
G0 F7800 X127.3 Y127.1
G0 X126.63 Y126.63
G0 X126.12 Y126.12
M204 S1250
;TYPE:SKIN
G1 F3450 X108.88 Y126.12 E61.08747
G1 X108.88 Y108.88 E61.51752
G1 X126.12 Y108.88 E61.94758
G1 X126.12 Y126.12 E62.37763
M204 S1750
G0 F7800 X125.81 Y125.919
M204 S1250
G1 F3450 X125.919 Y125.81 E62.38148
M204 S1750
G0 F7800 X125.919 Y125.244
M204 S1250
G1 F3450 X125.244 Y125.919 E62.40529
M204 S1750
G0 F7800 X124.679 Y125.919
M204 S1250
G1 F3450 X125.919 Y124.679 E62.44903
M204 S1750
G0 F7800 X125.919 Y124.113
M204 S1250
G1 F3450 X124.113 Y125.919 E62.51275
M204 S1750
G0 F7800 X123.547 Y125.919
M204 S1250
G1 F3450 X125.919 Y123.547 E62.59642
M204 S1750
G0 F7800 X125.919 Y122.982
M204 S1250
G1 F3450 X122.982 Y125.919 E62.70003
M204 S1750
G0 F7800 X122.416 Y125.919
M204 S1250
G1 F3450 X125.919 Y122.416 E62.82361
M204 S1750
G0 F7800 X125.919 Y121.85
M204 S1250
G1 F3450 X121.85 Y125.919 E62.96716
M204 S1750
G0 F7800 X121.285 Y125.919
M204 S1250
G1 F3450 X125.919 Y121.285 E63.13063
M204 S1750
G0 F7800 X125.919 Y120.719
M204 S1250
G1 F3450 X120.719 Y125.919 E63.31408
M204 S1750
G0 F7800 X120.153 Y125.919
M204 S1250
G1 F3450 X125.919 Y120.153 E63.51749
M204 S1750
G0 F7800 X125.919 Y119.588
M204 S1250
G1 F3450 X119.588 Y125.919 E63.74083
M204 S1750
G0 F7800 X119.022 Y125.919
M204 S1250
G1 F3450 X125.919 Y119.022 E63.98414
M204 S1750
G0 F7800 X125.919 Y118.456
M204 S1250
G1 F3450 X118.456 Y125.919 E64.24742
M204 S1750
G0 F7800 X117.89 Y125.919
M204 S1250
G1 F3450 X125.919 Y117.89 E64.53067
M204 S1750
G0 F7800 X125.919 Y117.325
M204 S1250
G1 F3450 X117.325 Y125.919 E64.83384
M204 S1750
G0 F7800 X116.759 Y125.919
M204 S1250
G1 F3450 X125.919 Y116.759 E65.15699
M204 S1750
G0 F7800 X125.919 Y116.193
M204 S1250
G1 F3450 X116.193 Y125.919 E65.5001
M204 S1750
G0 F7800 X115.628 Y125.919
M204 S1250
G1 F3450 X125.919 Y115.628 E65.86314
M204 S1750
G0 F7800 X125.919 Y115.062
M204 S1250
G1 F3450 X115.062 Y125.919 E66.24615
M204 S1750
G0 F7800 X114.496 Y125.919
M204 S1250
G1 F3450 X125.919 Y114.496 E66.64913
M204 S1750
G0 F7800 X125.919 Y113.931
M204 S1250
G1 F3450 X113.931 Y125.919 E67.07204
M204 S1750
G0 F7800 X113.365 Y125.919
M204 S1250
G1 F3450 X125.919 Y113.365 E67.51491
M204 S1750
G0 F7800 X125.919 Y112.799
M204 S1250
G1 F3450 X112.799 Y125.919 E67.97775
M204 S1750
G0 F7800 X112.234 Y125.919
M204 S1250
G1 F3450 X125.919 Y112.234 E68.46053
M204 S1750
G0 F7800 X125.919 Y111.668
M204 S1250
G1 F3450 X111.668 Y125.919 E68.96327
M204 S1750
G0 F7800 X111.102 Y125.919
M204 S1250
G1 F3450 X125.919 Y111.102 E69.48598
M204 S1750
G0 F7800 X125.919 Y110.537
M204 S1250
G1 F3450 X110.537 Y125.919 E70.02862
M204 S1750
G0 F7800 X109.971 Y125.919
M204 S1250
G1 F3450 X125.919 Y109.971 E70.59123
M204 S1750
G0 F7800 X125.919 Y109.405
M204 S1250
G1 F3450 X109.405 Y125.919 E71.17381
M204 S1750
G0 F7800 X109.08 Y125.679
M204 S1250
G1 F3450 X125.679 Y109.079 E71.7594
M204 S1750
G0 F7800 X125.114 Y109.079
M204 S1250
G1 F3450 X109.08 Y125.113 E72.32504
M204 S1750
G0 F7800 X109.08 Y124.547
M204 S1250
G1 F3450 X124.548 Y109.079 E72.87072
M204 S1750
G0 F7800 X123.982 Y109.079
M204 S1250
G1 F3450 X109.08 Y123.981 E73.39643
M204 S1750
G0 F7800 X109.08 Y123.416
M204 S1250
G1 F3450 X123.417 Y109.079 E73.9022
M204 S1750
G0 F7800 X122.851 Y109.079
M204 S1250
G1 F3450 X109.08 Y122.85 E74.38801
M204 S1750
G0 F7800 X109.08 Y122.284
M204 S1250
G1 F3450 X122.285 Y109.079 E74.85386
M204 S1750
G0 F7800 X121.719 Y109.079
M204 S1250
G1 F3450 X109.08 Y121.719 E75.29975
M204 S1750
G0 F7800 X109.08 Y121.153
M204 S1250
G1 F3450 X121.154 Y109.079 E75.72569
M204 S1750
G0 F7800 X120.588 Y109.079
M204 S1250
G1 F3450 X109.08 Y120.587 E76.13167
M204 S1750
G0 F7800 X109.08 Y120.022
M204 S1250
G1 F3450 X120.022 Y109.079 E76.51769
M204 S1750
G0 F7800 X119.457 Y109.079
M204 S1250
G1 F3450 X109.08 Y119.456 E76.88377
M204 S1750
G0 F7800 X109.08 Y118.89
M204 S1250
G1 F3450 X118.891 Y109.079 E77.22988
M204 S1750
G0 F7800 X118.325 Y109.079
M204 S1250
G1 F3450 X109.08 Y118.325 E77.55604
M204 S1750
G0 F7800 X109.08 Y117.759
M204 S1250
G1 F3450 X117.76 Y109.079 E77.86225
M204 S1750
G0 F7800 X117.194 Y109.079
M204 S1250
G1 F3450 X109.08 Y117.193 E78.14849
M204 S1750
G0 F7800 X109.08 Y116.628
M204 S1250
G1 F3450 X116.628 Y109.079 E78.41479
M204 S1750
G0 F7800 X116.063 Y109.079
M204 S1250
G1 F3450 X109.08 Y116.062 E78.66113
M204 S1750
G0 F7800 X109.08 Y115.496
M204 S1250
G1 F3450 X115.497 Y109.079 E78.88751
M204 S1750
G0 F7800 X114.931 Y109.079
M204 S1250
G1 F3450 X109.08 Y114.931 E79.09393
M204 S1750
G0 F7800 X109.08 Y114.365
M204 S1250
G1 F3450 X114.366 Y109.079 E79.28041
M204 S1750
G0 F7800 X113.8 Y109.079
M204 S1250
G1 F3450 X109.08 Y113.799 E79.44692
M204 S1750
G0 F7800 X109.08 Y113.233
M204 S1250
G1 F3450 X113.234 Y109.079 E79.59347
M204 S1750
G0 F7800 X112.668 Y109.079
M204 S1250
G1 F3450 X109.08 Y112.668 E79.72006
M204 S1750
G0 F7800 X109.08 Y112.102
M204 S1250
G1 F3450 X112.103 Y109.079 E79.82671
M204 S1750
G0 F7800 X111.537 Y109.079
M204 S1250
G1 F3450 X109.08 Y111.536 E79.91338
M204 S1750
G0 F7800 X109.08 Y110.971
M204 S1250
G1 F3450 X110.971 Y109.079 E79.98011
M204 S1750
G0 F7800 X110.406 Y109.079
M204 S1250
G1 F3450 X109.08 Y110.405 E80.02689
M204 S1750
G0 F7800 X109.08 Y109.839
M204 S1250
G1 F3450 X109.84 Y109.079 E80.0537
M204 S1750
G0 F7800 X109.274 Y109.079
M204 S1250
G1 F3450 X109.08 Y109.274 E80.06056
M204 S1750
;MESH:NONMESH
G0 F600 X109.08 Y109.274 Z0.6
G0 F7800 X108.6 Y109.274
G0 X108.672 Y126.328
G0 X126.5 Y126.5
;TIME_ELAPSED:67.122225
;LAYER:2
M204 S1500
;TYPE:WALL-INNER
;MESH:CalibrationCube
G1 F3600 X126.5 Y108.5 E80.50957
G1 X108.5 Y108.5 E80.95859
G1 X108.5 Y126.5 E81.4076
G1 X126.5 Y126.5 E81.85661
M204 S2500
G0 F12000 X126.9 Y126.9
M204 S1500
G1 F3600 X126.9 Y108.1 E82.32558
G1 X108.1 Y108.1 E82.79454
G1 X108.1 Y126.9 E83.26351
G1 X126.9 Y126.9 E83.73248
M204 S2500
G0 F12000 X127.3 Y127.3
M204 S1500
;TYPE:WALL-OUTER
G1 F3600 X127.3 Y107.7 E84.2214
G1 X107.7 Y107.7 E84.71033
G1 X107.7 Y127.3 E85.19925
G1 X127.3 Y127.3 E85.68818
M204 S2500
G0 F12000 X127.3 Y127.1
G0 X126.63 Y126.63
G0 X126.12 Y126.12
M204 S1500
;TYPE:SKIN
G1 F4800 X108.88 Y126.12 E86.11823
G1 X108.88 Y108.88 E86.54828
G1 X126.12 Y108.88 E86.97834
G1 X126.12 Y126.12 E87.40839
M204 S2500
G0 F12000 X126.4 Y126.12
G0 X126.4 Y109.514
G0 X125.919 Y109.514
M204 S1500
G1 F4800 X125.485 Y109.08 E87.4237
M204 S2500
G0 F12000 X124.919 Y109.08
M204 S1500
G1 F4800 X125.919 Y110.08 E87.45898
M204 S2500
G0 F12000 X125.919 Y110.645
M204 S1500
G1 F4800 X124.353 Y109.08 E87.51421
M204 S2500
G0 F12000 X123.788 Y109.08
M204 S1500
G1 F4800 X125.919 Y111.211 E87.58938
M204 S2500
G0 F12000 X125.919 Y111.777
M204 S1500
G1 F4800 X123.222 Y109.08 E87.68453
M204 S2500
G0 F12000 X122.656 Y109.08
M204 S1500
G1 F4800 X125.919 Y112.343 E87.79964
M204 S2500
G0 F12000 X125.919 Y112.908
M204 S1500
G1 F4800 X122.091 Y109.08 E87.93468
M204 S2500
G0 F12000 X121.525 Y109.08
M204 S1500
G1 F4800 X125.919 Y113.474 E88.08969
M204 S2500
G0 F12000 X125.919 Y114.04
M204 S1500
G1 F4800 X120.959 Y109.08 E88.26467
M204 S2500
G0 F12000 X120.394 Y109.08
M204 S1500
G1 F4800 X125.919 Y114.605 E88.45958
M204 S2500
G0 F12000 X125.919 Y115.171
M204 S1500
G1 F4800 X119.828 Y109.08 E88.67445
M204 S2500
G0 F12000 X119.262 Y109.08
M204 S1500
G1 F4800 X125.919 Y115.737 E88.9093
M204 S2500
G0 F12000 X125.919 Y116.302
M204 S1500
G1 F4800 X118.697 Y109.08 E89.16407
M204 S2500
G0 F12000 X118.131 Y109.08
M204 S1500
G1 F4800 X125.919 Y116.868 E89.43882
M204 S2500
G0 F12000 X125.919 Y117.434
M204 S1500
G1 F4800 X117.565 Y109.08 E89.73353
M204 S2500
G0 F12000 X117 Y109.08
M204 S1500
G1 F4800 X125.919 Y117.999 E90.04817
M204 S2500
G0 F12000 X125.919 Y118.565
M204 S1500
G1 F4800 X116.434 Y109.08 E90.38278
M204 S2500
G0 F12000 X115.868 Y109.08
M204 S1500
G1 F4800 X125.919 Y119.131 E90.73735
M204 S2500
G0 F12000 X125.919 Y119.696
M204 S1500
G1 F4800 X115.302 Y109.08 E91.11188
M204 S2500
G0 F12000 X114.737 Y109.08
M204 S1500
G1 F4800 X125.919 Y120.262 E91.50635
M204 S2500
G0 F12000 X125.919 Y120.828
M204 S1500
G1 F4800 X114.171 Y109.08 E91.9208
M204 S2500
G0 F12000 X113.605 Y109.08
M204 S1500
G1 F4800 X125.919 Y121.393 E92.35519
M204 S2500
