; generated by PrusaSlicer 2.6.0-alpha6+MacOS-x64 on 2023-05-12 at 12:23:33 UTC

; 

; external perimeters extrusion width = 0.40mm
; perimeters extrusion width = 0.40mm
; infill extrusion width = 0.40mm
; solid infill extrusion width = 0.40mm
; top infill extrusion width = 0.40mm
; first layer extrusion width = 0.40mm

M201 X400 Y400 Z100 E5000 ; sets maximum accelerations, mm/sec^2
M203 X48 Y48 Z10 E60 ; sets maximum feedrates, mm / sec
M204 S400 T1000 ; sets acceleration (S) and retract acceleration (R), mm/sec^2
M205 X8.00 Y8.00 Z0.40 E5.00 ; sets the jerk limits, mm/sec
M205 S0 T0 ; sets the minimum extruding and travel feed rate, mm/sec
;TYPE:Custom
; Ender 3 Custom Start G-code
G92 E0 ; Reset Extruder

M140 S50 ; set bed temp
M190 S50 ; wait for bed temp

G28 ; Home all axes
M104 S210 ; set extruder temp 
BED_MESH_CALIBRATE AREA_START=98.7502,102.85 AREA_END=132.25,128.15

G1 Z2.0 F3000 ; Move Z Axis up little to prevent scratching of Heat Bed
M109 S210 ; wait for extruder temp
G1 X0.1 Y20 Z0.3 F5000.0 ; Move to start position

G1 X0.1 Y200.0 Z0.3 F1500.0 E15 ; Draw the first line
G1 X0.4 Y200.0 Z0.3 F5000.0 ; Move to side a little
G1 X0.4 Y20 Z0.3 F1500.0 E30 ; Draw the second line
G92 E0 ; Reset Extruder
G1 Z2.0 F3000 ; Move Z Axis up little to prevent scratching of Heat Bed
G1 X5 Y20 Z0.3 F5000.0 ; Move over to prevent blob squish
G21 ; set units to millimeters
G90 ; use absolute coordinates
M83 ; use relative distances for extrusion
; Filament gcode
M107
;LAYER_CHANGE
;Z:0.2
;HEIGHT:0.2
TIMELAPSE_TAKE_FRAME
;BEFORE_LAYER_CHANGE
G92 E0
;0.2


G1 E-5 F3600
G1 Z.2 F4800
;AFTER_LAYER_CHANGE
;0.2
G1 X103.121 Y104.221
G1 E5 F2400
M204 S400
;TYPE:Skirt/Brim
;WIDTH:0.4
G1 F1440
G1 X104.638 Y103.263 E.05327
G1 X106 Y103.029 E.04103
G1 X125 Y103.029 E.56413
G1 X126.75 Y103.424 E.05327
G1 X127.879 Y104.221 E.04103
G1 X130.879 Y107.221 E.12597
G1 X131.837 Y108.738 E.05327
G1 X132.071 Y110.1 E.04103
G1 X132.071 Y120.9 E.32067
G1 X131.676 Y122.65 E.05327
G1 X130.879 Y123.779 E.04103
G1 X127.879 Y126.779 E.12597
G1 X126.362 Y127.737 E.05327
G1 X125 Y127.971 E.04103
G1 X106 Y127.971 E.56413
G1 X104.25 Y127.576 E.05327
G1 X103.121 Y126.779 E.04103
G1 X100.121 Y123.779 E.12597
G1 X99.163 Y122.262 E.05327
G1 X98.929 Y120.9 E.04103
G1 X98.929 Y110.1 E.32067
G1 X99.324 Y108.35 E.05327
G1 X100.121 Y107.221 E.04103
G1 X103.079 Y104.264 E.12418
G1 X103.331 Y104.516 F4800
G1 F1440
G1 X103.374 Y104.474 E.00178
G1 X104.831 Y103.575 E.05083
G1 X106 Y103.386 E.03516
G1 X125 Y103.386 E.56413
G1 X126.666 Y103.78 E.05083
G1 X127.626 Y104.474 E.03517
G1 X130.626 Y107.474 E.12597
G1 X131.525 Y108.931 E.05083
G1 X131.714 Y110.1 E.03516
G1 X131.714 Y120.9 E.32067
G1 X131.32 Y122.566 E.05083
G1 X130.626 Y123.526 E.03517
G1 X127.626 Y126.526 E.12597
G1 X126.169 Y127.425 E.05083
G1 X125 Y127.614 E.03516
G1 X106 Y127.614 E.56413
G1 X104.334 Y127.22 E.05083
G1 X103.374 Y126.526 E.03517
G1 X100.374 Y123.526 E.12597
G1 X99.475 Y122.069 E.05083
G1 X99.286 Y120.9 E.03516
G1 X99.286 Y110.1 E.32067
G1 X99.68 Y108.434 E.05083
G1 X100.374 Y107.474 E.03517
G1 X103.289 Y104.559 E.1224
G1 X103.541 Y104.811 F4800
G1 F1440
G1 X103.626 Y104.726 E.00357
G1 X105.021 Y103.889 E.0483
G1 X106 Y103.743 E.02939
G1 X125 Y103.743 E.56413
G1 X126.578 Y104.137 E.04829
G1 X127.374 Y104.726 E.0294
G1 X130.374 Y107.726 E.12597
G1 X131.211 Y109.121 E.0483
G1 X131.357 Y110.1 E.02939
G1 X131.357 Y120.9 E.32067
G1 X130.963 Y122.478 E.04829
G1 X130.374 Y123.274 E.0294
G1 X127.374 Y126.274 E.12597
G1 X125.979 Y127.111 E.0483
G1 X125 Y127.257 E.02939
G1 X106 Y127.257 E.56413
G1 X104.422 Y126.863 E.04829
G1 X103.626 Y126.274 E.0294
G1 X100.626 Y123.274 E.12597
G1 X99.789 Y121.879 E.0483
G1 X99.643 Y120.9 E.02939
G1 X99.643 Y110.1 E.32067
G1 X100.037 Y108.522 E.04829
G1 X100.626 Y107.726 E.0294
G1 X103.499 Y104.853 E.12064
; printing object Square_18mm_Bowden_StockNut_45deg.stl id:0 copy 0
G1 E-3.5 F3600
;WIPE_START
G1 F3840
G1 X103.626 Y104.726 E-.15996
G1 X104.916 Y103.952 E-1.34004
;WIPE_END
G1 X109.115 Y114.218 F4800
G1 E5 F2400
;TYPE:Perimeter
;WIDTH:0.399999
G1 F1440
G1 X108.797 Y113.723 E.01747
G1 X108.452 Y113.339 E.01533
;WIDTH:0.424567
G1 X108.028 Y113.01 E.01703
;WIDTH:0.427294
G1 X107.543 Y112.764 E.01738
G1 X107.015 Y112.636 E.01736
;WIDTH:0.399999
G1 X106.457 Y112.588 E.01663
G1 X105.865 Y112.66 E.01771
G1 X105.259 Y112.868 E.01902
G1 X104.795 Y113.14 E.01597
G1 X104.336 Y113.554 E.01835
G1 X104.014 Y113.986 E.016
G1 X104.014 Y110.52 E.10291
G1 X106.369 Y108.164 E.09891
G1 X106.239 Y108.5 E.0107
G1 X106.12 Y109.047 E.01662
G1 X106.096 Y109.716 E.01988
G1 X106.198 Y110.357 E.01927
G1 X106.403 Y110.921 E.01782
G1 X106.782 Y111.558 E.02201
G1 X107.194 Y112.013 E.01822
;WIDTH:0.418925
G1 X107.62 Y112.36 E.01718
;WIDTH:0.419977
G1 X108.058 Y112.603 E.0157
G1 X108.38 Y112.719 E.01073
;WIDTH:0.413614
G1 X108.993 Y112.868 E.01944
;WIDTH:0.399999
G1 X109.531 Y112.909 E.01602
G1 X109.431 Y113.135 E.00734
G1 X109.235 Y113.718 E.01826
G1 X109.129 Y114.16 E.0135
G1 E-3.5 F3600
;WIPE_START
G1 F3840
G1 X108.797 Y113.723 E-.48878
G1 X108.452 Y113.339 E-.45976
G1 X108.028 Y113.01 E-.47797
G1 X107.954 Y112.973 E-.07349
;WIPE_END
G1 X106.454 Y118.396 F4800
G1 E5 F2400
G1 F1440
G1 X106.703 Y118.407 E.0074
;WIDTH:0.423407
G1 X107.224 Y118.331 E.01666
G1 X107.69 Y118.17 E.0156
;WIDTH:0.421455
G1 X108.217 Y117.853 E.01936
;WIDTH:0.406202
G1 X108.618 Y117.497 E.0162
;WIDTH:0.399999
G1 X108.848 Y117.206 E.01101
G1 X109.114 Y116.777 E.01499
G1 X109.341 Y117.601 E.02538
G1 X109.535 Y118.099 E.01587
G1 X109.401 Y118.092 E.00398
G1 X109.023 Y118.134 E.01129
G1 X108.516 Y118.233 E.01534
;WIDTH:0.414878
G1 X108.028 Y118.413 E.01609
;WIDTH:0.44792
G1 X107.567 Y118.661 E.01763
G1 X107.417 Y118.787 E.0066
;WIDTH:0.419859
G1 X106.898 Y119.295 E.02276
;WIDTH:0.399999
G1 X106.585 Y119.73 E.01591
G1 X106.438 Y120.013 E.00947
G1 X106.241 Y120.49 E.01532
G1 X106.122 Y121.034 E.01653
G1 X106.092 Y121.678 E.01914
G1 X106.16 Y122.188 E.01528
G1 X106.357 Y122.821 E.01968
G1 X104.014 Y120.48 E.09834
G1 X104.014 Y117.005 E.10318
G1 X104.116 Y117.171 E.00578
G1 X104.521 Y117.634 E.01826
G1 X104.909 Y117.939 E.01465
G1 X105.454 Y118.216 E.01815
G1 X106.073 Y118.378 E.019
G1 X106.394 Y118.393 E.00954
G1 X106.465 Y118.045 F4800
G1 F1440
G1 X106.149 Y118.029 E.00939
G1 X105.607 Y117.894 E.01658
G1 X105.12 Y117.651 E.01616
G1 X104.783 Y117.392 E.01262
G1 X104.421 Y116.984 E.01619
G1 X104.184 Y116.579 E.01393
G1 X104.009 Y116.072 E.01592
;WIDTH:0.398543
G1 X103.97 Y115.743 E.0098
;WIDTH:0.374746
G1 X103.976 Y115.201 E.01496
;WIDTH:0.399999
G1 X104.093 Y114.644 E.0169
G1 X104.328 Y114.153 E.01616
G1 X104.582 Y113.813 E.0126
G1 X104.986 Y113.442 E.01629
G1 X105.386 Y113.201 E.01387
G1 X105.916 Y113.013 E.0167
G1 X106.446 Y112.945 E.01587
G1 X106.925 Y112.981 E.01426
G1 X107.411 Y113.11 E.01493
G1 X107.859 Y113.338 E.01493
G1 X108.307 Y113.694 E.01699
G1 X108.649 Y114.117 E.01615
G1 X108.842 Y114.476 E.0121
G1 X108.993 Y114.983 E.01571
;WIDTH:0.396711
G1 X109.04 Y115.421 E.01296
;WIDTH:0.3843
G1 X109.017 Y115.885 E.01319
;WIDTH:0.399999
G1 X108.887 Y116.414 E.01617
G1 X108.702 Y116.795 E.01258
G1 X108.4 Y117.211 E.01526
G1 X108.027 Y117.547 E.01491
G1 X107.559 Y117.826 E.01618
G1 X107.132 Y117.973 E.01341
G1 X106.616 Y118.053 E.0155
G1 X106.525 Y118.048 E.00271
G1 X106.787 Y117.655 F4800
;TYPE:External perimeter
G1 F1440
G1 X106.477 Y117.692 E.00927
G1 X106.228 Y117.681 E.0074
G1 X105.761 Y117.571 E.01425
G1 X105.332 Y117.363 E.01416
G1 X105.046 Y117.15 E.01059
G1 X104.725 Y116.797 E.01417
G1 X104.52 Y116.457 E.01179
G1 X104.36 Y116.008 E.01415
G1 X104.309 Y115.689 E.00959
G1 X104.325 Y115.178 E.01518
G1 X104.418 Y114.792 E.01179
G1 X104.619 Y114.36 E.01415
G1 X104.828 Y114.071 E.01059
G1 X105.177 Y113.744 E.0142
G1 X105.514 Y113.535 E.01177
G1 X105.966 Y113.367 E.01432
G1 X106.44 Y113.302 E.01421
G1 X106.836 Y113.327 E.01178
G1 X107.302 Y113.452 E.01433
G1 X107.725 Y113.674 E.01418
G1 X108.093 Y113.995 E.0145
G1 X108.337 Y114.291 E.01139
G1 X108.506 Y114.599 E.01043
G1 X108.642 Y115.039 E.01367
G1 X108.697 Y115.407 E.01105
G1 X108.678 Y115.803 E.01177
G1 X108.512 Y116.375 E.01768
G1 X108.266 Y116.792 E.01438
G1 X107.939 Y117.155 E.01451
G1 X107.463 Y117.477 E.01706
G1 X107.07 Y117.621 E.01243
G1 X106.847 Y117.648 E.00667
G1 X106.677 Y117.947 F4800
G1 E-3.5 F3600
;WIPE_START
G1 F3840
G1 X106.477 Y117.692 E-.33185
G1 X106.228 Y117.681 E-.22198
G1 X105.761 Y117.571 E-.4273
G1 X105.332 Y117.363 E-.42462
G1 X105.247 Y117.3 E-.09425
;WIPE_END
G1 X107.067 Y123.28 F4800
G1 E5 F2400
;TYPE:Perimeter
G1 F1440
G1 X106.28 Y123.251 E.02338
G1 X103.657 Y120.628 E.11014
G1 X103.657 Y116.229 E.13061
;WIDTH:0.399006
G1 X103.641 Y115.639 E.01748
;WIDTH:0.383597
G1 X103.649 Y115.061 E.01637
;WIDTH:0.399999
G1 X103.657 Y110.372 E.13922
G1 X106.28 Y107.749 E.11014
G1 X107.063 Y107.72 E.02326
G1 X106.812 Y108.07 E.01279
G1 X106.614 Y108.502 E.01411
G1 X106.476 Y109.069 E.01733
G1 X106.45 Y109.667 E.01777
G1 X106.538 Y110.247 E.01742
G1 X106.71 Y110.739 E.01548
G1 X107.075 Y111.353 E.02121
G1 X107.415 Y111.733 E.01514
G1 X107.879 Y112.089 E.01736
G1 X108.325 Y112.32 E.01491
G1 X108.835 Y112.481 E.01588
G1 X109.314 Y112.541 E.01433
G1 X109.873 Y112.521 E.01661
G1 X110.183 Y112.447 E.00946
G1 X110.013 Y112.718 E.0095
G1 X109.769 Y113.251 E.0174
G1 X109.536 Y113.996 E.02318
G1 X109.396 Y114.733 E.02227
G1 X109.371 Y115.294 E.01667
;WIDTH:0.3843
G1 X109.37 Y115.906 E.01737
;WIDTH:0.399999
G1 X109.481 Y116.778 E.0261
G1 X109.624 Y117.327 E.01684
G1 X109.79 Y117.8 E.01488
G1 X110.01 Y118.275 E.01554
G1 X110.186 Y118.558 E.0099
G1 X109.875 Y118.475 E.00956
G1 X109.267 Y118.455 E.01806
G1 X108.693 Y118.552 E.01728
G1 X108.178 Y118.747 E.01635
G1 X107.663 Y119.06 E.01789
G1 X107.188 Y119.504 E.01931
G1 X106.874 Y119.94 E.01595
G1 X106.619 Y120.484 E.01784
G1 X106.492 Y120.965 E.01477
G1 X106.445 Y121.549 E.0174
G1 X106.485 Y121.997 E.01335
G1 X106.639 Y122.563 E.01742
G1 X106.839 Y122.977 E.01365
G1 X107.031 Y123.232 E.00948
G1 X107.904 Y123.53 F4800
;TYPE:External perimeter
G1 F1440
G1 X108.138 Y123.7 E.00859
G1 X107.513 Y123.7 E.01856
G1 X107.008 Y123.633 E.01513
G1 X106.127 Y123.604 E.02617
G1 X103.3 Y120.776 E.11873
G1 X103.3 Y110.224 E.3133
G1 X106.127 Y107.396 E.11873
G1 X107.008 Y107.367 E.02617
G1 X107.513 Y107.3 E.01513
G1 X108.126 Y107.3 E.0182
G1 X107.959 Y107.406 E.00587
G1 X107.421 Y107.844 E.0206
G1 X107.102 Y108.278 E.01599
G1 X106.942 Y108.642 E.01181
G1 X106.837 Y109.06 E.0128
G1 X106.802 Y109.583 E.01556
G1 X106.871 Y110.107 E.01569
G1 X107.017 Y110.556 E.01402
G1 X107.382 Y111.171 E.02123
G1 X107.623 Y111.441 E.01075
G1 X108.023 Y111.758 E.01515
G1 X108.43 Y111.978 E.01374
G1 X108.945 Y112.141 E.01604
G1 X109.455 Y112.196 E.01523
G1 X109.946 Y112.15 E.01464
G1 X110.45 Y111.974 E.01585
;WIDTH:0.447412
G1 X110.58 Y111.918 E.00476
;WIDTH:0.494824
G1 X110.711 Y111.861 E.00537
;WIDTH:0.542236
G1 X110.842 Y111.805 E.00592
;WIDTH:0.589648
G1 X110.972 Y111.749 E.00643
;WIDTH:0.63706
G1 X111.103 Y111.693 E.00704
G1 X111.081 Y111.74 E.00256
;WIDTH:0.607374
G1 X110.992 Y111.873 E.00751
;WIDTH:0.565899
G1 X110.904 Y112.005 E.0069
;WIDTH:0.524424
G1 X110.815 Y112.137 E.00637
;WIDTH:0.482949
G1 X110.726 Y112.269 E.00582
;WIDTH:0.441474
G1 X110.638 Y112.401 E.00526
;WIDTH:0.399999
G1 X110.337 Y112.869 E.01652
G1 X110.107 Y113.368 E.01631
G1 X109.883 Y114.079 E.02213
G1 X109.75 Y114.783 E.02127
G1 X109.717 Y115.302 E.01544
G1 X109.717 Y115.865 E.01672
G1 X109.805 Y116.598 E.02192
G1 X109.934 Y117.13 E.01625
G1 X110.127 Y117.677 E.01722
G1 X110.349 Y118.153 E.01559
G1 X110.654 Y118.62 E.01656
G1 X111.07 Y119.091 E.01866
;WIDTH:0.440335
G1 X111.111 Y119.167 E.00285
;WIDTH:0.480671
G1 X111.151 Y119.244 E.00316
;WIDTH:0.521007
G1 X111.192 Y119.32 E.00343
;WIDTH:0.561343
G1 X111.232 Y119.396 E.0037
;WIDTH:0.601678
G1 X111.273 Y119.473 E.00405
G1 X111.196 Y119.439 E.00391
;WIDTH:0.561343
G1 X111.12 Y119.405 E.00359
;WIDTH:0.521007
G1 X111.043 Y119.371 E.00335
;WIDTH:0.480671
G1 X110.967 Y119.337 E.00303
;WIDTH:0.440335
G1 X110.89 Y119.303 E.00278
;WIDTH:0.399999
G1 X110.34 Y118.985 E.01886
G1 X109.856 Y118.832 E.01507
G1 X109.325 Y118.808 E.01578
G1 X108.795 Y118.895 E.01595
G1 X108.357 Y119.055 E.01385
G1 X107.902 Y119.325 E.01571
G1 X107.478 Y119.713 E.01706
G1 X107.164 Y120.148 E.01593
G1 X106.945 Y120.63 E.01572
G1 X106.839 Y121.05 E.01286
G1 X106.802 Y121.572 E.01554
G1 X106.846 Y121.991 E.01251
G1 X107.047 Y122.599 E.01901
G1 X107.316 Y123.021 E.01486
G1 X107.652 Y123.346 E.01388
G1 X107.856 Y123.495 E.0075
G1 X107.866 Y123.816 F4800
G1 E-3.5 F3600
;WIPE_START
G1 F3840
G1 X108.138 Y123.7 E-.31051
G1 X107.513 Y123.7 E-.55664
G1 X107.008 Y123.633 E-.45371
G1 X106.807 Y123.626 E-.17914
;WIPE_END
G1 X111.103 Y111.693 F4800
G1 E5 F2400
;WIDTH:0.63706
G1 F1440
G1 X111.502 Y111.308 E.02739
;WIDTH:0.604936
G1 X111.55 Y111.257 E.00327
G1 E-3.5 F3600
;WIPE_START
G1 F3840
G1 X111.502 Y111.308 E-.06238
G1 X111.103 Y111.693 E-.49382
;WIPE_END
G1 E-.9438 F3600
G1 X112.908 Y109.531 F4800
G1 E5 F2400
;TYPE:Perimeter
;WIDTH:0.399999
G1 F1440
G1 X112.877 Y109.023 E.01511
G1 X112.768 Y108.52 E.01528
G1 X112.609 Y108.109 E.01308
G1 X118.393 Y108.109 E.17173
G1 X118.285 Y108.361 E.00814
G1 X118.144 Y108.891 E.01628
G1 X118.092 Y109.532 E.01909
G1 X117.793 Y109.404 E.00966
G1 X117.207 Y109.214 E.01829
G1 X116.606 Y109.081 E.01828
G1 X115.995 Y109.006 E.01828
G1 X115.353 Y108.989 E.01907
G1 X114.463 Y109.07 E.02653
G1 X113.579 Y109.282 E.02699
G1 X112.965 Y109.51 E.01945
G1 X112.448 Y110.199 F4800
G1 F1440
G1 X112.534 Y109.761 E.01325
G1 X112.528 Y109.165 E.0177
G1 X112.421 Y108.605 E.01693
G1 X112.23 Y108.137 E.01501
G1 X111.941 Y107.72 E.01506
G1 X112.496 Y107.752 E.01651
G1 X113.497 Y107.757 E.02972
G1 X118.53 Y107.751 E.14944
G1 X119.032 Y107.723 E.01493
G1 X118.812 Y108.07 E.0122
G1 X118.614 Y108.502 E.01411
G1 X118.476 Y109.072 E.01741
G1 X118.452 Y109.667 E.01768
G1 X118.544 Y110.176 E.01536
G1 X118.216 Y109.978 E.01138
G1 X117.681 Y109.743 E.01735
G1 X117.128 Y109.562 E.01728
G1 X116.56 Y109.435 E.01728
G1 X115.983 Y109.362 E.01727
G1 X115.382 Y109.345 E.01785
G1 X114.534 Y109.42 E.02528
G1 X113.964 Y109.538 E.01728
G1 X113.406 Y109.71 E.01734
G1 X112.914 Y109.915 E.01583
G1 X112.499 Y110.168 E.01443
G1 E-3.5 F3600
;WIPE_START
G1 F3840
G1 X112.534 Y109.761 E-.36382
G1 X112.528 Y109.165 E-.53084
G1 X112.421 Y108.605 E-.50777
G1 X112.38 Y108.504 E-.09757
;WIPE_END
G1 X119.345 Y111.145 F4800
G1 E5 F2400
;TYPE:External perimeter
;WIDTH:0.62304
G1 F1440
G1 X119.812 Y111.605 E.03162
;WIDTH:0.633882
G1 X119.887 Y111.685 E.00539
G1 E-3.5 F3600
;WIPE_START
G1 F3840
G1 X119.812 Y111.605 E-.09766
G1 X119.345 Y111.145 E-.58381
;WIPE_END
G1 E-.81853 F3600
G1 X111.55 Y111.257 F4800
G1 E5 F2400
;WIDTH:0.604936
G1 F1440
G1 X111.578 Y111.174 E.00409
;WIDTH:0.561167
G1 X111.607 Y111.091 E.00379
;WIDTH:0.517397
G1 X111.736 Y110.863 E.01034
;WIDTH:0.478265
G1 X111.865 Y110.634 E.00951
;WIDTH:0.439132
G1 X111.994 Y110.405 E.00866
;WIDTH:0.399999
G1 X112.143 Y109.986 E.0132
G1 X112.18 Y109.717 E.00806
G1 X112.172 Y109.188 E.01571
G1 X112.074 Y108.69 E.01507
G1 X111.929 Y108.333 E.01144
G1 X111.664 Y107.948 E.01388
G1 X111.346 Y107.656 E.01282
G1 X110.871 Y107.3 E.01762
G1 X111.487 Y107.3 E.01829
G1 X111.988 Y107.366 E.015
G1 X112.498 Y107.395 E.01517
G1 X113.499 Y107.4 E.02972
G1 X118.511 Y107.394 E.14881
G1 X119.012 Y107.366 E.0149
G1 X119.513 Y107.3 E.015
G1 X120.126 Y107.3 E.0182
G1 X119.959 Y107.406 E.00587
G1 X119.421 Y107.844 E.0206
G1 X119.102 Y108.278 E.01599
G1 X118.942 Y108.642 E.01181
G1 X118.837 Y109.06 E.0128
G1 X118.804 Y109.584 E.01559
G1 X118.864 Y110.012 E.01283
G1 X119.056 Y110.507 E.01576
;WIDTH:0.444608
G1 X119.114 Y110.635 E.00469
;WIDTH:0.489216
G1 X119.172 Y110.762 E.00518
;WIDTH:0.533824
G1 X119.23 Y110.89 E.00574
;WIDTH:0.578432
G1 X119.288 Y111.017 E.00622
;WIDTH:0.62304
G1 X119.345 Y111.145 E.00676
G1 X119.227 Y111.071 E.00672
;WIDTH:0.578432
G1 X119.108 Y110.997 E.00624
;WIDTH:0.533824
G1 X118.989 Y110.922 E.00574
;WIDTH:0.489216
