; generated by PrusaSlicer 2.6.0-alpha6+MacOS-x64 on 2023-05-12 at 14:21:15 UTC

; 

; external perimeters extrusion width = 0.40mm
; perimeters extrusion width = 0.40mm
; infill extrusion width = 0.40mm
; solid infill extrusion width = 0.40mm
; top infill extrusion width = 0.40mm
; first layer extrusion width = 0.40mm

; external perimeters extrusion width = 0.40mm
; perimeters extrusion width = 0.40mm
; infill extrusion width = 0.40mm
; solid infill extrusion width = 0.40mm
; top infill extrusion width = 0.40mm
; first layer extrusion width = 0.40mm

M201 X400 Y400 Z100 E5000 ; sets maximum accelerations, mm/sec^2
M203 X48 Y48 Z10 E60 ; sets maximum feedrates, mm / sec
M204 S400 T1000 ; sets acceleration (S) and retract acceleration (R), mm/sec^2
M205 X8.00 Y8.00 Z0.40 E5.00 ; sets the jerk limits, mm/sec
M205 S0 T0 ; sets the minimum extruding and travel feed rate, mm/sec
;TYPE:Custom
; Ender 3 Custom Start G-code
G92 E0 ; Reset Extruder

M140 S50 ; set bed temp
M190 S50 ; wait for bed temp

G28 ; Home all axes
M104 S210 ; set extruder temp 
BED_MESH_CALIBRATE AREA_START=101.064,93.7644 AREA_END=129.936,137.236

G1 Z2.0 F3000 ; Move Z Axis up little to prevent scratching of Heat Bed
M109 S210 ; wait for extruder temp
G1 X0.1 Y20 Z0.3 F5000.0 ; Move to start position

G1 X0.1 Y200.0 Z0.3 F1500.0 E15 ; Draw the first line
G1 X0.4 Y200.0 Z0.3 F5000.0 ; Move to side a little
G1 X0.4 Y20 Z0.3 F1500.0 E30 ; Draw the second line
G92 E0 ; Reset Extruder
G1 Z2.0 F3000 ; Move Z Axis up little to prevent scratching of Heat Bed
G1 X5 Y20 Z0.3 F5000.0 ; Move over to prevent blob squish
G21 ; set units to millimeters
G90 ; use absolute coordinates
M83 ; use relative distances for extrusion
; Filament gcode
M107
;LAYER_CHANGE
;Z:0.12
;HEIGHT:0.12
TIMELAPSE_TAKE_FRAME
;BEFORE_LAYER_CHANGE
G92 E0
;0.12


G1 E-5 F3600
G1 Z.12 F4800
;AFTER_LAYER_CHANGE
;0.12
G1 X101.764 Y97.464
G1 E5 F2400
M204 S400
;TYPE:Skirt/Brim
;WIDTH:0.4
G1 F1440
G1 X104.764 Y94.464 E.07922
G1 X106 Y93.952 E.02498
G1 X125 Y93.952 E.35475
G1 X126.236 Y94.464 E.02498
G1 X129.236 Y97.464 E.07922
G1 X129.748 Y98.7 E.02498
G1 X129.748 Y132.3 E.62736
G1 X129.236 Y133.536 E.02498
G1 X126.236 Y136.536 E.07922
G1 X125 Y137.048 E.02498
G1 X106 Y137.048 E.35475
G1 X104.764 Y136.536 E.02498
G1 X101.764 Y133.536 E.07922
G1 X101.252 Y132.3 E.02498
G1 X101.252 Y98.7 E.62736
G1 X101.741 Y97.519 E.02387
G1 X102.028 Y97.728 F4800
G1 F1440
G1 X105.028 Y94.728 E.07922
G1 X106 Y94.326 E.01964
G1 X125 Y94.326 E.35475
G1 X125.972 Y94.728 E.01964
G1 X128.972 Y97.728 E.07922
G1 X129.374 Y98.7 E.01964
G1 X129.374 Y132.3 E.62736
G1 X128.972 Y133.272 E.01964
G1 X125.972 Y136.272 E.07922
G1 X125 Y136.674 E.01964
G1 X106 Y136.674 E.35475
G1 X105.028 Y136.272 E.01964
G1 X102.028 Y133.272 E.07922
G1 X101.626 Y132.3 E.01964
G1 X101.626 Y98.7 E.62736
G1 X102.005 Y97.784 E.01851
; printing object Square_Middle_Bowden_45deg.stl id:0 copy 0
G1 E-3.5 F3600
;WIPE_START
G1 F3840
G1 X103.189 Y96.587 E-1.5
;WIPE_END
G1 X105.35 Y98.891 F4800
G1 E5 F2400
;TYPE:Perimeter
;WIDTH:0.399999
G1 F1440
G1 X105.507 Y99.507 E.01187
G1 X105.787 Y100.131 E.01277
G1 X106.241 Y100.803 E.01514
G1 X106.717 Y101.287 E.01267
G1 X107.411 Y101.78 E.01589
G1 X107.871 Y102.006 E.00957
G1 X108.458 Y102.201 E.01155
G1 X108.316 Y102.834 E.01211
G1 X108.209 Y103.835 E.0188
G1 X108.217 Y104.524 E.01287
G1 X108.267 Y105.052 E.0099
G1 X108.359 Y105.57 E.00982
G1 X107.749 Y106.129 E.01545
G1 X104.959 Y108.917 E.07364
G1 X104.797 Y108.756 E.00426
G1 X104.797 Y99.444 E.17387
G1 X105.307 Y98.934 E.01347
G1 X105.65 Y98.062 F4800
G1 F1440
G1 X105.681 Y98.647 E.01094
G1 X105.854 Y99.367 E.01383
G1 X106.104 Y99.932 E.01154
G1 X106.518 Y100.551 E.0139
G1 X106.946 Y100.991 E.01146
G1 X107.576 Y101.444 E.01449
G1 X108.25 Y101.752 E.01384
G1 X108.939 Y101.912 E.01321
G1 X108.837 Y102.227 E.00618
G1 X108.685 Y102.897 E.01283
G1 X108.583 Y103.835 E.01762
G1 X108.589 Y104.489 E.01221
G1 X108.658 Y105.142 E.01226
G1 X108.758 Y105.663 E.00991
G1 X108.735 Y105.734 E.00139
G1 X108.014 Y106.394 E.01825
G1 X104.959 Y109.447 E.08064
G1 X104.423 Y108.911 E.01415
G1 X104.423 Y99.289 E.17965
G1 X105.608 Y98.104 E.03129
G1 X106.218 Y96.964 F4800
G1 F1440
G1 X106.101 Y97.325 E.00709
G1 X106.023 Y97.869 E.01026
G1 X106.047 Y98.569 E.01308
G1 X106.201 Y99.227 E.01262
G1 X106.421 Y99.733 E.0103
G1 X106.794 Y100.299 E.01266
G1 X107.175 Y100.695 E.01026
G1 X107.74 Y101.108 E.01307
G1 X108.353 Y101.392 E.01261
G1 X108.891 Y101.531 E.01037
G1 X109.447 Y101.585 E.01043
G1 X109.201 Y102.314 E.01437
G1 X109.057 Y102.941 E.01201
G1 X108.958 Y103.835 E.01679
G1 X108.962 Y104.453 E.01154
G1 X109.025 Y105.071 E.0116
G1 X109.211 Y105.88 E.0155
G1 X109.084 Y105.925 E.00252
G1 X108.278 Y106.659 E.02035
G1 X104.958 Y109.976 E.08763
G1 X104.048 Y109.066 E.02403
G1 X104.048 Y99.134 E.18544
G1 X106.176 Y97.007 E.05618
G1 X106.977 Y96.34 F4800
G1 F1440
G1 X106.678 Y96.805 E.01032
G1 X106.498 Y97.285 E.00957
G1 X106.397 Y97.867 E.01103
G1 X106.413 Y98.491 E.01165
G1 X106.543 Y99.073 E.01113
G1 X106.738 Y99.534 E.00935
G1 X107.01 Y99.967 E.00955
G1 X107.404 Y100.399 E.01092
G1 X107.884 Y100.761 E.01123
G1 X108.339 Y100.985 E.00947
G1 X108.83 Y101.14 E.00961
G1 X109.339 Y101.199 E.00957
G1 X109.903 Y101.177 E.01054
G1 X110.125 Y101.118 E.00429
G1 X109.753 Y101.846 E.01526
G1 X109.565 Y102.402 E.01096
G1 X109.429 Y102.985 E.01118
G1 X109.332 Y103.835 E.01597
G1 X109.334 Y104.418 E.01089
G1 X109.392 Y105 E.01092
G1 X109.509 Y105.583 E.0111
G1 X109.665 Y106.09 E.0099
G1 X109.317 Y106.217 E.00692
G1 X108.543 Y106.924 E.01957
G1 X105.22 Y110.243 E.08769
G1 X105.22 Y110.767 E.00978
G1 X103.674 Y109.221 E.04082
G1 X103.674 Y98.979 E.19123
G1 X106.287 Y96.366 E.069
G1 X106.917 Y96.343 E.01177
G1 X107.32 Y95.944 F4800
;TYPE:External perimeter
G1 F1440
G1 X108.085 Y95.9 E.01431
G1 X107.79 Y96.089 E.00654
G1 X107.291 Y96.544 E.01261
G1 X107.028 Y96.936 E.00881
G1 X106.848 Y97.416 E.00957
G1 X106.772 Y97.865 E.0085
G1 X106.779 Y98.414 E.01025
G1 X106.885 Y98.915 E.00956
G1 X107.055 Y99.335 E.00846
G1 X107.327 Y99.768 E.00955
G1 X107.632 Y100.103 E.00846
G1 X108.037 Y100.416 E.00956
G1 X108.503 Y100.648 E.00972
G1 X108.932 Y100.78 E.00838
G1 X109.376 Y100.827 E.00834
G1 X109.911 Y100.795 E.01001
G1 X110.395 Y100.632 E.00954
G1 X110.602 Y100.511 E.00448
;WIDTH:0.441148
G1 X110.706 Y100.472 E.0023
;WIDTH:0.482297
G1 X110.809 Y100.432 E.00252
;WIDTH:0.523446
G1 X110.912 Y100.392 E.00274
;WIDTH:0.564595
G1 X111.015 Y100.353 E.00296
;WIDTH:0.605744
G1 X111.119 Y100.313 E.00322
G1 X111.098 Y100.358 E.00144
;WIDTH:0.58064
G1 X111.036 Y100.469 E.00352
;WIDTH:0.53548
G1 X110.975 Y100.58 E.00322
;WIDTH:0.49032
G1 X110.913 Y100.691 E.00295
;WIDTH:0.445159
G1 X110.852 Y100.802 E.00265
;WIDTH:0.399999
G1 X110.508 Y101.202 E.00985
G1 X110.107 Y101.968 E.01614
G1 X109.929 Y102.489 E.01028
G1 X109.8 Y103.029 E.01037
G1 X109.706 Y103.835 E.01515
G1 X109.707 Y104.383 E.01023
G1 X109.76 Y104.928 E.01022
G1 X109.866 Y105.47 E.01031
;WIDTH:0.432486
G1 X110.157 Y106.295 E.01775
G1 X110.432 Y106.713 E.01015
;WIDTH:0.445419
G1 X110.518 Y106.897 E.00425
;WIDTH:0.491206
G1 X110.603 Y107.081 E.00471
;WIDTH:0.536993
G1 X110.689 Y107.264 E.00516
;WIDTH:0.58278
G1 X110.775 Y107.448 E.00564
G1 X110.747 Y107.43 E.00093
;WIDTH:0.568139
G1 X110.592 Y107.305 E.00539
;WIDTH:0.526012
G1 X110.437 Y107.179 E.00499
;WIDTH:0.483886
G1 X110.282 Y107.054 E.00455
;WIDTH:0.441759
G1 X110.127 Y106.928 E.00415
;WIDTH:0.432486
G1 X109.826 Y106.528 E.01016
G1 X109.667 Y106.469 E.00344
;WIDTH:0.399999
G1 X109.492 Y106.563 E.00371
G1 X108.807 Y107.188 E.01731
G1 X105.485 Y110.508 E.08769
;WIDTH:0.44576
G1 X105.469 Y110.656 E.00312
;WIDTH:0.491521
G1 X105.452 Y110.805 E.00348
;WIDTH:0.495021
G1 X105.915 Y111.26 E.0152
;WIDTH:0.522068
G1 X106.989 Y112.233 E.03588
G1 X106.827 Y112.239 E.00401
G1 X106.16 Y112.171 E.0166
G1 X105.582 Y111.591 E.02028
;WIDTH:0.495021
G1 X105.123 Y111.134 E.01516
;WIDTH:0.491521
G1 X104.777 Y110.821 E.01084
;WIDTH:0.44576
G1 X104.432 Y110.508 E.00976
;WIDTH:0.399999
G1 X103.3 Y109.376 E.02989
G1 X103.3 Y98.824 E.19702
G1 X106.127 Y95.997 E.07465
G1 X107.26 Y95.947 E.02118
G1 X107.598 Y96.231 F4800
G1 E-3.5 F3600
;WIPE_START
G1 F3840
G1 X108.085 Y95.9 E-.73596
G1 X107.79 Y96.089 E-.31203
G1 X107.415 Y96.431 E-.45201
;WIPE_END
G1 X111.119 Y100.313 F4800
G1 E5 F2400
;WIDTH:0.605744
G1 F1440
G1 X111.51 Y99.928 E.01588
;WIDTH:0.586454
G1 X111.668 Y99.755 E.00655
G1 E-3.5 F3600
;WIPE_START
G1 F3840
G1 X111.51 Y99.928 E-.20867
G1 X111.119 Y100.313 E-.48871
;WIPE_END
G1 E-.80262 F3600
G1 X114.403 Y97.193 F4800
G1 E5 F2400
;TYPE:Perimeter
;WIDTH:0.541352
G1 F1440
G1 X114.368 Y97.207 E.00097
;WIDTH:0.527453
G1 X114.199 Y97.264 E.00446
;WIDTH:0.48276
G1 X114.03 Y97.321 E.00407
;WIDTH:0.438067
G1 X113.862 Y97.379 E.00366
;WIDTH:0.393374
G1 X113.305 Y97.542 E.01064
G1 X113.227 Y97.118 E.00791
G1 X113.835 Y97.119 E.01115
;WIDTH:0.4427
G1 X114.025 Y97.144 E.00399
;WIDTH:0.492026
G1 X114.214 Y97.169 E.00443
;WIDTH:0.541352
G1 X114.344 Y97.186 E.00337
G1 X115.428 Y97.557 F4800
;WIDTH:0.399999
G1 F1440
G1 X114.455 Y97.636 E.01823
G1 X113.619 Y97.834 E.01604
G1 X113 Y98.056 E.01228
G1 X112.897 Y97.311 E.01404
G1 X112.697 Y96.743 E.01124
G1 X118.192 Y96.748 E.1026
G1 X117.423 Y97.571 E.02103
G1 X117.274 Y97.816 E.00535
G1 X116.611 Y97.647 E.01277
G1 X115.996 Y97.571 E.01157
G1 X115.488 Y97.559 E.00949
G1 X115.422 Y97.929 F4800
G1 F1440
G1 X114.53 Y98.003 E.01671
G1 X113.728 Y98.192 E.01538
G1 X113.144 Y98.402 E.01159
G1 X112.509 Y98.728 E.01333
G1 X112.594 Y98.383 E.00663
G1 X112.593 Y97.835 E.01023
G1 X112.505 Y97.298 E.01016
G1 X112.316 Y96.793 E.01007
G1 X112.005 Y96.333 E.01037
G1 X112.384 Y96.367 E.0071
G1 X113.364 Y96.374 E.0183
G1 X118.287 Y96.374 E.09192
G1 X119.158 Y96.344 E.01627
G1 X118.513 Y96.955 E.01659
G1 X117.704 Y97.817 E.02207
G1 X117.503 Y98.174 E.00765
G1 X117.495 Y98.272 E.00184
G1 X116.562 Y98.018 E.01805
G1 X115.983 Y97.945 E.0109
G1 X115.482 Y97.931 E.00936
G1 E-3.5 F3600
;WIPE_START
G1 F3840
G1 X114.53 Y98.003 E-.8503
G1 X113.82 Y98.17 E-.6497
;WIPE_END
G1 X118.986 Y99.493 F4800
G1 E5 F2400
;TYPE:External perimeter
;WIDTH:0.554736
G1 F1440
G1 X119.388 Y99.86 E.01437
;WIDTH:0.507772
G1 X119.771 Y100.245 E.01306
;WIDTH:0.534537
G1 X119.954 Y100.447 E.00692
;WIDTH:0.561302
G1 X120.137 Y100.648 E.00726
;WIDTH:0.565058
G1 X120.153 Y100.667 E.00067
G1 E-3.5 F3600
;WIPE_START
G1 F3840
G1 X120.137 Y100.648 E-.02212
G1 X119.954 Y100.447 E-.2421
G1 X119.771 Y100.245 E-.24276
G1 X119.388 Y99.86 E-.48366
G1 X118.986 Y99.493 E-.48479
;WIPE_END
G1 E-.02457 F3600
G1 X115.302 Y98.311 F4800
G1 E5 F2400
;WIDTH:0.399999
G1 F1440
G1 X114.604 Y98.37 E.01308
G1 X114.068 Y98.48 E.01022
G1 X113.543 Y98.641 E.01025
G1 X113.027 Y98.858 E.01045
G1 X112.545 Y99.144 E.01046
G1 X112.146 Y99.492 E.00989
;WIDTH:0.443499
G1 X112.033 Y99.555 E.0027
;WIDTH:0.487
G1 X111.919 Y99.617 E.00299
;WIDTH:0.5305
G1 X111.806 Y99.68 E.00326
;WIDTH:0.574
G1 X111.692 Y99.743 E.00356
G1 X111.714 Y99.671 E.00206
;WIDTH:0.539994
G1 X111.736 Y99.6 E.00191
;WIDTH:0.505987
G1 X111.841 Y99.385 E.00573
;WIDTH:0.470658
G1 X111.946 Y99.169 E.00533
;WIDTH:0.435329
G1 X112.051 Y98.954 E.00489
;WIDTH:0.399999
G1 X112.212 Y98.415 E.0105
G1 X112.235 Y97.976 E.00821
G1 X112.155 Y97.429 E.01032
G1 X111.899 Y96.822 E.0123
G1 X111.59 Y96.411 E.0096
G1 X110.96 Y95.906 E.01508
G1 X111.783 Y95.936 E.01538
G1 X112.387 Y95.992 E.01133
G1 X113.367 Y96 E.0183
G1 X118.274 Y96 E.09162
G1 X119.255 Y95.967 E.01833
G1 X119.732 Y95.903 E.00899
G1 X120.201 Y95.915 E.00876
G1 X119.93 Y96.201 E.00736
G1 X119.492 Y96.545 E.0104
G1 X118.781 Y97.216 E.01825
G1 X118.26 Y97.751 E.01394
G1 X117.872 Y98.236 E.0116
;WIDTH:0.413749
G1 X117.934 Y98.419 E.00374
G1 X118.274 Y98.687 E.00838
;WIDTH:0.404847
G1 X118.671 Y99.069 E.01042
;WIDTH:0.438374
G1 X118.75 Y99.175 E.00272
;WIDTH:0.477161
G1 X118.829 Y99.281 E.00298
;WIDTH:0.515949
G1 X118.908 Y99.387 E.00323
;WIDTH:0.554736
G1 X118.986 Y99.493 E.00347
G1 X118.984 Y99.492 E.00006
;WIDTH:0.553766
G1 X118.863 Y99.432 E.00356
;WIDTH:0.515221
G1 X118.741 Y99.372 E.00332
;WIDTH:0.476676
G1 X118.62 Y99.312 E.00304
;WIDTH:0.438131
G1 X118.498 Y99.253 E.00279
;WIDTH:0.419907
G1 X117.82 Y98.829 E.01572
G1 X117.305 Y98.6 E.01108
;WIDTH:0.399999
G1 X116.513 Y98.39 E.0153
G1 X115.97 Y98.319 E.01022
G1 X115.362 Y98.305 E.01136
G1 X115.09 Y97.971 F4800
G1 X114.403 Y97.193
;TYPE:Perimeter
;WIDTH:0.541352
G1 F1440
G1 X114.86 Y97.173 E.01177
;WIDTH:0.500574
G1 X115.318 Y97.152 E.01086
;WIDTH:0.474654
G1 X116.01 Y97.16 E.0155
;WIDTH:0.514534
G1 X116.34 Y97.18 E.00806
;WIDTH:0.554414
G1 X116.669 Y97.2 E.00869
;WIDTH:0.59846
G1 X116.86 Y97.222 E.00549
;WIDTH:0.642506
G1 X117.05 Y97.244 E.00589
G1 E-3.5 F3600
;WIPE_START
G1 F3840
G1 X116.86 Y97.222 E-.17035
G1 X116.669 Y97.2 E-.17123
G1 X116.34 Y97.18 E-.29356
G1 X116.01 Y97.16 E-.29445
G1 X115.37 Y97.153 E-.57041
;WIPE_END
G1 X126.041 Y99.283 F4800
G1 E5 F2400
;WIDTH:0.399999
G1 F1440
G1 X126.203 Y99.444 E.00426
G1 X126.203 Y108.756 E.17387
G1 X125.656 Y109.303 E.01444
G1 X125.453 Y108.591 E.01382
G1 X125.067 Y107.824 E.01603
G1 X124.515 Y107.131 E.01654
G1 X124.135 Y106.789 E.00955
G1 X123.586 Y106.428 E.01227
G1 X123.038 Y106.158 E.01141
G1 X122.539 Y106 E.00977
G1 X122.664 Y105.448 E.01057
G1 X122.782 Y104.537 E.01715
G1 X122.791 Y103.848 E.01287
G1 X122.735 Y103.159 E.01291
G1 X122.652 Y102.62 E.01018
G1 X123.251 Y102.071 E.01517
G1 X125.999 Y99.325 E.07253
G1 X126.041 Y98.753 F4800
G1 F1440
G1 X126.577 Y99.289 E.01415
G1 X126.577 Y108.911 E.17965
G1 X125.358 Y110.131 E.0322
G1 X125.284 Y109.336 E.01491
G1 X125.112 Y108.746 E.01147
G1 X124.765 Y108.045 E.0146
G1 X124.265 Y107.409 E.01511
G1 X123.668 Y106.909 E.01454
G1 X123.201 Y106.637 E.01009
G1 X122.618 Y106.406 E.01171
G1 X122.07 Y106.288 E.01047
G1 X122.294 Y105.395 E.01719
G1 X122.408 Y104.529 E.01631
G1 X122.418 Y103.875 E.01221
G1 X122.366 Y103.221 E.01225
G1 X122.229 Y102.499 E.01372
G1 X122.986 Y101.806 E.01916
G1 X125.999 Y98.796 E.07952
G1 X126.042 Y98.224 F4800
G1 F1440
G1 X126.952 Y99.134 E.02403
G1 X126.952 Y109.066 E.18544
G1 X124.787 Y111.23 E.05715
G1 X124.948 Y110.621 E.01176
G1 X124.985 Y110.103 E.0097
G1 X124.921 Y109.428 E.01266
G1 X124.771 Y108.9 E.01025
G1 X124.463 Y108.266 E.01316
G1 X124.015 Y107.687 E.01367
G1 X123.479 Y107.232 E.01313
G1 X123.013 Y106.961 E.01007
G1 X122.55 Y106.779 E.00929
G1 X122.006 Y106.661 E.01039
G1 X121.526 Y106.624 E.00899
G1 X121.796 Y105.88 E.01478
G1 X121.923 Y105.342 E.01032
G1 X122.034 Y104.52 E.01549
G1 X122.045 Y103.901 E.01156
G1 X121.996 Y103.283 E.01158
G1 X121.908 Y102.761 E.00988
G1 X121.792 Y102.329 E.00835
G1 X121.964 Y102.235 E.00366
G1 X122.722 Y101.541 E.01919
G1 X125.999 Y98.267 E.08649
G1 X126.229 Y97.882 F4800
G1 F1440
G1 X127.326 Y98.979 E.02897
G1 X127.326 Y109.221 E.19123
G1 X124.713 Y111.834 E.069
G1 X124.017 Y111.86 E.013
G1 X124.135 Y111.711 E.00355
G1 X124.406 Y111.203 E.01075
G1 X124.556 Y110.685 E.01007
G1 X124.612 Y110.13 E.01042
G1 X124.575 Y109.62 E.00955
G1 X124.43 Y109.054 E.01091
G1 X124.161 Y108.487 E.01172
G1 X123.765 Y107.966 E.01222
G1 X123.291 Y107.556 E.0117
G1 X122.825 Y107.284 E.01007
G1 X122.271 Y107.086 E.01098
G1 X121.767 Y107 E.00955
G1 X121.266 Y107.013 E.00936
G1 X120.876 Y107.084 E.0074
G1 X121.216 Y106.392 E.0144
G1 X121.435 Y105.784 E.01207
G1 X121.553 Y105.289 E.0095
G1 X121.66 Y104.511 E.01466
G1 X121.671 Y103.928 E.01089
G1 X121.627 Y103.346 E.0109
G1 X121.504 Y102.685 E.01255
G1 X121.304 Y102.064 E.01218
G1 X121.395 Y102.102 E.00184
G1 X121.711 Y101.959 E.00648
G1 X122.457 Y101.276 E.01888
G1 X125.78 Y97.957 E.08769
G1 X125.822 Y97.475 E.00903
G1 X126.186 Y97.84 E.00962
G1 E-3.5 F3600
;WIPE_START
G1 F3840
G1 X127.326 Y98.979 E-1.43524
G1 X127.326 Y99.052 E-.06476
;WIPE_END
G1 X119.868 Y107.899 F4800
G1 E5 F2400
;TYPE:External perimeter
;WIDTH:0.60193
G1 F1440
G1 X119.499 Y108.263 E.0149
;WIDTH:0.584876
G1 X119.367 Y108.404 E.00539
;WIDTH:0.6147
G1 X119.236 Y108.546 E.00568
G1 E-3.5 F3600
;WIPE_START
G1 F3840
G1 X119.367 Y108.404 E-.17207
