; generated by PrusaSlicer 2.6.0-alpha6+MacOS-x64 on 2023-05-12 at 15:59:59 UTC

; 

; external perimeters extrusion width = 0.40mm
; perimeters extrusion width = 0.40mm
; infill extrusion width = 0.40mm
; solid infill extrusion width = 0.40mm
; top infill extrusion width = 0.40mm
; first layer extrusion width = 0.40mm

; external perimeters extrusion width = 0.40mm
; perimeters extrusion width = 0.40mm
; infill extrusion width = 0.40mm
; solid infill extrusion width = 0.40mm
; top infill extrusion width = 0.40mm
; first layer extrusion width = 0.40mm

M201 X400 Y400 Z100 E5000 ; sets maximum accelerations, mm/sec^2
M203 X48 Y48 Z10 E60 ; sets maximum feedrates, mm / sec
M204 S400 T1000 ; sets acceleration (S) and retract acceleration (R), mm/sec^2
M205 X8.00 Y8.00 Z0.40 E5.00 ; sets the jerk limits, mm/sec
M205 S0 T0 ; sets the minimum extruding and travel feed rate, mm/sec
;TYPE:Custom
; Ender 3 Custom Start G-code
G92 E0 ; Reset Extruder

M140 S50 ; set bed temp
M190 S50 ; wait for bed temp

G28 ; Home all axes
M104 S210 ; set extruder temp 
BED_MESH_CALIBRATE AREA_START=101.107,93.8073 AREA_END=129.893,137.193

G1 Z2.0 F3000 ; Move Z Axis up little to prevent scratching of Heat Bed
M109 S210 ; wait for extruder temp
G1 X0.1 Y20 Z0.3 F5000.0 ; Move to start position

G1 X0.1 Y200.0 Z0.3 F1500.0 E15 ; Draw the first line
G1 X0.4 Y200.0 Z0.3 F5000.0 ; Move to side a little
G1 X0.4 Y20 Z0.3 F1500.0 E30 ; Draw the second line
G92 E0 ; Reset Extruder
G1 Z2.0 F3000 ; Move Z Axis up little to prevent scratching of Heat Bed
G1 X5 Y20 Z0.3 F5000.0 ; Move over to prevent blob squish
G21 ; set units to millimeters
G90 ; use absolute coordinates
M83 ; use relative distances for extrusion
; Filament gcode
M107
;LAYER_CHANGE
;Z:0.2
;HEIGHT:0.2
TIMELAPSE_TAKE_FRAME
;BEFORE_LAYER_CHANGE
G92 E0
;0.2


G1 E-5 F3600
G1 Z.2 F4800
;AFTER_LAYER_CHANGE
;0.2
G1 X101.788 Y97.488
G1 E5 F2400
M204 S400
;TYPE:Skirt/Brim
;WIDTH:0.4
G1 F1440
G1 X104.788 Y94.488 E.12597
G1 X106 Y93.986 E.03895
G1 X125 Y93.986 E.56413
G1 X126.212 Y94.488 E.03895
G1 X129.212 Y97.488 E.12597
G1 X129.714 Y98.7 E.03895
G1 X129.714 Y132.3 E.99763
G1 X129.212 Y133.512 E.03895
G1 X126.212 Y136.512 E.12597
G1 X125 Y137.014 E.03895
G1 X106 Y137.014 E.56413
G1 X104.788 Y136.512 E.03895
G1 X101.788 Y133.512 E.12597
G1 X101.286 Y132.3 E.03895
G1 X101.286 Y98.7 E.99763
G1 X101.765 Y97.543 E.03718
G1 X102.04 Y97.74 F4800
G1 F1440
G1 X105.04 Y94.74 E.12597
G1 X106 Y94.343 E.03084
G1 X125 Y94.343 E.56413
G1 X125.96 Y94.74 E.03084
G1 X128.96 Y97.74 E.12597
G1 X129.357 Y98.7 E.03084
G1 X129.357 Y132.3 E.99763
G1 X128.96 Y133.26 E.03084
G1 X125.96 Y136.26 E.12597
G1 X125 Y136.657 E.03084
G1 X106 Y136.657 E.56413
G1 X105.04 Y136.26 E.03084
G1 X102.04 Y133.26 E.12597
G1 X101.643 Y132.3 E.03084
G1 X101.643 Y98.7 E.99763
G1 X102.017 Y97.796 E.02905
; printing object Square_Middle_Bowden_45deg.stl id:0 copy 0
G1 E-3.5 F3600
;WIPE_START
G1 F3840
G1 X103.201 Y96.599 E-1.5
;WIPE_END
G1 X104.728 Y99.416 F4800
G1 E5 F2400
;TYPE:Perimeter
;WIDTH:0.399999
G1 F1440
G1 X105.43 Y98.714 E.02948
G1 X105.518 Y99.176 E.01396
G1 X105.789 Y99.886 E.02256
G1 X106.154 Y100.5 E.02121
G1 X106.558 Y100.993 E.01892
G1 X107.137 Y101.479 E.02244
G1 X107.481 Y101.692 E.01201
G1 X108.006 Y101.942 E.01727
G1 X108.552 Y102.113 E.01699
G1 X108.388 Y102.817 E.02146
G1 X108.297 Y103.532 E.0214
G1 X108.285 Y104.517 E.02925
G1 X108.335 Y105.046 E.01578
G1 X108.441 Y105.631 E.01765
G1 X107.821 Y106.201 E.02501
G1 X104.979 Y109.04 E.11927
G1 X104.728 Y108.787 E.01058
G1 X104.728 Y99.476 E.27646
G1 X104.371 Y99.268 F4800
G1 F1440
G1 X105.747 Y97.892 E.05778
G1 X105.742 Y98.365 E.01404
G1 X105.858 Y99.066 E.0211
G1 X106.096 Y99.703 E.02019
G1 X106.461 Y100.318 E.02123
G1 X106.822 Y100.753 E.01678
G1 X107.358 Y101.198 E.02068
G1 X107.65 Y101.378 E.01018
G1 X108.11 Y101.601 E.01518
G1 X108.62 Y101.762 E.01588
G1 X109.021 Y101.829 E.01207
G1 X108.888 Y102.235 E.01268
G1 X108.741 Y102.868 E.01929
G1 X108.654 Y103.54 E.02012
G1 X108.641 Y104.483 E.028
G1 X108.708 Y105.131 E.01934
G1 X108.834 Y105.756 E.01893
G1 X108.073 Y106.454 E.03066
G1 X104.978 Y109.546 E.1299
G1 X104.371 Y108.935 E.02557
G1 X104.371 Y99.328 E.28524
G1 X104.014 Y99.12 F4800
G1 F1440
G1 X106.369 Y96.764 E.09891
G1 X106.239 Y97.1 E.0107
G1 X106.12 Y97.647 E.01662
G1 X106.096 Y98.316 E.01988
G1 X106.198 Y98.957 E.01927
G1 X106.403 Y99.521 E.01782
G1 X106.768 Y100.135 E.02121
G1 X107.194 Y100.613 E.01901
G1 X107.714 Y101.006 E.01935
G1 X108.222 Y101.261 E.01688
G1 X108.91 Y101.459 E.02126
G1 X109.531 Y101.509 E.0185
G1 X109.431 Y101.735 E.00734
G1 X109.235 Y102.319 E.01829
G1 X109.095 Y102.918 E.01826
G1 X109.011 Y103.549 E.0189
G1 X108.996 Y104.449 E.02673
G1 X109.058 Y105.063 E.01832
G1 X109.261 Y105.929 E.02641
G1 X109.096 Y106 E.00533
G1 X108.326 Y106.706 E.03102
G1 X104.997 Y110.032 E.13972
G1 X104.997 Y110.072 E.00119
G1 X104.014 Y109.082 E.04142
G1 X104.014 Y99.18 E.294
G1 X103.73 Y98.899 F4800
G1 F1440
G1 X106.28 Y96.348 E.10709
G1 X107.058 Y96.322 E.02311
G1 X106.812 Y96.67 E.01265
G1 X106.614 Y97.102 E.01411
G1 X106.476 Y97.669 E.01733
G1 X106.45 Y98.267 E.01777
G1 X106.538 Y98.847 E.01742
G1 X106.71 Y99.339 E.01548
G1 X107.075 Y99.953 E.02121
G1 X107.415 Y100.333 E.01514
G1 X107.879 Y100.689 E.01736
G1 X108.325 Y100.92 E.01491
G1 X108.836 Y101.081 E.01591
G1 X109.314 Y101.141 E.0143
G1 X109.873 Y101.121 E.01661
G1 X110.183 Y101.047 E.00946
G1 X110.013 Y101.318 E.0095
G1 X109.769 Y101.851 E.0174
G1 X109.582 Y102.402 E.01728
G1 X109.448 Y102.968 E.01727
G1 X109.368 Y103.557 E.01765
G1 X109.352 Y104.416 E.02551
G1 X109.409 Y104.996 E.0173
G1 X109.525 Y105.576 E.01756
G1 X109.701 Y106.13 E.01726
G1 X109.334 Y106.266 E.01162
G1 X108.578 Y106.959 E.03045
G1 X105.25 Y110.285 E.1397
G1 X105.249 Y110.832 E.01624
G1 X103.657 Y109.229 E.06708
G1 X103.657 Y98.972 E.30454
G1 X103.687 Y98.942 E.00126
G1 E-3.5 F3600
;WIPE_START
G1 F3840
G1 X104.878 Y97.751 E-1.5
;WIPE_END
G1 X110.6 Y107.236 F4800
G1 E5 F2400
;TYPE:External perimeter
;WIDTH:0.635536
G1 F1440
G1 X110.769 Y107.436 E.0129
;WIDTH:0.590797
G1 X110.937 Y107.636 E.0119
;WIDTH:0.546058
G1 X111.307 Y108.037 E.02283
;WIDTH:0.511658
G1 X111.695 Y108.418 E.02119
;WIDTH:0.54779
G1 X111.898 Y108.596 E.01133
;WIDTH:0.583921
G1 X112.102 Y108.774 E.01218
;WIDTH:0.620052
G1 X112.305 Y108.952 E.01296
;WIDTH:0.621748
G1 X112.313 Y108.959 E.00051
G1 E-3.5 F3600
;WIPE_START
G1 F3840
G1 X112.305 Y108.952 E-.00947
G1 X112.102 Y108.774 E-.24046
G1 X111.898 Y108.596 E-.24113
G1 X111.695 Y108.418 E-.24046
G1 X111.307 Y108.037 E-.48431
G1 X111.091 Y107.803 E-.28417
;WIPE_END
G1 X103.477 Y98.647 F4800
G1 E5 F2400
;WIDTH:0.399999
G1 F1440
G1 X106.127 Y95.996 E.11129
G1 X106.992 Y95.967 E.0257
G1 X107.49 Y95.9 E.01492
G1 X108.126 Y95.9 E.01888
G1 X107.959 Y96.006 E.00587
G1 X107.421 Y96.444 E.0206
G1 X107.102 Y96.878 E.01599
G1 X106.942 Y97.242 E.01181
G1 X106.837 Y97.66 E.0128
G1 X106.802 Y98.183 E.01556
G1 X106.871 Y98.707 E.01569
G1 X107.017 Y99.156 E.01402
G1 X107.382 Y99.771 E.02123
G1 X107.615 Y100.033 E.01041
G1 X108.023 Y100.358 E.01549
G1 X108.433 Y100.579 E.01383
G1 X108.945 Y100.741 E.01594
G1 X109.455 Y100.796 E.01523
G1 X109.946 Y100.75 E.01464
G1 X110.45 Y100.574 E.01585
;WIDTH:0.447412
G1 X110.58 Y100.518 E.00476
;WIDTH:0.494824
G1 X110.711 Y100.461 E.00537
;WIDTH:0.542236
G1 X110.842 Y100.405 E.00592
;WIDTH:0.589648
G1 X110.972 Y100.349 E.00643
;WIDTH:0.63706
G1 X111.103 Y100.293 E.00704
G1 X111.081 Y100.34 E.00256
;WIDTH:0.607374
G1 X110.992 Y100.473 E.00751
;WIDTH:0.565899
G1 X110.904 Y100.605 E.0069
;WIDTH:0.524424
G1 X110.815 Y100.737 E.00637
;WIDTH:0.482949
G1 X110.726 Y100.869 E.00582
;WIDTH:0.441474
G1 X110.638 Y101.001 E.00526
;WIDTH:0.399999
G1 X110.337 Y101.469 E.01652
G1 X110.107 Y101.968 E.01631
G1 X109.929 Y102.486 E.01626
G1 X109.802 Y103.019 E.01627
G1 X109.725 Y103.566 E.0164
G1 X109.707 Y104.382 E.02423
G1 X109.76 Y104.928 E.01629
G1 X109.865 Y105.469 E.01636
;WIDTH:0.434716
G1 X110.163 Y106.316 E.02925
G1 X110.466 Y106.781 E.01808
;WIDTH:0.443091
G1 X110.493 Y106.872 E.00316
;WIDTH:0.491202
G1 X110.52 Y106.963 E.00354
;WIDTH:0.539314
G1 X110.546 Y107.054 E.00391
;WIDTH:0.587425
G1 X110.573 Y107.145 E.0043
;WIDTH:0.635536
G1 X110.6 Y107.236 E.00468
G1 X110.516 Y107.186 E.00482
;WIDTH:0.587425
G1 X110.432 Y107.135 E.00445
;WIDTH:0.539314
G1 X110.347 Y107.084 E.00409
;WIDTH:0.491202
G1 X110.263 Y107.034 E.00364
;WIDTH:0.443091
G1 X110.179 Y106.983 E.00327
;WIDTH:0.434716
G1 X109.843 Y106.541 E.01809
G1 X109.678 Y106.487 E.00566
;WIDTH:0.399999
G1 X109.472 Y106.624 E.00735
G1 X108.83 Y107.211 E.02583
G1 X105.502 Y110.537 E.1397
;WIDTH:0.434888
G1 X105.49 Y110.634 E.00319
;WIDTH:0.469777
G1 X105.478 Y110.731 E.00347
;WIDTH:0.504665
G1 X105.467 Y110.829 E.00379
;WIDTH:0.529675
G1 X106.426 Y111.743 E.05362
G1 X106.981 Y112.229 E.02986
G1 X106.828 Y112.235 E.0062
G1 X106.161 Y112.165 E.02714
G1 X105.84 Y111.855 E.01806
;WIDTH:0.511392
G1 X105.137 Y111.152 E.03873
;WIDTH:0.504644
G1 X104.908 Y110.946 E.01183
;WIDTH:0.469763
G1 X104.68 Y110.741 E.01088
;WIDTH:0.434881
G1 X104.451 Y110.535 E.01004
;WIDTH:0.399999
G1 X103.3 Y109.376 E.0485
G1 X103.3 Y98.824 E.3133
G1 X103.435 Y98.689 E.00567
G1 X103.877 Y98.649 F4800
G1 E-3.5 F3600
;WIPE_START
G1 F3840
G1 X104.626 Y97.498 E-1.5
;WIPE_END
G1 X114.495 Y111.013 F4800
G1 E5 F2400
;TYPE:Perimeter
;WIDTH:0.631722
G1 F1440
G1 X114.429 Y111.035 E.00341
;WIDTH:0.588854
G1 X114.363 Y111.056 E.00314
;WIDTH:0.545985
G1 X114.297 Y111.078 E.00291
;WIDTH:0.503116
G1 X114.231 Y111.099 E.00265
;WIDTH:0.460248
G1 X114.165 Y111.12 E.0024
;WIDTH:0.417379
G1 X114.099 Y111.142 E.00217
;WIDTH:0.394161
G1 X113.518 Y111.132 E.01697
G1 X113.825 Y110.783 E.01358
G1 X114.133 Y110.814 E.00904
;WIDTH:0.417379
G1 X114.193 Y110.847 E.00213
;WIDTH:0.460248
G1 X114.254 Y110.88 E.00241
;WIDTH:0.503116
G1 X114.314 Y110.913 E.00262
;WIDTH:0.545985
G1 X114.374 Y110.947 E.00288
;WIDTH:0.588854
G1 X114.435 Y110.98 E.00315
;WIDTH:0.631722
G1 X114.443 Y110.984 E.00044
G1 E-3.5 F3600
;WIPE_START
G1 F3840
G1 X114.429 Y111.035 E-.0471
G1 X114.363 Y111.056 E-.06169
G1 X114.297 Y111.078 E-.06196
G1 X114.231 Y111.099 E-.06169
G1 X114.165 Y111.12 E-.06169
G1 X114.099 Y111.142 E-.06196
G1 X113.518 Y111.132 E-.51753
G1 X113.825 Y110.783 E-.41397
G1 X114.062 Y110.807 E-.21241
;WIPE_END
G1 X117.743 Y110.623 F4800
G1 E5 F2400
;WIDTH:0.457771
G1 F1440
G1 X117.838 Y111.1 E.01678
G1 X116.999 Y111.1 E.02894
;WIDTH:0.499246
G1 X116.867 Y111.079 E.00507
;WIDTH:0.54072
G1 X116.734 Y111.058 E.00557
;WIDTH:0.582194
G1 X116.601 Y111.037 E.00604
;WIDTH:0.623668
G1 X116.468 Y111.016 E.0065
G1 X116.625 Y110.965 E.00797
;WIDTH:0.582194
G1 X116.781 Y110.914 E.00736
;WIDTH:0.54072
G1 X116.938 Y110.863 E.00683
;WIDTH:0.499246
G1 X117.094 Y110.812 E.00623
;WIDTH:0.457771
G1 X117.686 Y110.64 E.02127
G1 E-3.5 F3600
;WIPE_START
G1 F3840
G1 X117.838 Y111.1 E-.43147
G1 X116.999 Y111.1 E-.74723
G1 X116.867 Y111.079 E-.11904
G1 X116.734 Y111.058 E-.11992
G1 X116.643 Y111.044 E-.08234
;WIPE_END
G1 X119.478 Y108.31 F4800
G1 E5 F2400
;TYPE:External perimeter
;WIDTH:0.6432
G1 F1440
G1 X119.878 Y107.916 E.02802
G1 E-3.5 F3600
;WIPE_START
G1 F3840
G1 X119.478 Y108.31 E-.50005
;WIPE_END
G1 E-.99995 F3600
G1 X126.272 Y104.931 F4800
G1 E5 F2400
;TYPE:Perimeter
;WIDTH:0.399999
G1 F1440
G1 X126.272 Y108.784 E.1144
G1 X125.561 Y109.495 E.02985
G1 X125.37 Y108.671 E.02511
G1 X125.13 Y108.144 E.01719
G1 X124.703 Y107.501 E.02292
G1 X124.167 Y106.962 E.02257
G1 X123.452 Y106.464 E.02587
G1 X122.988 Y106.265 E.01499
G1 X122.478 Y106.092 E.01599
G1 X122.454 Y106.052 E.00139
G1 X122.58 Y105.551 E.01534
G1 X122.687 Y104.838 E.02141
G1 X122.723 Y103.854 E.02924
G1 X122.667 Y103.171 E.02035
G1 X122.561 Y102.567 E.01821
G1 X123.179 Y101.999 E.02492
G1 X126.021 Y99.16 E.11927
G1 X126.272 Y99.413 E.01058
G1 X126.272 Y104.871 E.16205
G1 X126.629 Y104.931 F4800
G1 F1440
G1 X126.629 Y108.932 E.11879
G1 X125.258 Y110.303 E.05757
G1 X125.246 Y109.749 E.01645
G1 X125.04 Y108.807 E.02863
G1 X124.827 Y108.333 E.01543
G1 X124.437 Y107.739 E.0211
G1 X123.961 Y107.253 E.0202
G1 X123.378 Y106.84 E.02121
G1 X123.105 Y106.693 E.00921
G1 X122.604 Y106.5 E.01594
G1 X121.982 Y106.365 E.0189
G1 X122.066 Y106.12 E.00769
G1 X122.228 Y105.492 E.01926
G1 X122.331 Y104.821 E.02016
G1 X122.367 Y103.879 E.02799
G1 X122.315 Y103.231 E.0193
G1 X122.162 Y102.448 E.02369
G1 X122.927 Y101.746 E.03083
G1 X126.022 Y98.654 E.1299
G1 X126.629 Y99.265 E.02557
G1 X126.629 Y104.871 E.16645
G1 X126.986 Y104.931 F4800
G1 F1440
G1 X126.986 Y109.08 E.12319
G1 X124.633 Y111.433 E.0988
G1 X124.774 Y111.055 E.01198
G1 X124.897 Y110.416 E.01932
G1 X124.895 Y109.816 E.01781
G1 X124.726 Y108.985 E.02518
G1 X124.523 Y108.521 E.01504
G1 X124.171 Y107.977 E.01924
G1 X123.754 Y107.545 E.01783
G1 X123.056 Y107.062 E.0252
G1 X122.542 Y106.859 E.01641
G1 X122.026 Y106.728 E.01581
G1 X121.469 Y106.697 E.01656
G1 X121.721 Y106.029 E.0212
G1 X121.875 Y105.433 E.01828
G1 X121.974 Y104.804 E.01891
G1 X122.01 Y103.904 E.02674
G1 X121.963 Y103.29 E.01828
G1 X121.875 Y102.766 E.01578
G1 X121.747 Y102.291 E.01461
G1 X122.146 Y101.979 E.01504
G1 X122.674 Y101.494 E.02129
G1 X126.003 Y98.168 E.13972
G1 X126.003 Y98.128 E.00119
G1 X126.986 Y99.118 E.04142
G1 X126.986 Y104.871 E.17081
G1 X127.343 Y104.931 F4800
G1 F1440
G1 X127.343 Y109.228 E.12758
G1 X124.72 Y111.852 E.11016
G1 X123.942 Y111.88 E.02311
G1 X124.203 Y111.506 E.01354
G1 X124.425 Y110.98 E.01695
G1 X124.54 Y110.404 E.01744
G1 X124.545 Y109.883 E.01547
G1 X124.41 Y109.181 E.02123
G1 X124.22 Y108.709 E.01511
G1 X123.904 Y108.215 E.01741
G1 X123.547 Y107.836 E.01546
G1 X122.895 Y107.381 E.02361
G1 X122.414 Y107.192 E.01534
G1 X121.954 Y107.078 E.01407
G1 X121.371 Y107.051 E.01733
G1 X120.82 Y107.142 E.01658
G1 X121.176 Y106.484 E.02221
G1 X121.376 Y105.937 E.01729
G1 X121.523 Y105.374 E.01728
G1 X121.617 Y104.787 E.01765
G1 X121.654 Y103.93 E.02547
G1 X121.611 Y103.349 E.0173
G1 X121.471 Y102.628 E.02181
G1 X121.263 Y102.009 E.01939
G1 X121.406 Y102.062 E.00453
G1 X121.67 Y101.93 E.00876
G1 X122.422 Y101.241 E.03028
G1 X125.75 Y97.915 E.1397
G1 X125.751 Y97.368 E.01624
G1 X127.343 Y98.971 E.06708
G1 X127.343 Y104.871 E.17518
G1 E-3.5 F3600
;WIPE_START
G1 F3840
G1 X127.343 Y106.555 E-1.5
;WIPE_END
G1 X120.153 Y100.667 F4800
G1 E5 F2400
;TYPE:External perimeter
;WIDTH:0.564978
G1 F1440
G1 X119.97 Y100.464 E.01186
;WIDTH:0.536962
G1 X119.787 Y100.261 E.01123
;WIDTH:0.508946
G1 X119.404 Y99.875 E.02107
;WIDTH:0.551822
G1 X119.003 Y99.508 E.023
;WIDTH:0.554674
G1 X118.987 Y99.494 E.0009
G1 E-3.5 F3600
;WIPE_START
G1 F3840
G1 X119.003 Y99.508 E-.01893
G1 X119.404 Y99.875 E-.48413
G1 X119.787 Y100.261 E-.48429
G1 X119.97 Y100.464 E-.24342
G1 X120.153 Y100.667 E-.24342
;WIPE_END
G1 E-.02581 F3600
G1 X127.7 Y104.931 F4800
G1 E5 F2400
;WIDTH:0.399999
G1 F1440
G1 X127.7 Y109.376 E.13198
G1 X124.873 Y112.204 E.11873
G1 X124.008 Y112.233 E.0257
G1 X123.51 Y112.3 E.01492
G1 X122.871 Y112.3 E.01897
G1 X123.057 Y112.182 E.00654
G1 X123.595 Y111.739 E.02069
G1 X123.91 Y111.301 E.01602
G1 X124.066 Y110.936 E.01179
G1 X124.179 Y110.423 E.0156
G1 X124.194 Y109.95 E.01405
G1 X124.06 Y109.248 E.02122
G1 X123.93 Y108.923 E.01039
G1 X123.657 Y108.478 E.0155
G1 X123.341 Y108.127 E.01402
G1 X122.719 Y107.693 E.02252
G1 X122.028 Y107.458 E.02167
G1 X121.414 Y107.41 E.01829
G1 X120.971 Y107.469 E.01327
G1 X120.727 Y107.558 E.00771
G1 X120.305 Y107.782 E.01419
;WIDTH:0.44864
G1 X120.22 Y107.809 E.00301
;WIDTH:0.49728
G1 X120.134 Y107.835 E.00339
;WIDTH:0.54592
G1 X120.049 Y107.862 E.00373
;WIDTH:0.59456
G1 X119.964 Y107.889 E.00409
;WIDTH:0.6432
G1 X119.878 Y107.916 E.0045
G1 X119.916 Y107.835 E.00447
;WIDTH:0.59456
G1 X119.954 Y107.753 E.00415
;WIDTH:0.54592
G1 X119.992 Y107.672 E.00374
;WIDTH:0.49728
G1 X120.03 Y107.59 E.00341
;WIDTH:0.44864
G1 X120.067 Y107.509 E.003
;WIDTH:0.399999
G1 X120.306 Y107.243 E.01062
G1 X120.555 Y106.881 E.01305
G1 X120.841 Y106.359 E.01767
G1 X121.031 Y105.845 E.01627
G1 X121.171 Y105.315 E.01628
G1 X121.261 Y104.771 E.01637
