; generated by PrusaSlicer 2.5.0+win64 on 2023-03-13 at 22:02:18 UTC

; 

; external perimeters extrusion width = 0.42mm
; perimeters extrusion width = 0.44mm
; infill extrusion width = 0.44mm
; solid infill extrusion width = 0.44mm
; top infill extrusion width = 0.40mm
; first layer extrusion width = 0.42mm

M107
;TYPE:Custom
G90 ; use absolute coordinates
M83 ; extruder relative mode
M104 S150 ; set temporary nozzle temp to prevent oozing during homing
M140 S60 ; set final bed temp
G4 S20 ; allow partial nozzle warmup
G28 ; home all axis
G1 Z50 F240
G1 X2.0 Y10 F3000
M104 S215 ; set final nozzle temp
M190 S60 ; wait for bed temp to stabilize
M109 S215 ; wait for nozzle temp to stabilize
G1 Z0.28 F240
G92 E0
G1 X2.0 Y140 E10 F1500 ; prime the nozzle
G1 X2.3 Y140 F5000
G92 E0
G1 X2.3 Y10 E10 F1200 ; prime the nozzle
G92 E0
G21 ; set units to millimeters
G90 ; use absolute coordinates
M83 ; use relative distances for extrusion
; Filament gcode
M107
;LAYER_CHANGE
;Z:0.3
;HEIGHT:0.3
;BEFORE_LAYER_CHANGE
G92 E0
;0.3


G1 E-5 F3600
G1 Z.3 F7800
;AFTER_LAYER_CHANGE
;0.3
G1 X82.182 Y81.07
G1 E5 F2400
;TYPE:Skirt/Brim
;WIDTH:0.42
G1 F1800
G1 X83.635 Y80.104 E.07738
G1 X85.257 Y79.462 E.07738
G1 X86.977 Y79.172 E.07738
G1 X144.023 Y79.172 E2.53023
G1 X144.72 Y79.245 E.03111
G1 X145.743 Y79.462 E.04637
G1 X147.365 Y80.104 E.07738
G1 X148.818 Y81.069 E.07737
G1 X149.339 Y81.539 E.03112
G1 X150.039 Y82.316 E.04636
G1 X150.974 Y83.789 E.07738
G1 X151.582 Y85.424 E.07737
G1 X151.837 Y87.149 E.07737
G1 X151.856 Y143.5 E2.49943
G1 X151.728 Y144.89 E.06193
G1 X151.259 Y146.571 E.07737
G1 X150.451 Y148.117 E.07737
G1 X150.039 Y148.684 E.03111
G1 X148.818 Y149.931 E.07738
G1 X147.365 Y150.896 E.07737
G1 X145.743 Y151.538 E.07739
G1 X144.023 Y151.828 E.07737
G1 X86.977 Y151.828 E2.53023
G1 X85.257 Y151.538 E.07737
G1 X84.59 Y151.321 E.03112
G1 X83.028 Y150.545 E.07737
G1 X82.182 Y149.93 E.04636
G1 X80.961 Y148.684 E.07738
G1 X80.026 Y147.212 E.07737
G1 X79.418 Y145.577 E.07738
G1 X79.272 Y144.89 E.03112
G1 X79.144 Y143.5 E.06193
G1 X79.144 Y87.5 E2.48387
G1 X79.272 Y86.11 E.06193
G1 X79.741 Y84.429 E.07738
G1 X80.026 Y83.788 E.03112
G1 X80.961 Y82.316 E.07738
G1 X82.14 Y81.112 E.07471
; printing object square_tower.stl id:0 copy 0
G1 E-3.5 F3600
;WIPE_START
G1 F6240
G1 X83.635 Y80.104 E-.98833
G1 X84.376 Y79.811 E-.43667
;WIPE_END
G1 E-.075 F3600
G1 X87.915 Y147.451 F7800
G1 E5 F2400
;TYPE:Perimeter
;WIDTH:0.42
G1 F1800
G1 X87.085 Y147.451 E.03684
G1 X86.272 Y147.279 E.03684
G1 X85.513 Y146.941 E.03684
G1 X84.841 Y146.453 E.03684
G1 X84.286 Y145.835 E.03684
G1 X83.87 Y145.116 E.03684
G1 X83.614 Y144.326 E.03684
G1 X83.527 Y143.5 E.03684
G1 X83.614 Y142.674 E.03684
G1 X83.87 Y141.884 E.03684
G1 X84.286 Y141.165 E.03684
G1 X84.841 Y140.547 E.03684
G1 X85.513 Y140.059 E.03684
G1 X86.154 Y139.753 E.03147
G1 X86.339 Y139.572 E.0115
G1 X86.472 Y139.325 E.01244
G1 X86.521 Y139.033 E.01313
G1 X86.521 Y91.967 E2.08761
G1 X86.472 Y91.675 E.01313
G1 X86.339 Y91.428 E.01244
G1 X86.154 Y91.247 E.0115
G1 X85.994 Y91.155 E.00818
G1 X85.513 Y90.941 E.02332
G1 X84.841 Y90.453 E.03684
G1 X84.286 Y89.835 E.03684
G1 X83.87 Y89.116 E.03684
G1 X83.614 Y88.326 E.03684
G1 X83.527 Y87.5 E.03684
G1 X83.614 Y86.674 E.03684
G1 X83.87 Y85.884 E.03684
G1 X84.286 Y85.165 E.03684
G1 X84.841 Y84.547 E.03684
G1 X85.513 Y84.059 E.03684
G1 X86.272 Y83.721 E.03684
G1 X87.085 Y83.549 E.03684
G1 X87.915 Y83.549 E.03684
G1 X88.728 Y83.721 E.03684
G1 X89.487 Y84.059 E.03684
G1 X90.159 Y84.547 E.03684
G1 X90.714 Y85.165 E.03684
G1 X91.258 Y86.147 E.0498
G1 X91.439 Y86.336 E.01163
G1 X91.688 Y86.471 E.01255
G1 X91.983 Y86.521 E.01326
G1 X139.017 Y86.521 E2.08621
G1 X139.171 Y86.508 E.00684
G1 X139.56 Y86.336 E.01889
G1 X139.742 Y86.147 E.01161
G1 X139.87 Y85.885 E.01296
G1 X140.286 Y85.165 E.03688
G1 X140.841 Y84.547 E.03684
G1 X141.513 Y84.059 E.03684
G1 X142.272 Y83.721 E.03684
G1 X143.085 Y83.549 E.03684
G1 X143.915 Y83.549 E.03684
G1 X144.728 Y83.721 E.03684
G1 X145.487 Y84.059 E.03684
G1 X146.159 Y84.547 E.03684
G1 X146.714 Y85.165 E.03684
G1 X147.13 Y85.884 E.03684
G1 X147.386 Y86.674 E.03684
G1 X147.473 Y87.5 E.03684
G1 X147.386 Y88.326 E.03684
G1 X147.13 Y89.116 E.03684
G1 X146.714 Y89.835 E.03684
G1 X146.159 Y90.453 E.03684
G1 X145.487 Y90.941 E.03684
G1 X144.846 Y91.247 E.03147
G1 X144.661 Y91.428 E.0115
G1 X144.528 Y91.675 E.01244
G1 X144.479 Y91.967 E.01313
G1 X144.479 Y139.033 E2.08761
G1 X144.492 Y139.187 E.00684
G1 X144.661 Y139.572 E.01866
G1 X144.846 Y139.753 E.0115
G1 X145.006 Y139.845 E.00818
G1 X145.487 Y140.059 E.02332
G1 X146.159 Y140.547 E.03684
G1 X146.714 Y141.165 E.03684
G1 X147.13 Y141.884 E.03684
G1 X147.386 Y142.674 E.03684
G1 X147.473 Y143.5 E.03684
G1 X147.386 Y144.326 E.03684
G1 X147.13 Y145.116 E.03684
G1 X146.714 Y145.835 E.03684
G1 X146.159 Y146.453 E.03684
G1 X145.487 Y146.941 E.03684
G1 X144.728 Y147.279 E.03684
G1 X143.915 Y147.451 E.03684
G1 X143.085 Y147.451 E.03684
G1 X142.272 Y147.279 E.03684
G1 X141.513 Y146.941 E.03684
G1 X140.841 Y146.453 E.03684
G1 X140.286 Y145.835 E.03684
G1 X139.742 Y144.853 E.04981
G1 X139.56 Y144.664 E.01161
G1 X139.312 Y144.529 E.01255
G1 X139.017 Y144.479 E.01326
G1 X91.983 Y144.479 E2.08621
G1 X91.829 Y144.492 E.00684
G1 X91.439 Y144.664 E.01888
G1 X91.258 Y144.853 E.01163
G1 X91.13 Y145.116 E.01298
G1 X90.714 Y145.835 E.03684
G1 X90.159 Y146.453 E.03684
G1 X89.487 Y146.941 E.03684
G1 X88.728 Y147.279 E.03684
G1 X87.974 Y147.439 E.03418
G1 X87.953 Y147.807 F7800
G1 F1800
G1 X87.047 Y147.807 E.04016
G1 X86.162 Y147.619 E.04016
G1 X85.335 Y147.25 E.04016
G1 X84.602 Y146.718 E.04016
G1 X83.996 Y146.046 E.04016
G1 X83.544 Y145.261 E.04016
G1 X83.264 Y144.4 E.04016
G1 X83.169 Y143.5 E.04016
G1 X83.264 Y142.6 E.04016
G1 X83.544 Y141.739 E.04016
G1 X83.996 Y140.955 E.04016
G1 X84.602 Y140.282 E.04016
G1 X85.335 Y139.75 E.04016
G1 X85.945 Y139.465 E.02987
G1 X86.136 Y139.208 E.0142
G1 X86.166 Y139.033 E.00788
G1 X86.166 Y91.967 E2.08761
G1 X86.136 Y91.792 E.00788
G1 X86.056 Y91.644 E.00746
G1 X85.849 Y91.48 E.01172
G1 X85.335 Y91.251 E.02498
G1 X84.602 Y90.718 E.04016
G1 X83.996 Y90.046 E.04016
G1 X83.544 Y89.261 E.04016
G1 X83.264 Y88.4 E.04016
G1 X83.169 Y87.5 E.04016
G1 X83.264 Y86.6 E.04016
G1 X83.544 Y85.739 E.04016
G1 X83.996 Y84.954 E.04016
G1 X84.602 Y84.282 E.04016
G1 X85.335 Y83.749 E.04016
G1 X86.162 Y83.381 E.04016
G1 X87.047 Y83.193 E.04016
G1 X87.953 Y83.193 E.04016
G1 X88.838 Y83.381 E.04016
G1 X89.665 Y83.749 E.04016
G1 X90.398 Y84.282 E.04016
G1 X91.004 Y84.954 E.04016
G1 X91.493 Y85.844 E.04505
G1 X91.657 Y86.054 E.01181
G1 X91.806 Y86.135 E.00753
G1 X91.983 Y86.166 E.00795
G1 X139.017 Y86.166 E2.08621
G1 X139.194 Y86.135 E.00795
G1 X139.452 Y85.941 E.01433
G1 X139.543 Y85.739 E.00984
G1 X139.996 Y84.954 E.04018
G1 X140.602 Y84.282 E.04016
G1 X141.335 Y83.749 E.04016
G1 X142.162 Y83.381 E.04016
G1 X143.047 Y83.193 E.04016
G1 X143.953 Y83.193 E.04015
G1 X144.838 Y83.381 E.04016
G1 X145.665 Y83.749 E.04016
G1 X146.398 Y84.282 E.04016
G1 X147.004 Y84.954 E.04016
G1 X147.456 Y85.739 E.04016
G1 X147.736 Y86.6 E.04016
G1 X147.831 Y87.5 E.04016
G1 X147.736 Y88.4 E.04016
G1 X147.456 Y89.261 E.04016
G1 X147.004 Y90.046 E.04016
G1 X146.398 Y90.718 E.04016
G1 X145.665 Y91.251 E.04016
G1 X145.055 Y91.535 E.02987
G1 X144.864 Y91.792 E.0142
G1 X144.834 Y91.967 E.00788
G1 X144.834 Y139.033 E2.08761
G1 X144.842 Y139.125 E.0041
G1 X144.944 Y139.357 E.01119
G1 X145.151 Y139.52 E.01172
G1 X145.665 Y139.75 E.02498
G1 X146.398 Y140.282 E.04016
G1 X147.004 Y140.954 E.04016
G1 X147.456 Y141.739 E.04016
G1 X147.736 Y142.6 E.04016
G1 X147.831 Y143.5 E.04016
G1 X147.736 Y144.4 E.04016
G1 X147.456 Y145.261 E.04016
G1 X147.004 Y146.046 E.04016
G1 X146.398 Y146.718 E.04016
G1 X145.665 Y147.25 E.04016
G1 X144.838 Y147.619 E.04016
G1 X143.953 Y147.807 E.04016
G1 X143.047 Y147.807 E.04015
G1 X142.162 Y147.619 E.04016
G1 X141.335 Y147.25 E.04016
G1 X140.602 Y146.718 E.04016
G1 X139.996 Y146.046 E.04016
G1 X139.452 Y145.059 E.04998
G1 X139.194 Y144.865 E.01433
G1 X139.017 Y144.834 E.00795
G1 X91.983 Y144.834 E2.08621
G1 X91.89 Y144.842 E.0041
G1 X91.657 Y144.946 E.01133
G1 X91.548 Y145.059 E.00698
G1 X91.456 Y145.262 E.00986
G1 X91.004 Y146.046 E.04015
G1 X90.398 Y146.718 E.04016
G1 X89.665 Y147.251 E.04016
G1 X88.838 Y147.619 E.04016
G1 X88.011 Y147.795 E.0375
G1 X87.99 Y148.163 F7800
;TYPE:External perimeter
G1 F1800
G1 X87.01 Y148.163 E.04347
G1 X86.051 Y147.959 E.04347
G1 X85.156 Y147.56 E.04347
G1 X84.363 Y146.984 E.04347
G1 X83.707 Y146.256 E.04347
G1 X83.217 Y145.407 E.04347
G1 X82.914 Y144.475 E.04347
G1 X82.812 Y143.5 E.04348
G1 X82.914 Y142.525 E.04348
G1 X83.217 Y141.593 E.04347
G1 X83.707 Y140.744 E.04347
G1 X84.363 Y140.016 E.04347
G1 X85.156 Y139.44 E.04347
G1 X85.736 Y139.177 E.02827
G1 X85.81 Y139.033 E.00717
G1 X85.81 Y91.967 E2.08761
G1 X85.8 Y91.909 E.00263
G1 X85.705 Y91.804 E.00627
G1 X85.156 Y91.56 E.02664
G1 X84.363 Y90.984 E.04347
G1 X83.707 Y90.256 E.04347
G1 X83.217 Y89.407 E.04347
G1 X82.914 Y88.475 E.04347
G1 X82.812 Y87.5 E.04347
G1 X82.914 Y86.525 E.04347
G1 X83.217 Y85.593 E.04347
G1 X83.707 Y84.744 E.04347
G1 X84.363 Y84.016 E.04347
G1 X85.156 Y83.44 E.04347
G1 X86.051 Y83.041 E.04347
G1 X87.01 Y82.837 E.04347
G1 X87.99 Y82.837 E.04347
G1 X88.949 Y83.041 E.04347
G1 X89.844 Y83.44 E.04347
G1 X90.637 Y84.016 E.04347
G1 X91.293 Y84.744 E.04347
G1 X91.838 Y85.735 E.05015
G1 X91.983 Y85.81 E.00724
G1 X139.017 Y85.81 E2.08621
G1 X139.126 Y85.773 E.00509
G1 X139.707 Y84.744 E.05241
G1 X140.363 Y84.016 E.04347
G1 X141.156 Y83.44 E.04347
G1 X142.051 Y83.041 E.04347
G1 X143.01 Y82.837 E.04348
G1 X143.99 Y82.837 E.04347
G1 X144.949 Y83.041 E.04348
G1 X145.844 Y83.44 E.04347
G1 X146.637 Y84.016 E.04347
G1 X147.293 Y84.744 E.04347
G1 X147.783 Y85.593 E.04347
G1 X148.086 Y86.525 E.04347
G1 X148.188 Y87.5 E.04347
G1 X148.086 Y88.475 E.04347
G1 X147.783 Y89.407 E.04347
G1 X147.293 Y90.256 E.04347
G1 X146.637 Y90.984 E.04347
G1 X145.844 Y91.56 E.04347
G1 X145.264 Y91.823 E.02827
G1 X145.19 Y91.967 E.00717
G1 X145.19 Y139.033 E2.08761
G1 X145.2 Y139.092 E.00263
G1 X145.295 Y139.196 E.00627
G1 X145.844 Y139.44 E.02664
G1 X146.637 Y140.016 E.04347
G1 X147.293 Y140.744 E.04347
G1 X147.783 Y141.593 E.04347
G1 X148.086 Y142.525 E.04347
G1 X148.188 Y143.5 E.04347
G1 X148.086 Y144.475 E.04347
G1 X147.783 Y145.407 E.04347
G1 X147.293 Y146.256 E.04347
G1 X146.637 Y146.984 E.04347
G1 X145.844 Y147.56 E.04347
G1 X144.949 Y147.959 E.04347
G1 X143.99 Y148.163 E.04348
G1 X143.01 Y148.163 E.04347
G1 X142.051 Y147.959 E.04348
G1 X141.156 Y147.56 E.04347
G1 X140.363 Y146.984 E.04347
G1 X139.707 Y146.256 E.04347
G1 X139.162 Y145.265 E.05016
G1 X139.017 Y145.19 E.00723
G1 X91.983 Y145.19 E2.08621
G1 X91.874 Y145.227 E.00509
G1 X91.293 Y146.256 E.0524
G1 X90.637 Y146.984 E.04347
G1 X89.844 Y147.56 E.04347
G1 X88.949 Y147.959 E.04347
G1 X88.049 Y148.15 E.04081
G1 X87.755 Y147.839 F7800
G1 E-3.5 F3600
;WIPE_START
G1 F6240
G1 X87.01 Y148.163 E-.56939
G1 X86.051 Y147.959 E-.53718
G1 X85.52 Y147.723 E-.31843
;WIPE_END
G1 E-.075 F3600
G1 X116.916 Y141.95 F7800
G1 E5 F2400
;TYPE:Perimeter
G1 F1800
G1 X116.786 Y142.008 E.00633
G1 X116.632 Y142.021 E.00684
G1 X114.368 Y142.021 E.10044
G1 X114.071 Y141.97 E.01335
G1 X113.821 Y141.834 E.01263
G1 X113.669 Y141.521 E.01542
G1 X90.368 Y141.521 E1.03351
G1 X90.109 Y141.483 E.01163
G1 X89.78 Y141.299 E.0167
G1 X89.588 Y141.059 E.01363
G1 X89.517 Y140.889 E.00818
G1 X89.479 Y140.632 E.0115
G1 X89.479 Y113.331 E1.21093
G1 X89.166 Y113.179 E.01542
G1 X88.992 Y112.786 E.01906
G1 X88.979 Y112.632 E.00684
G1 X88.979 Y110.368 E.10044
G1 X89.03 Y110.071 E.01335
G1 X89.166 Y109.821 E.01263
G1 X89.479 Y109.669 E.01542
G1 X89.479 Y90.368 E.85609
G1 X89.517 Y90.111 E.0115
G1 X89.695 Y89.787 E.01642
G1 X89.938 Y89.59 E.01389
G1 X90.109 Y89.517 E.00822
G1 X90.368 Y89.479 E.01163
G1 X113.669 Y89.479 E1.03351
G1 X113.821 Y89.167 E.01542
G1 X114.214 Y88.992 E.01906
G1 X114.368 Y88.979 E.00684
G1 X116.632 Y88.979 E.10044
G1 X116.929 Y89.03 E.01335
G1 X117.179 Y89.167 E.01263
G1 X117.331 Y89.479 E.01542
G1 X140.632 Y89.479 E1.03351
G1 X140.891 Y89.517 E.01161
G1 X141.22 Y89.701 E.01672
G1 X141.412 Y89.941 E.01363
G1 X141.483 Y90.111 E.00818
G1 X141.521 Y90.368 E.0115
G1 X141.521 Y113.669 E1.03351
G1 X141.834 Y113.821 E.01542
G1 X141.97 Y114.071 E.01263
G1 X142.021 Y114.368 E.01335
G1 X142.021 Y116.632 E.10044
G1 X141.97 Y116.929 E.01335
G1 X141.834 Y117.179 E.01263
G1 X141.521 Y117.331 E.01542
G1 X141.521 Y140.632 E1.03351
G1 X141.483 Y140.889 E.0115
G1 X141.305 Y141.213 E.01642
G1 X141.062 Y141.411 E.0139
G1 X140.891 Y141.483 E.00821
G1 X140.632 Y141.521 E.01161
G1 X117.331 Y141.521 E1.03351
G1 X117.179 Y141.834 E.01542
G1 X116.971 Y141.926 E.01007
G1 X116.663 Y141.663 F7800
G1 F1800
G1 X114.368 Y141.666 E.1018
G1 X114.19 Y141.635 E.00801
G1 X114.04 Y141.553 E.00758
G1 X113.851 Y141.166 E.01912
G1 X90.368 Y141.166 E1.04158
G1 X90.076 Y141.079 E.0135
G1 X89.9 Y140.888 E.01152
G1 X89.834 Y140.632 E.01172
G1 X89.834 Y113.149 E1.219
G1 X89.447 Y112.96 E.01912
G1 X89.342 Y112.724 E.01144
G1 X89.334 Y110.368 E.10452
G1 X89.365 Y110.19 E.00801
G1 X89.447 Y110.04 E.00758
G1 X89.834 Y109.851 E.01912
G1 X89.834 Y90.368 E.86416
G1 X89.914 Y90.087 E.01297
G1 X90.11 Y89.901 E.01196
G1 X90.368 Y89.834 E.01181
G1 X113.851 Y89.834 E1.04158
G1 X114.04 Y89.447 E.01912
G1 X114.276 Y89.342 E.01144
G1 X116.632 Y89.334 E.10452
G1 X116.81 Y89.365 E.00801
G1 X116.96 Y89.447 E.00758
G1 X117.149 Y89.834 E.01912
G1 X140.632 Y89.834 E1.04158
G1 X140.924 Y89.921 E.0135
G1 X141.1 Y90.112 E.01152
G1 X141.166 Y90.368 E.01172
G1 X141.166 Y113.851 E1.04158
G1 X141.553 Y114.04 E.01912
G1 X141.635 Y114.19 E.00758
G1 X141.666 Y114.368 E.00801
G1 X141.666 Y116.632 E.10044
G1 X141.635 Y116.81 E.00801
G1 X141.553 Y116.96 E.00758
G1 X141.166 Y117.149 E.01912
G1 X141.166 Y140.632 E1.04158
G1 X141.085 Y140.913 E.01297
G1 X140.89 Y141.099 E.01197
G1 X140.632 Y141.166 E.0118
G1 X117.149 Y141.166 E1.04158
G1 X116.96 Y141.553 E.01912
G1 X116.723 Y141.658 E.01151
G1 X116.632 Y141.31 F7800
;TYPE:External perimeter
G1 F1800
G1 X114.368 Y141.31 E.10044
G1 X114.259 Y141.272 E.00513
G1 X114.19 Y141.132 E.00692
G1 X114.19 Y140.81 E.01429
G1 X90.368 Y140.81 E1.05663
G1 X90.225 Y140.738 E.00712
G1 X90.19 Y140.632 E.00492
G1 X90.19 Y112.81 E1.23405
G1 X89.868 Y112.81 E.01429
G1 X89.7 Y112.692 E.0091
G1 X89.69 Y110.368 E.10307
G1 X89.728 Y110.259 E.00513
G1 X89.868 Y110.19 E.00692
G1 X90.19 Y110.19 E.01429
G1 X90.19 Y90.368 E.87921
G1 X90.26 Y90.226 E.00701
G1 X90.368 Y90.19 E.00503
G1 X114.19 Y90.19 E1.05663
G1 X114.19 Y89.868 E.01429
G1 X114.308 Y89.7 E.0091
G1 X116.632 Y89.69 E.10307
G1 X116.741 Y89.728 E.00513
G1 X116.81 Y89.868 E.00692
G1 X116.81 Y90.19 E.01429
G1 X140.632 Y90.19 E1.05663
G1 X140.775 Y90.262 E.00712
G1 X140.81 Y90.368 E.00492
G1 X140.81 Y114.19 E1.05663
G1 X141.132 Y114.19 E.01429
G1 X141.3 Y114.308 E.0091
G1 X141.31 Y114.368 E.00267
G1 X141.31 Y116.632 E.10044
G1 X141.272 Y116.741 E.00513
G1 X141.132 Y116.81 E.00692
G1 X140.81 Y116.81 E.01429
G1 X140.81 Y140.632 E1.05663
G1 X140.74 Y140.774 E.00701
G1 X140.632 Y140.81 E.00503
G1 X116.81 Y140.81 E1.05663
G1 X116.81 Y141.132 E.01429
G1 X116.691 Y141.3 E.00911
G1 X116.587 Y141.707 F7800
G1 E-3.5 F3600
;WIPE_START
G1 F6240
G1 X114.368 Y141.31 E-1.27348
G1 X114.259 Y141.272 E-.06333
G1 X114.19 Y141.132 E-.08556
G1 X114.19 Y141.127 E-.00263
;WIPE_END
G1 E-.075 F3600
G1 X144.51 Y83.791 F7800
G1 E5 F2400
;TYPE:Solid infill
;WIDTH:0.420686
G1 F1800
G1 X146.957 Y86.238 E.15374
G1 X147.117 Y86.731 E.02306
G1 X147.137 Y86.922 E.00852
G1 X144.078 Y83.863 E.19224
G1 X143.886 Y83.822 E.00871
G1 X143.534 Y83.822 E.01568
G1 X147.196 Y87.485 E.23019
G1 X147.151 Y87.944 E.02049
G1 X143.044 Y83.837 E.2581
G1 X142.629 Y83.925 E.01888
G1 X147.081 Y88.378 E.27984
G1 X146.958 Y88.758 E.01777
G1 X142.236 Y84.037 E.29673
G1 X141.888 Y84.192 E.01696
G1 X146.813 Y89.117 E.30953
G1 X146.628 Y89.437 E.01639
G1 X141.557 Y84.366 E.3187
G1 X141.266 Y84.578 E.01603
G1 X146.43 Y89.742 E.32457
