; generated by PrusaSlicer 2.6.0-alpha6+MacOS-x64 on 2023-05-12 at 13:05:54 UTC

; 

; external perimeters extrusion width = 0.40mm
; perimeters extrusion width = 0.40mm
; infill extrusion width = 0.40mm
; solid infill extrusion width = 0.40mm
; top infill extrusion width = 0.40mm
; first layer extrusion width = 0.40mm

M201 X400 Y400 Z100 E5000 ; sets maximum accelerations, mm/sec^2
M203 X48 Y48 Z10 E60 ; sets maximum feedrates, mm / sec
M204 S400 T1000 ; sets acceleration (S) and retract acceleration (R), mm/sec^2
M205 X8.00 Y8.00 Z0.40 E5.00 ; sets the jerk limits, mm/sec
M205 S0 T0 ; sets the minimum extruding and travel feed rate, mm/sec
;TYPE:Custom
; Ender 3 Custom Start G-code
G92 E0 ; Reset Extruder

M140 S50 ; set bed temp
M190 S50 ; wait for bed temp

G28 ; Home all axes
M104 S210 ; set extruder temp 
BED_MESH_CALIBRATE AREA_START=100.69,104.79 AREA_END=130.31,126.21

G1 Z2.0 F3000 ; Move Z Axis up little to prevent scratching of Heat Bed
M109 S210 ; wait for extruder temp
G1 X0.1 Y20 Z0.3 F5000.0 ; Move to start position

G1 X0.1 Y200.0 Z0.3 F1500.0 E15 ; Draw the first line
G1 X0.4 Y200.0 Z0.3 F5000.0 ; Move to side a little
G1 X0.4 Y20 Z0.3 F1500.0 E30 ; Draw the second line
G92 E0 ; Reset Extruder
G1 Z2.0 F3000 ; Move Z Axis up little to prevent scratching of Heat Bed
G1 X5 Y20 Z0.3 F5000.0 ; Move over to prevent blob squish
G21 ; set units to millimeters
G90 ; use absolute coordinates
M83 ; use relative distances for extrusion
; Filament gcode
M107
;LAYER_CHANGE
;Z:0.12
;HEIGHT:0.12
TIMELAPSE_TAKE_FRAME
;BEFORE_LAYER_CHANGE
G92 E0
;0.12


G1 E-5 F3600
G1 Z.12 F4800
;AFTER_LAYER_CHANGE
;0.12
G1 X104.499 Y105.599
G1 E5 F2400
M204 S400
;TYPE:Skirt/Brim
;WIDTH:0.4
G1 F1440
G1 X106 Y104.977 E.03034
G1 X125 Y104.977 E.35475
G1 X126.501 Y105.599 E.03034
G1 X129.501 Y108.599 E.07922
G1 X130.123 Y110.1 E.03034
G1 X130.123 Y120.9 E.20165
G1 X129.501 Y122.401 E.03034
G1 X126.501 Y125.401 E.07922
G1 X125 Y126.023 E.03034
G1 X106 Y126.023 E.35475
G1 X104.499 Y125.401 E.03034
G1 X101.499 Y122.401 E.07922
G1 X100.877 Y120.9 E.03034
G1 X100.877 Y110.1 E.20165
G1 X101.499 Y108.599 E.03034
G1 X104.457 Y105.641 E.07811
G1 X104.721 Y105.906 F4800
G1 F1440
G1 X104.764 Y105.864 E.00112
G1 X106 Y105.352 E.02498
G1 X125 Y105.352 E.35475
G1 X126.236 Y105.864 E.02498
G1 X129.236 Y108.864 E.07922
G1 X129.748 Y110.1 E.02498
G1 X129.748 Y120.9 E.20165
G1 X129.236 Y122.136 E.02498
G1 X126.236 Y125.136 E.07922
G1 X125 Y125.648 E.02498
G1 X106 Y125.648 E.35475
G1 X104.764 Y125.136 E.02498
G1 X101.764 Y122.136 E.07922
G1 X101.252 Y120.9 E.02498
G1 X101.252 Y110.1 E.20165
G1 X101.764 Y108.864 E.02498
G1 X104.679 Y105.948 E.07698
G1 X104.943 Y106.213 F4800
G1 F1440
G1 X105.028 Y106.128 E.00224
G1 X106 Y105.726 E.01964
G1 X125 Y105.726 E.35475
G1 X125.972 Y106.128 E.01964
G1 X128.972 Y109.128 E.07922
G1 X129.374 Y110.1 E.01964
G1 X129.374 Y120.9 E.20165
G1 X128.972 Y121.872 E.01964
G1 X125.972 Y124.872 E.07922
G1 X125 Y125.274 E.01964
G1 X106 Y125.274 E.35475
G1 X105.028 Y124.872 E.01964
G1 X102.028 Y121.872 E.07922
G1 X101.626 Y120.9 E.01964
G1 X101.626 Y110.1 E.20165
G1 X102.028 Y109.128 E.01964
G1 X104.901 Y106.256 E.07585
; printing object Square_18mm_Bowden_StockNut_45deg.stl id:0 copy 0
G1 E-3.5 F3600
;WIPE_START
G1 F3840
G1 X105.028 Y106.128 E-.16059
G1 X106 Y105.726 E-.9368
G1 X106.452 Y105.726 E-.40261
;WIPE_END
G1 X126.203 Y112.188 F4800
G1 E5 F2400
;TYPE:Perimeter
;WIDTH:0.399999
G1 F1440
G1 X125.631 Y111.946 E.0116
G1 X125.036 Y111.81 E.0114
G1 X125.218 Y111.519 E.00641
G1 X125.509 Y110.869 E.0133
G1 X125.651 Y110.292 E.01109
G1 X126.203 Y110.844 E.01458
G1 X126.203 Y112.128 E.02397
G1 X126.577 Y112.865 F4800
G1 F1440
G1 X126.246 Y112.633 E.00755
G1 X125.537 Y112.308 E.01456
G1 X124.811 Y112.157 E.01385
G1 X124.293 Y112.15 E.00967
G1 X124.641 Y111.734 E.01013
G1 X125.007 Y111.114 E.01344
G1 X125.208 Y110.566 E.0109
G1 X125.316 Y110.066 E.00955
G1 X125.359 Y109.471 E.01114
G1 X126.577 Y110.689 E.03216
G1 X126.577 Y112.805 E.03951
G1 X126.952 Y113.799 F4800
G1 F1440
G1 X126.632 Y113.411 E.00939
G1 X126.226 Y113.064 E.00997
G1 X125.666 Y112.753 E.01196
G1 X125.023 Y112.562 E.01252
G1 X124.488 Y112.514 E.01003
G1 X123.853 Y112.586 E.01193
;WIDTH:0.442224
G1 X123.766 Y112.591 E.00181
;WIDTH:0.484449
G1 X123.679 Y112.596 E.00199
;WIDTH:0.526674
G1 X123.593 Y112.6 E.00215
;WIDTH:0.568899
G1 X123.506 Y112.605 E.00236
;WIDTH:0.611123
G1 X123.419 Y112.61 E.00254
;WIDTH:0.653348
G1 X123.332 Y112.614 E.00273
G1 X123.374 Y112.561 E.00212
;WIDTH:0.611887
G1 X123.415 Y112.508 E.00196
;WIDTH:0.570426
G1 X123.456 Y112.455 E.00182
;WIDTH:0.528965
G1 X123.498 Y112.402 E.0017
;WIDTH:0.487503
G1 X123.539 Y112.35 E.00153
;WIDTH:0.446042
G1 X123.823 Y112.098 E.00796
;WIDTH:0.399999
G1 X124.324 Y111.535 E.01407
G1 X124.66 Y110.974 E.01221
G1 X124.842 Y110.487 E.00971
G1 X124.971 Y109.824 E.01261
G1 X124.977 Y109.272 E.01031
G1 X124.906 Y108.765 E.00956
G1 X124.793 Y108.376 E.00756
G1 X126.952 Y110.534 E.057
G1 X126.952 Y113.739 E.05984
G1 E-3.5 F3600
;WIPE_START
G1 F3840
G1 X126.632 Y113.411 E-.40812
G1 X126.226 Y113.064 E-.47567
G1 X125.666 Y112.753 E-.5705
G1 X125.617 Y112.738 E-.04571
;WIPE_END
G1 X125.779 Y111.444 F4800
G1 E5 F2400
;WIDTH:0.56675
G1 F1440
G1 X125.712 Y111.444 E.00181
G1 X125.678 Y111.503 E.00184
G1 X125.712 Y111.561 E.00181
G1 X125.779 Y111.561 E.00181
G1 X125.813 Y111.503 E.00181
G1 E-3.5 F3600
;WIPE_START
G1 F3840
G1 X125.779 Y111.561 E-.05988
G1 X125.712 Y111.561 E-.05967
G1 X125.678 Y111.503 E-.05988
G1 X125.712 Y111.444 E-.06065
G1 X125.779 Y111.444 E-.05967
;WIPE_END
G1 E-1.20025 F3600
G1 X121.918 Y113.844 F4800
G1 E5 F2400
;WIDTH:0.551677
G1 F1440
G1 X121.65 Y113.053 E.02191
G1 X121.87 Y113.038 E.00579
G1 X121.995 Y113.007 E.00338
;WIDTH:0.522184
G1 X122.121 Y112.976 E.00321
;WIDTH:0.49269
G1 X122.281 Y112.914 E.004
;WIDTH:0.452231
G1 X122.441 Y112.853 E.00364
;WIDTH:0.411772
G1 X122.602 Y112.791 E.00332
;WIDTH:0.418308
G1 X122.682 Y112.782 E.00158
;WIDTH:0.465302
G1 X122.763 Y112.772 E.00179
;WIDTH:0.512297
G1 X122.843 Y112.763 E.00195
;WIDTH:0.559291
G1 X122.924 Y112.754 E.00217
;WIDTH:0.606286
G1 X123.005 Y112.744 E.00236
;WIDTH:0.65328
G1 X123.085 Y112.735 E.00252
G1 X123.042 Y112.787 E.00211
;WIDTH:0.606061
G1 X122.998 Y112.839 E.00197
;WIDTH:0.558841
G1 X122.955 Y112.892 E.00182
;WIDTH:0.511621
G1 X122.911 Y112.944 E.00165
;WIDTH:0.464402
G1 X122.868 Y112.996 E.00148
;WIDTH:0.417182
G1 X122.825 Y113.049 E.00133
;WIDTH:0.395442
G1 X122.664 Y113.148 E.00349
;WIDTH:0.434501
G1 X122.554 Y113.225 E.00274
;WIDTH:0.47356
G1 X122.444 Y113.301 E.00299
;WIDTH:0.512618
G1 X122.334 Y113.377 E.00325
;WIDTH:0.551677
G1 X122.225 Y113.453 E.00349
G1 X121.955 Y113.796 E.01145
G1 E-3.5 F3600
;WIPE_START
G1 F3840
G1 X121.65 Y113.053 E-.71532
G1 X121.87 Y113.038 E-.19639
G1 X121.995 Y113.007 E-.1147
G1 X122.121 Y112.976 E-.11557
G1 X122.281 Y112.914 E-.15282
G1 X122.441 Y112.853 E-.15251
G1 X122.496 Y112.832 E-.05269
;WIPE_END
G1 X119.408 Y111.231 F4800
G1 E5 F2400
;TYPE:External perimeter
;WIDTH:0.581282
G1 F1440
G1 X119.797 Y111.619 E.01523
;WIDTH:0.583026
G1 X119.806 Y111.627 E.00033
G1 E-3.5 F3600
;WIPE_START
G1 F3840
G1 X119.797 Y111.619 E-.01072
G1 X119.408 Y111.231 E-.48933
;WIPE_END
G1 E-.99995 F3600
G1 X117.696 Y108.945 F4800
G1 E5 F2400
;TYPE:Perimeter
;WIDTH:0.392942
G1 F1440
G1 X117.297 Y108.819 E.00767
;WIDTH:0.433432
G1 X117.14 Y108.764 E.00338
;WIDTH:0.473922
G1 X116.983 Y108.709 E.00372
;WIDTH:0.514412
G1 X116.826 Y108.654 E.00406
;WIDTH:0.554902
G1 X116.669 Y108.599 E.00439
G1 X116.735 Y108.586 E.00178
;WIDTH:0.528154
G1 X116.801 Y108.573 E.00169
;WIDTH:0.501406
G1 X117.126 Y108.554 E.00773
;WIDTH:0.465252
G1 X117.451 Y108.536 E.00714
;WIDTH:0.429097
G1 X117.776 Y108.518 E.00655
;WIDTH:0.392942
G1 X117.707 Y108.886 E.00686
G1 E-3.5 F3600
;WIPE_START
G1 F3840
G1 X117.297 Y108.819 E-.37
G1 X117.14 Y108.764 E-.14816
G1 X116.983 Y108.709 E-.14816
G1 X116.826 Y108.654 E-.14816
G1 X116.669 Y108.599 E-.14816
G1 X116.735 Y108.586 E-.05991
G1 X116.801 Y108.573 E-.05991
G1 X117.126 Y108.554 E-.28995
G1 X117.269 Y108.546 E-.12759
;WIPE_END
G1 X114.403 Y108.593 F4800
G1 E5 F2400
;WIDTH:0.541626
G1 F1440
G1 X114.368 Y108.607 E.00097
;WIDTH:0.527796
G1 X114.199 Y108.664 E.00447
;WIDTH:0.482997
G1 X114.03 Y108.721 E.00407
;WIDTH:0.438198
G1 X113.862 Y108.779 E.00366
;WIDTH:0.393399
G1 X113.305 Y108.942 E.01064
G1 X113.228 Y108.518 E.0079
G1 X113.835 Y108.519 E.01113
;WIDTH:0.442808
G1 X114.025 Y108.544 E.00399
;WIDTH:0.492217
G1 X114.214 Y108.569 E.00444
;WIDTH:0.541626
G1 X114.343 Y108.585 E.00335
G1 E-3.5 F3600
;WIPE_START
G1 F3840
G1 X114.368 Y108.607 E-.02966
G1 X114.199 Y108.664 E-.15885
G1 X114.03 Y108.721 E-.15885
G1 X113.862 Y108.779 E-.15829
G1 X113.305 Y108.942 E-.51688
G1 X113.228 Y108.518 E-.3838
G1 X113.333 Y108.518 E-.09367
;WIPE_END
G1 X118.016 Y109.467 F4800
G1 E5 F2400
;WIDTH:0.399999
G1 F1440
G1 X117.803 Y109.371 E.00436
G1 X117.214 Y109.181 E.01156
G1 X116.61 Y109.047 E.01155
G1 X115.996 Y108.971 E.01155
G1 X115.351 Y108.955 E.01205
G1 X114.455 Y109.036 E.0168
G1 X113.619 Y109.234 E.01604
G1 X113 Y109.456 E.01228
G1 X112.89 Y108.68 E.01463
G1 X112.697 Y108.142 E.01067
G1 X118.301 Y108.142 E.10463
G1 X118.094 Y108.778 E.01249
G1 X118.022 Y109.407 E.01182
G1 X118.487 Y110.122 F4800
G1 F1440
G1 X117.686 Y109.727 E.01668
G1 X117.131 Y109.546 E.0109
G1 X116.562 Y109.418 E.01089
G1 X115.983 Y109.345 E.0109
G1 X115.382 Y109.328 E.01123
G1 X114.53 Y109.403 E.01597
G1 X113.728 Y109.592 E.01538
G1 X113.144 Y109.802 E.01159
G1 X112.509 Y110.128 E.01333
G1 X112.594 Y109.783 E.00663
G1 X112.593 Y109.235 E.01023
G1 X112.505 Y108.698 E.01016
G1 X112.316 Y108.193 E.01007
G1 X112.006 Y107.734 E.01034
G1 X112.351 Y107.764 E.00647
G1 X113.318 Y107.774 E.01806
G1 X118.183 Y107.773 E.09084
G1 X118.977 Y107.74 E.01484
G1 X118.678 Y108.205 E.01032
G1 X118.498 Y108.685 E.00957
G1 X118.402 Y109.281 E.01127
G1 X118.409 Y109.805 E.00978
G1 X118.473 Y110.064 E.00498
G1 X119.408 Y111.231 F4800
;TYPE:External perimeter
;WIDTH:0.577142
G1 F1440
G1 X119.327 Y111.19 E.0025
;WIDTH:0.537492
G1 X119.245 Y111.148 E.00235
;WIDTH:0.497841
G1 X119.164 Y111.107 E.00214
;WIDTH:0.45819
G1 X118.844 Y110.864 E.00867
;WIDTH:0.429095
G1 X118.524 Y110.62 E.0081
;WIDTH:0.399999
G1 X118.147 Y110.368 E.00847
G1 X117.568 Y110.082 E.01206
G1 X117.048 Y109.91 E.01023
G1 X116.513 Y109.789 E.01024
G1 X115.97 Y109.719 E.01022
G1 X115.413 Y109.701 E.01041
G1 X114.604 Y109.77 E.01516
G1 X114.068 Y109.88 E.01022
G1 X113.543 Y110.041 E.01025
G1 X113.027 Y110.258 E.01045
G1 X112.545 Y110.544 E.01046
G1 X112.146 Y110.892 E.00989
;WIDTH:0.443499
G1 X112.033 Y110.955 E.0027
;WIDTH:0.487
G1 X111.919 Y111.017 E.00299
;WIDTH:0.5305
G1 X111.806 Y111.08 E.00326
;WIDTH:0.574
G1 X111.692 Y111.143 E.00356
G1 X111.714 Y111.071 E.00206
;WIDTH:0.539994
G1 X111.736 Y111 E.00191
;WIDTH:0.505987
G1 X111.841 Y110.785 E.00573
;WIDTH:0.470658
G1 X111.946 Y110.569 E.00533
;WIDTH:0.435329
G1 X112.051 Y110.354 E.00489
;WIDTH:0.399999
G1 X112.212 Y109.815 E.0105
G1 X112.235 Y109.376 E.00821
G1 X112.155 Y108.829 E.01032
G1 X111.916 Y108.245 E.01178
G1 X111.59 Y107.811 E.01013
G1 X110.96 Y107.306 E.01508
G1 X111.782 Y107.337 E.01536
G1 X112.355 Y107.39 E.01074
G1 X118.167 Y107.399 E.10852
G1 X119.052 Y107.362 E.01654
G1 X119.614 Y107.301 E.01055
G1 X120.085 Y107.3 E.00879
G1 X119.79 Y107.489 E.00654
G1 X119.353 Y107.888 E.01105
G1 X119.028 Y108.336 E.01033
G1 X118.848 Y108.816 E.00957
G1 X118.773 Y109.332 E.00974
G1 X118.79 Y109.828 E.00927
G1 X118.961 Y110.384 E.01086
;WIDTH:0.444285
G1 X119.073 Y110.596 E.00501
;WIDTH:0.488571
G1 X119.185 Y110.807 E.00552
;WIDTH:0.532857
G1 X119.297 Y111.019 E.00607
;WIDTH:0.577142
G1 X119.38 Y111.178 E.00493
G1 E-3.5 F3600
;WIPE_START
G1 F3840
G1 X119.327 Y111.19 E-.0484
G1 X119.245 Y111.148 E-.08205
G1 X119.164 Y111.107 E-.08086
G1 X118.844 Y110.864 E-.35786
G1 X118.524 Y110.62 E-.3584
G1 X118.147 Y110.368 E-.40387
G1 X117.977 Y110.284 E-.16856
;WIPE_END
G1 X114.403 Y108.593 F4800
G1 E5 F2400
;TYPE:Perimeter
;WIDTH:0.541626
G1 F1440
G1 X114.86 Y108.573 E.01177
;WIDTH:0.500911
G1 X115.318 Y108.552 E.01087
;WIDTH:0.47518
G1 X116.01 Y108.56 E.01552
;WIDTH:0.515041
G1 X116.34 Y108.579 E.00807
;WIDTH:0.554902
G1 X116.669 Y108.599 E.0087
G1 E-3.5 F3600
;WIPE_START
G1 F3840
G1 X116.34 Y108.579 E-.29356
G1 X116.01 Y108.56 E-.29439
G1 X115.318 Y108.552 E-.61635
G1 X114.986 Y108.567 E-.2957
;WIPE_END
G1 X111.119 Y111.713 F4800
G1 E5 F2400
;TYPE:External perimeter
;WIDTH:0.605744
G1 F1440
G1 X111.51 Y111.328 E.01588
;WIDTH:0.586454
G1 X111.668 Y111.155 E.00655
G1 E-3.5 F3600
;WIPE_START
G1 F3840
G1 X111.51 Y111.328 E-.20867
G1 X111.119 Y111.713 E-.48871
;WIPE_END
G1 E-.80262 F3600
G1 X109.086 Y113.855 F4800
G1 E5 F2400
;TYPE:Perimeter
;WIDTH:0.558264
G1 F1440
G1 X108.996 Y113.723 E.00424
G1 X108.834 Y113.55 E.0063
;WIDTH:0.532351
G1 X108.672 Y113.377 E.00599
;WIDTH:0.506438
G1 X108.522 Y113.278 E.00431
;WIDTH:0.460328
G1 X108.371 Y113.179 E.00391
;WIDTH:0.414218
G1 X108.221 Y113.08 E.00348
;WIDTH:0.4166
G1 X108.179 Y113.028 E.0013
;WIDTH:0.465092
G1 X108.138 Y112.975 E.00147
;WIDTH:0.513583
G1 X108.096 Y112.923 E.00163
;WIDTH:0.562075
G1 X108.054 Y112.87 E.00181
;WIDTH:0.610567
G1 X108.013 Y112.818 E.00193
;WIDTH:0.659058
G1 X107.971 Y112.765 E.00214
G1 X108.038 Y112.768 E.00212
;WIDTH:0.610567
G1 X108.106 Y112.771 E.00199
;WIDTH:0.562075
G1 X108.173 Y112.774 E.00179
;WIDTH:0.513583
G1 X108.24 Y112.776 E.00163
;WIDTH:0.465092
G1 X108.308 Y112.779 E.00149
;WIDTH:0.4166
G1 X108.375 Y112.782 E.00131
;WIDTH:0.414218
G1 X108.544 Y112.849 E.00352
;WIDTH:0.460328
G1 X108.713 Y112.916 E.00394
;WIDTH:0.506438
G1 X108.881 Y112.983 E.00434
;WIDTH:0.532351
G1 X109.112 Y113.019 E.00591
;WIDTH:0.558264
G1 X109.342 Y113.055 E.00618
G1 X109.103 Y113.797 E.02071
G1 E-3.5 F3600
;WIPE_START
G1 F3840
G1 X108.996 Y113.723 E-.11587
G1 X108.834 Y113.55 E-.21109
G1 X108.672 Y113.377 E-.21109
G1 X108.522 Y113.278 E-.16007
G1 X108.371 Y113.179 E-.16081
G1 X108.221 Y113.08 E-.16007
G1 X108.179 Y113.028 E-.05953
G1 X108.138 Y112.975 E-.05968
G1 X108.096 Y112.923 E-.05953
G1 X108.054 Y112.87 E-.06023
G1 X108.013 Y112.818 E-.05898
G1 X107.971 Y112.765 E-.06023
G1 X108.038 Y112.768 E-.05973
G1 X108.106 Y112.771 E-.06062
G1 X108.109 Y112.771 E-.00247
;WIPE_END
G1 X104.797 Y112.183 F4800
G1 E5 F2400
;WIDTH:0.399999
G1 F1440
G1 X104.797 Y110.844 E.025
G1 X105.35 Y110.291 E.0146
G1 X105.491 Y110.867 E.01107
G1 X105.684 Y111.34 E.00954
G1 X105.966 Y111.815 E.01031
G1 X105.404 Y111.932 E.01072
G1 X104.852 Y112.16 E.01115
G1 X105.288 Y111.441 F4800
;WIDTH:0.566132
G1 F1440
G1 X105.221 Y111.441 E.00181
G1 X105.187 Y111.5 E.00184
G1 X105.221 Y111.558 E.00181
G1 X105.288 Y111.558 E.00181
G1 X105.322 Y111.5 E.00181
G1 X104.423 Y112.86 F4800
;WIDTH:0.399999
G1 F1440
G1 X104.423 Y110.689 E.04054
G1 X105.65 Y109.462 E.0324
G1 X105.681 Y110.047 E.01094
G1 X105.854 Y110.767 E.01383
G1 X106.104 Y111.332 E.01154
G1 X106.377 Y111.765 E.00956
G1 X106.7 Y112.151 E.0094
G1 X106.193 Y112.16 E.00947
G1 X105.526 Y112.286 E.01267
G1 X105.024 Y112.484 E.01008
G1 X104.474 Y112.828 E.01211
G1 X104.048 Y113.804 F4800
G1 F1440
G1 X104.048 Y110.534 E.06106
G1 X106.218 Y108.364 E.0573
G1 X106.101 Y108.725 E.00709
G1 X106.023 Y109.269 E.01026
G1 X106.047 Y109.969 E.01308
G1 X106.201 Y110.627 E.01262
G1 X106.484 Y111.233 E.01249
G1 X106.85 Y111.76 E.01198
G1 X107.231 Y112.139 E.01003
;WIDTH:0.442031
G1 X107.306 Y112.219 E.00228
;WIDTH:0.484063
G1 X107.382 Y112.299 E.00252
;WIDTH:0.526095
G1 X107.458 Y112.38 E.00277
;WIDTH:0.568127
G1 X107.533 Y112.46 E.00297
;WIDTH:0.610158
G1 X107.609 Y112.541 E.00324
;WIDTH:0.65219
G1 X107.685 Y112.621 E.00345
G1 X107.611 Y112.62 E.00231
;WIDTH:0.606204
G1 X107.538 Y112.618 E.00211
;WIDTH:0.560217
G1 X107.464 Y112.617 E.00197
;WIDTH:0.51423
G1 X107.299 Y112.594 E.00406
;WIDTH:0.476153
G1 X107.134 Y112.572 E.00374
;WIDTH:0.438076
G1 X106.969 Y112.549 E.00343
;WIDTH:0.399999
G1 X106.437 Y112.513 E.00996
G1 X105.855 Y112.586 E.01095
G1 X105.374 Y112.734 E.0094
