; generated by PrusaSlicer 2.7.1+win64 on 2024-02-28 at 23:59:33 UTC


;
;

;
;
; 

; external perimeters extrusion width = 0.42mm
; perimeters extrusion width = 0.44mm
; infill extrusion width = 0.44mm
; solid infill extrusion width = 0.44mm
; top infill extrusion width = 0.40mm
; first layer extrusion width = 0.42mm


; printing object Shape-Box id:0 copy 0
; stop printing object Shape-Box id:0 copy 0

;TYPE:Custom
; Ender 3 Custom Start G-code
G92 E0 ; Reset Extruder

M140 S55 ; set bed temp
M104 S160 ; set extruder temp
M109 S160 ; wait for extruder temp
M190 S55 ; wait for bed temp

G28 ; Home all axes
M104 S210 ; set extruder temp 
BED_MESH_CALIBRATE AREA_START=83.7684,88.5669 AREA_END=143.763,126.207

G1 Z2.0 F3000 ; Move Z Axis up little to prevent scratching of Heat Bed
M109 S210 ; wait for extruder temp
G1 X0.1 Y20 Z0.3 F5000.0 ; Move to start position

G1 X0.1 Y200.0 Z0.3 F1500.0 E15 ; Draw the first line
G1 X0.4 Y200.0 Z0.3 F5000.0 ; Move to side a little
G1 X0.4 Y20 Z0.3 F1500.0 E30 ; Draw the second line
G92 E0 ; Reset Extruder
G1 Z2.0 F3000 ; Move Z Axis up little to prevent scratching of Heat Bed
G1 X5 Y20 Z0.3 F5000.0 ; Move over to prevent blob squish
G21 ; set units to millimeters
G90 ; use absolute coordinates
M83 ; use relative distances for extrusion
; Filament gcode
M107
;LAYER_CHANGE
;Z:0.2
;HEIGHT:0.2
;BEFORE_LAYER_CHANGE
G92 E0
;0.2


G1 E-1.6 F2400
G1 Z.2 F6000
;AFTER_LAYER_CHANGE
;0.2
G1 X87.857 Y91.701
G1 Z.2
G1 E1.6 F2400
M204 S500
;TYPE:Skirt/Brim
;WIDTH:0.42
G1 F1200
G1 X88.725 Y90.996 E.03296
G1 X89.656 Y90.382 E.03287
G1 X91.322 Y89.564 E.0547
G1 X93.099 Y89.026 E.05472
G1 X94.721 Y88.79 E.04831
G1 X132.884 Y88.805 E1.12478
G1 X133.843 Y88.938 E.02854
G1 X135.87 Y89.494 E.06195
G1 X137.7 Y90.365 E.05973
G1 X139.14 Y91.376 E.05186
G1 X140.583 Y92.775 E.05924
G1 X141.374 Y93.79 E.03793
G1 X141.835 Y94.519 E.02542
G1 X142.681 Y96.304 E.05822
G1 X143.24 Y98.341 E.06226
G1 X143.425 Y100.341 E.0592
G1 X143.575 Y114.341 E.41265
G1 X143.503 Y115.668 E.03917
G1 X143.296 Y116.888 E.03647
G1 X142.676 Y118.864 E.06104
G1 X141.69 Y120.733 E.06228
G1 X140.467 Y122.296 E.05849
G1 X139.688 Y123.064 E.03224
G1 X138.815 Y123.771 E.03311
G1 X137.173 Y124.778 E.05677
G1 X136.08 Y125.257 E.03517
G1 X134.281 Y125.783 E.05524
G1 X132.523 Y126.003 E.05222
G1 X95.078 Y126.009 E1.10362
G1 X93.39 Y125.81 E.0501
G1 X92.295 Y125.542 E.03323
G1 X91.185 Y125.153 E.03467
G1 X89.854 Y124.506 E.04362
G1 X88.8 Y123.835 E.03683
G1 X87.851 Y123.075 E.03583
G1 X86.76 Y121.96 E.04598
G1 X86.154 Y121.19 E.02888
G1 X85.328 Y119.862 E.04609
G1 X84.772 Y118.665 E.0389
G1 X84.319 Y117.276 E.04306
G1 X84.013 Y115.506 E.05294
G1 X83.957 Y114.505 E.02955
G1 X83.987 Y99.578 E.43994
G1 X84.339 Y97.433 E.06407
G1 X84.956 Y95.673 E.05497
G1 X85.359 Y94.854 E.0269
G1 X86.242 Y93.468 E.04844
G1 X86.875 Y92.684 E.0297
G1 X87.814 Y91.744 E.03916
G1 X88.08 Y92.01 F6000
G1 F1200
G1 X88.109 Y91.982 E.00119
G1 X88.937 Y91.308 E.03147
G1 X89.836 Y90.714 E.03176
G1 X91.455 Y89.917 E.05319
G1 X92.992 Y89.437 E.04746
G1 X94.74 Y89.166 E.05213
G1 X131.692 Y89.133 E1.08909
G1 X133.767 Y89.308 E.06137
G1 X135.748 Y89.851 E.06054
G1 X137.509 Y90.69 E.05749
G1 X138.893 Y91.661 E.04983
G1 X140.304 Y93.029 E.05792
G1 X141.07 Y94.013 E.03675
G1 X141.565 Y94.802 E.02745
G1 X142.414 Y96.673 E.06056
G1 X142.882 Y98.473 E.05482
G1 X143.048 Y100.345 E.05539
G1 X143.198 Y114.345 E.41265
G1 X143.13 Y115.614 E.03745
G1 X142.924 Y116.824 E.03618
G1 X142.331 Y118.712 E.05833
G1 X141.369 Y120.534 E.06073
G1 X140.198 Y122.031 E.05602
G1 X139.594 Y122.642 E.02532
G1 X138.603 Y123.459 E.03785
G1 X136.981 Y124.453 E.05607
G1 X135.395 Y125.098 E.05046
G1 X134.218 Y125.411 E.0359
G1 X132.355 Y125.634 E.0553
G1 X95.105 Y125.633 E1.09787
G1 X93.449 Y125.437 E.04915
G1 X92.304 Y125.154 E.03476
G1 X91.337 Y124.807 E.03028
G1 X90.03 Y124.173 E.04281
G1 X89.019 Y123.528 E.03534
G1 X88.102 Y122.794 E.03462
G1 X87.039 Y121.706 E.04483
G1 X86.452 Y120.958 E.02802
G1 X85.657 Y119.676 E.04446
G1 X85.128 Y118.539 E.03696
G1 X84.684 Y117.182 E.04208
G1 X84.387 Y115.46 E.0515
G1 X84.334 Y114.505 E.02819
G1 X84.363 Y99.603 E.43921
G1 X84.7 Y97.541 E.06158
G1 X85.307 Y95.811 E.05404
G1 X85.705 Y95.004 E.02652
G1 X86.553 Y93.681 E.04632
G1 X87.156 Y92.934 E.02829
G1 X88.038 Y92.052 E.03676
G1 X88.304 Y92.318 F6000
G1 F1200
G1 X88.361 Y92.262 E.00236
G1 X89.149 Y91.62 E.02996
G1 X90.029 Y91.037 E.03111
G1 X91.588 Y90.27 E.05121
G1 X93.208 Y89.774 E.04993
G1 X94.758 Y89.543 E.04619
G1 X131.692 Y89.51 E1.08856
G1 X133.69 Y89.677 E.05909
G1 X135.628 Y90.208 E.05922
G1 X137.318 Y91.015 E.0552
G1 X138.647 Y91.947 E.04784
G1 X140.013 Y93.269 E.05603
G1 X140.766 Y94.236 E.03612
G1 X141.237 Y94.988 E.02615
G1 X142.054 Y96.785 E.05818
G1 X142.512 Y98.545 E.0536
G1 X142.671 Y100.349 E.05338
G1 X142.821 Y114.349 E.41265
G1 X142.744 Y115.641 E.03815
G1 X142.521 Y116.917 E.03818
G1 X142.276 Y117.78 E.02644
G1 X141.409 Y119.75 E.06344
G1 X140.675 Y120.874 E.03957
G1 X140.018 Y121.672 E.03047
G1 X139.333 Y122.37 E.02882
G1 X138.39 Y123.147 E.03601
G1 X136.804 Y124.12 E.05484
G1 X135.27 Y124.742 E.04879
G1 X134.141 Y125.042 E.03443
G1 X132.345 Y125.257 E.05331
G1 X95.131 Y125.257 E1.09681
G1 X93.508 Y125.065 E.04817
G1 X92.409 Y124.792 E.03338
G1 X91.488 Y124.462 E.02883
G1 X90.206 Y123.839 E.04201
G1 X89.238 Y123.221 E.03385
G1 X88.306 Y122.47 E.03528
G1 X87.318 Y121.453 E.04179
G1 X86.76 Y120.741 E.02666
G1 X85.985 Y119.491 E.04335
G1 X85.483 Y118.413 E.03505
G1 X85.05 Y117.087 E.04111
G1 X84.761 Y115.415 E.05001
G1 X84.739 Y99.629 E.46526
G1 X85.061 Y97.651 E.05907
G1 X85.658 Y95.949 E.05316
G1 X86.04 Y95.178 E.02536
G1 X86.862 Y93.897 E.04486
G1 X87.438 Y93.185 E.02699
G1 X88.262 Y92.361 E.03435
; printing object Shape-Box id:0 copy 0
G1 E-1.12 F2400
;WIPE_START
G1 F4800
G1 X88.304 Y92.318 E-.02855
G1 X88.361 Y92.262 E-.03796
G1 X89.036 Y91.712 E-.41349
;WIPE_END
G1 X109.589 Y110.576 F6000
G1 E1.6 F2400
;TYPE:Perimeter
G1 F1200
G1 X109.435 Y110.562 E.00456
G1 X109.146 Y110.578 E.00853
G1 X109.236 Y110.525 E.00308
G1 X109.347 Y110.497 E.00337
G1 X109.516 Y110.518 E.00502
G1 X109.542 Y110.538 E.00097
G1 E-1.12 F2400
;WIPE_START
G1 F4800
G1 X109.589 Y110.576 E-.02871
G1 X109.435 Y110.562 E-.07345
G1 X109.146 Y110.578 E-.13749
G1 X109.236 Y110.525 E-.04961
G1 X109.347 Y110.497 E-.05438
G1 X109.516 Y110.518 E-.08089
G1 X109.542 Y110.538 E-.01558
;WIPE_END
G1 E-.03989 F2400
G1 X108.443 Y104.383 F6000
G1 E1.6 F2400
G1 F1200
G1 X108.543 Y104.397 E.00298
G1 X108.83 Y104.357 E.00854
G1 X108.788 Y104.395 E.00167
G1 X108.708 Y104.435 E.00264
G1 X108.598 Y104.451 E.00328
G1 X108.532 Y104.44 E.00197
G1 X108.493 Y104.416 E.00135
G1 E-1.12 F2400
;WIPE_START
G1 F4800
G1 X108.443 Y104.383 E-.02846
G1 X108.543 Y104.397 E-.04796
G1 X108.83 Y104.357 E-.13764
G1 X108.788 Y104.395 E-.0269
G1 X108.708 Y104.435 E-.04249
G1 X108.598 Y104.451 E-.0528
G1 X108.532 Y104.44 E-.03178
G1 X108.493 Y104.416 E-.02175
;WIPE_END
G1 E-.09022 F2400
G1 X102.878 Y110.576 F6000
G1 E1.6 F2400
G1 F1200
G1 X102.726 Y110.562 E.0045
G1 X102.437 Y110.578 E.00853
G1 X102.527 Y110.525 E.00308
G1 X102.637 Y110.497 E.00335
G1 X102.806 Y110.518 E.00502
G1 X102.832 Y110.538 E.00097
G1 E-1.12 F2400
;WIPE_START
G1 F4800
G1 X102.878 Y110.576 E-.02834
G1 X102.726 Y110.562 E-.07251
G1 X102.437 Y110.578 E-.13749
G1 X102.527 Y110.525 E-.04961
G1 X102.637 Y110.497 E-.05392
G1 X102.806 Y110.518 E-.08089
G1 X102.832 Y110.538 E-.01558
;WIPE_END
G1 E-.04166 F2400
G1 X100.066 Y112.438 F6000
G1 E1.6 F2400
G1 F1200
G1 X99.981 Y112.361 E.00338
G1 X100.069 Y112.321 E.00285
G1 X100.068 Y112.378 E.00168
G1 E-1.12 F2400
;WIPE_START
G1 F4800
G1 X100.066 Y112.438 E-.02852
G1 X99.981 Y112.361 E-.05448
G1 X100.069 Y112.321 E-.04592
G1 X100.068 Y112.378 E-.02708
;WIPE_END
G1 E-.324 F2400
G1 X96.255 Y112.382 F6000
G1 E1.6 F2400
G1 F1200
G1 X96.193 Y112.432 E.00235
G1 X96.203 Y112.33 E.00302
G1 X96.212 Y112.345 E.00052
G1 E-1.12 F2400
;WIPE_START
G1 F4800
G1 X96.255 Y112.382 E-.02695
G1 X96.193 Y112.432 E-.03783
G1 X96.203 Y112.33 E-.04868
G1 X96.212 Y112.345 E-.00831
;WIPE_END
G1 E-.35823 F2400
G1 X93.447 Y113.505 F6000
G1 E1.6 F2400
G1 F1200
G1 X93.547 Y113.519 E.00298
G1 X93.835 Y113.478 E.00857
G1 X93.792 Y113.516 E.00169
G1 X93.712 Y113.556 E.00264
G1 X93.602 Y113.572 E.00328
G1 X93.536 Y113.562 E.00197
G1 X93.497 Y113.537 E.00137
G1 E-1.12 F2400
;WIPE_START
G1 F4800
G1 X93.447 Y113.505 E-.0282
G1 X93.547 Y113.519 E-.04796
G1 X93.835 Y113.478 E-.13818
G1 X93.792 Y113.516 E-.02726
G1 X93.712 Y113.556 E-.04249
G1 X93.602 Y113.572 E-.0528
G1 X93.536 Y113.562 E-.03171
G1 X93.497 Y113.537 E-.022
;WIPE_END
G1 E-.0894 F2400
G1 X117.99 Y102.345 F6000
G1 E1.6 F2400
G1 F1200
G1 X117.925 Y102.426 E.00306
G1 X117.794 Y102.514 E.00465
G1 X117.64 Y102.554 E.00469
G1 X117.46 Y102.545 E.00531
G1 X117.303 Y102.486 E.00494
G1 X117.166 Y102.318 E.00639
G1 X117.117 Y102.11 E.0063
G1 X117.128 Y101.838 E.00802
G1 X117.183 Y101.647 E.00586
G1 X117.271 Y101.515 E.00468
G1 X117.378 Y101.428 E.00406
G1 X117.498 Y101.382 E.00379
G1 X117.649 Y101.38 E.00445
G1 X117.794 Y101.45 E.00475
G1 X117.868 Y101.557 E.00383
G1 X117.907 Y101.662 E.0033
G1 X118.036 Y102.289 E.01887
G1 X118.028 Y102.299 E.00038
G1 E-1.12 F2400
;WIPE_START
G1 F4800
G1 X117.99 Y102.345 E-.02834
G1 X117.925 Y102.426 E-.04933
G1 X117.794 Y102.514 E-.07496
G1 X117.64 Y102.554 E-.07558
G1 X117.46 Y102.545 E-.08561
G1 X117.303 Y102.486 E-.07967
G1 X117.188 Y102.345 E-.08651
;WIPE_END
G1 X118.193 Y113.478 F6000
G1 E1.6 F2400
G1 F1200
G1 X118.151 Y113.516 E.00167
G1 X118.071 Y113.556 E.00264
G1 X117.961 Y113.572 E.00328
G1 X117.895 Y113.562 E.00197
G1 X117.805 Y113.505 E.00314
G1 X117.906 Y113.519 E.00301
G1 X118.134 Y113.486 E.00679
G1 E-1.12 F2400
;WIPE_START
G1 F4800
G1 X118.193 Y113.478 E-.02828
G1 X118.151 Y113.516 E-.0269
G1 X118.071 Y113.556 E-.04249
G1 X117.961 Y113.572 E-.0528
G1 X117.895 Y113.562 E-.03171
G1 X117.805 Y113.505 E-.0506
G1 X117.906 Y113.519 E-.04843
G1 X118.134 Y113.486 E-.10943
;WIPE_END
G1 E-.08936 F2400
G1 X124.515 Y113.505 F6000
G1 E1.6 F2400
G1 F1200
G1 X124.615 Y113.519 E.00298
G1 X124.902 Y113.478 E.00854
G1 X124.86 Y113.516 E.00167
G1 X124.78 Y113.556 E.00264
G1 X124.67 Y113.572 E.00328
G1 X124.604 Y113.562 E.00197
G1 X124.565 Y113.537 E.00137
G1 E-1.12 F2400
;WIPE_START
G1 F4800
G1 X124.515 Y113.505 E-.0282
G1 X124.615 Y113.519 E-.04796
G1 X124.902 Y113.478 E-.13771
G1 X124.86 Y113.516 E-.0269
G1 X124.78 Y113.556 E-.04249
G1 X124.67 Y113.572 E-.0528
G1 X124.604 Y113.562 E-.03171
G1 X124.565 Y113.537 E-.022
;WIPE_END
G1 E-.09023 F2400
G1 X131.625 Y112.798 F6000
G1 E1.6 F2400
G1 F1200
G1 X131.644 Y112.621 E.00525
G1 X131.8 Y112.802 E.00704
G1 X131.685 Y112.799 E.00339
G1 E-1.12 F2400
;WIPE_START
G1 F4800
G1 X131.625 Y112.798 E-.0285
G1 X131.644 Y112.621 E-.08456
G1 X131.8 Y112.802 E-.1135
G1 X131.685 Y112.799 E-.05464
;WIPE_END
G1 E-.1988 F2400
G1 X133.727 Y113.478 F6000
G1 E1.6 F2400
G1 F1200
G1 X133.685 Y113.516 E.00167
G1 X133.605 Y113.556 E.00264
G1 X133.495 Y113.572 E.00328
G1 X133.429 Y113.562 E.00197
G1 X133.339 Y113.505 E.00314
G1 X133.44 Y113.519 E.00301
G1 X133.668 Y113.486 E.00679
G1 E-1.12 F2400
;WIPE_START
G1 F4800
G1 X133.727 Y113.478 E-.02828
G1 X133.685 Y113.516 E-.0269
G1 X133.605 Y113.556 E-.04249
G1 X133.495 Y113.572 E-.0528
G1 X133.429 Y113.562 E-.03171
G1 X133.339 Y113.505 E-.0506
G1 X133.44 Y113.519 E-.04843
G1 X133.668 Y113.486 E-.10943
;WIPE_END
G1 E-.08936 F2400
G1 X133.488 Y101.89 F6000
G1 E1.6 F2400
G1 F1200
G1 X133.57 Y102.289 E.01201
G1 X133.459 Y102.426 E.0052
G1 X133.328 Y102.514 E.00465
G1 X133.174 Y102.554 E.00469
G1 X132.994 Y102.545 E.00531
G1 X132.837 Y102.486 E.00494
G1 X132.7 Y102.318 E.00639
G1 X132.651 Y102.11 E.0063
G1 X132.662 Y101.838 E.00802
G1 X132.717 Y101.647 E.00586
G1 X132.805 Y101.515 E.00468
G1 X132.912 Y101.428 E.00406
G1 X133.032 Y101.382 E.00379
G1 X133.183 Y101.38 E.00445
G1 X133.328 Y101.45 E.00475
G1 X133.402 Y101.557 E.00383
G1 X133.441 Y101.662 E.0033
G1 X133.476 Y101.831 E.00509
G1 E-1.12 F2400
;WIPE_START
G1 F4800
G1 X133.488 Y101.89 E-.0286
G1 X133.57 Y102.289 E-.19349
G1 X133.459 Y102.426 E-.08375
G1 X133.328 Y102.514 E-.07496
G1 X133.174 Y102.554 E-.07558
G1 X133.124 Y102.552 E-.02362
;WIPE_END
G1 X111.068 Y111.262 F6000
G1 E1.6 F2400
G1 F1200
G1 X111.327 Y111.554 E.0115
G1 X111.472 Y111.801 E.00844
G1 X111.632 Y112.229 E.01347
G1 X111.687 Y112.495 E.00801
G1 X111.724 Y112.975 E.01419
G1 X111.695 Y113.35 E.01109
G1 X111.955 Y112.987 E.01316
G1 X112.191 Y112.609 E.01313
G1 X112.536 Y111.965 E.02153
G1 X112.73 Y111.536 E.01388
G1 X112.896 Y111.104 E.01364
G1 X113.121 Y110.34 E.02347
G1 X113.237 Y109.659 E.02036
G1 X113.33 Y108.663 E.02948
G1 X115.377 Y108.663 E.06033
G1 X115.284 Y109.954 E.03815
G1 X115.168 Y110.612 E.01969
G1 X114.912 Y111.559 E.02891
G1 X114.737 Y112.045 E.01522
G1 X114.534 Y112.518 E.01517
G1 X114.293 Y112.99 E.01562
G1 X114.011 Y113.426 E.0153
G1 X114.495 Y113.396 E.01429
G1 X115.713 Y113.389 E.0359
G1 X115.62 Y112.788 E.01792
G1 X116.264 Y112.802 E.01899
G1 X116.011 Y112.52 E.01117
G1 X115.865 Y112.276 E.00838
G1 X115.698 Y111.84 E.01376
G1 X115.617 Y111.359 E.01438
G1 X115.626 Y110.799 E.01651
G1 X115.683 Y110.465 E.00999
G1 X115.776 Y110.152 E.00962
G1 X115.906 Y109.852 E.00964
G1 X116.07 Y109.571 E.00959
G1 X116.269 Y109.314 E.00958
G1 X116.503 Y109.089 E.00957
G1 X116.768 Y108.902 E.00956
G1 X117.055 Y108.755 E.0095
G1 X117.362 Y108.649 E.00957
G1 X117.717 Y108.584 E.01064
G1 X118.271 Y108.579 E.01633
G1 X118.795 Y108.685 E.01576
G1 X119.262 Y108.895 E.01509
G1 X119.509 Y109.062 E.00879
G1 X119.88 Y109.414 E.01507
G1 X120.064 Y109.661 E.00908
G1 X120.212 Y109.925 E.00892
G1 X120.336 Y110.22 E.00943
G1 X120.493 Y110.826 E.01845
G1 X120.569 Y111.519 E.02055
G1 X120.568 Y112.313 E.0234
G1 X120.486 Y113.078 E.02268
G1 X120.316 Y113.747 E.02034
G1 X120.185 Y114.07 E.01027
G1 X120.029 Y114.359 E.00968
G1 X119.844 Y114.62 E.00943
G1 X119.646 Y114.837 E.00866
G1 X119.235 Y115.159 E.01539
G1 X118.747 Y115.382 E.01581
G1 X118.219 Y115.488 E.01587
G1 X117.732 Y115.494 E.01435
G1 X117.324 Y115.431 E.01217
G1 X116.955 Y115.304 E.0115
G1 X116.749 Y115.198 E.00683
G1 X116.433 Y114.971 E.01147
G1 X116.154 Y114.674 E.01201
G1 X116.09 Y114.57 E.0036
G1 X116.09 Y115.406 E.02464
G1 X111.195 Y115.406 E.14427
G1 X111.195 Y114.597 E.02384
G1 X111.047 Y114.786 E.00708
G1 X110.679 Y115.098 E.01422
G1 X110.262 Y115.324 E.01398
G1 X109.806 Y115.459 E.01402
G1 X109.331 Y115.501 E.01405
G1 X108.969 Y115.476 E.01069
G1 X108.612 Y115.399 E.01076
G1 X108.132 Y115.197 E.01535
G1 X107.687 Y114.883 E.01605
G1 X107.323 Y114.471 E.0162
G1 X107.052 Y113.979 E.01655
G1 X106.876 Y113.398 E.01789
G1 X106.806 Y112.934 E.01383
G1 X106.77 Y112.182 E.02219
G1 X106.805 Y111.39 E.02337
G1 X106.914 Y110.703 E.0205
G1 X107.041 Y110.273 E.01321
G1 X107.298 Y109.735 E.01757
G1 X107.659 Y109.272 E.0173
G1 X108.115 Y108.913 E.0171
G1 X108.629 Y108.682 E.01661
G1 X109.008 Y108.597 E.01145
G1 X109.247 Y108.573 E.00708
G1 X109.807 Y108.596 E.01652
G1 X110.209 Y108.692 E.01218
G1 X110.575 Y108.856 E.01182
G1 X110.905 Y109.091 E.01194
G1 X111.183 Y109.39 E.01203
G1 X111.395 Y109.743 E.01214
G1 X111.534 Y110.136 E.01229
G1 X111.706 Y111.269 E.03378
G1 X111.128 Y111.263 E.01704
G1 E-1.12 F2400
;WIPE_START
G1 F4800
G1 X111.068 Y111.262 E-.0285
G1 X111.327 Y111.554 E-.1854
G1 X111.472 Y111.801 E-.13605
G1 X111.568 Y112.058 E-.13005
;WIPE_END
G1 X114.972 Y109.04 F6000
G1 E1.6 F2400
;TYPE:External perimeter
G1 F1200
G1 X114.91 Y109.908 E.02565
G1 X114.799 Y110.53 E.01862
G1 X114.552 Y111.446 E.02796
G1 X114.386 Y111.907 E.01444
G1 X114.192 Y112.358 E.01447
G1 X113.966 Y112.802 E.01468
G1 X113.696 Y113.22 E.01467
G1 X113.399 Y113.561 E.01333
G1 X113.184 Y113.867 E.01102
G1 X113.611 Y113.867 E.01258
G1 X114.049 Y113.802 E.01305
G1 X114.508 Y113.773 E.01356
G1 X115.713 Y113.766 E.03552
G1 X115.713 Y115.029 E.03722
G1 X111.572 Y115.029 E.12205
G1 X111.572 Y114.085 E.02782
G1 X112.023 Y113.546 E.02071
G1 X112.517 Y112.798 E.02642
G1 X112.875 Y112.132 E.02229
