; generated by PrusaSlicer 2.6.0-alpha4+MacOS-x64 on 2023-03-17 at 15:08:59 UTC

; 

; external perimeters extrusion width = 0.40mm
; perimeters extrusion width = 0.40mm
; infill extrusion width = 0.40mm
; solid infill extrusion width = 0.40mm
; top infill extrusion width = 0.40mm
; first layer extrusion width = 0.40mm

M201 X400 Y400 Z100 E5000 ; sets maximum accelerations, mm/sec^2
M203 X48 Y48 Z10 E60 ; sets maximum feedrates, mm / sec
M204 P400 R1000 T400 ; sets acceleration (P, T) and retract acceleration (R), mm/sec^2
M205 X8.00 Y8.00 Z0.40 E5.00 ; sets the jerk limits, mm/sec
M205 S0 T0 ; sets the minimum extruding and travel feed rate, mm/sec
M107
;TYPE:Custom
; Ender 3 Custom Start G-code
G92 E0 ; Reset Extruder

M140 S50 ; set bed temp
M190 S50 ; wait for bed temp

G28 ; Home all axes
M104 S210 ; set extruder temp 
BED_MESH_CALIBRATE AREA_START=94.0724,103.967 AREA_END=151.572,140.445

G1 Z2.0 F3000 ; Move Z Axis up little to prevent scratching of Heat Bed
M109 S210 ; wait for extruder temp
G1 X0.1 Y20 Z0.3 F5000.0 ; Move to start position

G1 X0.1 Y200.0 Z0.3 F1500.0 E15 ; Draw the first line
G1 X0.4 Y200.0 Z0.3 F5000.0 ; Move to side a little
G1 X0.4 Y20 Z0.3 F1500.0 E30 ; Draw the second line
G92 E0 ; Reset Extruder
G1 Z2.0 F3000 ; Move Z Axis up little to prevent scratching of Heat Bed
G1 X5 Y20 Z0.3 F5000.0 ; Move over to prevent blob squish
G21 ; set units to millimeters
G90 ; use absolute coordinates
M83 ; use relative distances for extrusion
; Filament gcode
M107
;LAYER_CHANGE
;Z:0.2
;HEIGHT:0.2
;BEFORE_LAYER_CHANGE
G92 E0
;0.2


G1 E-5 F3600
G1 Z.2 F4800
;AFTER_LAYER_CHANGE
;0.2
G1 X98.035 Y107.172
G1 E5 F2400
M204 S400
;TYPE:Skirt/Brim
;WIDTH:0.4
G1 F1440
G1 X98.977 Y106.41 E.03597
G1 X99.993 Y105.75 E.03597
G1 X101.453 Y105.035 E.04827
G1 X103.369 Y104.435 E.05961
G1 X104.972 Y104.191 E.04814
G1 X139.873 Y104.15 E1.03626
G1 X141.078 Y104.232 E.03586
G1 X142.275 Y104.435 E.03605
G1 X144.191 Y105.035 E.05961
G1 X145.652 Y105.75 E.0483
G1 X147.29 Y106.896 E.05936
G1 X148.176 Y107.716 E.03584
G1 X148.976 Y108.631 E.03609
G1 X149.895 Y109.994 E.04881
G1 X150.728 Y111.793 E.05886
G1 X151.172 Y113.387 E.04913
G1 X151.345 Y114.588 E.03603
G1 X151.393 Y115.579 E.02946
G1 X151.393 Y128.832 E.3935
G1 X151.345 Y129.823 E.02946
G1 X151.172 Y131.024 E.03603
G1 X150.728 Y132.619 E.04916
G1 X150.259 Y133.731 E.03583
G1 X149.669 Y134.794 E.0361
G1 X148.976 Y135.78 E.03578
G1 X148.176 Y136.695 E.03609
G1 X146.667 Y138.001 E.05925
G1 X145.652 Y138.661 E.03595
G1 X144.188 Y139.379 E.04841
G1 X142.275 Y139.976 E.0595
G1 X140.673 Y140.22 E.04811
G1 X104.972 Y140.22 E1.06001
G1 X103.369 Y139.976 E.04814
G1 X102.205 Y139.654 E.03586
G1 X101.072 Y139.214 E.03609
G1 X99.993 Y138.661 E.036
G1 X98.977 Y138.001 E.03597
G1 X98.035 Y137.24 E.03596
G1 X97.173 Y136.379 E.03617
G1 X96.412 Y135.44 E.03589
G1 X95.749 Y134.417 E.0362
G1 X94.916 Y132.618 E.05886
G1 X94.567 Y131.455 E.03605
G1 X94.299 Y129.823 E.04911
G1 X94.299 Y114.588 E.45235
G1 X94.472 Y113.387 E.03603
G1 X94.774 Y112.213 E.03599
G1 X95.204 Y111.073 E.03618
G1 X95.749 Y109.994 E.03589
G1 X96.412 Y108.971 E.0362
G1 X97.173 Y108.032 E.03589
G1 X97.993 Y107.214 E.03439
G1 X98.245 Y107.467 F4800
G1 F1440
G1 X99.197 Y106.692 E.03645
G1 X100.182 Y106.053 E.03486
G1 X101.577 Y105.37 E.04612
G1 X103.459 Y104.781 E.05855
G1 X104.99 Y104.548 E.04598
G1 X139.854 Y104.507 E1.03516
G1 X141.025 Y104.585 E.03485
G1 X142.186 Y104.781 E.03496
G1 X144.067 Y105.37 E.05852
G1 X145.462 Y106.053 E.04612
G1 X147.071 Y107.177 E.05828
G1 X147.929 Y107.974 E.03477
G1 X148.702 Y108.861 E.03493
G1 X149.58 Y110.161 E.04658
G1 X150.396 Y111.925 E.05771
G1 X150.82 Y113.445 E.04685
G1 X150.989 Y114.607 E.03486
G1 X151.036 Y115.579 E.02889
G1 X151.036 Y128.832 E.3935
G1 X150.989 Y129.804 E.02889
G1 X150.82 Y130.966 E.03486
G1 X150.396 Y132.486 E.04685
G1 X149.943 Y133.564 E.03472
G1 X149.374 Y134.594 E.03494
G1 X148.702 Y135.55 E.0347
G1 X147.929 Y136.437 E.03493
G1 X146.448 Y137.719 E.05816
G1 X145.462 Y138.358 E.03489
G1 X144.064 Y139.043 E.04622
G1 X142.186 Y139.63 E.05842
G1 X140.655 Y139.864 E.04599
G1 X105.79 Y139.904 E1.03519
G1 X103.828 Y139.706 E.05855
G1 X102.685 Y139.431 E.03491
G1 X101.58 Y139.043 E.03477
G1 X100.516 Y138.543 E.03491
G1 X99.197 Y137.719 E.04618
G1 X98.283 Y136.982 E.03486
G1 X97.446 Y136.15 E.03504
G1 X96.707 Y135.24 E.03481
G1 X96.065 Y134.25 E.03503
G1 X95.248 Y132.486 E.05772
G1 X94.911 Y131.359 E.03493
G1 X94.656 Y129.804 E.04679
G1 X94.656 Y114.607 E.45122
G1 X94.825 Y113.445 E.03486
G1 X95.118 Y112.309 E.03483
G1 X95.536 Y111.206 E.03502
G1 X96.065 Y110.161 E.03478
G1 X96.708 Y109.171 E.03505
G1 X97.446 Y108.261 E.03479
G1 X98.202 Y107.509 E.03166
G1 X98.453 Y107.763 F4800
G1 F1440
G1 X99.416 Y106.974 E.03696
G1 X100.371 Y106.356 E.03377
G1 X101.701 Y105.705 E.04397
G1 X103.548 Y105.127 E.05746
G1 X105.008 Y104.904 E.04385
G1 X139.836 Y104.864 E1.03409
G1 X140.971 Y104.938 E.03377
G1 X142.096 Y105.127 E.03387
G1 X143.943 Y105.704 E.05745
G1 X145.273 Y106.356 E.04398
G1 X146.851 Y107.459 E.05716
G1 X147.681 Y108.231 E.03366
G1 X148.429 Y109.091 E.03384
G1 X149.264 Y110.328 E.04431
G1 X150.065 Y112.058 E.0566
G1 X150.467 Y113.503 E.04453
G1 X150.679 Y115.579 E.06196
G1 X150.679 Y128.832 E.3935
G1 X150.467 Y130.908 E.06196
G1 X150.065 Y132.353 E.04453
G1 X149.627 Y133.397 E.03362
G1 X149.078 Y134.394 E.03379
G1 X148.429 Y135.32 E.03357
G1 X147.681 Y136.18 E.03384
G1 X146.228 Y137.437 E.05704
G1 X145.273 Y138.055 E.03377
G1 X143.941 Y138.708 E.04405
G1 X142.096 Y139.284 E.05739
G1 X140.636 Y139.507 E.04385
G1 X105.808 Y139.548 E1.03409
G1 X103.882 Y139.353 E.05748
G1 X102.774 Y139.085 E.03385
G1 X101.703 Y138.708 E.03371
G1 X100.673 Y138.223 E.0338
G1 X99.416 Y137.437 E.04402
G1 X98.53 Y136.725 E.03375
G1 X97.719 Y135.92 E.03393
G1 X97.003 Y135.04 E.03368
G1 X96.38 Y134.083 E.03391
G1 X95.579 Y132.353 E.0566
G1 X95.255 Y131.264 E.03373
G1 X95.012 Y129.784 E.04453
G1 X95.012 Y114.627 E.45003
G1 X95.177 Y113.503 E.03373
G1 X95.462 Y112.404 E.03371
G1 X95.867 Y111.338 E.03386
G1 X96.38 Y110.328 E.03363
G1 X97.003 Y109.371 E.03391
G1 X97.72 Y108.491 E.0337
G1 X98.411 Y107.805 E.02891
; printing object NO_TXT_Kostka.stl id:0 copy 0
G1 E-3.5 F3600
;WIPE_START
G1 F3840
G1 X99.416 Y106.974 E-1.16143
G1 X99.735 Y106.767 E-.33857
;WIPE_END
G1 X141.204 Y122.305 F4800
G1 E5 F2400
;TYPE:Perimeter
;WIDTH:0.562964
G1 F1440
G1 X141.157 Y122.334 E.00239
G1 X141.5 Y122.577 E.01818
;WIDTH:0.550159
G1 X141.607 Y122.729 E.00784
;WIDTH:0.507721
G1 X141.714 Y122.881 E.00718
;WIDTH:0.465283
G1 X141.821 Y123.034 E.00656
;WIDTH:0.43056
G1 X141.94 Y123.192 E.00638
G1 X142.07 Y123.505 E.01092
;WIDTH:0.399999
G1 X142.185 Y123.96 E.01393
G1 X142.179 Y124.494 E.01586
G1 X142.094 Y124.793 E.00923
G1 X141.996 Y124.941 E.00527
G1 X142.015 Y125.179 E.00709
G1 X141.955 Y126.183 E.02986
G1 X141.733 Y127.809 E.04873
G1 X141.642 Y128.097 E.00897
G1 X141.463 Y128.334 E.00882
G1 X141.159 Y128.524 E.01064
G1 X140.848 Y128.58 E.00938
G1 X138.287 Y128.58 E.07604
G1 X137.966 Y128.52 E.0097
G1 X137.689 Y128.35 E.00965
G1 X137.459 Y128.021 E.01192
G1 X137.399 Y127.741 E.0085
G1 X136.853 Y127.831 E.01643
G1 X136.784 Y128.036 E.00642
G1 X136.569 Y128.377 E.01197
G1 X136.234 Y128.585 E.01171
G1 X135.941 Y128.635 E.00883
G1 X135.247 Y128.635 E.02061
G1 X134.923 Y128.574 E.00979
G1 X134.695 Y128.444 E.00779
G1 X134.455 Y128.153 E.0112
G1 X134.355 Y127.742 E.01256
G1 X134.34 Y127.366 E.01117
G1 X133.956 Y127.913 E.01984
G1 X133.734 Y128.122 E.00905
G1 X133.218 Y128.451 E.01817
G1 X132.595 Y128.626 E.01921
G1 X132.048 Y128.653 E.01626
G1 X131.315 Y128.525 E.02209
G1 X130.904 Y128.344 E.01333
G1 X130.66 Y128.184 E.00866
G1 X130.181 Y127.704 E.02013
G1 X129.922 Y127.259 E.01529
G1 X129.673 Y126.485 E.02414
G1 X129.591 Y125.647 E.025
G1 X129.628 Y125.007 E.01903
G1 X129.681 Y124.538 E.01401
G1 X129.871 Y123.839 E.02151
G1 X130.193 Y123.175 E.02191
G1 X130.378 Y122.93 E.00912
G1 X130.776 Y122.524 E.01688
G1 X131.315 Y122.227 E.01827
G1 X130.76 Y121.964 E.01824
G1 X130.33 Y121.581 E.0171
G1 X130.162 Y121.373 E.00794
G1 X129.835 Y120.754 E.02079
G1 X129.673 Y120.185 E.01757
G1 X129.591 Y119.347 E.025
G1 X129.628 Y118.707 E.01903
G1 X129.681 Y118.238 E.01401
G1 X129.871 Y117.539 E.02151
G1 X130.193 Y116.875 E.02191
G1 X130.336 Y116.675 E.0073
G1 X130.674 Y116.317 E.01462
G1 X130.912 Y116.137 E.00886
G1 X131.333 Y115.919 E.01408
G1 X131.611 Y115.829 E.00868
G1 X132.206 Y115.749 E.01783
G1 X132.768 Y115.795 E.01674
G1 X133.23 Y115.925 E.01425
G1 X133.664 Y116.156 E.0146
G1 X134.017 Y116.467 E.01397
G1 X134.295 Y116.858 E.01424
G1 X134.355 Y116.991 E.00433
G1 X134.366 Y116.62 E.01102
G1 X134.524 Y116.241 E.01219
G1 X134.775 Y116.006 E.01021
G1 X135.067 Y115.889 E.00934
G1 X135.861 Y115.871 E.02358
G1 X136.362 Y115.901 E.0149
G1 X136.659 Y116.044 E.00979
G1 X136.829 Y116.208 E.00701
G1 X136.997 Y116.549 E.01129
G1 X137.023 Y117.304 E.02243
;WIDTH:0.444535
G1 X137.045 Y117.43 E.00427
;WIDTH:0.48907
G1 X137.067 Y117.556 E.00474
;WIDTH:0.533605
G1 X137.09 Y117.681 E.00519
;WIDTH:0.57814
G1 X137.112 Y117.807 E.00569
G1 X137.199 Y117.626 E.00894
;WIDTH:0.533605
G1 X137.287 Y117.444 E.00825
;WIDTH:0.48907
G1 X137.374 Y117.263 E.00745
;WIDTH:0.444535
G1 X137.462 Y117.081 E.00675
;WIDTH:0.399999
G1 X137.844 Y116.535 E.01979
G1 X138.286 Y116.161 E.01719
G1 X138.768 Y115.925 E.01593
G1 X139.286 Y115.797 E.01584
G1 X140.07 Y115.78 E.02328
G1 X140.354 Y115.822 E.00852
G1 X140.875 Y115.987 E.01623
G1 X141.111 Y116.102 E.00779
G1 X141.571 Y116.431 E.01679
G1 X141.928 Y116.901 E.01752
G1 X142.07 Y117.205 E.00996
G1 X142.193 Y117.701 E.01517
G1 X142.179 Y118.194 E.01464
G1 X142.094 Y118.493 E.00923
G1 X141.996 Y118.641 E.00527
G1 X142.015 Y118.891 E.00744
G1 X141.955 Y119.883 E.02951
G1 X141.822 Y120.861 E.02931
;WIDTH:0.403836
G1 X141.735 Y121.51 E.01965
;WIDTH:0.405937
G1 X141.658 Y121.769 E.00816
;WIDTH:0.445194
G1 X141.61 Y121.862 E.0035
;WIDTH:0.484451
G1 X141.562 Y121.955 E.00384
;WIDTH:0.523708
G1 X141.513 Y122.048 E.0042
;WIDTH:0.562964
G1 X141.465 Y122.141 E.00453
G1 X141.255 Y122.273 E.01073
G1 E-3.5 F3600
;WIPE_START
G1 F3840
G1 X141.157 Y122.334 E-.10281
G1 X141.5 Y122.577 E-.37438
G1 X141.607 Y122.729 E-.16555
G1 X141.714 Y122.881 E-.16555
G1 X141.821 Y123.034 E-.16628
G1 X141.94 Y123.192 E-.17617
G1 X142.07 Y123.505 E-.30185
G1 X142.083 Y123.557 E-.04741
;WIPE_END
G1 X137.727 Y120.559 F4800
G1 E5 F2400
;WIDTH:0.450391
G1 F1440
G1 X137.713 Y119.754 E.02728
;WIDTH:0.491734
G1 X137.706 Y119.698 E.00211
;WIDTH:0.533077
G1 X137.7 Y119.643 E.00225
;WIDTH:0.57442
G1 X137.694 Y119.587 E.00249
;WIDTH:0.615763
G1 X137.688 Y119.532 E.00264
;WIDTH:0.657106
G1 X137.681 Y119.476 E.00288
G1 X137.73 Y119.514 E.00317
;WIDTH:0.615763
G1 X137.778 Y119.551 E.00289
;WIDTH:0.57442
G1 X137.827 Y119.589 E.00274
;WIDTH:0.533077
G1 X137.875 Y119.627 E.0025
;WIDTH:0.491734
G1 X137.924 Y119.665 E.00231
;WIDTH:0.450391
G1 X138.292 Y120.011 E.01711
;WIDTH:0.427724
G1 X138.007 Y120.088 E.00945
;WIDTH:0.449782
G1 X137.758 Y120.508 E.01652
G1 E-3.5 F3600
;WIPE_START
G1 F3840
G1 X137.713 Y119.754 E-.67273
G1 X137.706 Y119.698 E-.05026
G1 X137.7 Y119.643 E-.04927
G1 X137.694 Y119.587 E-.05016
G1 X137.688 Y119.532 E-.04927
G1 X137.681 Y119.476 E-.05026
G1 X137.73 Y119.514 E-.05523
G1 X137.778 Y119.551 E-.05398
G1 X137.827 Y119.589 E-.05523
G1 X137.875 Y119.627 E-.05452
G1 X137.924 Y119.665 E-.05523
G1 X138.173 Y119.899 E-.30386
;WIPE_END
G1 X137.112 Y124.107 F4800
G1 E5 F2400
;WIDTH:0.578142
G1 F1440
G1 X137.09 Y123.981 E.00569
;WIDTH:0.533607
G1 X137.067 Y123.856 E.00519
;WIDTH:0.489071
G1 X137.045 Y123.73 E.00475
;WIDTH:0.444535
G1 X137.023 Y123.604 E.00427
;WIDTH:0.399999
G1 X136.997 Y122.849 E.02243
G1 X136.88 Y122.579 E.00874
G1 X136.571 Y122.287 E.01262
G1 X136.317 Y122.22 E.0078
G1 X136.549 Y122.096 E.00781
G1 X136.715 Y121.887 E.00792
G1 X136.853 Y121.531 E.01134
G1 X137.399 Y121.441 E.01643
G1 X137.408 Y121.546 E.00313
G1 X137.534 Y121.867 E.01024
G1 X137.746 Y122.097 E.00929
G1 X138.012 Y122.236 E.00891
G1 X138.245 Y122.279 E.00703
G1 X138.635 Y122.28 E.01158
G1 X138.286 Y122.461 E.01167
G1 X137.809 Y122.87 E.01866
G1 X137.462 Y123.381 E.01834
;WIDTH:0.444535
G1 X137.374 Y123.563 E.00675
;WIDTH:0.489071
G1 X137.287 Y123.744 E.00745
;WIDTH:0.533607
G1 X137.199 Y123.926 E.00825
;WIDTH:0.578142
G1 X137.138 Y124.053 E.00627
G1 E-3.5 F3600
;WIPE_START
G1 F3840
G1 X137.09 Y123.981 E-.07707
G1 X137.067 Y123.856 E-.1132
G1 X137.045 Y123.73 E-.11392
G1 X137.023 Y123.604 E-.11392
G1 X136.997 Y122.849 E-.67282
G1 X136.88 Y122.579 E-.26208
G1 X136.76 Y122.466 E-.14699
;WIPE_END
G1 X139.856 Y124.81 F4800
G1 E5 F2400
;WIDTH:0.512859
G1 F1440
G1 X139.578 Y124.76 E.01104
G1 X139.527 Y124.591 E.0069
G1 X139.586 Y124.396 E.00796
G1 X139.727 Y124.337 E.00597
G1 X139.906 Y124.363 E.00707
G1 X140.099 Y124.676 E.01437
G1 X139.909 Y124.781 E.00848
G1 E-3.5 F3600
;WIPE_START
G1 F3840
G1 X139.578 Y124.76 E-.29539
G1 X139.527 Y124.591 E-.15722
G1 X139.586 Y124.396 E-.18145
G1 X139.727 Y124.337 E-.13613
G1 X139.906 Y124.363 E-.16109
G1 X140.099 Y124.676 E-.3275
G1 X139.909 Y124.781 E-.19334
;WIPE_END
G1 E-.04788 F3600
G1 X137.727 Y126.859 F4800
G1 E5 F2400
;WIDTH:0.450389
G1 F1440
G1 X137.713 Y126.054 E.02728
;WIDTH:0.491733
G1 X137.706 Y125.998 E.00211
;WIDTH:0.533077
G1 X137.7 Y125.943 E.00225
;WIDTH:0.574421
G1 X137.694 Y125.887 E.00249
;WIDTH:0.615765
G1 X137.688 Y125.832 E.00264
;WIDTH:0.657108
G1 X137.681 Y125.776 E.00288
G1 X137.73 Y125.814 E.00317
;WIDTH:0.615765
G1 X137.778 Y125.851 E.00289
;WIDTH:0.574421
G1 X137.827 Y125.889 E.00274
;WIDTH:0.533077
G1 X137.875 Y125.927 E.0025
;WIDTH:0.491733
G1 X137.924 Y125.965 E.00231
;WIDTH:0.450389
G1 X138.292 Y126.311 E.01711
;WIDTH:0.427724
G1 X138.007 Y126.388 E.00945
;WIDTH:0.449782
G1 X137.758 Y126.808 E.01652
G1 E-3.5 F3600
;WIPE_START
G1 F3840
G1 X137.713 Y126.054 E-.67273
G1 X137.706 Y125.998 E-.05026
G1 X137.7 Y125.943 E-.04927
G1 X137.694 Y125.887 E-.05016
G1 X137.688 Y125.832 E-.04927
G1 X137.681 Y125.776 E-.05026
G1 X137.73 Y125.814 E-.05523
G1 X137.778 Y125.851 E-.05398
G1 X137.827 Y125.889 E-.05523
G1 X137.875 Y125.927 E-.05452
G1 X137.924 Y125.965 E-.05523
G1 X138.173 Y126.199 E-.30386
;WIPE_END
G1 X134.355 Y123.291 F4800
G1 E5 F2400
;WIDTH:0.399999
G1 F1440
G1 X134.295 Y123.158 E.00433
G1 X134.017 Y122.767 E.01424
G1 X133.664 Y122.456 E.01397
G1 X133.125 Y122.186 E.0179
G1 X133.229 Y122.146 E.00331
G1 X133.692 Y121.85 E.01632
G1 X133.956 Y121.613 E.01053
G1 X134.355 Y121.032 E.02093
G1 X134.391 Y121.693 E.01965
G1 X134.49 Y121.914 E.00719
G1 X134.749 Y122.183 E.01109
G1 X134.947 Y122.253 E.00624
G1 X134.749 Y122.323 E.00624
G1 X134.524 Y122.541 E.0093
G1 X134.366 Y122.92 E.01219
G1 X134.357 Y123.231 E.00924
G1 E-3.5 F3600
;WIPE_START
G1 F3840
G1 X134.295 Y123.158 E-.0853
G1 X134.017 Y122.767 E-.42728
G1 X133.664 Y122.456 E-.419
G1 X133.125 Y122.186 E-.53691
G1 X133.158 Y122.173 E-.03151
;WIPE_END
G1 X131.591 Y124.544 F4800
G1 E5 F2400
;TYPE:External perimeter
;WIDTH:0.508117
G1 F1440
G1 X131.681 Y124.272 E.01108
G1 X131.889 Y124.054 E.01166
G1 X132.059 Y123.969 E.00735
;WIDTH:0.509683
G1 X132.297 Y123.939 E.00931
;WIDTH:0.512092
G1 X132.52 Y124.004 E.00906
G1 X132.66 Y124.137 E.00753
G1 X132.747 Y124.428 E.01185
;WIDTH:0.505538
G1 X132.867 Y124.532 E.00611
;WIDTH:0.503811
G1 X132.762 Y124.489 E.00435
;WIDTH:0.512092
G1 X132.292 Y124.406 E.01862
G1 X131.847 Y124.463 E.0175
;WIDTH:0.508117
G1 X131.648 Y124.526 E.00807
G1 E-3.5 F3600
;WIPE_START
G1 F3840
G1 X131.681 Y124.272 E-.22812
G1 X131.889 Y124.054 E-.26835
G1 X132.059 Y123.969 E-.16928
G1 X132.297 Y123.939 E-.21365
G1 X132.52 Y124.004 E-.20687
G1 X132.66 Y124.137 E-.17198
G1 X132.738 Y124.397 E-.24175
;WIPE_END
G1 X132.099 Y128.296 F4800
G1 E5 F2400
;TYPE:Perimeter
;WIDTH:0.399999
G1 F1440
G1 X131.61 Y128.24 E.01461
G1 X131.048 Y128.017 E.01795
G1 X130.572 Y127.619 E.01842
G1 X130.231 Y127.079 E.01896
G1 X130.017 Y126.388 E.02148
G1 X129.945 Y125.601 E.02346
G1 X130.025 Y124.632 E.02887
G1 X130.215 Y123.933 E.02151
