; generated by PrusaSlicer 2.7.1+win64 on 2024-02-28 at 10:25:12 UTC


;
;

;
;
; 

; external perimeters extrusion width = 0.42mm
; perimeters extrusion width = 0.44mm
; infill extrusion width = 0.44mm
; solid infill extrusion width = 0.44mm
; top infill extrusion width = 0.40mm
; first layer extrusion width = 0.42mm


; printing object Scalono id:0 copy 0
; stop printing object Scalono id:0 copy 0

;TYPE:Custom
; Ender 3 Custom Start G-code
G92 E0 ; Reset Extruder

M140 S50 ; set bed temp
M104 S160 ; set extruder temp
M109 S160 ; wait for extruder temp
M190 S50 ; wait for bed temp

G28 ; Home all axes
M104 S205 ; set extruder temp 
BED_MESH_CALIBRATE AREA_START=97.904,97.904 AREA_END=133.096,133.096

G1 Z2.0 F3000 ; Move Z Axis up little to prevent scratching of Heat Bed
M109 S205 ; wait for extruder temp
G1 X0.1 Y20 Z0.3 F5000.0 ; Move to start position

G1 X0.1 Y200.0 Z0.3 F1500.0 E15 ; Draw the first line
G1 X0.4 Y200.0 Z0.3 F5000.0 ; Move to side a little
G1 X0.4 Y20 Z0.3 F1500.0 E30 ; Draw the second line
G92 E0 ; Reset Extruder
G1 Z2.0 F3000 ; Move Z Axis up little to prevent scratching of Heat Bed
G1 X5 Y20 Z0.3 F5000.0 ; Move over to prevent blob squish
G21 ; set units to millimeters
G90 ; use absolute coordinates
M83 ; use relative distances for extrusion
; Filament gcode
M107
;LAYER_CHANGE
;Z:0.2
;HEIGHT:0.2
;BEFORE_LAYER_CHANGE
G92 E0
;0.2


G1 E-1.6 F2400
G1 Z.2 F6000
;AFTER_LAYER_CHANGE
;0.2
G1 X99.568 Y98.566
G1 Z.2
G1 E1.6 F2400
M204 S500
;TYPE:Skirt/Brim
;WIDTH:0.42
G1 F1200
G1 X101.224 Y98.093 E.05076
G1 X129.776 Y98.093 E.84151
G1 X131.296 Y98.486 E.04627
G1 X132.434 Y99.568 E.04628
G1 X132.907 Y101.224 E.05076
G1 X132.907 Y129.776 E.84151
G1 X132.514 Y131.296 E.04627
G1 X131.432 Y132.434 E.04628
G1 X129.776 Y132.907 E.05076
G1 X101.224 Y132.907 E.84151
G1 X99.704 Y132.514 E.04627
G1 X98.566 Y131.432 E.04628
G1 X98.093 Y129.776 E.05076
G1 X98.093 Y101.224 E.84151
G1 X98.486 Y99.704 E.04627
G1 X99.527 Y98.61 E.04451
G1 X99.809 Y98.907 F6000
G1 F1200
G1 X99.929 Y98.793 E.00488
G1 X101.224 Y98.47 E.03934
G1 X129.776 Y98.47 E.84151
G1 X131.194 Y98.862 E.04336
G1 X132.207 Y99.929 E.04336
G1 X132.53 Y101.224 E.03934
G1 X132.53 Y129.776 E.84151
G1 X132.138 Y131.194 E.04336
G1 X131.071 Y132.207 E.04336
G1 X129.776 Y132.53 E.03934
G1 X101.224 Y132.53 E.84151
G1 X99.806 Y132.138 E.04336
G1 X98.793 Y131.071 E.04336
G1 X98.47 Y129.776 E.03934
G1 X98.47 Y101.224 E.84151
G1 X98.862 Y99.806 E.04336
G1 X99.766 Y98.948 E.03673
G1 X100.025 Y99.257 F6000
G1 F1200
G1 X100.284 Y99.04 E.00996
G1 X101.224 Y98.847 E.02828
G1 X129.776 Y98.847 E.84151
G1 X131.083 Y99.238 E.04021
G1 X131.96 Y100.284 E.04023
G1 X132.153 Y101.224 E.02828
G1 X132.153 Y129.776 E.84151
G1 X131.762 Y131.083 E.04021
G1 X130.716 Y131.96 E.04023
G1 X129.776 Y132.153 E.02828
G1 X101.224 Y132.153 E.84151
G1 X99.917 Y131.762 E.04021
G1 X99.04 Y130.716 E.04023
G1 X98.847 Y129.776 E.02828
G1 X98.847 Y101.224 E.84151
G1 X99.238 Y99.917 E.04021
G1 X99.979 Y99.296 E.02849
; printing object Scalono id:0 copy 0
G1 E-1.12 F2400
;WIPE_START
G1 F4800
G1 X100.025 Y99.257 E-.02865
G1 X100.284 Y99.04 E-.1605
G1 X100.884 Y98.917 E-.29085
;WIPE_END
G1 X108.17 Y108.4 F6000
G1 E1.6 F2400
;TYPE:Perimeter
G1 F1200
G1 X108.801 Y107.802 E.02562
G1 X109.217 Y107.459 E.01589
G1 X109.647 Y107.141 E.01576
G1 X110.092 Y106.846 E.01574
G1 X110.553 Y106.575 E.01576
G1 X111.027 Y106.328 E.01575
G1 X111.513 Y106.106 E.01575
G1 X112.01 Y105.911 E.01574
G1 X112.521 Y105.739 E.01589
G1 X113.373 Y105.519 E.02593
G1 X113.904 Y105.421 E.01591
G1 X114.439 Y105.35 E.01591
G1 X115.326 Y105.297 E.02619
G1 X115.856 Y105.301 E.01562
G1 X116.389 Y105.334 E.01574
G1 X116.92 Y105.395 E.01575
G1 X117.452 Y105.484 E.0159
G1 X118.317 Y105.692 E.02622
G1 X118.822 Y105.851 E.0156
G1 X119.328 Y106.04 E.01592
G1 X120.128 Y106.405 E.02592
G1 X120.602 Y106.662 E.01589
G1 X121.058 Y106.942 E.01577
G1 X121.498 Y107.244 E.01573
G1 X121.926 Y107.573 E.01591
G1 X122.585 Y108.156 E.02593
G1 X122.963 Y108.54 E.01588
G1 X123.317 Y108.941 E.01577
G1 X123.65 Y109.359 E.01575
G1 X123.963 Y109.798 E.01589
G1 X124.423 Y110.548 E.02593
G1 X124.672 Y111.027 E.01591
G1 X124.896 Y111.517 E.01588
G1 X125.204 Y112.342 E.02595
G1 X125.357 Y112.859 E.01589
G1 X125.483 Y113.383 E.01588
G1 X125.628 Y114.251 E.02594
G1 X125.68 Y114.788 E.0159
G1 X125.703 Y115.322 E.01575
G1 X125.699 Y115.856 E.01574
G1 X125.666 Y116.389 E.01574
G1 X125.605 Y116.92 E.01575
G1 X125.516 Y117.452 E.0159
G1 X125.311 Y118.308 E.02594
G1 X125.149 Y118.822 E.01588
G1 X124.96 Y119.328 E.01592
G1 X124.595 Y120.128 E.02592
G1 X124.338 Y120.602 E.01589
G1 X124.058 Y121.058 E.01577
G1 X123.756 Y121.498 E.01573
G1 X123.427 Y121.926 E.01591
G1 X122.841 Y122.589 E.02608
G1 X122.199 Y123.198 E.02608
G1 X121.783 Y123.541 E.01589
G1 X121.353 Y123.859 E.01576
G1 X120.908 Y124.154 E.01574
G1 X120.447 Y124.425 E.01576
G1 X119.973 Y124.672 E.01575
G1 X119.487 Y124.894 E.01575
G1 X118.99 Y125.089 E.01574
G1 X118.479 Y125.261 E.01589
G1 X117.622 Y125.482 E.02608
G1 X116.749 Y125.628 E.02609
G1 X116.212 Y125.68 E.0159
G1 X115.673 Y125.703 E.0159
G1 X114.793 Y125.68 E.02595
G1 X114.256 Y125.629 E.0159
G1 X113.728 Y125.55 E.01573
G1 X113.204 Y125.443 E.01576
G1 X112.682 Y125.308 E.01589
G1 X111.848 Y125.029 E.02592
G1 X111.349 Y124.823 E.01591
G1 X110.867 Y124.593 E.01574
G1 X110.398 Y124.338 E.01573
G1 X109.942 Y124.058 E.01577
G1 X109.502 Y123.756 E.01573
G1 X109.074 Y123.427 E.01591
G1 X108.415 Y122.844 E.02593
G1 X108.037 Y122.46 E.01588
G1 X107.679 Y122.056 E.01591
G1 X107.144 Y121.358 E.02592
G1 X106.846 Y120.908 E.01591
G1 X106.575 Y120.447 E.01576
G1 X106.328 Y119.973 E.01575
G1 X106.106 Y119.487 E.01575
G1 X105.911 Y118.99 E.01574
G1 X105.739 Y118.479 E.01589
G1 X105.518 Y117.622 E.02608
G1 X105.371 Y116.739 E.02638
G1 X105.32 Y116.212 E.0156
G1 X105.297 Y115.673 E.0159
G1 X105.32 Y114.784 E.02621
G1 X105.371 Y114.256 E.01563
G1 X105.45 Y113.728 E.01573
G1 X105.557 Y113.204 E.01576
G1 X105.692 Y112.682 E.01589
G1 X105.975 Y111.839 E.02621
G1 X106.178 Y111.349 E.01563
G1 X106.407 Y110.867 E.01573
G1 X106.662 Y110.398 E.01573
G1 X106.942 Y109.942 E.01577
G1 X107.244 Y109.502 E.01573
G1 X107.573 Y109.074 E.01591
G1 X108.129 Y108.444 E.02477
G1 X108.431 Y108.673 F6000
;TYPE:External perimeter
G1 F1200
G1 X109.051 Y108.084 E.0252
G1 X109.45 Y107.756 E.01522
G1 X109.863 Y107.45 E.01515
G1 X110.292 Y107.166 E.01516
G1 X110.735 Y106.905 E.01515
G1 X111.192 Y106.667 E.01519
G1 X111.66 Y106.454 E.01515
G1 X112.139 Y106.265 E.01518
G1 X112.628 Y106.101 E.0152
G1 X113.455 Y105.888 E.02517
G1 X113.963 Y105.793 E.01523
G1 X114.475 Y105.726 E.01522
G1 X115.336 Y105.674 E.02542
G1 X115.843 Y105.678 E.01494
G1 X116.357 Y105.71 E.01518
G1 X116.868 Y105.768 E.01516
G1 X117.377 Y105.853 E.01521
G1 X118.216 Y106.055 E.02543
G1 X118.7 Y106.208 E.01496
G1 X119.183 Y106.389 E.0152
G1 X119.96 Y106.743 E.02517
G1 X120.414 Y106.989 E.01522
G1 X120.852 Y107.258 E.01515
G1 X121.277 Y107.549 E.01518
G1 X121.686 Y107.864 E.01522
G1 X122.326 Y108.429 E.02516
G1 X122.687 Y108.798 E.01521
G1 X123.028 Y109.183 E.01516
G1 X123.349 Y109.586 E.01519
G1 X123.649 Y110.006 E.01521
G1 X124.095 Y110.734 E.02516
G1 X124.333 Y111.192 E.01521
G1 X124.547 Y111.662 E.01522
G1 X124.846 Y112.461 E.02514
G1 X124.993 Y112.956 E.01522
G1 X125.113 Y113.458 E.01521
G1 X125.254 Y114.301 E.02519
G1 X125.304 Y114.814 E.01519
G1 X125.326 Y115.328 E.01516
G1 X125.322 Y115.843 E.01518
G1 X125.29 Y116.357 E.01518
G1 X125.232 Y116.868 E.01516
G1 X125.147 Y117.377 E.01521
G1 X124.947 Y118.207 E.02516
G1 X124.792 Y118.7 E.01523
G1 X124.611 Y119.183 E.0152
G1 X124.257 Y119.96 E.02517
G1 X124.011 Y120.414 E.01522
G1 X123.742 Y120.852 E.01515
G1 X123.451 Y121.277 E.01518
G1 X123.136 Y121.686 E.01522
G1 X122.569 Y122.327 E.02522
G1 X121.949 Y122.916 E.0252
G1 X121.55 Y123.244 E.01522
G1 X121.137 Y123.55 E.01515
G1 X120.708 Y123.834 E.01516
G1 X120.264 Y124.095 E.01518
G1 X119.808 Y124.333 E.01516
G1 X119.34 Y124.546 E.01515
G1 X118.861 Y124.735 E.01518
G1 X118.372 Y124.899 E.0152
G1 X117.543 Y125.113 E.02523
G1 X116.699 Y125.254 E.02522
G1 X116.186 Y125.304 E.01519
G1 X115.67 Y125.326 E.01522
G1 X114.816 Y125.304 E.02518
G1 X114.302 Y125.254 E.01522
G1 X113.793 Y125.178 E.01517
G1 X113.289 Y125.076 E.01516
G1 X112.789 Y124.946 E.01523
G1 X111.98 Y124.676 E.02514
G1 X111.503 Y124.478 E.01522
G1 X111.038 Y124.256 E.01519
G1 X110.586 Y124.011 E.01515
G1 X110.148 Y123.742 E.01515
G1 X109.723 Y123.451 E.01518
G1 X109.314 Y123.136 E.01522
G1 X108.675 Y122.571 E.02514
G1 X108.313 Y122.202 E.01524
G1 X107.97 Y121.816 E.01522
G1 X107.451 Y121.138 E.02517
G1 X107.166 Y120.708 E.0152
G1 X106.905 Y120.265 E.01515
G1 X106.667 Y119.808 E.01519
G1 X106.454 Y119.34 E.01515
G1 X106.265 Y118.861 E.01518
G1 X106.101 Y118.372 E.0152
G1 X105.887 Y117.543 E.02523
G1 X105.745 Y116.69 E.02549
G1 X105.696 Y116.185 E.01495
G1 X105.674 Y115.67 E.01519
G1 X105.697 Y114.807 E.02544
G1 X105.746 Y114.302 E.01495
G1 X105.822 Y113.793 E.01517
G1 X105.924 Y113.289 E.01516
G1 X106.054 Y112.789 E.01523
G1 X106.328 Y111.971 E.02543
G1 X106.522 Y111.503 E.01493
G1 X106.744 Y111.038 E.01519
G1 X106.989 Y110.586 E.01515
G1 X107.258 Y110.148 E.01515
G1 X107.549 Y109.723 E.01518
G1 X107.864 Y109.314 E.01522
G1 X108.391 Y108.718 E.02345
G1 E-1.12 F2400
;WIPE_START
G1 F4800
G1 X108.431 Y108.673 E-.0286
G1 X109.051 Y108.084 E-.40621
G1 X109.124 Y108.024 E-.04519
;WIPE_END
G1 X101.911 Y101.911 F6000
G1 E1.6 F2400
;TYPE:Perimeter
G1 F1200
G1 X129.089 Y101.911 E.80102
G1 X129.089 Y129.089 E.80102
G1 X101.911 Y129.089 E.80102
G1 X101.911 Y101.971 E.79925
G1 X101.534 Y101.534 F6000
;TYPE:External perimeter
G1 F1200
G1 X129.466 Y101.534 E.82324
G1 X129.466 Y129.466 E.82324
G1 X101.534 Y129.466 E.82324
G1 X101.534 Y101.594 E.82147
G1 E-1.12 F2400
;WIPE_START
G1 F4800
G1 X101.534 Y101.534 E-.0285
G1 X102.485 Y101.534 E-.4515
;WIPE_END
G1 X128.205 Y102.031 F6000
G1 E1.6 F2400
;TYPE:Solid infill
;WIDTH:0.420623
G1 F1200
G1 X128.799 Y102.625 E.0248
G1 X128.799 Y103.16 E.01579
G1 X127.84 Y102.201 E.04004
G1 X127.306 Y102.201 E.01576
G1 X128.799 Y103.694 E.06233
G1 X128.799 Y104.228 E.01576
G1 X126.772 Y102.201 E.08463
G1 X126.238 Y102.201 E.01576
G1 X128.799 Y104.762 E.10692
G1 X128.799 Y105.296 E.01576
G1 X125.704 Y102.201 E.12922
G1 X125.17 Y102.201 E.01576
G1 X128.799 Y105.83 E.15151
G1 X128.799 Y106.364 E.01576
G1 X124.636 Y102.201 E.17381
G1 X124.101 Y102.201 E.01579
G1 X128.799 Y106.899 E.19614
G1 X128.799 Y107.433 E.01576
G1 X123.567 Y102.201 E.21844
G1 X123.033 Y102.201 E.01576
G1 X128.799 Y107.967 E.24073
G1 X128.799 Y108.501 E.01576
G1 X122.499 Y102.201 E.26303
G1 X121.965 Y102.201 E.01576
G1 X128.799 Y109.035 E.28532
G1 X128.799 Y109.569 E.01576
G1 X121.431 Y102.201 E.30761
G1 X120.896 Y102.201 E.01579
G1 X128.799 Y110.104 E.32995
G1 X128.799 Y110.638 E.01576
G1 X120.362 Y102.201 E.35225
G1 X119.828 Y102.201 E.01576
G1 X128.799 Y111.172 E.37454
G1 X128.799 Y111.706 E.01576
G1 X119.294 Y102.201 E.39683
G1 X118.76 Y102.201 E.01576
G1 X128.799 Y112.24 E.41913
G1 X128.799 Y112.774 E.01576
G1 X118.226 Y102.201 E.44142
G1 X117.692 Y102.201 E.01576
G1 X128.799 Y113.308 E.46372
G1 X128.799 Y113.843 E.01579
G1 X117.157 Y102.201 E.48605
G1 X116.623 Y102.201 E.01576
G1 X120.968 Y106.546 E.1814
G1 X121.669 Y107.009 E.0248
G1 X122.111 Y107.348 E.01644
G1 X122.785 Y107.945 E.02658
G1 X123.176 Y108.342 E.01645
G1 X123.54 Y108.754 E.01623
G1 X123.882 Y109.184 E.01622
G1 X124.205 Y109.637 E.01642
G1 X124.436 Y110.014 E.01305
G1 X128.799 Y114.377 E.18216
G1 X128.799 Y114.911 E.01576
G1 X125.055 Y111.167 E.15631
G1 X125.164 Y111.406 E.00775
G1 X125.405 Y112.052 E.02035
G1 X128.799 Y115.445 E.14168
G1 X128.799 Y115.979 E.01576
G1 X125.648 Y112.829 E.13153
G1 X125.799 Y113.514 E.02071
G1 X128.799 Y116.513 E.12523
G1 X128.799 Y117.048 E.01579
G1 X125.907 Y114.155 E.12076
G1 X125.968 Y114.751 E.01769
G1 X128.799 Y117.582 E.11819
G1 X128.799 Y118.116 E.01576
G1 X125.993 Y115.31 E.11715
G1 X125.989 Y115.84 E.01565
G1 X128.799 Y118.65 E.11732
G1 X128.799 Y119.184 E.01576
G1 X125.96 Y116.345 E.11853
G1 X125.908 Y116.828 E.01434
G1 X128.799 Y119.718 E.12068
G1 X128.799 Y120.252 E.01576
G1 X125.838 Y117.291 E.12362
G1 X125.747 Y117.735 E.01338
G1 X128.799 Y120.787 E.12742
G1 X128.799 Y121.321 E.01576
G1 X125.644 Y118.166 E.13172
G1 X125.528 Y118.584 E.01281
G1 X128.799 Y121.855 E.13656
G1 X128.799 Y122.389 E.01576
G1 X125.397 Y118.987 E.14203
G1 X125.252 Y119.376 E.01226
G1 X128.799 Y122.923 E.14809
G1 X128.799 Y123.457 E.01576
G1 X125.088 Y119.747 E.15491
G1 X124.921 Y120.114 E.0119
G1 X128.799 Y123.992 E.16191
G1 X128.799 Y124.526 E.01576
G1 X124.741 Y120.468 E.16942
G1 X124.55 Y120.811 E.01159
G1 X128.799 Y125.06 E.1774
G1 X128.799 Y125.594 E.01576
G1 X124.347 Y121.142 E.18587
G1 X124.133 Y121.462 E.01136
G1 X128.799 Y126.128 E.19481
G1 X128.799 Y126.662 E.01576
G1 X123.91 Y121.774 E.2041
G1 X123.678 Y122.076 E.01124
G1 X128.799 Y127.196 E.21378
G1 X128.799 Y127.731 E.01579
G1 X123.43 Y122.362 E.22416
G1 X123.179 Y122.645 E.01117
G1 X128.799 Y128.265 E.23464
G1 X128.799 Y128.799 E.01576
G1 X122.917 Y122.917 E.24557
G1 X122.643 Y123.177 E.01115
G1 X128.265 Y128.799 E.23472
G1 X127.73 Y128.799 E.01579
G1 X122.367 Y123.436 E.22391
G1 X122.075 Y123.677 E.01118
G1 X127.196 Y128.799 E.21382
G1 X126.662 Y128.799 E.01576
G1 X121.773 Y123.91 E.20412
G1 X121.464 Y124.134 E.01127
G1 X126.128 Y128.799 E.19474
G1 X125.594 Y128.799 E.01576
G1 X121.142 Y124.347 E.18587
G1 X120.81 Y124.549 E.01147
G1 X125.06 Y128.799 E.17744
G1 X124.526 Y128.799 E.01576
G1 X120.468 Y124.742 E.1694
G1 X120.117 Y124.925 E.01169
G1 X123.991 Y128.799 E.16174
G1 X123.457 Y128.799 E.01576
G1 X119.751 Y125.093 E.15473
G1 X119.374 Y125.25 E.01206
G1 X122.923 Y128.799 E.14817
G1 X122.389 Y128.799 E.01576
G1 X118.987 Y125.397 E.14203
G1 X118.587 Y125.531 E.01245
G1 X121.855 Y128.799 E.13644
G1 X121.321 Y128.799 E.01576
G1 X118.164 Y125.642 E.13181
G1 X117.739 Y125.752 E.01296
G1 X120.786 Y128.799 E.12721
G1 X120.252 Y128.799 E.01576
G1 X117.286 Y125.833 E.12383
G1 X116.829 Y125.909 E.01368
G1 X119.718 Y128.799 E.12064
G1 X119.184 Y128.799 E.01576
G1 X116.344 Y125.959 E.11857
G1 X115.838 Y125.987 E.01496
G1 X118.65 Y128.799 E.1174
G1 X118.116 Y128.799 E.01576
G1 X115.301 Y125.984 E.11753
G1 X114.751 Y125.968 E.01624
G1 X117.582 Y128.799 E.11819
G1 X117.047 Y128.799 E.01579
G1 X114.156 Y125.907 E.12072
G1 X113.518 Y125.803 E.01908
G1 X116.513 Y128.799 E.12506
G1 X115.979 Y128.799 E.01576
G1 X112.825 Y125.645 E.13168
G1 X112.048 Y125.402 E.02403
G1 X115.445 Y128.799 E.14183
G1 X114.911 Y128.799 E.01576
G1 X110.812 Y124.7 E.17113
G1 E-1.12 F2400
;WIPE_START
G1 F4800
G1 X111.527 Y125.415 E-.48
;WIPE_END
G1 X120.188 Y106.3 F6000
G1 E1.6 F2400
G1 F1200
G1 X116.089 Y102.201 E.17113
G1 X115.555 Y102.201 E.01576
G1 X118.938 Y105.585 E.14126
G1 X118.18 Y105.36 E.02334
G1 X115.021 Y102.201 E.13189
G1 X114.487 Y102.201 E.01576
G1 X117.479 Y105.194 E.12494
G1 X116.845 Y105.094 E.01895
G1 X113.952 Y102.201 E.12078
G1 X113.418 Y102.201 E.01576
G1 X116.252 Y105.035 E.11832
G1 X115.693 Y105.01 E.01652
G1 X112.884 Y102.201 E.11728
G1 X112.35 Y102.201 E.01576
G1 X115.164 Y105.016 E.11751
G1 X114.661 Y105.046 E.01488
G1 X111.816 Y102.201 E.11878
G1 X111.282 Y102.201 E.01576
G1 X114.173 Y105.093 E.12072
G1 X113.708 Y105.162 E.01388
G1 X110.748 Y102.201 E.1236
G1 X110.213 Y102.201 E.01579
G1 X113.261 Y105.248 E.12723
G1 X112.836 Y105.358 E.01296
G1 X109.679 Y102.201 E.13181
G1 X109.145 Y102.201 E.01576
G1 X112.413 Y105.469 E.13644
G1 X112.013 Y105.603 E.01245
G1 X108.611 Y102.201 E.14203
G1 X108.077 Y102.201 E.01576
G1 X111.626 Y105.75 E.14817
G1 X111.249 Y105.908 E.01207
G1 X107.543 Y102.201 E.15475
G1 X107.008 Y102.201 E.01579
G1 X110.883 Y106.075 E.16176
G1 X110.532 Y106.258 E.01169
G1 X106.474 Y102.201 E.1694
G1 X105.94 Y102.201 E.01576
G1 X110.19 Y106.451 E.17744
G1 X109.858 Y106.653 E.01147
G1 X105.406 Y102.201 E.18587
G1 X104.872 Y102.201 E.01576
G1 X109.536 Y106.866 E.19474
G1 X109.227 Y107.09 E.01127
G1 X104.338 Y102.201 E.20412
