; generated by PrusaSlicer 2.7.0+win64 on 2023-12-12 at 13:08:21 UTC


;
;

;
;
; 

; external perimeters extrusion width = 0.42mm
; perimeters extrusion width = 0.44mm
; infill extrusion width = 0.44mm
; solid infill extrusion width = 0.44mm
; top infill extrusion width = 0.40mm
; first layer extrusion width = 0.42mm

; external perimeters extrusion width = 0.42mm
; perimeters extrusion width = 0.44mm
; infill extrusion width = 0.44mm
; solid infill extrusion width = 0.44mm
; top infill extrusion width = 0.40mm
; first layer extrusion width = 0.42mm

M73 P0 R72

; printing object tensioner_puller_R15.stl id:0 copy 0
; stop printing object tensioner_puller_R15.stl id:0 copy 0

;TYPE:Custom
; Ender 3 Custom Start G-code
G92 E0 ; Reset Extruder

M140 S50 ; set bed temp
M190 S50 ; wait for bed temp

G28 ; Home all axes
M104 S205 ; set extruder temp 
BED_MESH_CALIBRATE AREA_START=101.099,101.289 AREA_END=129.9,129.886

G1 Z2.0 F3000 ; Move Z Axis up little to prevent scratching of Heat Bed
M109 S205 ; wait for extruder temp
G1 X0.1 Y20 Z0.3 F5000.0 ; Move to start position

G1 X0.1 Y200.0 Z0.3 F1500.0 E15 ; Draw the first line
G1 X0.4 Y200.0 Z0.3 F5000.0 ; Move to side a little
G1 X0.4 Y20 Z0.3 F1500.0 E30 ; Draw the second line
G92 E0 ; Reset Extruder
G1 Z2.0 F3000 ; Move Z Axis up little to prevent scratching of Heat Bed
G1 X5 Y20 Z0.3 F5000.0 ; Move over to prevent blob squish
G21 ; set units to millimeters
G90 ; use absolute coordinates
M83 ; use relative distances for extrusion
; Filament gcode
M107
;LAYER_CHANGE
;Z:0.12
;HEIGHT:0.12
;BEFORE_LAYER_CHANGE
G92 E0
;0.12


G1 E-1.6 F2400
G1 Z.12 F6000
;AFTER_LAYER_CHANGE
;0.12
G1 X105.283 Y105.631
G1 Z.12
G1 E1.6 F2400
M204 S500
;TYPE:Skirt/Brim
;WIDTH:0.42
G1 F1200
G1 X106.427 Y104.565 E.02891
G1 X108.25 Y103.378 E.04022
G1 X109.56 Y102.745 E.0269
G1 X111.355 Y102.096 E.03529
G1 X112.675 Y101.757 E.0252
G1 X114.417 Y101.512 E.03252
G1 X116.58 Y101.511 E.03999
G1 X118.307 Y101.753 E.03224
G1 X119.645 Y102.096 E.02554
G1 X121.651 Y102.89 E.03989
G1 X123.172 Y103.752 E.03232
G1 X124.288 Y104.563 E.02551
G1 X125.581 Y105.742 E.03235
G1 X126.697 Y106.995 E.03102
G1 X127.863 Y108.639 E.03726
G1 X128.555 Y109.931 E.0271
G1 X129.26 Y111.953 E.03959
G1 X129.617 Y113.918 E.03693
G1 X129.704 Y115.692 E.03284
G1 X129.617 Y117.078 E.02568
G1 X129.208 Y119.226 E.04043
G1 X128.78 Y120.543 E.0256
G1 X128.045 Y122.165 E.03292
G1 X126.874 Y124.011 E.04042
G1 X125.72 Y125.366 E.03291
G1 X124.708 Y126.316 E.02566
G1 X122.945 Y127.598 E.0403
G1 X121.729 Y128.267 E.02566
G1 X120.079 Y128.947 E.033
G1 X118.358 Y129.415 E.03298
G1 X116.653 Y129.656 E.03184
G1 X114.409 Y129.663 E.04149
G1 X113.035 Y129.49 E.0256
G1 X111.301 Y129.071 E.03298
G1 X109.272 Y128.267 E.04035
G1 X107.726 Y127.39 E.03286
G1 X106.6 Y126.572 E.02573
G1 X104.968 Y125.028 E.04154
G1 X103.891 Y123.687 E.0318
G1 X102.957 Y122.168 E.03297
G1 X102.225 Y120.557 E.03272
G1 X101.792 Y119.226 E.02588
G1 X101.384 Y117.091 E.04019
G1 X101.296 Y115.7 E.02577
G1 X101.383 Y113.918 E.03299
G1 X101.792 Y111.774 E.04036
G1 X102.22 Y110.457 E.0256
G1 X102.957 Y108.832 E.03299
G1 X104.126 Y106.99 E.04034
G1 X105.244 Y105.677 E.03188
G1 X105.542 Y105.93 F6000
G1 F1200
G1 X105.552 Y105.918 E.00029
G1 X106.681 Y104.866 E.02853
G1 X108.422 Y103.733 E.03841
G1 X109.723 Y103.104 E.02672
G1 X111.453 Y102.478 E.03402
G1 X112.773 Y102.139 E.0252
G1 X114.466 Y101.903 E.0316
G1 X116.531 Y101.902 E.03818
G1 X118.211 Y102.135 E.03136
G1 X119.547 Y102.478 E.0255
G1 X121.461 Y103.236 E.03806
G1 X122.942 Y104.072 E.03144
G1 X124.057 Y104.882 E.02548
G1 X125.311 Y106.03 E.03143
G1 X126.4 Y107.255 E.0303
G1 X127.52 Y108.834 E.03579
G1 X128.207 Y110.116 E.02689
G1 X128.867 Y112.01 E.03708
G1 X129.223 Y113.943 E.03634
G1 X129.31 Y115.667 E.03192
G1 X129.224 Y117.053 E.02567
G1 X128.833 Y119.104 E.0386
G1 X128.405 Y120.421 E.0256
G1 X127.688 Y121.997 E.03201
G1 X126.57 Y123.759 E.03858
G1 X125.45 Y125.079 E.03201
G1 X124.439 Y126.029 E.02565
G1 X122.755 Y127.253 E.03849
G1 X121.539 Y127.921 E.02565
G1 X119.934 Y128.581 E.03209
G1 X118.26 Y129.033 E.03206
G1 X116.603 Y129.264 E.03093
G1 X114.459 Y129.272 E.03964
G1 X113.084 Y129.099 E.02562
G1 X111.399 Y128.689 E.03206
G1 X109.461 Y127.922 E.03854
G1 X107.957 Y127.07 E.03196
G1 X106.832 Y126.253 E.02571
G1 X105.272 Y124.777 E.03971
G1 X104.224 Y123.476 E.03089
G1 X103.314 Y122 E.03206
G1 X102.599 Y120.433 E.03185
G1 X102.167 Y119.104 E.02584
G1 X101.777 Y117.065 E.03838
G1 X101.69 Y115.675 E.02575
G1 X101.776 Y113.943 E.03206
G1 X102.167 Y111.896 E.03853
G1 X102.595 Y110.578 E.02562
G1 X103.313 Y109 E.03205
G1 X104.429 Y107.242 E.0385
G1 X105.504 Y105.976 E.03071
G1 X105.803 Y106.229 F6000
G1 F1200
G1 X105.822 Y106.206 E.00055
G1 X106.936 Y105.167 E.02816
G1 X108.595 Y104.088 E.03659
G1 X109.886 Y103.463 E.02652
G1 X111.551 Y102.86 E.03274
G1 X112.871 Y102.521 E.0252
G1 X114.516 Y102.294 E.0307
G1 X116.481 Y102.294 E.03633
G1 X118.115 Y102.517 E.03049
G1 X119.449 Y102.86 E.02547
G1 X121.271 Y103.581 E.03623
G1 X122.712 Y104.392 E.03057
G1 X123.825 Y105.201 E.02544
G1 X125.05 Y106.325 E.03074
G1 X126.105 Y107.516 E.02942
G1 X127.178 Y109.028 E.03428
G1 X127.86 Y110.302 E.02672
G1 X128.487 Y112.115 E.03547
G1 X128.83 Y113.967 E.03482
G1 X128.917 Y115.643 E.03103
G1 X128.83 Y117.028 E.02566
G1 X128.458 Y118.982 E.03678
G1 X128.03 Y120.299 E.0256
G1 X127.331 Y121.829 E.0311
G1 X126.266 Y123.508 E.03676
G1 X125.18 Y124.792 E.03109
G1 X124.169 Y125.742 E.02565
G1 X122.565 Y126.907 E.03665
G1 X121.349 Y127.576 E.02566
G1 X119.789 Y128.214 E.03116
G1 X118.162 Y128.651 E.03115
G1 X116.554 Y128.873 E.03001
G1 X114.508 Y128.881 E.03783
G1 X113.134 Y128.708 E.0256
G1 X111.497 Y128.307 E.03116
G1 X109.651 Y127.576 E.03671
G1 X108.188 Y126.751 E.03105
G1 X107.064 Y125.934 E.02569
G1 X105.576 Y124.526 E.03788
G1 X104.557 Y123.265 E.02998
G1 X103.67 Y121.832 E.03116
G1 X102.974 Y120.31 E.03094
G1 X102.542 Y118.982 E.02582
G1 X102.171 Y117.04 E.03655
G1 X102.083 Y115.65 E.02575
G1 X102.17 Y113.968 E.03114
G1 X102.542 Y112.018 E.0367
G1 X102.97 Y110.7 E.02562
G1 X103.67 Y109.168 E.03114
G1 X104.733 Y107.493 E.03668
G1 X105.764 Y106.275 E.0295
; printing object tensioner_puller_R15.stl id:0 copy 0
G1 E-1.12 F2400
;WIPE_START
G1 F4800
G1 X105.803 Y106.229 E-.02865
G1 X105.822 Y106.206 E-.01417
G1 X106.495 Y105.578 E-.43718
;WIPE_END
G1 X108.9 Y107.566 F6000
G1 E1.6 F2400
;TYPE:Perimeter
G1 F1200
G1 X109.971 Y106.866 E.02366
G1 X111.128 Y106.303 E.02379
G1 X111.775 Y106.083 E.01263
G1 X112.364 Y105.85 E.01171
G1 X113.599 Y105.533 E.02357
G1 X114.863 Y105.373 E.02356
G1 X116.137 Y105.373 E.02355
G1 X116.546 Y105.425 E.00762
G1 X117.401 Y105.533 E.01593
G1 X118.636 Y105.85 E.02357
G1 X119.82 Y106.319 E.02355
G1 X120.937 Y106.933 E.02357
G1 X121.968 Y107.682 E.02356
G1 X122.897 Y108.554 E.02356
G1 X123.305 Y109.047 E.01183
G1 X123.766 Y109.553 E.01266
G1 X124.504 Y110.598 E.02365
G1 X125.107 Y111.73 E.02371
G1 X125.498 Y112.933 E.02339
G1 X125.74 Y114.206 E.02396
G1 X125.822 Y115.5 E.02397
G1 X125.74 Y116.794 E.02397
G1 X125.498 Y118.067 E.02396
G1 X125.097 Y119.3 E.02397
G1 X124.545 Y120.473 E.02397
G1 X123.851 Y121.567 E.02395
G1 X123.024 Y122.566 E.02398
G1 X122.079 Y123.453 E.02396
G1 X121.031 Y124.215 E.02396
G1 X119.895 Y124.839 E.02396
G1 X118.69 Y125.317 E.02397
G1 X117.434 Y125.639 E.02397
G1 X116.202 Y125.795 E.02296
G1 X114.85 Y125.801 E.025
G1 X113.566 Y125.639 E.02393
G1 X112.31 Y125.317 E.02397
G1 X111.105 Y124.839 E.02397
G1 X109.969 Y124.215 E.02396
G1 X108.962 Y123.483 E.02302
G1 X107.975 Y122.565 E.02492
G1 X107.149 Y121.567 E.02395
G1 X106.455 Y120.473 E.02395
G1 X105.903 Y119.3 E.02397
G1 X105.502 Y118.067 E.02397
G1 X105.26 Y116.794 E.02396
G1 X105.178 Y115.5 E.02397
G1 X105.26 Y114.206 E.02397
G1 X105.502 Y112.933 E.02396
G1 X105.903 Y111.7 E.02397
G1 X106.455 Y110.527 E.02397
G1 X107.15 Y109.433 E.02396
G1 X107.976 Y108.434 E.02397
G1 X108.856 Y107.607 E.02233
G1 X108.655 Y107.255 F6000
;TYPE:External perimeter
G1 F1200
G1 X109.776 Y106.523 E.02475
G1 X110.978 Y105.938 E.02472
G1 X111.639 Y105.713 E.01291
G1 X112.242 Y105.474 E.01199
G1 X113.525 Y105.145 E.02449
G1 X114.838 Y104.979 E.02447
G1 X116.162 Y104.979 E.02448
G1 X116.596 Y105.034 E.00809
G1 X117.475 Y105.145 E.01638
G1 X118.758 Y105.474 E.02449
G1 X119.989 Y105.961 E.02448
G1 X121.149 Y106.599 E.02448
G1 X122.22 Y107.377 E.02447
G1 X123.185 Y108.284 E.02449
G1 X123.602 Y108.788 E.01209
G1 X124.074 Y109.305 E.01294
G1 X124.841 Y110.391 E.02458
G1 X125.471 Y111.575 E.0248
G1 X125.88 Y112.835 E.02449
G1 X126.132 Y114.157 E.02488
G1 X126.217 Y115.5 E.02488
G1 X126.132 Y116.843 E.02488
G1 X125.88 Y118.165 E.02488
G1 X125.464 Y119.445 E.02488
G1 X124.891 Y120.663 E.02489
G1 X124.17 Y121.799 E.02488
G1 X123.312 Y122.836 E.02488
G1 X122.331 Y123.757 E.02488
G1 X121.242 Y124.549 E.0249
G1 X120.063 Y125.197 E.02487
G1 X118.812 Y125.692 E.02487
G1 X117.508 Y126.027 E.02489
G1 X116.228 Y126.189 E.02385
G1 X114.827 Y126.196 E.0259
G1 X113.492 Y126.027 E.02488
G1 X112.188 Y125.692 E.02489
G1 X110.937 Y125.197 E.02487
G1 X109.758 Y124.549 E.02487
G1 X108.711 Y123.788 E.02393
G1 X107.687 Y122.836 E.02585
G1 X106.83 Y121.799 E.02487
G1 X106.109 Y120.663 E.02488
G1 X105.536 Y119.445 E.02489
G1 X105.12 Y118.165 E.02488
G1 X104.868 Y116.843 E.02488
G1 X104.783 Y115.5 E.02488
G1 X104.868 Y114.157 E.02488
G1 X105.12 Y112.835 E.02488
G1 X105.536 Y111.555 E.02488
G1 X106.109 Y110.337 E.02489
G1 X106.83 Y109.2 E.02489
G1 X107.688 Y108.164 E.02487
G1 X108.612 Y107.296 E.02344
G1 E-1.12 F2400
;WIPE_START
G1 F4800
G1 X108.655 Y107.255 E-.02822
G1 X109.451 Y106.735 E-.45178
;WIPE_END
G1 X121.167 Y107.256 F6000
G1 E1.6 F2400
;TYPE:Solid infill
;WIDTH:0.422717
G1 F1200
G1 X122.683 Y108.771 E.0399
G1 X123.075 Y109.246 E.01147
G1 X123.529 Y109.743 E.01253
G1 X124.245 Y110.758 E.02312
G1 X124.402 Y111.052 E.0062
G1 X120.253 Y106.903 E.10923
G1 X119.691 Y106.594 E.01194
G1 X119.18 Y106.392 E.01023
G1 X124.917 Y112.129 E.15104
G1 X125.187 Y112.96 E.01627
G1 X118.305 Y106.078 E.18119
G1 X117.55 Y105.884 E.01451
G1 X125.328 Y113.662 E.20478
G1 X125.445 Y114.34 E.01281
G1 X116.877 Y105.773 E.22556
G1 X116.234 Y105.691 E.01207
G1 X125.482 Y114.94 E.24349
G1 X125.516 Y115.534 E.01108
G1 X115.658 Y105.677 E.25952
G1 X115.097 Y105.677 E.01044
G1 X125.482 Y116.062 E.27341
G1 X125.449 Y116.59 E.00985
G1 X114.574 Y105.716 E.2863
G1 X114.076 Y105.779 E.00934
M73 P1 R72
G1 X125.377 Y117.08 E.29753
G1 X125.287 Y117.551 E.00893
G1 X113.586 Y105.85 E.30806
G1 X113.139 Y105.964 E.00859
G1 X125.194 Y118.019 E.31738
G1 X125.056 Y118.443 E.0083
G1 X112.692 Y106.079 E.32551
G1 X112.458 Y106.139 E.0045
G1 X112.267 Y106.215 E.00383
G1 X124.918 Y118.867 E.33308
G1 X124.771 Y119.28 E.00816
G1 X111.864 Y106.374 E.3398
G1 X111.445 Y106.516 E.00824
G1 X124.591 Y119.662 E.3461
G1 X124.411 Y120.044 E.00786
G1 X111.048 Y106.68 E.35183
G1 X110.67 Y106.864 E.00783
G1 X124.222 Y120.416 E.35679
G1 X124.004 Y120.759 E.00757
G1 X110.292 Y107.048 E.36099
G1 X110.121 Y107.131 E.00354
G1 X109.936 Y107.252 E.00412
G1 X123.786 Y121.102 E.36464
G1 X123.604 Y121.388 E.00631
G1 X123.562 Y121.44 E.00124
G1 X109.596 Y107.474 E.36769
G1 X109.257 Y107.696 E.00754
G1 X123.308 Y121.747 E.36993
G1 X123.053 Y122.054 E.00743
G1 X108.942 Y107.943 E.37151
G1 X108.653 Y108.215 E.00739
G1 X122.799 Y122.361 E.37243
G1 X122.509 Y122.633 E.0074
G1 X108.363 Y108.487 E.37243
G1 X108.089 Y108.774 E.00739
M73 P1 R71
G1 X122.22 Y122.905 E.37203
G1 X121.93 Y123.177 E.0074
G1 X107.835 Y109.081 E.3711
G1 X107.58 Y109.388 E.00743
G1 X121.611 Y123.418 E.36939
G1 X121.285 Y123.655 E.0075
G1 X107.336 Y109.705 E.36726
G1 X107.118 Y110.049 E.00758
G1 X120.96 Y123.891 E.36443
G1 X120.609 Y124.101 E.00761
G1 X106.9 Y110.392 E.36092
G1 X106.689 Y110.743 E.00762
G1 X120.246 Y124.3 E.35692
G1 X119.884 Y124.499 E.00769
G1 X106.51 Y111.124 E.35212
G1 X106.33 Y111.506 E.00786
G1 X119.495 Y124.671 E.3466
G1 X119.093 Y124.83 E.00805
G1 X106.159 Y111.896 E.34052
G1 X106.021 Y112.32 E.0083
G1 X118.691 Y124.99 E.33357
G1 X118.255 Y125.115 E.00844
G1 X105.883 Y112.744 E.32571
G1 X105.797 Y113.009 E.00519
G1 X105.763 Y113.185 E.00334
G1 X117.808 Y125.23 E.31712
G1 X117.359 Y125.342 E.00861
G1 X105.673 Y113.657 E.30765
G1 X105.584 Y114.128 E.00892
G1 X116.861 Y125.405 E.2969
G1 X116.363 Y125.468 E.00934
G1 X105.536 Y114.642 E.28504
G1 X105.503 Y115.17 E.00985
G1 X115.826 Y125.493 E.27178
G1 X115.267 Y125.496 E.01041
G1 X105.496 Y115.725 E.25725
G1 X105.534 Y116.324 E.01117
G1 X114.684 Y125.474 E.2409
G1 X114.042 Y125.393 E.01205
G1 X105.598 Y116.95 E.2223
G1 X105.731 Y117.644 E.01315
G1 X113.36 Y125.273 E.20085
G1 X112.605 Y125.079 E.01451
G1 X105.932 Y118.406 E.17568
G1 X106.216 Y119.251 E.0166
G1 X111.721 Y124.757 E.14495
G1 X111.235 Y124.564 E.00973
G1 X110.641 Y124.238 E.01261
G1 X106.715 Y120.312 E.10336
G1 X107.396 Y121.388 E.02371
G1 X108.189 Y122.348 E.02318
G1 X109.718 Y123.877 E.04025
; stop printing object tensioner_puller_R15.stl id:0 copy 0
M106 S255
;LAYER_CHANGE
;Z:0.24
;HEIGHT:0.12
;BEFORE_LAYER_CHANGE
G92 E0
;0.24


G1 E-1.12 F2400
;WIPE_START
G1 F4800
G1 X109.004 Y123.162 E-.48
;WIPE_END
G1 Z.24 F6000
;AFTER_LAYER_CHANGE
;0.24
; printing object tensioner_puller_R15.stl id:0 copy 0
G1 X122.025 Y107.612
G1 E1.6 F2400
;TYPE:Perimeter
;WIDTH:0.44
G1 F2160
G1 X122.962 Y108.492 E.02497
G1 X123.782 Y109.483 E.02499
G1 X124.471 Y110.568 E.02497
G1 X125.018 Y111.731 E.02497
G1 X125.217 Y112.344 E.01252
G1 X125.455 Y112.964 E.0129
G1 X125.763 Y114.222 E.02516
G1 X125.912 Y115.519 E.02536
G1 X125.896 Y116.832 E.02551
G1 X125.701 Y118.119 E.02529
G1 X125.292 Y119.377 E.0257
G1 X124.729 Y120.574 E.0257
G1 X124.021 Y121.691 E.02569
G1 X123.178 Y122.71 E.02569
G1 X122.213 Y123.615 E.0257
G1 X121.143 Y124.392 E.02569
G1 X119.984 Y125.03 E.0257
G1 X118.755 Y125.517 E.02568
G1 X117.474 Y125.845 E.02569
G1 X116.161 Y126.011 E.02571
G1 X114.839 Y126.011 E.02568
G1 X113.527 Y125.845 E.02569
G1 X112.245 Y125.517 E.02571
G1 X111.016 Y125.03 E.02568
G1 X109.857 Y124.393 E.02569
G1 X108.784 Y123.612 E.02578
G1 X107.822 Y122.71 E.02562
G1 X106.979 Y121.691 E.02569
G1 X106.271 Y120.574 E.02569
G1 X105.709 Y119.38 E.02564
G1 X105.298 Y118.117 E.0258
G1 X105.051 Y116.82 E.02565
G1 X104.968 Y115.5 E.02569
G1 X105.052 Y114.177 E.02575
G1 X105.299 Y112.881 E.02563
G1 X105.708 Y111.623 E.0257
G1 X106.271 Y110.426 E.0257
G1 X106.961 Y109.339 E.02501
G1 X107.823 Y108.29 E.02638
G1 X108.787 Y107.385 E.02569
G1 X109.857 Y106.608 E.02569
G1 X111.021 Y106.024 E.0253
G1 X112.265 Y105.603 E.02551
G1 X113.518 Y105.349 E.02484
G1 X114.837 Y105.251 E.02569
G1 X115.506 Y105.283 E.01301
G1 X116.143 Y105.283 E.01237
G1 X117.418 Y105.444 E.02497
G1 X118.663 Y105.764 E.02497
G1 X119.859 Y106.237 E.02499
G1 X120.98 Y106.854 E.02486
G1 X121.977 Y107.577 E.02393
G1 X122.284 Y107.3 F6000
;TYPE:External perimeter
;WIDTH:0.42
G1 F1800
G1 X123.258 Y108.215 E.02471
G1 X124.11 Y109.245 E.02471
G1 X124.826 Y110.373 E.0247
G1 X125.395 Y111.582 E.02471
G1 X125.599 Y112.209 E.01219
G1 X125.841 Y112.843 E.01255
G1 X126.162 Y114.151 E.0249
G1 X126.316 Y115.498 E.02507
G1 X126.3 Y116.862 E.02522
G1 X126.159 Y117.878 E.01896
G1 X126.093 Y118.22 E.00644
G1 X125.669 Y119.526 E.02539
G1 X125.084 Y120.769 E.0254
G1 X124.348 Y121.929 E.0254
G1 X123.473 Y122.987 E.02538
G1 X122.472 Y123.927 E.02539
G1 X121.36 Y124.734 E.0254
G1 X120.157 Y125.396 E.02539
G1 X118.88 Y125.902 E.0254
G1 X117.549 Y126.243 E.0254
G1 X116.187 Y126.415 E.02538
G1 X114.813 Y126.415 E.0254
G1 X113.451 Y126.243 E.02538
G1 X112.12 Y125.902 E.0254
G1 X110.843 Y125.396 E.0254
G1 X109.64 Y124.734 E.02539
G1 X108.525 Y123.924 E.02548
G1 X107.527 Y122.987 E.02531
G1 X106.652 Y121.929 E.02538
G1 X105.916 Y120.769 E.0254
G1 X105.333 Y119.529 E.02533
G1 X104.906 Y118.218 E.02549
G1 X104.649 Y116.871 E.02535
G1 X104.563 Y115.5 E.0254
G1 X104.65 Y114.126 E.02545
G1 X104.907 Y112.78 E.02534
G1 X105.331 Y111.474 E.02539
G1 X105.916 Y110.231 E.0254
G1 X106.633 Y109.101 E.02474
G1 X107.527 Y108.013 E.02604
G1 X108.528 Y107.073 E.02539
