; generated by PrusaSlicer 2.6.0-alpha4+MacOS-x64 on 2023-03-17 at 20:01:56 UTC

; 

; external perimeters extrusion width = 0.40mm
; perimeters extrusion width = 0.40mm
; infill extrusion width = 0.40mm
; solid infill extrusion width = 0.40mm
; top infill extrusion width = 0.40mm
; support material extrusion width = 0.36mm
; first layer extrusion width = 0.40mm

; external perimeters extrusion width = 0.40mm
; perimeters extrusion width = 0.40mm
; infill extrusion width = 0.40mm
; solid infill extrusion width = 0.40mm
; top infill extrusion width = 0.40mm
; support material extrusion width = 0.36mm
; first layer extrusion width = 0.40mm

; external perimeters extrusion width = 0.40mm
; perimeters extrusion width = 0.40mm
; infill extrusion width = 0.40mm
; solid infill extrusion width = 0.40mm
; top infill extrusion width = 0.40mm
; support material extrusion width = 0.36mm
; first layer extrusion width = 0.40mm

; external perimeters extrusion width = 0.40mm
; perimeters extrusion width = 0.40mm
; infill extrusion width = 0.40mm
; solid infill extrusion width = 0.40mm
; top infill extrusion width = 0.40mm
; support material extrusion width = 0.36mm
; first layer extrusion width = 0.40mm

; external perimeters extrusion width = 0.40mm
; perimeters extrusion width = 0.40mm
; infill extrusion width = 0.40mm
; solid infill extrusion width = 0.40mm
; top infill extrusion width = 0.40mm
; support material extrusion width = 0.36mm
; first layer extrusion width = 0.40mm

; external perimeters extrusion width = 0.40mm
; perimeters extrusion width = 0.40mm
; infill extrusion width = 0.40mm
; solid infill extrusion width = 0.40mm
; top infill extrusion width = 0.40mm
; support material extrusion width = 0.36mm
; first layer extrusion width = 0.40mm

; external perimeters extrusion width = 0.40mm
; perimeters extrusion width = 0.40mm
; infill extrusion width = 0.40mm
; solid infill extrusion width = 0.40mm
; top infill extrusion width = 0.40mm
; support material extrusion width = 0.36mm
; first layer extrusion width = 0.40mm

M107
;TYPE:Custom
; Ender 3 Custom Start G-code
G92 E0 ; Reset Extruder

M140 S50 ; set bed temp
M190 S50 ; wait for bed temp

G28 ; Home all axes
M104 S210 ; set extruder temp 
BED_MESH_CALIBRATE AREA_START=84.2791,85.7502 AREA_END=149.919,145.25

G1 Z2.0 F3000 ; Move Z Axis up little to prevent scratching of Heat Bed
M109 S210 ; wait for extruder temp
G1 X0.1 Y20 Z0.3 F5000.0 ; Move to start position

G1 X0.1 Y200.0 Z0.3 F1500.0 E15 ; Draw the first line
G1 X0.4 Y200.0 Z0.3 F5000.0 ; Move to side a little
G1 X0.4 Y20 Z0.3 F1500.0 E30 ; Draw the second line
G92 E0 ; Reset Extruder
G1 Z2.0 F3000 ; Move Z Axis up little to prevent scratching of Heat Bed
G1 X5 Y20 Z0.3 F5000.0 ; Move over to prevent blob squish
G21 ; set units to millimeters
G90 ; use absolute coordinates
M83 ; use relative distances for extrusion
; Filament gcode
M107
;LAYER_CHANGE
;Z:0.2
;HEIGHT:0.2
;BEFORE_LAYER_CHANGE
G92 E0
;0.2


G1 E-5 F3600
G1 Z.2 F4800
;AFTER_LAYER_CHANGE
;0.2
G1 X85.961 Y86.84
G1 E5 F2400
M204 S500
;TYPE:Skirt/Brim
;WIDTH:0.4
G1 F1440
G1 X87.568 Y86.044 E.05325
G1 X88.529 Y85.929 E.02874
G1 X123.779 Y85.929 E1.04662
G1 X126.078 Y86.64 E.07145
G1 X143.7 Y98.699 E.634
G1 X148.414 Y102.95 E.18847
G1 X149.44 Y104.421 E.05325
G1 X149.74 Y105.956 E.04644
G1 X149.74 Y125.044 E.56675
G1 X149.345 Y126.793 E.05324
G1 X148.414 Y128.05 E.04644
G1 X143.7 Y132.301 E.18847
G1 X126.078 Y144.36 E.634
G1 X123.779 Y145.071 E.07145
G1 X88.529 Y145.071 E1.04662
G1 X86.779 Y144.676 E.05327
G1 X85.369 Y143.568 E.05324
G1 X84.573 Y141.961 E.05325
G1 X84.458 Y141 E.02874
G1 X84.458 Y90 E1.51426
G1 X84.853 Y88.25 E.05327
G1 X85.924 Y86.888 E.05144
G1 X86.216 Y87.133 F4800
G1 F1440
G1 X86.309 Y87.022 E.0043
G1 X88.529 Y86.286 E.06944
G1 X123.779 Y86.286 E1.04662
G1 X125.876 Y86.935 E.06518
G1 X143.498 Y98.994 E.634
G1 X148.173 Y103.213 E.18697
G1 X149.137 Y104.628 E.05084
G1 X149.383 Y105.956 E.0401
G1 X149.383 Y125.044 E.56675
G1 X148.988 Y126.71 E.05084
G1 X148.173 Y127.787 E.0401
G1 X143.498 Y132.006 E.18697
G1 X125.876 Y144.065 E.634
G1 X123.779 Y144.714 E.06518
G1 X88.529 Y144.714 E1.04662
G1 X86.863 Y144.32 E.05083
G1 X85.551 Y143.22 E.05083
G1 X84.815 Y141 E.06944
G1 X84.815 Y90 E1.51426
G1 X85.209 Y88.334 E.05083
G1 X86.178 Y87.179 E.04476
G1 X86.459 Y87.432 F4800
G1 F1440
G1 X86.655 Y87.214 E.0087
G1 X88.529 Y86.643 E.05817
G1 X123.779 Y86.643 E1.04662
G1 X125.675 Y87.23 E.05893
G1 X143.296 Y99.288 E.63396
G1 X147.932 Y103.477 E.18552
G1 X148.832 Y104.832 E.0483
G1 X149.026 Y105.956 E.03387
G1 X149.026 Y125.044 E.56675
G1 X148.632 Y126.622 E.04829
G1 X147.932 Y127.523 E.03388
G1 X143.296 Y131.712 E.18552
G1 X125.675 Y143.77 E.63396
G1 X123.779 Y144.357 E.05893
G1 X88.529 Y144.357 E1.04662
G1 X86.951 Y143.963 E.04829
G1 X85.743 Y142.873 E.04831
G1 X85.172 Y141 E.05814
G1 X85.172 Y90 E1.51426
G1 X85.566 Y88.422 E.04829
G1 X86.419 Y87.477 E.0378
; printing object Shape-Box id:0 copy 0
G1 E-3.5 F3600
;WIPE_START
G1 F3840
G1 X86.655 Y87.214 E-.31471
G1 X87.928 Y86.826 E-1.18529
;WIPE_END
G1 X137.442 Y109.356 F4800
G1 E5 F2400
;TYPE:Support material interface
;WIDTH:0.36
G1 F1440
G1 X137.442 Y108.915 E.01163
G1 X137.676 Y108.915 E.00617
G1 X137.676 Y110.232 E.03472
G1 X138.193 Y110.232 E.01363
G1 X138.193 Y108.915 E.03472
G1 X138.36 Y108.915 E.0044
G1 X138.36 Y109.262 E.00915
G1 E-3.5 F3600
;WIPE_START
G1 F3840
G1 X138.36 Y108.915 E-.30905
G1 X138.193 Y108.915 E-.14873
G1 X138.193 Y110.085 E-1.04222
;WIPE_END
G1 X141.296 Y108.915 F4800
G1 E5 F2400
G1 F1440
G1 X141.296 Y122.085 E.34723
G1 X140.779 Y122.085 E.01363
G1 X140.779 Y108.915 E.34723
G1 X140.472 Y108.915 E.00809
G1 X140.472 Y122.085 E.34723
G1 X140.62 Y122.085 E.0039
G1 E-3.5 F3600
;WIPE_START
G1 F3840
G1 X140.472 Y122.085 E-.13181
G1 X140.472 Y120.549 E-1.36819
;WIPE_END
G1 X138.36 Y121.116 F4800
G1 E5 F2400
G1 F1440
G1 X138.36 Y120.768 E.00918
G1 X138.193 Y120.768 E.0044
G1 X138.193 Y122.085 E.03472
G1 X137.676 Y122.085 E.01363
G1 X137.676 Y120.768 E.03472
G1 X137.442 Y120.768 E.00617
G1 X137.442 Y121.21 E.01165
G1 E-3.5 F3600
;WIPE_START
G1 F3840
G1 X137.442 Y120.768 E-.39366
G1 X137.676 Y120.768 E-.20841
G1 X137.676 Y121.776 E-.89793
;WIPE_END
G1 X141.401 Y105.956 F4800
G1 E5 F2400
;TYPE:Support material
;WIDTH:0.4
G1 F1440
G1 X145.669 Y105.956 E.12672
G1 X145.669 Y125.044 E.56675
G1 X141.401 Y125.044 E.12672
G1 X141.401 Y128.941 E.11571
G1 X139.416 Y126.956 E.08335
G1 X137.435 Y128.937 E.08318
G1 X137.435 Y125.044 E.11559
G1 X126.581 Y125.044 E.32227
G1 X126.581 Y105.956 E.56675
G1 X137.435 Y105.956 E.32227
G1 X137.435 Y102.063 E.11559
G1 X139.416 Y104.044 E.08318
G1 X141.401 Y102.059 E.08335
G1 X141.401 Y105.903 E.11413
G1 X139.388 Y108.556 F4800
G1 F1440
G1 X141.752 Y108.556 E.07019
G1 X141.752 Y122.444 E.41235
G1 X137.083 Y122.444 E.13863
G1 X137.083 Y120.41 E.06039
G1 X138.719 Y120.41 E.04857
G1 X138.719 Y121.397 E.02931
G1 X138.766 Y121.397 E.0014
G1 X138.766 Y109.603 E.35018
G1 X138.719 Y109.603 E.0014
G1 X138.719 Y110.59 E.02931
G1 X137.083 Y110.59 E.04857
G1 X137.083 Y108.556 E.06039
G1 X139.335 Y108.556 E.06686
G1 E-3.5 F3600
;WIPE_START
G1 F3840
G1 X137.651 Y108.556 E-1.5
;WIPE_END
G1 X145.25 Y124.883 F4800
G1 E5 F2400
G1 F1440
G1 X145.25 Y106.278 E.55241
G1 X144.854 Y106.278 E.01176
G1 X144.854 Y124.722 E.54763
G1 X144.457 Y124.722 E.01179
G1 X144.457 Y106.278 E.54763
G1 X144.06 Y106.278 E.01179
G1 X144.06 Y124.722 E.54763
G1 X143.663 Y124.722 E.01179
G1 X143.663 Y106.278 E.54763
G1 X143.267 Y106.278 E.01176
G1 X143.267 Y124.722 E.54763
G1 X142.87 Y124.722 E.01179
G1 X142.87 Y106.278 E.54763
G1 X142.473 Y106.278 E.01179
G1 X142.473 Y124.722 E.54763
G1 X142.076 Y124.722 E.01179
G1 X142.076 Y106.278 E.54763
G1 X141.68 Y106.278 E.01176
G1 X141.68 Y108.235 E.05811
G1 X141.283 Y108.235 E.01179
G1 X141.283 Y106.278 E.05811
G1 X141.079 Y106.278 E.00606
G1 X141.079 Y102.835 E.10223
G1 X140.886 Y103.028 E.0081
G1 X140.886 Y108.235 E.1546
G1 X140.489 Y108.235 E.01179
G1 X140.489 Y103.425 E.14282
G1 X140.093 Y103.821 E.01663
G1 X140.093 Y108.235 E.13106
G1 X139.696 Y108.235 E.01179
G1 X139.696 Y104.218 E.11927
G1 X139.416 Y104.498 E.01176
G1 X139.299 Y104.381 E.00491
G1 X139.299 Y108.235 E.11443
G1 X138.902 Y108.235 E.01179
G1 X138.902 Y103.984 E.12622
G1 X138.506 Y103.588 E.01663
G1 X138.506 Y108.235 E.13798
G1 X138.109 Y108.235 E.01179
G1 X138.109 Y103.191 E.14976
G1 X137.756 Y102.838 E.01482
G1 X137.756 Y106.278 E.10214
G1 X137.712 Y106.278 E.00131
G1 X137.712 Y108.235 E.05811
G1 X137.315 Y108.235 E.01179
G1 X137.315 Y106.278 E.05811
G1 X136.919 Y106.278 E.01176
G1 X136.919 Y124.722 E.54763
G1 X137.315 Y124.722 E.01176
G1 X137.315 Y122.765 E.05811
G1 X137.712 Y122.765 E.01179
G1 X137.712 Y124.722 E.05811
G1 X137.756 Y124.722 E.00131
G1 X137.756 Y128.162 E.10214
G1 X138.109 Y127.809 E.01482
G1 X138.109 Y122.765 E.14976
G1 X138.506 Y122.765 E.01179
G1 X138.506 Y127.412 E.13798
G1 X138.902 Y127.016 E.01663
G1 X138.902 Y122.765 E.12622
G1 X139.299 Y122.765 E.01179
G1 X139.299 Y126.619 E.11443
G1 X139.416 Y126.502 E.00491
G1 X139.696 Y126.782 E.01176
G1 X139.696 Y122.765 E.11927
G1 X140.093 Y122.765 E.01179
G1 X140.093 Y127.179 E.13106
G1 X140.489 Y127.575 E.01663
G1 X140.489 Y122.765 E.14282
G1 X140.886 Y122.765 E.01179
G1 X140.886 Y127.972 E.1546
G1 X141.079 Y128.165 E.0081
G1 X141.079 Y124.722 E.10223
G1 X141.283 Y124.722 E.00606
G1 X141.283 Y122.765 E.05811
G1 X141.68 Y122.765 E.01179
G1 X141.68 Y124.883 E.06289
G1 E-3.5 F3600
;WIPE_START
G1 F3840
G1 X141.68 Y123.199 E-1.5
;WIPE_END
G1 X138.109 Y120.249 F4800
G1 E5 F2400
G1 F1440
G1 X138.109 Y110.912 E.27723
G1 X137.712 Y110.912 E.01179
G1 X137.712 Y120.088 E.27245
G1 X137.315 Y120.088 E.01179
G1 X137.315 Y110.751 E.27723
G1 X136.522 Y124.883 F4800
G1 F1440
G1 X136.522 Y106.278 E.55241
G1 X136.125 Y106.278 E.01179
G1 X136.125 Y124.722 E.54763
G1 X135.728 Y124.722 E.01179
G1 X135.728 Y106.278 E.54763
G1 X135.331 Y106.278 E.01179
G1 X135.331 Y124.722 E.54763
G1 X134.935 Y124.722 E.01176
G1 X134.935 Y106.278 E.54763
G1 X134.538 Y106.278 E.01179
G1 X134.538 Y124.722 E.54763
G1 X134.141 Y124.722 E.01179
G1 X134.141 Y106.278 E.54763
G1 X133.744 Y106.278 E.01179
G1 X133.744 Y124.722 E.54763
G1 X133.348 Y124.722 E.01176
G1 X133.348 Y106.278 E.54763
G1 X132.951 Y106.278 E.01179
G1 X132.951 Y124.722 E.54763
G1 X132.554 Y124.722 E.01179
G1 X132.554 Y106.278 E.54763
G1 X132.157 Y106.278 E.01179
G1 X132.157 Y124.722 E.54763
G1 X131.761 Y124.722 E.01176
G1 X131.761 Y106.278 E.54763
G1 X131.364 Y106.278 E.01179
G1 X131.364 Y124.722 E.54763
G1 X130.967 Y124.722 E.01179
G1 X130.967 Y106.278 E.54763
G1 X130.57 Y106.278 E.01179
G1 X130.57 Y124.722 E.54763
G1 X130.174 Y124.722 E.01176
G1 X130.174 Y106.278 E.54763
G1 X129.777 Y106.278 E.01179
G1 X129.777 Y124.722 E.54763
G1 X129.38 Y124.722 E.01179
G1 X129.38 Y106.278 E.54763
G1 X128.983 Y106.278 E.01179
G1 X128.983 Y124.722 E.54763
G1 X128.587 Y124.722 E.01176
G1 X128.587 Y106.278 E.54763
G1 X128.19 Y106.278 E.01179
G1 X128.19 Y124.722 E.54763
G1 X127.793 Y124.722 E.01179
G1 X127.793 Y106.278 E.54763
G1 X127.396 Y106.278 E.01179
G1 X127.396 Y124.722 E.54763
G1 X127 Y124.722 E.01176
G1 X127 Y106.117 E.55241
G1 E-3.5 F3600
;WIPE_START
G1 F3840
G1 X127 Y107.801 E-1.5
;WIPE_END
G1 X139.337 Y121.869 F4800
G1 E5 F2400
;TYPE:External perimeter
;WIDTH:0.38292
G1 F1440
G1 X139.337 Y109.131 E.36012
; stop printing object Shape-Box id:0 copy 0
; printing object Shape-Box id:0 copy 0
G1 E-3.5 F3600
;WIPE_START
G1 F3840
G1 X139.337 Y110.815 E-1.5
;WIPE_END
G1 X122.765 Y101.986 F4800
G1 E5 F2400
;TYPE:Perimeter
;WIDTH:0.399999
G1 F1440
G1 X110.168 Y101.986 E.37402
G1 X110.168 Y91.014 E.32577
G1 X122.765 Y91.014 E.37402
G1 X122.765 Y101.926 E.32399
G1 X123.122 Y102.343 F4800
G1 F1440
G1 X109.811 Y102.343 E.39522
G1 X109.811 Y90.657 E.34697
G1 X123.122 Y90.657 E.39522
G1 X123.122 Y102.283 E.34519
G1 X123.479 Y102.7 F4800
;TYPE:External perimeter
G1 F1440
G1 X109.454 Y102.7 E.41642
G1 X109.454 Y90.3 E.36817
G1 X123.479 Y90.3 E.41642
G1 X123.479 Y102.64 E.36639
G1 X123.09 Y102.604 F4800
G1 E-3.5 F3600
;WIPE_START
G1 F3840
G1 X121.795 Y102.647 E-1.5
;WIPE_END
G1 X122.65 Y91.866 F4800
G1 E5 F2400
;TYPE:Solid infill
;WIDTH:0.407202
G1 F1440
G1 X122.074 Y91.289 E.0247
G1 X121.559 Y91.289 E.0156
G1 X122.49 Y92.22 E.03988
G1 X122.49 Y92.735 E.0156
G1 X121.044 Y91.289 E.06194
G1 X120.528 Y91.289 E.01563
G1 X122.49 Y93.25 E.08402
G1 X122.49 Y93.766 E.01563
G1 X120.013 Y91.289 E.10611
G1 X119.498 Y91.289 E.0156
G1 X122.49 Y94.281 E.12817
G1 X122.49 Y94.796 E.0156
G1 X118.983 Y91.289 E.15023
G1 X118.468 Y91.289 E.0156
G1 X122.49 Y95.311 E.17229
G1 X122.49 Y95.826 E.0156
G1 X117.953 Y91.289 E.19435
G1 X117.437 Y91.289 E.01563
G1 X122.49 Y96.341 E.21643
G1 X122.49 Y96.857 E.01563
G1 X116.922 Y91.289 E.23852
G1 X116.407 Y91.289 E.0156
G1 X122.49 Y97.372 E.26058
G1 X122.49 Y97.887 E.0156
G1 X115.892 Y91.289 E.28264
G1 X115.377 Y91.289 E.0156
G1 X122.49 Y98.402 E.3047
G1 X122.49 Y98.917 E.0156
G1 X114.862 Y91.289 E.32676
G1 X114.346 Y91.289 E.01563
G1 X122.49 Y99.432 E.34884
G1 X122.49 Y99.948 E.01563
G1 X113.831 Y91.289 E.37092
G1 X113.316 Y91.289 E.0156
G1 X122.49 Y100.463 E.39298
G1 X122.49 Y100.978 E.0156
G1 X112.801 Y91.289 E.41505
G1 X112.286 Y91.289 E.0156
G1 X122.49 Y101.493 E.43711
G1 X122.49 Y101.711 E.0066
G1 X122.192 Y101.711 E.00903
G1 X111.771 Y91.289 E.44642
G1 X111.255 Y91.289 E.01563
G1 X121.677 Y101.711 E.44644
G1 X121.162 Y101.711 E.0156
G1 X110.74 Y91.289 E.44644
G1 X110.443 Y91.289 E.009
G1 X110.443 Y91.507 E.0066
G1 X120.647 Y101.711 E.43711
G1 X120.132 Y101.711 E.0156
G1 X110.443 Y92.022 E.41505
G1 X110.443 Y92.537 E.0156
G1 X119.616 Y101.711 E.39296
G1 X119.101 Y101.711 E.0156
G1 X110.443 Y93.053 E.37088
G1 X110.443 Y93.568 E.0156
G1 X118.586 Y101.711 E.34882
G1 X118.071 Y101.711 E.0156
G1 X110.443 Y94.083 E.32676
G1 X110.443 Y94.598 E.0156
G1 X117.556 Y101.711 E.3047
G1 X117.041 Y101.711 E.0156
G1 X110.443 Y95.113 E.28264
G1 X110.443 Y95.628 E.0156
G1 X116.525 Y101.711 E.26055
G1 X116.01 Y101.711 E.0156
G1 X110.443 Y96.144 E.23847
G1 X110.443 Y96.659 E.0156
G1 X115.495 Y101.711 E.21641
G1 X114.98 Y101.711 E.0156
G1 X110.443 Y97.174 E.19435
G1 X110.443 Y97.689 E.0156
G1 X114.465 Y101.711 E.17229
G1 X113.95 Y101.711 E.0156
G1 X110.443 Y98.204 E.15023
G1 X110.443 Y98.719 E.0156
G1 X113.434 Y101.711 E.12815
G1 X112.919 Y101.711 E.0156
G1 X110.443 Y99.235 E.10606
G1 X110.443 Y99.75 E.0156
G1 X112.404 Y101.711 E.084
G1 X111.889 Y101.711 E.0156
G1 X110.443 Y100.265 E.06194
G1 X110.443 Y100.78 E.0156
G1 X111.374 Y101.711 E.03988
G1 X110.859 Y101.711 E.0156
G1 X110.282 Y101.135 E.0247
; stop printing object Shape-Box id:0 copy 0
; printing object Shape-Box id:0 copy 0
G1 E-3.5 F3600
;WIPE_START
G1 F3840
G1 X110.859 Y101.711 E-.72612
G1 X111.374 Y101.711 E-.45867
G1 X111.124 Y101.461 E-.31521
;WIPE_END
G1 X122.765 Y120.986 F4800
G1 E5 F2400
;TYPE:Perimeter
;WIDTH:0.399999
G1 F1440
G1 X110.168 Y120.986 E.37402
G1 X110.168 Y110.014 E.32577
G1 X122.765 Y110.014 E.37402
G1 X122.765 Y120.926 E.32399
G1 X123.122 Y121.343 F4800
G1 F1440
G1 X109.811 Y121.343 E.39522
G1 X109.811 Y109.657 E.34697
G1 X123.122 Y109.657 E.39522
G1 X123.122 Y121.283 E.34519
G1 X123.479 Y121.7 F4800
;TYPE:External perimeter
G1 F1440
G1 X109.454 Y121.7 E.41642
G1 X109.454 Y109.3 E.36817
G1 X123.479 Y109.3 E.41642
G1 X123.479 Y121.64 E.36639
G1 X123.09 Y121.604 F4800
G1 E-3.5 F3600
;WIPE_START
G1 F3840
G1 X121.795 Y121.647 E-1.5
;WIPE_END
G1 X122.65 Y110.866 F4800
G1 E5 F2400
;TYPE:Solid infill
;WIDTH:0.407202
G1 F1440
G1 X122.074 Y110.289 E.0247
G1 X121.559 Y110.289 E.0156
G1 X122.49 Y111.22 E.03988
G1 X122.49 Y111.735 E.0156
G1 X121.044 Y110.289 E.06194
G1 X120.528 Y110.289 E.01563
G1 X122.49 Y112.25 E.08402
G1 X122.49 Y112.766 E.01563
G1 X120.013 Y110.289 E.10611
G1 X119.498 Y110.289 E.0156
G1 X122.49 Y113.281 E.12817
G1 X122.49 Y113.796 E.0156
G1 X118.983 Y110.289 E.15023
G1 X118.468 Y110.289 E.0156
G1 X122.49 Y114.311 E.17229
G1 X122.49 Y114.826 E.0156
G1 X117.953 Y110.289 E.19435
G1 X117.437 Y110.289 E.01563
