; generated by PrusaSlicer 2.6.0-alpha4+MacOS-x64 on 2023-03-17 at 19:48:49 UTC

; 

; external perimeters extrusion width = 0.40mm
; perimeters extrusion width = 0.40mm
; infill extrusion width = 0.40mm
; solid infill extrusion width = 0.40mm
; top infill extrusion width = 0.40mm
; support material extrusion width = 0.36mm
; first layer extrusion width = 0.40mm

; external perimeters extrusion width = 0.40mm
; perimeters extrusion width = 0.40mm
; infill extrusion width = 0.40mm
; solid infill extrusion width = 0.40mm
; top infill extrusion width = 0.40mm
; support material extrusion width = 0.36mm
; first layer extrusion width = 0.40mm

; external perimeters extrusion width = 0.40mm
; perimeters extrusion width = 0.40mm
; infill extrusion width = 0.40mm
; solid infill extrusion width = 0.40mm
; top infill extrusion width = 0.40mm
; support material extrusion width = 0.36mm
; first layer extrusion width = 0.40mm

; external perimeters extrusion width = 0.40mm
; perimeters extrusion width = 0.40mm
; infill extrusion width = 0.40mm
; solid infill extrusion width = 0.40mm
; top infill extrusion width = 0.40mm
; support material extrusion width = 0.36mm
; first layer extrusion width = 0.40mm

; external perimeters extrusion width = 0.40mm
; perimeters extrusion width = 0.40mm
; infill extrusion width = 0.40mm
; solid infill extrusion width = 0.40mm
; top infill extrusion width = 0.40mm
; support material extrusion width = 0.36mm
; first layer extrusion width = 0.40mm

; external perimeters extrusion width = 0.40mm
; perimeters extrusion width = 0.40mm
; infill extrusion width = 0.40mm
; solid infill extrusion width = 0.40mm
; top infill extrusion width = 0.40mm
; support material extrusion width = 0.36mm
; first layer extrusion width = 0.40mm

; external perimeters extrusion width = 0.40mm
; perimeters extrusion width = 0.40mm
; infill extrusion width = 0.40mm
; solid infill extrusion width = 0.40mm
; top infill extrusion width = 0.40mm
; support material extrusion width = 0.36mm
; first layer extrusion width = 0.40mm

M107
;TYPE:Custom
; Ender 3 Custom Start G-code
G92 E0 ; Reset Extruder

M140 S50 ; set bed temp
M190 S50 ; wait for bed temp

G28 ; Home all axes
M104 S210 ; set extruder temp 
BED_MESH_CALIBRATE AREA_START=90.5271,80.6781 AREA_END=135.421,134.134

G1 Z2.0 F3000 ; Move Z Axis up little to prevent scratching of Heat Bed
M109 S210 ; wait for extruder temp
G1 X0.1 Y20 Z0.3 F5000.0 ; Move to start position

G1 X0.1 Y200.0 Z0.3 F1500.0 E15 ; Draw the first line
G1 X0.4 Y200.0 Z0.3 F5000.0 ; Move to side a little
G1 X0.4 Y20 Z0.3 F1500.0 E30 ; Draw the second line
G92 E0 ; Reset Extruder
G1 Z2.0 F3000 ; Move Z Axis up little to prevent scratching of Heat Bed
G1 X5 Y20 Z0.3 F5000.0 ; Move over to prevent blob squish
G21 ; set units to millimeters
G90 ; use absolute coordinates
M83 ; use relative distances for extrusion
; Filament gcode
M107
;LAYER_CHANGE
;Z:0.2
;HEIGHT:0.2
;BEFORE_LAYER_CHANGE
G92 E0
;0.2


G1 E-5 F3600
G1 Z.2 F4800
;AFTER_LAYER_CHANGE
;0.2
G1 X92.322 Y81.954
G1 E5 F2400
M204 S500
;TYPE:Skirt/Brim
;WIDTH:0.4
G1 F1440
G1 X94.831 Y81.062 E.07906
G1 X119.306 Y80.857 E.72672
G1 X130.59 Y80.857 E.33504
G1 X132.34 Y81.252 E.05327
G1 X133.75 Y82.36 E.05324
G1 X134.656 Y84.717 E.07497
G1 X135.237 Y95.934 E.33349
G1 X135.242 Y106.145 E.30318
G1 X134.852 Y107.884 E.05292
G1 X123.638 Y131.623 E.77953
G1 X122.533 Y133.036 E.05326
G1 X120.929 Y133.838 E.05325
G1 X119.957 Y133.956 E.02907
G1 X103.503 Y133.956 E.48854
G1 X101.754 Y133.56 E.05324
G1 X100.344 Y132.452 E.05324
G1 X99.688 Y131.305 E.03923
G1 X90.961 Y107.862 E.74272
G1 X90.706 Y106.442 E.04284
G1 X90.794 Y85.101 E.63365
G1 X91.203 Y83.355 E.05324
G1 X92.285 Y82 E.05148
G1 X92.575 Y82.248 F4800
G1 F1440
G1 X92.669 Y82.138 E.0043
G1 X94.834 Y81.419 E.06773
G1 X119.309 Y81.214 E.72672
G1 X130.59 Y81.214 E.33495
G1 X132.256 Y81.608 E.05083
G1 X133.568 Y82.708 E.05083
G1 X134.299 Y84.736 E.06401
G1 X134.88 Y95.953 E.33349
G1 X134.885 Y106.145 E.30261
G1 X134.529 Y107.731 E.04826
G1 X123.315 Y131.471 E.77955
G1 X122.247 Y132.809 E.05083
G1 X119.957 Y133.598 E.07192
G1 X103.503 Y133.598 E.48854
G1 X101.837 Y133.204 E.05083
G1 X100.525 Y132.104 E.05083
G1 X100.022 Y131.18 E.03124
G1 X91.296 Y107.738 E.74268
G1 X91.063 Y106.442 E.0391
G1 X91.151 Y85.104 E.63356
G1 X91.559 Y83.441 E.05084
G1 X92.536 Y82.293 E.04476
G1 X92.815 Y82.549 F4800
G1 F1440
G1 X93.014 Y82.333 E.00872
G1 X94.837 Y81.776 E.0566
G1 X119.312 Y81.571 E.72672
G1 X130.59 Y81.571 E.33486
G1 X132.168 Y81.965 E.04829
G1 X133.376 Y83.055 E.04831
G1 X133.943 Y84.754 E.05318
G1 X134.523 Y95.971 E.33349
G1 X134.528 Y106.145 E.30208
G1 X134.206 Y107.579 E.04364
G1 X122.992 Y131.318 E.77953
G1 X121.962 Y132.577 E.0483
G1 X119.957 Y133.241 E.06271
G1 X103.503 Y133.241 E.48854
G1 X101.925 Y132.847 E.04829
G1 X100.357 Y131.055 E.0707
G1 X91.631 Y107.613 E.74268
G1 X91.42 Y106.442 E.03533
G1 X91.508 Y85.107 E.63347
G1 X91.915 Y83.532 E.0483
G1 X92.775 Y82.593 E.03781
; printing object Shape-Box id:0 copy 0
G1 E-3.5 F3600
;WIPE_START
G1 F3840
G1 X93.014 Y82.333 E-.31453
G1 X94.287 Y81.944 E-1.18547
;WIPE_END
G1 X114.832 Y116.389 F4800
G1 E5 F2400
;TYPE:Support material interface
;WIDTH:0.36
G1 F1440
G1 X114.933 Y116.492 E.0038
G1 X114.933 Y117.706 E.03201
G1 X115.35 Y117.706 E.01099
G1 X115.35 Y116.389 E.03472
G1 X115.681 Y116.389 E.00873
G1 X115.681 Y117.706 E.03472
G1 X115.508 Y117.706 E.00456
G1 E-3.5 F3600
;WIPE_START
G1 F3840
G1 X115.681 Y117.706 E-.15408
G1 X115.681 Y116.389 E-1.17295
G1 X115.487 Y116.389 E-.17297
;WIPE_END
G1 X114.933 Y125.609 F4800
G1 E5 F2400
G1 F1440
G1 X114.933 Y126.823 E.03201
G1 X114.832 Y126.926 E.0038
G1 X115.35 Y126.926 E.01366
G1 X115.35 Y125.609 E.03472
G1 X115.681 Y125.609 E.00873
G1 X115.681 Y126.926 E.03472
G1 X115.508 Y126.926 E.00456
G1 E-3.5 F3600
;WIPE_START
G1 F3840
G1 X115.681 Y126.926 E-.15408
G1 X115.681 Y125.609 E-1.17295
G1 X115.487 Y125.609 E-.17297
;WIPE_END
G1 X119.957 Y129.884 F4800
G1 E5 F2400
;TYPE:Support material
;WIDTH:0.4
G1 F1440
G1 X103.503 Y129.884 E.48854
G1 X103.503 Y113.431 E.48851
G1 X119.957 Y113.431 E.48854
G1 X119.957 Y129.831 E.48694
G1 E-3.5 F3600
;WIPE_START
G1 F3840
G1 X119.957 Y128.147 E-1.5
;WIPE_END
G1 X114.005 Y116.218 F4800
G1 E5 F2400
G1 F1440
G1 X114.005 Y116.031 E.00555
G1 X116.04 Y116.031 E.06042
G1 X116.04 Y118.065 E.06039
G1 X114.742 Y118.065 E.03854
G1 X114.742 Y125.25 E.21333
G1 X116.04 Y125.25 E.03854
G1 X116.04 Y127.285 E.06042
G1 X114.005 Y127.285 E.06042
G1 X114.005 Y127.098 E.00555
G1 X113.918 Y127.098 E.00258
G1 X113.66 Y126.84 E.01083
G1 X113.66 Y116.475 E.30775
G1 X113.918 Y116.218 E.01081
G1 X113.952 Y116.218 E.00101
G1 E-3.5 F3600
;WIPE_START
G1 F3840
G1 X113.918 Y116.218 E-.03028
G1 X113.66 Y116.475 E-.32433
G1 X113.66 Y117.761 E-1.14539
;WIPE_END
G1 X119.268 Y129.724 F4800
G1 E5 F2400
G1 F1440
G1 X119.268 Y113.752 E.47423
G1 X118.872 Y113.752 E.01176
G1 X118.872 Y129.563 E.46945
G1 X118.475 Y129.563 E.01179
G1 X118.475 Y113.752 E.46945
G1 X118.078 Y113.752 E.01179
G1 X118.078 Y129.563 E.46945
G1 X117.681 Y129.563 E.01179
G1 X117.681 Y113.752 E.46945
G1 X117.285 Y113.752 E.01176
G1 X117.285 Y129.563 E.46945
G1 X116.888 Y129.563 E.01179
G1 X116.888 Y113.752 E.46945
G1 X116.491 Y113.752 E.01179
G1 X116.491 Y129.563 E.46945
G1 X116.094 Y129.563 E.01179
G1 X116.094 Y127.606 E.05811
G1 X115.698 Y127.606 E.01176
G1 X115.698 Y129.563 E.05811
G1 X115.301 Y129.563 E.01179
G1 X115.301 Y127.606 E.05811
G1 X114.904 Y127.606 E.01179
G1 X114.904 Y129.563 E.05811
G1 X114.507 Y129.563 E.01179
G1 X114.507 Y127.606 E.05811
G1 X114.111 Y127.606 E.01176
G1 X114.111 Y129.563 E.05811
G1 X113.714 Y129.563 E.01179
G1 X113.714 Y127.606 E.05811
G1 X113.684 Y127.606 E.00089
G1 X113.684 Y127.318 E.00855
G1 X113.339 Y126.973 E.01449
G1 X113.339 Y116.342 E.31565
G1 X113.684 Y115.997 E.01449
G1 X113.684 Y115.709 E.00855
G1 X113.714 Y115.709 E.00089
G1 X113.714 Y113.752 E.05811
G1 X114.111 Y113.752 E.01179
G1 X114.111 Y115.709 E.05811
G1 X114.507 Y115.709 E.01176
G1 X114.507 Y113.752 E.05811
G1 X114.904 Y113.752 E.01179
G1 X114.904 Y115.709 E.05811
G1 X115.301 Y115.709 E.01179
G1 X115.301 Y113.752 E.05811
G1 X115.698 Y113.752 E.01179
G1 X115.698 Y115.709 E.05811
G1 X116.094 Y115.709 E.01176
G1 X116.094 Y113.591 E.06289
G1 X116.094 Y125.089 F4800
G1 F1440
G1 X116.094 Y118.386 E.19902
G1 X115.698 Y118.386 E.01176
G1 X115.698 Y124.929 E.19427
G1 X115.301 Y124.929 E.01179
G1 X115.301 Y118.226 E.19902
G1 E-3.5 F3600
;WIPE_START
G1 F3840
G1 X115.301 Y119.91 E-1.5
;WIPE_END
G1 X113.317 Y129.724 F4800
G1 E5 F2400
G1 F1440
G1 X113.317 Y113.752 E.47423
G1 X112.92 Y113.752 E.01179
G1 X112.92 Y129.563 E.46945
G1 X112.523 Y129.563 E.01179
G1 X112.523 Y113.752 E.46945
G1 X112.127 Y113.752 E.01176
G1 X112.127 Y129.563 E.46945
G1 X111.73 Y129.563 E.01179
G1 X111.73 Y113.752 E.46945
G1 X111.333 Y113.752 E.01179
G1 X111.333 Y129.563 E.46945
G1 X110.936 Y129.563 E.01179
G1 X110.936 Y113.752 E.46945
G1 X110.54 Y113.752 E.01176
G1 X110.54 Y129.563 E.46945
G1 X110.143 Y129.563 E.01179
G1 X110.143 Y113.752 E.46945
G1 X109.746 Y113.752 E.01179
G1 X109.746 Y129.563 E.46945
G1 X109.349 Y129.563 E.01179
G1 X109.349 Y113.752 E.46945
G1 X108.953 Y113.752 E.01176
G1 X108.953 Y129.563 E.46945
G1 X108.556 Y129.563 E.01179
G1 X108.556 Y113.752 E.46945
G1 X108.159 Y113.752 E.01179
G1 X108.159 Y129.563 E.46945
G1 X107.762 Y129.563 E.01179
G1 X107.762 Y113.752 E.46945
G1 X107.366 Y113.752 E.01176
G1 X107.366 Y129.563 E.46945
G1 X106.969 Y129.563 E.01179
G1 X106.969 Y113.752 E.46945
G1 X106.572 Y113.752 E.01179
G1 X106.572 Y129.563 E.46945
G1 X106.175 Y129.563 E.01179
G1 X106.175 Y113.752 E.46945
G1 X105.779 Y113.752 E.01176
G1 X105.779 Y129.563 E.46945
G1 X105.382 Y129.563 E.01179
G1 X105.382 Y113.752 E.46945
G1 X104.985 Y113.752 E.01179
G1 X104.985 Y129.563 E.46945
G1 X104.588 Y129.563 E.01179
G1 X104.588 Y113.752 E.46945
G1 X104.192 Y113.752 E.01176
G1 X104.192 Y129.724 E.47423
G1 E-3.5 F3600
;WIPE_START
G1 F3840
G1 X104.192 Y128.04 E-1.5
;WIPE_END
G1 X114.201 Y126.556 F4800
G1 E5 F2400
;TYPE:External perimeter
;WIDTH:0.38292
G1 F1440
G1 X114.201 Y116.759 E.27697
; stop printing object Shape-Box id:0 copy 0
; printing object Shape-Box id:0 copy 0
G1 E-3.5 F3600
;WIPE_START
G1 F3840
G1 X114.201 Y118.443 E-1.5
;WIPE_END
G1 X130.157 Y105.131 F4800
G1 E5 F2400
;TYPE:Perimeter
;WIDTH:0.399999
G1 F1440
G1 X120.935 Y105.131 E.27381
G1 X120.935 Y97.159 E.2367
G1 X130.157 Y97.159 E.27381
G1 X130.157 Y105.071 E.23492
G1 X130.514 Y105.488 F4800
G1 F1440
G1 X120.578 Y105.488 E.29501
G1 X120.578 Y96.802 E.2579
G1 X130.514 Y96.802 E.29501
G1 X130.514 Y105.428 E.25612
G1 X130.871 Y105.845 F4800
;TYPE:External perimeter
G1 F1440
G1 X120.221 Y105.845 E.31621
G1 X120.221 Y96.445 E.2791
G1 X130.871 Y96.445 E.31621
G1 X130.871 Y105.785 E.27732
G1 X130.482 Y105.749 F4800
G1 E-3.5 F3600
;WIPE_START
G1 F3840
G1 X129.187 Y105.794 E-1.5
;WIPE_END
G1 X129.314 Y97.273 F4800
G1 E5 F2400
;TYPE:Solid infill
;WIDTH:0.403068
G1 F1440
G1 X129.882 Y97.841 E.02406
G1 X129.882 Y98.35 E.01524
G1 X128.965 Y97.434 E.03881
G1 X128.456 Y97.434 E.01524
G1 X129.882 Y98.859 E.06037
G1 X129.882 Y99.369 E.01527
G1 X127.947 Y97.434 E.08195
G1 X127.437 Y97.434 E.01527
G1 X129.882 Y99.878 E.10353
G1 X129.882 Y100.387 E.01524
G1 X126.928 Y97.434 E.12508
G1 X126.419 Y97.434 E.01524
G1 X129.882 Y100.897 E.14666
G1 X129.882 Y101.406 E.01524
G1 X125.909 Y97.434 E.16824
G1 X125.4 Y97.434 E.01524
G1 X129.882 Y101.915 E.18979
G1 X129.882 Y102.425 E.01527
G1 X124.891 Y97.434 E.21137
G1 X124.381 Y97.434 E.01527
G1 X129.882 Y102.934 E.23295
G1 X129.882 Y103.443 E.01524
G1 X123.872 Y97.434 E.25451
G1 X123.363 Y97.434 E.01524
G1 X129.882 Y103.953 E.27608
G1 X129.882 Y104.462 E.01524
G1 X122.854 Y97.434 E.29764
G1 X122.344 Y97.434 E.01527
G1 X129.766 Y104.856 E.31433
G1 X129.257 Y104.856 E.01524
G1 X121.835 Y97.434 E.31433
G1 X121.326 Y97.434 E.01524
G1 X128.747 Y104.856 E.31431
G1 X128.238 Y104.856 E.01524
G1 X121.21 Y97.828 E.29764
G1 X121.21 Y98.337 E.01524
G1 X127.729 Y104.856 E.27608
G1 X127.219 Y104.856 E.01527
G1 X121.21 Y98.846 E.25451
G1 X121.21 Y99.356 E.01527
G1 X126.71 Y104.856 E.23293
G1 X126.201 Y104.856 E.01524
G1 X121.21 Y99.865 E.21137
G1 X121.21 Y100.374 E.01524
G1 X125.691 Y104.856 E.18979
G1 X125.182 Y104.856 E.01524
G1 X121.21 Y100.884 E.16822
G1 X121.21 Y101.393 E.01524
G1 X124.673 Y104.856 E.14666
G1 X124.163 Y104.856 E.01527
G1 X121.21 Y101.902 E.12508
G1 X121.21 Y102.411 E.01524
G1 X123.654 Y104.856 E.10353
G1 X123.145 Y104.856 E.01524
G1 X121.21 Y102.921 E.08195
G1 X121.21 Y103.43 E.01524
G1 X122.635 Y104.856 E.06037
G1 X122.126 Y104.856 E.01524
G1 X121.21 Y103.939 E.03881
G1 X121.21 Y104.449 E.01527
G1 X121.777 Y105.016 E.02401
; stop printing object Shape-Box id:0 copy 0
; printing object Shape-Box id:0 copy 0
G1 E-3.5 F3600
;WIPE_START
G1 F3840
G1 X121.21 Y104.449 E-.71416
G1 X121.21 Y103.939 E-.45422
G1 X121.473 Y104.202 E-.33162
;WIPE_END
G1 X129.576 Y93.914 F4800
G1 E5 F2400
;TYPE:Perimeter
;WIDTH:0.399999
G1 F1440
G1 X120.354 Y93.914 E.27381
G1 X120.354 Y85.942 E.2367
G1 X129.576 Y85.942 E.27381
G1 X129.576 Y93.854 E.23492
G1 X129.933 Y94.271 F4800
G1 F1440
G1 X119.997 Y94.271 E.29501
G1 X119.997 Y85.585 E.2579
G1 X129.933 Y85.585 E.29501
G1 X129.933 Y94.211 E.25612
G1 X130.29 Y94.628 F4800
;TYPE:External perimeter
G1 F1440
G1 X119.64 Y94.628 E.31621
G1 X119.64 Y85.228 E.2791
G1 X130.29 Y85.228 E.31621
G1 X130.29 Y94.568 E.27732
G1 X129.902 Y94.532 F4800
G1 E-3.5 F3600
;WIPE_START
G1 F3840
G1 X128.606 Y94.577 E-1.5
;WIPE_END
G1 X128.733 Y86.056 F4800
G1 E5 F2400
;TYPE:Solid infill
;WIDTH:0.403068
G1 F1440
G1 X129.301 Y86.624 E.02406
G1 X129.301 Y87.133 E.01524
G1 X128.385 Y86.217 E.03879
G1 X127.875 Y86.217 E.01527
G1 X129.301 Y87.643 E.06039
G1 X129.301 Y88.152 E.01524
G1 X127.366 Y86.217 E.08195
G1 X126.857 Y86.217 E.01524
G1 X129.301 Y88.661 E.1035
G1 X129.301 Y89.171 E.01527
G1 X126.348 Y86.217 E.12508
G1 X125.838 Y86.217 E.01527
G1 X129.301 Y89.68 E.14666
G1 X129.301 Y90.189 E.01524
G1 X125.329 Y86.217 E.16822
G1 X124.82 Y86.217 E.01524
G1 X129.301 Y90.699 E.18979
G1 X129.301 Y91.208 E.01524
G1 X124.31 Y86.217 E.21137
G1 X123.801 Y86.217 E.01524
G1 X129.301 Y91.717 E.23293
G1 X129.301 Y92.227 E.01527
G1 X123.292 Y86.217 E.25451
G1 X122.782 Y86.217 E.01527
G1 X129.301 Y92.736 E.27608
G1 X129.301 Y93.245 E.01524
G1 X122.273 Y86.217 E.29764
G1 X121.764 Y86.217 E.01524
G1 X129.185 Y93.639 E.31431
G1 X128.676 Y93.639 E.01524
G1 X121.254 Y86.217 E.31433
G1 X120.745 Y86.217 E.01524
G1 X128.167 Y93.639 E.31433
G1 X127.657 Y93.639 E.01527
G1 X120.629 Y86.611 E.29764
G1 X120.629 Y87.12 E.01524
G1 X127.148 Y93.639 E.27608
G1 X126.639 Y93.639 E.01524
G1 X120.629 Y87.629 E.25453
G1 X120.629 Y88.139 E.01527
G1 X126.129 Y93.639 E.23293
G1 X125.62 Y93.639 E.01524
G1 X120.629 Y88.648 E.21137
G1 X120.629 Y89.157 E.01524
G1 X125.111 Y93.639 E.18982
G1 X124.601 Y93.639 E.01527
G1 X120.629 Y89.667 E.16822
G1 X120.629 Y90.176 E.01524
G1 X124.092 Y93.639 E.14666
G1 X123.583 Y93.639 E.01524
G1 X120.629 Y90.685 E.1251
G1 X120.629 Y91.195 E.01527
G1 X123.073 Y93.639 E.1035
G1 X122.564 Y93.639 E.01524
G1 X120.629 Y91.704 E.08195
G1 X120.629 Y92.213 E.01524
G1 X122.055 Y93.639 E.06039
G1 X121.545 Y93.639 E.01527
G1 X120.629 Y92.723 E.03879
G1 X120.629 Y93.232 E.01524
G1 X121.197 Y93.8 E.02406
G1 E-3.5 F3600
;WIPE_START
G1 F3840
G1 X120.629 Y93.232 E-.71542
G1 X120.629 Y92.723 E-.45333
G1 X120.892 Y92.986 E-.33125
;WIPE_END
G1 X130.315 Y85.133 F4800
G1 E5 F2400
;TYPE:Ironing
;WIDTH:0.40161
;HEIGHT:0.0075
G1 F1440
G1 X130.315 Y94.678 E.01191
G1 X130.215 Y94.678 E.00012
G1 X130.215 Y85.178 E.01185
G1 X130.115 Y85.178 E.00012
G1 X130.115 Y94.678 E.01185
G1 X130.015 Y94.678 E.00012
G1 X130.015 Y85.178 E.01185
G1 X129.915 Y85.178 E.00012
G1 X129.915 Y94.678 E.01185
G1 X129.815 Y94.678 E.00012
G1 X129.815 Y85.178 E.01185
G1 X129.715 Y85.178 E.00012
G1 X129.715 Y94.678 E.01185
G1 X129.615 Y94.678 E.00012
G1 X129.615 Y85.178 E.01185
G1 X129.515 Y85.178 E.00012
G1 X129.515 Y94.678 E.01185
