; generated by PrusaSlicer 2.6.0-rc2+MacOS-x64 on 2023-06-14 at 22:44:11 UTC

; 

; external perimeters extrusion width = 0.42mm
; perimeters extrusion width = 0.44mm
; infill extrusion width = 0.44mm
; solid infill extrusion width = 0.44mm
; top infill extrusion width = 0.40mm
; first layer extrusion width = 0.42mm

M201 X500 Y500 Z100 E5000 ; sets maximum accelerations, mm/sec^2
M203 X500 Y500 Z10 E60 ; sets maximum feedrates, mm / sec
M204 S500 T1000 ; sets acceleration (S) and retract acceleration (R), mm/sec^2
M205 X8.00 Y8.00 Z0.40 E5.00 ; sets the jerk limits, mm/sec
M205 S0 T0 ; sets the minimum extruding and travel feed rate, mm/sec
;TYPE:Custom
; Ender 3 Custom Start G-code
G92 E0 ; Reset Extruder

M140 S50 ; set bed temp
M190 S50 ; wait for bed temp

G28 ; Home all axes
M104 S205 ; set extruder temp 
BED_MESH_CALIBRATE AREA_START=94.2314,68.3 AREA_END=134.231,108.3

G1 Z2.0 F3000 ; Move Z Axis up little to prevent scratching of Heat Bed
M109 S205 ; wait for extruder temp
G1 X0.1 Y20 Z0.3 F5000.0 ; Move to start position

G1 X0.1 Y200.0 Z0.3 F1500.0 E15 ; Draw the first line
G1 X0.4 Y200.0 Z0.3 F5000.0 ; Move to side a little
G1 X0.4 Y20 Z0.3 F1500.0 E30 ; Draw the second line
G92 E0 ; Reset Extruder
G1 Z2.0 F3000 ; Move Z Axis up little to prevent scratching of Heat Bed
G1 X5 Y20 Z0.3 F5000.0 ; Move over to prevent blob squish
G21 ; set units to millimeters
G90 ; use absolute coordinates
M83 ; use relative distances for extrusion
; Filament gcode
M107
;LAYER_CHANGE
;Z:0.2
;HEIGHT:0.2
;BEFORE_LAYER_CHANGE
G92 E0
;0.2


G1 E-1.6 F2400
G1 Z.2 F6000
;AFTER_LAYER_CHANGE
;0.2
; printing object Shape-Box id:0 copy 0
G1 X98.066 Y84.074
G1 E1.6 F2400
M204 S500
;TYPE:External perimeter
;WIDTH:0.419999
G1 F1200
G1 X97.835 Y84.152 E.0068
G1 X97.509 Y84.164 E.0091
G1 X97.328 Y84.081 E.00556
G1 X97.211 Y83.935 E.00522
G1 X97.191 Y83.629 E.00856
G1 X97.3 Y83.395 E.0072
G1 X97.507 Y83.279 E.00662
G1 X97.831 Y83.341 E.00921
G1 X97.959 Y83.472 E.00511
G1 X98.062 Y83.83 E.0104
G1 X98.065 Y84.014 E.00514
G1 X97.83 Y84.014 F6000
G1 X97.64 Y83.704
;TYPE:Perimeter
;WIDTH:0.503152
G1 F1200
G1 X97.582 Y83.704 E.00198
G1 X97.554 Y83.753 E.00192
G1 X97.582 Y83.803 E.00195
G1 X97.64 Y83.803 E.00198
G1 X97.669 Y83.753 E.00197
G1 E-1.12 F2400
;WIPE_START
G1 F4800
G1 X97.64 Y83.803 E-.02746
G1 X97.582 Y83.803 E-.02755
G1 X97.554 Y83.753 E-.02722
G1 X97.582 Y83.704 E-.02681
G1 X97.64 Y83.704 E-.02755
;WIPE_END
G1 E-.34341 F2400
G1 X102.602 Y85.136 F6000
G1 E1.6 F2400
;TYPE:External perimeter
;WIDTH:0.503069
G1 F1200
G1 X102.629 Y84.949 E.00643
G1 X102.755 Y84.794 E.0068
G1 X103.125 Y84.948 E.01365
G1 X103.25 Y85.092 E.00649
G1 X103.216 Y85.239 E.00514
G1 X103.03 Y85.322 E.00694
G1 X102.732 Y85.284 E.01023
G1 X102.641 Y85.181 E.00468
G1 X102.731 Y84.999 F6000
G1 X103.157 Y84.071
;WIDTH:0.419999
G1 F1200
G1 X102.795 Y83.927 E.01087
G1 X102.545 Y83.773 E.00819
G1 X102.518 Y83.676 E.00281
G1 X102.519 Y83.456 E.00614
G1 X102.662 Y83.302 E.00586
G1 X102.933 Y83.242 E.00775
G1 X103.191 Y83.311 E.00745
G1 X103.349 Y83.494 E.00675
G1 X103.37 Y83.684 E.00533
G1 X103.342 Y83.867 E.00517
G1 X103.197 Y84.027 E.00603
G1 X102.929 Y83.756 F6000
G1 E-1.12 F2400
;WIPE_START
G1 F4800
G1 X102.795 Y83.927 E-.19677
G1 X102.545 Y83.773 E-.13947
G1 X102.518 Y83.676 E-.04783
G1 X102.519 Y83.474 E-.09593
;WIPE_END
G1 X106.947 Y84.803 F6000
G1 E1.6 F2400
;WIDTH:0.389763
G1 F1200
G1 X106.947 Y84.162 E.01645
G1 X107.498 Y84.162 E.01414
G1 X106.986 Y84.758 E.02017
G1 X106.947 Y84.403 F6000
G1 E-1.12 F2400
;WIPE_START
G1 F4800
G1 X106.947 Y84.162 E-.28371
G1 X107.36 Y84.162 E-.19629
;WIPE_END
G1 X112.227 Y84.803 F6000
G1 E1.6 F2400
;WIDTH:0.389764
G1 F1200
G1 X112.227 Y84.162 E.01645
G1 X112.778 Y84.162 E.01414
G1 X112.266 Y84.758 E.02017
G1 X112.227 Y84.403 F6000
G1 E-1.12 F2400
;WIPE_START
G1 F4800
G1 X112.227 Y84.162 E-.28371
G1 X112.64 Y84.162 E-.19629
;WIPE_END
G1 X115.998 Y84.521 F6000
G1 E1.6 F2400
;WIDTH:0.419999
G1 F1200
G1 X116.379 Y84.431 E.01092
G1 X116.653 Y84.462 E.00769
G1 X116.825 Y84.589 E.00597
G1 X116.864 Y84.764 E.005
G1 X116.845 Y85.078 E.00878
G1 X116.704 Y85.257 E.00636
G1 X116.472 Y85.328 E.00677
G1 X116.237 Y85.265 E.00679
G1 X116.128 Y85.137 E.00469
G1 X116.038 Y84.955 E.00567
G1 X116.003 Y84.581 E.01048
G1 X116.372 Y84.637 F6000
G1 X116.47 Y84.797
;TYPE:Perimeter
;WIDTH:0.500446
G1 F1200
G1 X116.412 Y84.797 E.00196
G1 X116.384 Y84.846 E.00191
G1 X116.412 Y84.896 E.00194
G1 X116.47 Y84.896 E.00196
G1 X116.498 Y84.846 E.00194
G1 E-1.12 F2400
;WIPE_START
G1 F4800
G1 X116.47 Y84.896 E-.02722
G1 X116.412 Y84.896 E-.02755
G1 X116.384 Y84.846 E-.02722
G1 X116.412 Y84.797 E-.02681
G1 X116.47 Y84.797 E-.02755
;WIPE_END
G1 E-.34365 F2400
G1 X116.603 Y77.175 F6000
G1 E1.6 F2400
;TYPE:External perimeter
;WIDTH:0.419999
G1 F1200
G1 X116.449 Y77.041 E.0057
G1 X116.393 Y76.742 E.00849
G1 X116.434 Y76.401 E.00958
G1 X116.53 Y76.242 E.00518
G1 X116.776 Y76.178 E.00709
G1 X116.979 Y76.259 E.0061
G1 X117.114 Y76.466 E.0069
G1 X117.14 Y76.756 E.00812
G1 X117.128 Y76.853 E.00273
G1 X117.015 Y77.096 E.00748
G1 X116.868 Y77.208 E.00516
G1 X116.662 Y77.183 E.00579
G1 X116.581 Y76.972 F6000
G1 E-1.12 F2400
;WIPE_START
G1 F4800
G1 X116.449 Y77.041 E-.1216
G1 X116.393 Y76.742 E-.14449
G1 X116.434 Y76.401 E-.16314
G1 X116.489 Y76.309 E-.05077
;WIPE_END
G1 X112.906 Y75.74 F6000
G1 E1.6 F2400
;WIDTH:0.356043
G1 F1200
G1 X112.417 Y76.331 E.01777
G1 X112.417 Y75.74 E.01369
G1 X112.846 Y75.74 E.00994
G1 X112.651 Y76.048 F6000
G1 E-1.12 F2400
;WIPE_START
G1 F4800
G1 X112.417 Y76.331 E-.34689
G1 X112.417 Y76.051 E-.13311
;WIPE_END
G1 X107.68 Y75.74 F6000
G1 E1.6 F2400
G1 F1200
G1 X107.19 Y76.331 E.01779
G1 X107.19 Y75.74 E.01369
G1 X107.62 Y75.74 E.00996
G1 X107.424 Y76.048 F6000
G1 E-1.12 F2400
;WIPE_START
G1 F4800
G1 X107.19 Y76.331 E-.34717
G1 X107.19 Y76.051 E-.13283
;WIPE_END
G1 X103.496 Y77.097 F6000
G1 E1.6 F2400
;WIDTH:0.468088
G1 F1200
G1 X103.406 Y77.177 E.00379
G1 X103.161 Y77.176 E.00771
G1 X103.049 Y77.078 E.00468
G1 X103.055 Y76.878 E.0063
G1 X103.183 Y76.67 E.00768
G1 X103.472 Y76.898 E.01158
G1 X103.505 Y77.038 E.00453
G1 X103.378 Y77.117 F6000
G1 X103.344 Y75.733
;WIDTH:0.419999
G1 F1200
G1 X102.976 Y75.475 E.01254
G1 X102.883 Y75.275 E.00615
G1 X102.942 Y74.971 E.00864
G1 X103.035 Y74.895 E.00335
G1 X103.207 Y74.809 E.00537
G1 X103.499 Y74.862 E.00828
G1 X103.638 Y75.045 E.00641
G1 X103.657 Y75.266 E.00619
G1 X103.568 Y75.528 E.00772
G1 X103.388 Y75.693 E.00681
G1 X103.173 Y75.372 F6000
G1 E-1.12 F2400
;WIPE_START
G1 F4800
G1 X102.976 Y75.475 E-.22141
G1 X102.883 Y75.275 E-.10477
G1 X102.942 Y74.971 E-.14709
G1 X102.953 Y74.962 E-.00673
;WIPE_END
G1 X98.076 Y75.797 F6000
G1 E1.6 F2400
G1 F1200
G1 X97.88 Y75.778 E.0055
G1 X97.732 Y75.63 E.00584
G1 X97.66 Y75.284 E.00986
G1 X97.73 Y75.001 E.00814
G1 X97.88 Y74.818 E.0066
G1 X98.14 Y74.813 E.00726
G1 X98.318 Y74.898 E.0055
G1 X98.403 Y75.116 E.00653
G1 X98.415 Y75.226 E.00309
G1 X98.371 Y75.6 E.01051
G1 X98.28 Y75.751 E.00492
G1 X98.135 Y75.784 E.00415
G1 X97.956 Y75.641 F6000
G1 E-1.12 F2400
;WIPE_START
G1 F4800
G1 X97.88 Y75.778 E-.12116
G1 X97.732 Y75.63 E-.09942
G1 X97.66 Y75.284 E-.16787
G1 X97.706 Y75.097 E-.09155
;WIPE_END
G1 X125.739 Y74.971 F6000
G1 E1.6 F2400
G1 F1200
G1 X125.832 Y74.895 E.00335
G1 X126.004 Y74.809 E.00537
G1 X126.296 Y74.862 E.00828
G1 X126.435 Y75.045 E.00641
G1 X126.454 Y75.266 E.00619
G1 X126.365 Y75.528 E.00772
G1 X126.141 Y75.733 E.00847
G1 X125.773 Y75.475 E.01254
G1 X125.68 Y75.275 E.00615
G1 X125.728 Y75.029 E.00699
G1 X125.859 Y74.976 F6000
G1 X125.98 Y76.67
;WIDTH:0.468087
G1 F1200
G1 X126.269 Y76.898 E.01158
G1 X126.302 Y77.034 E.0044
G1 X126.293 Y77.097 E.002
G1 X126.203 Y77.177 E.00379
G1 X125.958 Y77.176 E.00771
G1 X125.846 Y77.078 E.00468
G1 X125.852 Y76.878 E.0063
G1 X125.949 Y76.721 E.00581
G1 X126.155 Y76.994 F6000
G1 E-1.12 F2400
;WIPE_START
G1 F4800
G1 X126.269 Y76.898 E-.1737
G1 X126.302 Y77.034 E-.06647
G1 X126.293 Y77.097 E-.03023
G1 X126.203 Y77.177 E-.0572
G1 X125.958 Y77.176 E-.11638
G1 X125.901 Y77.126 E-.03602
;WIPE_END
G1 X128.486 Y76.331 F6000
G1 E1.6 F2400
;WIDTH:0.356042
G1 F1200
G1 X128.486 Y75.74 E.01369
G1 X128.975 Y75.74 E.01133
G1 X128.524 Y76.284 E.01637
G1 X128.486 Y75.931 F6000
G1 E-1.12 F2400
;WIPE_START
G1 F4800
G1 X128.486 Y75.74 E-.25903
G1 X128.951 Y75.74 E-.22097
;WIPE_END
G1 X125.379 Y83.456 F6000
G1 E1.6 F2400
;WIDTH:0.419999
G1 F1200
G1 X125.522 Y83.302 E.00586
G1 X125.793 Y83.242 E.00775
G1 X126.051 Y83.311 E.00745
G1 X126.209 Y83.494 E.00675
G1 X126.231 Y83.684 E.00534
G1 X126.202 Y83.867 E.00517
G1 X126.017 Y84.071 E.00768
G1 X125.655 Y83.927 E.01087
G1 X125.406 Y83.773 E.00817
G1 X125.379 Y83.676 E.00281
G1 X125.379 Y83.516 E.00446
G1 X125.589 Y83.445 F6000
G1 X125.49 Y84.949
;WIDTH:0.503069
G1 F1200
G1 X125.615 Y84.794 E.00678
G1 X125.986 Y84.948 E.01368
G1 X126.11 Y85.092 E.00647
G1 X126.076 Y85.239 E.00514
G1 X125.89 Y85.322 E.00694
G1 X125.592 Y85.284 E.01023
G1 X125.462 Y85.136 E.00671
G1 X125.481 Y85.008 E.00441
G1 X125.687 Y84.916 F6000
G1 E-1.12 F2400
;WIPE_START
G1 F4800
G1 X125.615 Y84.794 E-.11993
G1 X125.986 Y84.948 E-.1908
G1 X126.11 Y85.092 E-.09026
G1 X126.076 Y85.239 E-.07167
G1 X126.062 Y85.245 E-.00734
;WIPE_END
G1 X128.347 Y84.803 F6000
G1 E1.6 F2400
;WIDTH:0.389762
G1 F1200
G1 X128.347 Y84.162 E.01645
G1 X128.898 Y84.162 E.01414
G1 X128.386 Y84.758 E.02017
G1 X128.347 Y84.403 F6000
G1 E-1.12 F2400
;WIPE_START
G1 F4800
G1 X128.347 Y84.162 E-.28371
G1 X128.76 Y84.162 E-.19629
;WIPE_END
G1 X116.714 Y101.198 F6000
G1 E1.6 F2400
;WIDTH:0.456903
G1 F1200
G1 X116.841 Y101.275 E.00455
G1 X116.893 Y101.478 E.00642
;WIDTH:0.459924
G1 X116.893 Y102.071 E.0183
G1 X116.828 Y102.357 E.00905
;WIDTH:0.456902
G1 X116.692 Y102.399 E.00436
G1 X116.529 Y102.343 E.00528
;WIDTH:0.459924
G1 X116.476 Y102.072 E.00852
G1 X116.496 Y101.331 E.02288
;WIDTH:0.456903
G1 X116.592 Y101.202 E.00493
G1 X116.654 Y101.2 E.0019
G1 X116.764 Y101.338 F6000
G1 E-1.12 F2400
;WIPE_START
G1 F4800
G1 X116.841 Y101.275 E-.0957
G1 X116.893 Y101.478 E-.09954
G1 X116.893 Y102.071 E-.28167
G1 X116.892 Y102.077 E-.00309
;WIPE_END
G1 X112.629 Y100.387 F6000
G1 E1.6 F2400
;WIDTH:0.631192
G1 F1200
G1 X112.556 Y100.387 E.00318
G1 X112.519 Y100.451 E.00322
G1 X112.556 Y100.514 E.00318
G1 X112.629 Y100.514 E.00318
G1 X112.666 Y100.451 E.00318
G1 E-1.12 F2400
;WIPE_START
G1 F4800
G1 X112.629 Y100.514 E-.0347
G1 X112.556 Y100.514 E-.03468
G1 X112.519 Y100.451 E-.0347
G1 X112.556 Y100.387 E-.03511
G1 X112.629 Y100.387 E-.03468
;WIPE_END
G1 E-.30613 F2400
G1 X107.063 Y100.387 F6000
G1 E1.6 F2400
G1 F1200
G1 X106.989 Y100.387 E.00322
G1 X106.952 Y100.451 E.00322
G1 X106.989 Y100.514 E.00318
G1 X107.063 Y100.514 E.00322
G1 X107.1 Y100.451 E.00318
G1 E-1.12 F2400
;WIPE_START
G1 F4800
G1 X107.063 Y100.514 E-.0347
G1 X106.989 Y100.514 E-.03515
G1 X106.952 Y100.451 E-.0347
G1 X106.989 Y100.387 E-.03511
G1 X107.063 Y100.387 E-.03515
;WIPE_END
G1 E-.30519 F2400
G1 X102.935 Y101.555 F6000
G1 E1.6 F2400
;WIDTH:0.437475
G1 F1200
G1 X102.996 Y101.727 E.00533
G1 X102.981 Y102.182 E.01329
G1 X102.94 Y102.367 E.00553
G1 X102.793 Y102.411 E.00448
G1 X102.646 Y102.361 E.00453
G1 X102.601 Y102.249 E.00352
G1 X102.601 Y101.715 E.01559
G1 X102.642 Y101.548 E.00502
G1 X102.789 Y101.491 E.0046
G1 X102.88 Y101.531 E.0029
G1 X102.88 Y101.729 F6000
G1 X102.8 Y100.338
;WIDTH:0.474621
G1 F1200
G1 X102.625 Y100.281 E.00588
G1 X102.57 Y100.121 E.00541
;WIDTH:0.489648
G1 X102.586 Y99.446 E.02232
G1 X102.691 Y99.318 E.00547
G1 X102.83 Y99.31 E.0046
G1 X102.972 Y99.397 E.00551
G1 X103.015 Y99.6 E.00686
G1 X103.001 Y100.124 E.01733
;WIDTH:0.474621
G1 X102.955 Y100.29 E.0055
G1 X102.857 Y100.32 E.00327
G1 X102.698 Y100.185 F6000
G1 E-1.12 F2400
;WIPE_START
G1 F4800
G1 X102.625 Y100.281 E-.11175
G1 X102.57 Y100.121 E-.08036
G1 X102.584 Y99.515 E-.28789
;WIPE_END
G1 X97.636 Y100.456 F6000
G1 E1.6 F2400
;WIDTH:0.456907
G1 F1200
G1 X97.503 Y100.498 E.00427
G1 X97.337 Y100.441 E.00538
;WIDTH:0.459926
G1 X97.284 Y100.171 E.00849
G1 X97.304 Y99.43 E.02288
;WIDTH:0.456903
G1 X97.4 Y99.301 E.00493
G1 X97.522 Y99.297 E.00374
G1 X97.649 Y99.374 E.00455
G1 X97.701 Y99.577 E.00642
;WIDTH:0.459926
G1 X97.701 Y100.17 E.0183
G1 X97.649 Y100.397 E.00719
G1 X97.505 Y100.409 F6000
G1 E-1.12 F2400
;WIPE_START
G1 F4800
G1 X97.503 Y100.498 E-.08433
G1 X97.337 Y100.441 E-.08337
G1 X97.284 Y100.171 E-.1307
G1 X97.294 Y99.789 E-.1816
;WIPE_END
G1 X98.706 Y92.918 F6000
G1 E1.6 F2400
;WIDTH:0.378961
G1 F1200
G1 X98.587 Y92.893 E.00302
G1 X98.507 Y92.726 E.0046
G1 X98.537 Y92.466 E.00651
G1 X98.654 Y92.395 E.0034
G1 X98.775 Y92.447 E.00328
G1 X98.843 Y92.619 E.0046
G1 X98.812 Y92.838 E.0055
G1 X98.754 Y92.882 E.00181
G1 X98.622 Y92.83 F6000
G1 E-1.12 F2400
;WIPE_START
G1 F4800
G1 X98.587 Y92.893 E-.0795
G1 X98.507 Y92.726 E-.08796
G1 X98.537 Y92.466 E-.12432
G1 X98.654 Y92.395 E-.06501
G1 X98.775 Y92.447 E-.06256
G1 X98.822 Y92.566 E-.06065
;WIPE_END
G1 X103.622 Y92.493 F6000
G1 E1.6 F2400
;WIDTH:0.367766
G1 F1200
G1 X103.736 Y92.382 E.00383
G1 X103.862 Y92.426 E.00321
G1 X103.927 Y92.573 E.00386
G1 X103.927 Y92.655 E.00197
G1 X103.85 Y92.791 E.00376
G1 X103.715 Y92.803 E.00326
G1 X103.615 Y92.684 E.00374
G1 X103.619 Y92.553 E.00315
G1 X103.781 Y92.479 F6000
G1 E-1.12 F2400
;WIPE_START
G1 F4800
G1 X103.736 Y92.382 E-.09842
G1 X103.862 Y92.426 E-.06339
G1 X103.927 Y92.573 E-.07635
G1 X103.927 Y92.655 E-.03895
G1 X103.85 Y92.791 E-.07424
G1 X103.715 Y92.803 E-.06438
G1 X103.628 Y92.699 E-.06427
;WIPE_END
G1 X107.607 Y93.047 F6000
G1 E1.6 F2400
;WIDTH:0.456908
G1 F1200
G1 X107.555 Y93.047 E.00159
G1 X107.53 Y93.092 E.00158
G1 X107.555 Y93.137 E.00158
G1 X107.607 Y93.137 E.00159
G1 X107.633 Y93.092 E.00159
G1 E-1.12 F2400
;WIPE_START
G1 F4800
G1 X107.607 Y93.137 E-.02469
G1 X107.555 Y93.137 E-.0247
G1 X107.53 Y93.092 E-.02445
G1 X107.555 Y93.047 E-.02445
G1 X107.607 Y93.047 E-.0247
;WIPE_END
G1 E-.35701 F2400
G1 X112.643 Y93.047 F6000
G1 E1.6 F2400
G1 F1200
G1 X112.591 Y93.047 E.00159
G1 X112.566 Y93.092 E.00158
G1 X112.591 Y93.137 E.00158
G1 X112.643 Y93.137 E.00159
G1 X112.669 Y93.092 E.00159
G1 E-1.12 F2400
;WIPE_START
G1 F4800
G1 X112.643 Y93.137 E-.02469
G1 X112.591 Y93.137 E-.0247
G1 X112.566 Y93.092 E-.02445
G1 X112.591 Y93.047 E-.02445
G1 X112.643 Y93.047 E-.0247
;WIPE_END
G1 E-.35701 F2400
G1 X116.271 Y93.768 F6000
G1 E1.6 F2400
;WIDTH:0.378122
G1 F1200
G1 X116.236 Y93.551 E.00545
G1 X116.289 Y93.392 E.00416
G1 X116.404 Y93.337 E.00316
G1 X116.511 Y93.383 E.00289
G1 X116.572 Y93.551 E.00443
G1 X116.572 Y93.635 E.00208
G1 X116.517 Y93.818 E.00474
G1 X116.386 Y93.86 E.00341
G1 X116.318 Y93.806 E.00215
G1 X116.373 Y93.574 F6000
G1 E-1.12 F2400
;WIPE_START
G1 F4800
G1 X116.236 Y93.551 E-.12723
G1 X116.289 Y93.392 E-.07961
G1 X116.404 Y93.337 E-.06055
G1 X116.511 Y93.383 E-.05532
G1 X116.572 Y93.551 E-.0849
G1 X116.572 Y93.635 E-.0399
G1 X116.552 Y93.701 E-.03249
;WIPE_END
G1 X125.025 Y92.493 F6000
G1 E1.6 F2400
;WIDTH:0.367766
G1 F1200
G1 X125.139 Y92.382 E.00383
G1 X125.265 Y92.426 E.00321
G1 X125.33 Y92.573 E.00386
G1 X125.331 Y92.655 E.00197
G1 X125.253 Y92.791 E.00377
G1 X125.118 Y92.803 E.00326
G1 X125.018 Y92.684 E.00374
G1 X125.023 Y92.553 E.00315
G1 X125.184 Y92.479 F6000
G1 E-1.12 F2400
;WIPE_START
G1 F4800
G1 X125.139 Y92.382 E-.09815
G1 X125.265 Y92.426 E-.06339
G1 X125.33 Y92.573 E-.07635
G1 X125.331 Y92.655 E-.03895
G1 X125.253 Y92.791 E-.07447
G1 X125.118 Y92.803 E-.06438
G1 X125.031 Y92.699 E-.06431
;WIPE_END
G1 X127.751 Y93.047 F6000
G1 E1.6 F2400
;WIDTH:0.456906
G1 F1200
G1 X127.7 Y93.047 E.00156
G1 X127.674 Y93.092 E.00159
G1 X127.7 Y93.137 E.00159
G1 X127.751 Y93.137 E.00156
G1 X127.777 Y93.092 E.00159
G1 E-1.12 F2400
;WIPE_START
G1 F4800
G1 X127.751 Y93.137 E-.02469
G1 X127.7 Y93.137 E-.02423
G1 X127.674 Y93.092 E-.02469
G1 X127.7 Y93.047 E-.02469
G1 X127.751 Y93.047 E-.02423
;WIPE_END
G1 E-.35747 F2400
G1 X125.92 Y99.31 F6000
G1 E1.6 F2400
;WIDTH:0.489646
G1 F1200
G1 X126.063 Y99.397 E.00553
G1 X126.106 Y99.6 E.00686
G1 X126.092 Y100.124 E.01733
;WIDTH:0.474623
