; generated by PrusaSlicer 2.6.0-alpha4+MacOS-x64 on 2023-02-27 at 23:44:38 UTC

; 

; external perimeters extrusion width = 0.42mm
; perimeters extrusion width = 0.44mm
; infill extrusion width = 0.44mm
; solid infill extrusion width = 0.44mm
; top infill extrusion width = 0.40mm
; first layer extrusion width = 0.42mm

M201 X500 Y500 Z100 E5000 ; sets maximum accelerations, mm/sec^2
M203 X500 Y500 Z10 E60 ; sets maximum feedrates, mm / sec
M204 P500 R1000 T500 ; sets acceleration (P, T) and retract acceleration (R), mm/sec^2
M205 X8.00 Y8.00 Z0.40 E5.00 ; sets the jerk limits, mm/sec
M205 S0 T0 ; sets the minimum extruding and travel feed rate, mm/sec
M107
;TYPE:Custom
START_PRINT BED_TEMP={material_bed_temperature_layer_0} EXTRUDER_TEMP={material_print_temperature_layer_0};
M109 S210 ; set temperature and wait for it to be reached
G21 ; set units to millimeters
G90 ; use absolute coordinates
M83 ; use relative distances for extrusion
; Filament gcode
M107
;LAYER_CHANGE
;Z:0.2
;HEIGHT:0.2
;BEFORE_LAYER_CHANGE
G92 E0
;0.2


G1 E-5 F3600
G1 Z.2 F9000
;AFTER_LAYER_CHANGE
;0.2
G1 X22.549 Y23.078
G1 E5 F2400
M204 S500
;TYPE:Skirt/Brim
;WIDTH:0.42
G1 F1200
G1 X23.383 Y22.275 E.0363
G1 X24.2 Y21.634 E.03256
G1 X25.178 Y21.015 E.03629
G1 X26.216 Y20.503 E.03629
G1 X28.166 Y19.877 E.06421
G1 X29.189 Y19.703 E.03254
G1 X30.344 Y19.624 E.0363
G1 X200.464 Y19.623 E5.33399
G1 X202.385 Y19.788 E.06045
G1 X203.513 Y20.049 E.0363
G1 X204.496 Y20.384 E.03256
G1 X206.321 Y21.311 E.06418
G1 X207.17 Y21.908 E.03254
G1 X208.045 Y22.666 E.0363
G1 X209.31 Y24.121 E.06045
G1 X210.35 Y25.885 E.06421
G1 X210.784 Y26.958 E.03629
G1 X211.075 Y27.954 E.03253
G1 X211.365 Y29.981 E.0642
G1 X211.376 Y200.633 E5.35067
G1 X211.182 Y202.551 E.06044
G1 X210.609 Y204.517 E.06421
G1 X209.741 Y206.238 E.06044
G1 X209.078 Y207.188 E.03632
G1 X208.402 Y207.975 E.03253
G1 X207.562 Y208.772 E.03631
G1 X206.643 Y209.476 E.0363
G1 X204.852 Y210.468 E.06419
G1 X203.768 Y210.874 E.03629
G1 X202.647 Y211.163 E.0363
G1 X201.501 Y211.331 E.03632
G1 X200.434 Y211.377 E.03349
G1 X30.344 Y211.376 E5.33305
G1 X28.426 Y211.177 E.06046
G1 X26.574 Y210.643 E.06043
G1 X25.518 Y210.168 E.03631
G1 X24.619 Y209.649 E.03255
G1 X23.096 Y208.467 E.06045
G1 X22.291 Y207.635 E.0363
G1 X21.579 Y206.722 E.0363
G1 X20.571 Y204.94 E.06419
G1 X20.156 Y203.859 E.03631
G1 X19.857 Y202.74 E.03632
G1 X19.679 Y201.596 E.0363
G1 X19.624 Y200.5 E.03441
G1 X19.624 Y30.44 E5.33211
G1 X19.679 Y29.404 E.03253
G1 X19.857 Y28.26 E.0363
G1 X20.42 Y26.416 E.06045
G1 X21.364 Y24.599 E.0642
G1 X22.513 Y23.126 E.05857
; printing object BosZx_Bed_Level_Eco.stl id:0 copy 0
G1 E-3.5 F3600
;WIPE_START
G1 F7200
G1 X23.383 Y22.275 E-.57808
G1 X24.2 Y21.634 E-.49326
G1 X24.963 Y21.151 E-.42866
;WIPE_END
G1 X36.835 Y199.479 F9000
G1 E5 F2400
;TYPE:Perimeter
;WIDTH:0.419999
G1 F1200
G1 X36.89 Y199.817 E.01074
G1 X36.931 Y200.386 E.01789
G1 X36.91 Y200.956 E.01788
G1 X36.85 Y201.523 E.01788
G1 X36.729 Y202.08 E.01787
G1 X36.525 Y202.733 E.02145
G1 X36.254 Y203.361 E.02145
G1 X35.917 Y203.956 E.02144
G1 X35.594 Y204.426 E.01788
G1 X35.222 Y204.858 E.01787
G1 X34.821 Y205.264 E.01789
G1 X34.378 Y205.624 E.0179
G1 X33.812 Y206.007 E.02143
G1 X33.207 Y206.327 E.02146
G1 X32.573 Y206.582 E.02143
G1 X31.914 Y206.768 E.02147
G1 X31.354 Y206.874 E.01787
G1 X30.786 Y206.919 E.01787
G1 X30.102 Y206.913 E.02145
G1 X29.534 Y206.858 E.01789
G1 X28.976 Y206.742 E.01787
G1 X28.321 Y206.544 E.02145
G1 X27.691 Y206.278 E.02144
G1 X27.092 Y205.947 E.02146
G1 X26.533 Y205.554 E.02143
G1 X26.096 Y205.187 E.01789
G1 X25.703 Y204.774 E.01788
G1 X25.199 Y204.133 E.02557
G1 X24.848 Y203.575 E.02067
G1 X24.55 Y202.949 E.02174
G1 X24.324 Y202.303 E.02146
G1 X24.167 Y201.636 E.02148
G1 X24.082 Y200.956 E.02149
G1 X24.07 Y200.263 E.02173
G1 X24.157 Y199.478 E.02476
G1 X24.302 Y198.809 E.02146
G1 X24.516 Y198.16 E.02143
G1 X24.742 Y197.636 E.01789
G1 X25.024 Y197.14 E.01789
G1 X25.412 Y196.577 E.02144
G1 X25.858 Y196.058 E.02146
G1 X26.356 Y195.59 E.02143
G1 X26.804 Y195.237 E.01788
G1 X27.288 Y194.935 E.01789
G1 X28.018 Y194.572 E.02556
G1 X28.635 Y194.342 E.02065
G1 X29.308 Y194.177 E.02173
G1 X29.987 Y194.086 E.02148
G1 X30.672 Y194.068 E.02149
G1 X31.355 Y194.122 E.02148
G1 X32.028 Y194.249 E.02147
G1 X32.692 Y194.45 E.02175
G1 X33.287 Y194.704 E.02028
G1 X33.812 Y194.993 E.01879
G1 X34.378 Y195.377 E.02145
G1 X34.901 Y195.818 E.02145
G1 X35.373 Y196.312 E.02142
G1 X35.791 Y196.854 E.02146
G1 X36.149 Y197.437 E.02145
G1 X36.403 Y197.947 E.01786
G1 X36.601 Y198.482 E.01789
G1 X36.781 Y199.142 E.02145
G1 X36.826 Y199.42 E.00883
G1 X37.207 Y199.42 F9000
G1 F1200
G1 X37.264 Y199.777 E.01134
G1 X37.308 Y200.379 E.01893
G1 X37.286 Y200.983 E.01895
G1 X37.222 Y201.583 E.01892
G1 X37.094 Y202.173 E.01893
G1 X36.879 Y202.864 E.02269
G1 X36.591 Y203.529 E.02272
G1 X36.235 Y204.159 E.02269
G1 X35.893 Y204.657 E.01894
G1 X35.499 Y205.114 E.01892
G1 X35.074 Y205.543 E.01893
G1 X34.606 Y205.924 E.01892
G1 X34.006 Y206.33 E.02271
G1 X33.366 Y206.669 E.02271
G1 X32.694 Y206.939 E.02271
G1 X31.997 Y207.136 E.02271
G1 X31.404 Y207.248 E.01892
G1 X30.802 Y207.296 E.01894
G1 X30.078 Y207.289 E.0227
G1 X29.477 Y207.231 E.01893
G1 X28.886 Y207.108 E.01893
G1 X28.193 Y206.899 E.0227
G1 X27.526 Y206.617 E.02271
G1 X26.892 Y206.267 E.02271
G1 X26.3 Y205.85 E.0227
G1 X25.838 Y205.461 E.01894
G1 X25.421 Y205.025 E.01892
G1 X24.893 Y204.353 E.0268
G1 X24.515 Y203.753 E.02223
G1 X24.201 Y203.093 E.02292
G1 X23.961 Y202.409 E.02273
G1 X23.796 Y201.703 E.02273
G1 X23.706 Y200.983 E.02275
G1 X23.693 Y200.253 E.02289
G1 X23.785 Y199.418 E.02634
G1 X23.938 Y198.71 E.02271
G1 X24.165 Y198.023 E.02269
G1 X24.405 Y197.469 E.01893
G1 X24.702 Y196.943 E.01894
G1 X25.113 Y196.347 E.0227
G1 X25.585 Y195.798 E.0227
G1 X26.113 Y195.302 E.02271
G1 X26.587 Y194.929 E.01891
G1 X27.099 Y194.609 E.01893
G1 X27.865 Y194.228 E.02682
G1 X28.529 Y193.979 E.02223
G1 X29.238 Y193.806 E.02288
G1 X29.957 Y193.71 E.02274
G1 X30.682 Y193.69 E.02274
G1 X31.405 Y193.748 E.02274
G1 X32.117 Y193.883 E.02272
G1 X32.816 Y194.093 E.02288
G1 X33.452 Y194.364 E.02168
G1 X34.006 Y194.67 E.01984
G1 X34.606 Y195.076 E.02271
G1 X35.159 Y195.543 E.02269
G1 X35.659 Y196.066 E.02269
G1 X36.102 Y196.64 E.02273
G1 X36.48 Y197.257 E.02269
G1 X36.749 Y197.797 E.01892
G1 X36.959 Y198.364 E.01896
G1 X37.149 Y199.062 E.02268
G1 X37.197 Y199.36 E.00946
G1 X37.599 Y199.356 F9000
;TYPE:External perimeter
G1 F1200
G1 X37.68 Y200.119 E.02406
G1 X37.689 Y200.626 E.0159
G1 X37.635 Y201.393 E.02411
G1 X37.554 Y201.893 E.01588
G1 X37.365 Y202.637 E.02407
G1 X37.099 Y203.354 E.02398
G1 X36.759 Y204.039 E.02398
G1 X36.346 Y204.686 E.02407
G1 X36.037 Y205.087 E.01587
G1 X35.515 Y205.652 E.02412
G1 X35.14 Y205.993 E.01589
G1 X34.528 Y206.456 E.02406
G1 X33.872 Y206.85 E.02399
G1 X33.178 Y207.173 E.024
G1 X32.454 Y207.419 E.02398
G1 X31.705 Y207.588 E.02407
G1 X31.203 Y207.655 E.01588
G1 X30.437 Y207.689 E.02404
G1 X29.671 Y207.642 E.02406
G1 X29.17 Y207.566 E.01589
G1 X28.425 Y207.384 E.02405
G1 X27.705 Y207.124 E.024
G1 X27.017 Y206.789 E.02399
G1 X26.368 Y206.383 E.024
G1 X25.765 Y205.91 E.02403
G1 X25.395 Y205.563 E.0159
G1 X24.885 Y204.99 E.02405
G1 X24.439 Y204.366 E.02405
G1 X24.181 Y203.93 E.01588
G1 X23.852 Y203.237 E.02405
G1 X23.599 Y202.514 E.02402
G1 X23.424 Y201.769 E.02399
G1 X23.329 Y201.01 E.02398
G1 X23.315 Y200.243 E.02405
G1 X23.351 Y199.738 E.01587
G1 X23.473 Y198.98 E.02407
G1 X23.675 Y198.242 E.02399
G1 X23.954 Y197.527 E.02406
G1 X24.18 Y197.074 E.01587
G1 X24.581 Y196.42 E.02405
G1 X25.048 Y195.814 E.02399
G1 X25.577 Y195.261 E.02399
G1 X26.163 Y194.766 E.02405
G1 X26.578 Y194.475 E.01589
G1 X27.242 Y194.091 E.02405
G1 X27.944 Y193.78 E.02407
G1 X28.423 Y193.617 E.01586
G1 X29.168 Y193.435 E.02405
G1 X29.927 Y193.333 E.02401
G1 X30.692 Y193.313 E.02399
G1 X31.455 Y193.374 E.024
G1 X32.207 Y193.516 E.024
G1 X32.941 Y193.737 E.02403
G1 X33.413 Y193.927 E.01595
G1 X33.871 Y194.149 E.01596
G1 X34.528 Y194.544 E.02404
G1 X35.138 Y195.006 E.02399
G1 X35.696 Y195.53 E.024
G1 X36.195 Y196.111 E.02401
G1 X36.629 Y196.741 E.02399
G1 X36.995 Y197.415 E.02405
G1 X37.196 Y197.88 E.01588
G1 X37.437 Y198.608 E.02404
G1 X37.586 Y199.298 E.02213
G1 X37.289 Y199.609 F9000
G1 E-3.5 F3600
;WIPE_START
G1 F7200
G1 X37.68 Y200.119 E-.39252
G1 X37.689 Y200.626 E-.24086
G1 X37.635 Y201.393 E-.36523
G1 X37.554 Y201.893 E-.2406
G1 X37.419 Y202.425 E-.26079
;WIPE_END
G1 X33.824 Y195.142 F9000
G1 E5 F2400
;TYPE:Solid infill
;WIDTH:0.426676
G1 F1200
G1 X34.968 Y196.285 E.0516
G1 X35.366 Y196.749 E.01951
G1 X35.738 Y197.288 E.0209
G1 X36.087 Y197.947 E.0238
G1 X33.052 Y194.912 E.13696
G1 X32.595 Y194.724 E.01577
G1 X32.202 Y194.605 E.0131
G1 X36.402 Y198.805 E.18953
G1 X36.563 Y199.509 E.02304
G1 X31.5 Y194.445 E.2285
G1 X31.316 Y194.411 E.00597
G1 X30.888 Y194.376 E.0137
G1 X36.63 Y200.118 E.25912
G1 X36.639 Y200.67 E.01762
G1 X30.336 Y194.367 E.28443
G1 X30.01 Y194.376 E.01041
G1 X29.827 Y194.4 E.00589
G1 X36.603 Y201.177 E.3058
G1 X36.535 Y201.652 E.01531
G1 X29.349 Y194.466 E.32428
G1 X28.913 Y194.572 E.01432
G1 X36.427 Y202.087 E.33911
G1 X36.301 Y202.503 E.01387
G1 X28.494 Y194.696 E.3523
G1 X28.106 Y194.851 E.01333
G1 X36.154 Y202.899 E.36318
G1 X35.977 Y203.265 E.01297
G1 X27.73 Y195.017 E.37218
G1 X27.385 Y195.215 E.01269
G1 X35.788 Y203.618 E.3792
G1 X35.577 Y203.95 E.01255
G1 X27.048 Y195.421 E.38489
G1 X26.735 Y195.65 E.01238
G1 X35.351 Y204.266 E.38881
G1 X35.102 Y204.56 E.01229
G1 X26.44 Y195.899 E.39087
G1 X26.161 Y196.162 E.01223
G1 X34.841 Y204.842 E.3917
G1 X34.563 Y205.106 E.01223
G1 X25.895 Y196.439 E.39114
G1 X25.653 Y196.74 E.01232
G1 X34.261 Y205.348 E.38845
G1 X33.952 Y205.581 E.01235
G1 X25.42 Y197.049 E.38502
G1 X25.214 Y197.386 E.0126
G1 X33.615 Y205.786 E.37909
G1 X33.266 Y205.98 E.01274
G1 X25.018 Y197.733 E.37218
G1 X24.849 Y198.106 E.01307
G1 X32.895 Y206.152 E.36309
G1 X32.5 Y206.3 E.01346
G1 X24.697 Y198.497 E.35212
G1 X24.573 Y198.916 E.01394
G1 X32.088 Y206.431 E.33913
G1 X31.646 Y206.531 E.01446
G1 X24.471 Y199.356 E.32378
G1 X24.395 Y199.823 E.0151
G1 X31.177 Y206.605 E.30605
G1 X30.663 Y206.634 E.01643
G1 X24.362 Y200.332 E.28437
G1 X24.371 Y200.885 E.01765
G1 X30.109 Y206.623 E.25894
G1 X29.782 Y206.602 E.01046
G1 X29.504 Y206.56 E.00897
G1 X24.443 Y201.499 E.22839
G1 X24.597 Y202.196 E.02278
G1 X28.801 Y206.4 E.18971
G1 X28.112 Y206.16 E.02328
G1 X27.931 Y206.072 E.00642
G1 X24.93 Y203.072 E.1354
G1 X25.105 Y203.439 E.01297
G1 X25.315 Y203.796 E.01322
G1 X25.702 Y204.337 E.02123
G1 X26.108 Y204.793 E.01948
G1 X27.167 Y205.851 E.04777
G1 E-3.5 F3600
;WIPE_START
G1 F7200
G1 X26.108 Y204.793 E-.71105
G1 X25.702 Y204.337 E-.29001
G1 X25.315 Y203.796 E-.31596
G1 X25.12 Y203.464 E-.18298
;WIPE_END
G1 X34.095 Y35.815 F9000
G1 E5 F2400
;TYPE:Perimeter
;WIDTH:0.419999
G1 F1200
G1 X33.812 Y36.007 E.01072
G1 X33.207 Y36.327 E.02146
G1 X32.573 Y36.582 E.02143
G1 X31.914 Y36.768 E.02147
G1 X31.354 Y36.874 E.01787
G1 X30.786 Y36.919 E.01787
G1 X30.102 Y36.913 E.02145
G1 X29.534 Y36.858 E.01789
G1 X28.976 Y36.742 E.01787
G1 X28.321 Y36.544 E.02145
G1 X27.691 Y36.278 E.02144
G1 X27.092 Y35.947 E.02146
G1 X26.533 Y35.554 E.02143
G1 X26.096 Y35.187 E.01789
G1 X25.703 Y34.774 E.01788
G1 X25.199 Y34.133 E.02557
G1 X24.848 Y33.575 E.02067
G1 X24.55 Y32.949 E.02174
G1 X24.324 Y32.303 E.02146
G1 X24.167 Y31.636 E.02148
G1 X24.082 Y30.956 E.02149
G1 X24.07 Y30.263 E.02173
G1 X24.157 Y29.478 E.02476
G1 X24.302 Y28.809 E.02146
G1 X24.516 Y28.16 E.02143
G1 X24.742 Y27.636 E.01789
G1 X25.024 Y27.14 E.01789
G1 X25.412 Y26.577 E.02144
G1 X25.858 Y26.058 E.02146
G1 X26.356 Y25.59 E.02143
G1 X26.804 Y25.237 E.01788
G1 X27.288 Y24.935 E.01789
G1 X28.018 Y24.572 E.02556
G1 X28.635 Y24.342 E.02065
G1 X29.308 Y24.177 E.02173
G1 X29.987 Y24.086 E.02148
G1 X30.672 Y24.068 E.02149
G1 X31.355 Y24.122 E.02148
G1 X32.028 Y24.249 E.02147
G1 X32.692 Y24.45 E.02175
G1 X33.287 Y24.704 E.02028
G1 X33.812 Y24.993 E.01879
G1 X34.378 Y25.377 E.02145
G1 X34.901 Y25.818 E.02145
G1 X35.373 Y26.312 E.02142
G1 X35.791 Y26.854 E.02146
G1 X36.149 Y27.437 E.02145
G1 X36.403 Y27.947 E.01786
G1 X36.601 Y28.482 E.01789
G1 X36.781 Y29.142 E.02145
G1 X36.89 Y29.817 E.02144
G1 X36.931 Y30.386 E.01789
G1 X36.91 Y30.956 E.01788
G1 X36.85 Y31.523 E.01788
G1 X36.729 Y32.08 E.01787
G1 X36.525 Y32.733 E.02145
G1 X36.254 Y33.361 E.02145
G1 X35.917 Y33.956 E.02144
G1 X35.594 Y34.426 E.01788
G1 X35.222 Y34.858 E.01787
G1 X34.821 Y35.264 E.01789
G1 X34.378 Y35.624 E.0179
G1 X34.144 Y35.781 E.00884
G1 X34.306 Y36.127 F9000
G1 F1200
G1 X34.006 Y36.33 E.01136
G1 X33.366 Y36.669 E.02271
G1 X32.694 Y36.939 E.02271
G1 X31.997 Y37.136 E.02271
G1 X31.404 Y37.248 E.01892
G1 X30.802 Y37.296 E.01894
G1 X30.078 Y37.289 E.0227
G1 X29.477 Y37.231 E.01893
G1 X28.886 Y37.108 E.01893
G1 X28.193 Y36.899 E.0227
G1 X27.526 Y36.617 E.02271
G1 X26.892 Y36.267 E.02271
G1 X26.3 Y35.85 E.0227
G1 X25.838 Y35.461 E.01894
G1 X25.421 Y35.025 E.01892
G1 X24.893 Y34.353 E.0268
G1 X24.515 Y33.753 E.02223
G1 X24.201 Y33.093 E.02292
G1 X23.961 Y32.409 E.02273
G1 X23.796 Y31.703 E.02273
G1 X23.706 Y30.983 E.02275
G1 X23.693 Y30.253 E.02289
G1 X23.785 Y29.418 E.02634
G1 X23.938 Y28.71 E.02271
G1 X24.165 Y28.023 E.02269
G1 X24.405 Y27.469 E.01893
G1 X24.702 Y26.943 E.01894
G1 X25.113 Y26.347 E.0227
G1 X25.585 Y25.798 E.0227
G1 X26.113 Y25.302 E.02271
G1 X26.587 Y24.929 E.01891
G1 X27.099 Y24.609 E.01893
G1 X27.865 Y24.228 E.02682
G1 X28.529 Y23.979 E.02223
G1 X29.238 Y23.806 E.02288
G1 X29.957 Y23.71 E.02274
G1 X30.682 Y23.69 E.02274
G1 X31.405 Y23.748 E.02274
G1 X32.117 Y23.883 E.02272
G1 X32.816 Y24.093 E.02288
G1 X33.452 Y24.364 E.02168
G1 X34.006 Y24.67 E.01984
G1 X34.606 Y25.076 E.02271
G1 X35.159 Y25.543 E.02269
G1 X35.659 Y26.066 E.02269
G1 X36.102 Y26.64 E.02273
G1 X36.48 Y27.257 E.02269
G1 X36.749 Y27.797 E.01892
G1 X36.959 Y28.364 E.01896
G1 X37.149 Y29.062 E.02268
G1 X37.264 Y29.777 E.02271
G1 X37.308 Y30.379 E.01893
G1 X37.286 Y30.983 E.01895
G1 X37.222 Y31.583 E.01892
G1 X37.094 Y32.173 E.01893
G1 X36.879 Y32.864 E.02269
G1 X36.591 Y33.529 E.02272
G1 X36.235 Y34.159 E.02269
G1 X35.893 Y34.657 E.01894
G1 X35.499 Y35.114 E.01892
G1 X35.074 Y35.543 E.01893
G1 X34.606 Y35.924 E.01892
G1 X34.355 Y36.093 E.00949
G1 X34.528 Y36.456 F9000
;TYPE:External perimeter
G1 F1200
G1 X33.872 Y36.85 E.02399
G1 X33.178 Y37.173 E.024
G1 X32.454 Y37.419 E.02398
G1 X31.705 Y37.588 E.02407
G1 X31.203 Y37.655 E.01588
G1 X30.437 Y37.689 E.02404
G1 X29.671 Y37.642 E.02406
G1 X29.17 Y37.566 E.01589
G1 X28.425 Y37.384 E.02405
G1 X27.705 Y37.124 E.024
G1 X27.017 Y36.789 E.02399
G1 X26.368 Y36.383 E.024
G1 X25.765 Y35.91 E.02403
G1 X25.395 Y35.563 E.0159
G1 X24.885 Y34.99 E.02405
G1 X24.439 Y34.366 E.02405
G1 X24.181 Y33.93 E.01588
G1 X23.852 Y33.237 E.02405
G1 X23.599 Y32.514 E.02402
G1 X23.424 Y31.769 E.02399
G1 X23.329 Y31.01 E.02398
G1 X23.315 Y30.243 E.02405
G1 X23.351 Y29.738 E.01587
G1 X23.473 Y28.98 E.02407
G1 X23.675 Y28.242 E.02399
G1 X23.954 Y27.527 E.02406
G1 X24.18 Y27.074 E.01587
G1 X24.581 Y26.42 E.02405
G1 X25.048 Y25.814 E.02399
G1 X25.577 Y25.261 E.02399
G1 X26.163 Y24.766 E.02405
G1 X26.578 Y24.475 E.01589
G1 X27.242 Y24.091 E.02405
G1 X27.944 Y23.78 E.02407
G1 X28.423 Y23.617 E.01586
G1 X29.168 Y23.435 E.02405
G1 X29.927 Y23.333 E.02401
G1 X30.692 Y23.313 E.02399
G1 X31.455 Y23.374 E.024
G1 X32.207 Y23.516 E.024
G1 X32.941 Y23.737 E.02403
G1 X33.413 Y23.927 E.01595
G1 X33.871 Y24.149 E.01596
G1 X34.528 Y24.544 E.02404
G1 X35.138 Y25.006 E.02399
G1 X35.696 Y25.53 E.024
G1 X36.195 Y26.111 E.02401
G1 X36.629 Y26.741 E.02399
G1 X36.995 Y27.415 E.02405
G1 X37.196 Y27.88 E.01588
G1 X37.437 Y28.608 E.02404
G1 X37.599 Y29.356 E.024
G1 X37.68 Y30.119 E.02406
G1 X37.689 Y30.626 E.0159
G1 X37.635 Y31.393 E.02411
G1 X37.554 Y31.893 E.01588
G1 X37.365 Y32.637 E.02407
G1 X37.099 Y33.354 E.02398
G1 X36.759 Y34.039 E.02398
G1 X36.346 Y34.686 E.02407
G1 X36.037 Y35.087 E.01587
G1 X35.515 Y35.652 E.02412
G1 X35.14 Y35.993 E.01589
G1 X34.576 Y36.42 E.02218
G1 X34.169 Y36.279 F9000
G1 E-3.5 F3600
