; generated by PrusaSlicer 2.7.2+win64 on 2024-04-01 at 21:48:47 UTC


;
;

;
;
; 

; external perimeters extrusion width = 0.42mm
; perimeters extrusion width = 0.44mm
; infill extrusion width = 0.44mm
; solid infill extrusion width = 0.44mm
; top infill extrusion width = 0.40mm
; first layer extrusion width = 0.42mm


; printing object tick_twister_v2.stl id:0 copy 0
; stop printing object tick_twister_v2.stl id:0 copy 0

;TYPE:Custom
; Ender 3 Custom Start G-code
G92 E0 ; Reset Extruder

M140 S50 ; set bed temp
M104 S160 ; set extruder temp
M109 S160 ; wait for extruder temp
M190 S50 ; wait for bed temp

G28 ; Home all axes
M104 S205 ; set extruder temp 
BED_MESH_CALIBRATE AREA_START=100.975,107.701 AREA_END=129.136,122.507

G1 Z2.0 F3000 ; Move Z Axis up little to prevent scratching of Heat Bed
M109 S205 ; wait for extruder temp
G1 X0.1 Y20 Z0.3 F5000.0 ; Move to start position

G1 X0.1 Y200.0 Z0.3 F1500.0 E15 ; Draw the first line
G1 X0.4 Y200.0 Z0.3 F5000.0 ; Move to side a little
G1 X0.4 Y20 Z0.3 F1500.0 E30 ; Draw the second line
G92 E0 ; Reset Extruder
G1 Z2.0 F3000 ; Move Z Axis up little to prevent scratching of Heat Bed
G1 X5 Y20 Z0.3 F5000.0 ; Move over to prevent blob squish
G21 ; set units to millimeters
G90 ; use absolute coordinates
M83 ; use relative distances for extrusion
; Filament gcode
M107
;LAYER_CHANGE
;Z:0.2
;HEIGHT:0.2
G1 E-1.6 F2400
G1 Z.2 F6000
G1 X102.733 Y110.356
G1 Z.2
G1 E1.6 F2400
M204 S500
;TYPE:Skirt/Brim
;WIDTH:0.42
G1 F1200
G1 X103.394 Y109.879 E.02402
G1 X104.197 Y109.436 E.02703
G1 X105.063 Y109.125 E.02712
G1 X106.345 Y108.887 E.03843
G1 X121.791 Y107.897 E.45617
G1 X123.121 Y108.026 E.03938
G1 X124.107 Y108.289 E.03008
G1 X125.326 Y108.84 E.03943
G1 X126.175 Y109.407 E.03009
G1 X127.15 Y110.319 E.03935
G1 X127.772 Y111.129 E.0301
G1 X128.403 Y112.308 E.03941
G1 X128.732 Y113.275 E.0301
G1 X128.95 Y114.594 E.0394
G1 X128.95 Y115.615 E.03009
G1 X128.732 Y116.933 E.03937
G1 X128.403 Y117.9 E.0301
G1 X127.772 Y119.079 E.03941
G1 X127.15 Y119.889 E.0301
G1 X126.175 Y120.801 E.03935
G1 X125.326 Y121.368 E.03009
G1 X124.107 Y121.919 E.03943
G1 X123.121 Y122.182 E.03008
G1 X121.278 Y122.319 E.05447
G1 X105.91 Y121.262 E.45401
G1 X104.688 Y120.978 E.03698
G1 X103.009 Y120.077 E.05616
G1 X102.066 Y119.181 E.03834
G1 X101.279 Y117.823 E.04626
G1 X101.164 Y116.982 E.02502
G1 X101.164 Y113.226 E.1107
G1 X101.558 Y111.706 E.04628
G1 X102.046 Y111.048 E.02414
G1 X102.691 Y110.399 E.02697
G1 X102.691 Y110.399 F6000
G1 X102.967 Y110.687
G1 F1200
G1 X103.222 Y110.442 E.01042
G1 X104.238 Y109.841 E.03479
G1 X105.143 Y109.493 E.02858
G1 X106.37 Y109.263 E.03679
G1 X121.754 Y108.272 E.45435
G1 X123.084 Y108.402 E.03939
G1 X123.951 Y108.633 E.02644
G1 X125.171 Y109.184 E.03945
G1 X125.917 Y109.682 E.02644
G1 X126.893 Y110.594 E.03937
G1 X127.44 Y111.307 E.02649
G1 X128.071 Y112.486 E.03941
G1 X128.36 Y113.336 E.02646
G1 X128.578 Y114.655 E.0394
G1 X128.578 Y115.553 E.02647
G1 X128.36 Y116.872 E.0394
G1 X128.071 Y117.722 E.02646
G1 X127.44 Y118.901 E.03941
G1 X126.893 Y119.614 E.02649
G1 X125.917 Y120.526 E.03937
G1 X125.171 Y121.024 E.02644
G1 X123.951 Y121.575 E.03945
G1 X123.084 Y121.806 E.02644
G1 X121.304 Y121.943 E.05262
G1 X106.37 Y120.945 E.44113
G1 X105.166 Y120.72 E.0361
G1 X104.323 Y120.411 E.02646
G1 X103.231 Y119.772 E.03729
G1 X102.335 Y118.916 E.03652
G1 X101.541 Y116.982 E.06162
G1 X101.541 Y113.226 E.1107
G1 X102.317 Y111.31 E.06093
G1 X102.924 Y110.728 E.02478
G1 X102.924 Y110.728 F6000
G1 X103.184 Y110.998
G1 F1200
G1 X103.445 Y110.746 E.01069
G1 X104.475 Y110.142 E.03519
G1 X105.223 Y109.862 E.02354
G1 X106.395 Y109.639 E.03516
G1 X121.718 Y108.647 E.45256
G1 X123.048 Y108.777 E.03939
G1 X123.796 Y108.977 E.02282
G1 X125.015 Y109.528 E.03943
G1 X125.66 Y109.958 E.02285
G1 X126.635 Y110.87 E.03935
G1 X127.107 Y111.485 E.02285
G1 X127.738 Y112.664 E.03941
G1 X127.988 Y113.398 E.02285
G1 X128.206 Y114.717 E.0394
G1 X128.206 Y115.492 E.02284
G1 X127.988 Y116.81 E.03937
G1 X127.738 Y117.544 E.02285
G1 X127.107 Y118.724 E.03944
G1 X126.635 Y119.338 E.02283
G1 X125.66 Y120.25 E.03935
G1 X125.015 Y120.68 E.02285
G1 X123.796 Y121.231 E.03943
G1 X123.048 Y121.431 E.02282
G1 X121.329 Y121.567 E.05082
G1 X106.395 Y120.569 E.44113
G1 X105.243 Y120.351 E.03456
G1 X104.505 Y120.081 E.02316
G1 X103.452 Y119.467 E.03593
G1 X102.603 Y118.652 E.03469
G1 X101.918 Y116.982 E.0532
G1 X101.918 Y113.226 E.1107
G1 X102.588 Y111.572 E.0526
G1 X103.141 Y111.04 E.02262
; printing object tick_twister_v2.stl id:0 copy 0
G1 E-1.12 F2400
;WIPE_START
G1 F4800
G1 X103.184 Y110.998 E-.02855
G1 X103.445 Y110.746 E-.17233
G1 X103.952 Y110.449 E-.27912
;WIPE_END
G1 X105.679 Y112.979 F6000
G1 E1.6 F2400
;TYPE:Perimeter
G1 F1200
G1 X105.895 Y112.859 E.00728
G1 X106.648 Y112.693 E.02273
G1 X121.477 Y111.702 E.43803
G1 X121.792 Y111.733 E.00933
G1 X122.638 Y111.816 E.02505
G1 X123.65 Y112.273 E.03273
G1 X124.459 Y113.03 E.03265
G1 X124.983 Y114.01 E.03275
G1 X125.164 Y115.104 E.03268
G1 X124.983 Y116.199 E.03271
G1 X124.459 Y117.178 E.03273
G1 X123.65 Y117.935 E.03265
G1 X122.638 Y118.392 E.03273
G1 X121.477 Y118.506 E.03438
G1 X106.65 Y117.515 E.43797
G1 X105.904 Y117.352 E.02251
G1 X105.716 Y117.246 E.00636
G1 X106.455 Y117.011 E.02286
G1 X108.311 Y116.581 E.05615
G1 X111.809 Y116.195 E.10372
G1 X119.899 Y115.925 E.23857
G1 X119.736 Y115.158 E.02311
G1 X119.789 Y114.279 E.02595
G1 X111.81 Y114.013 E.2353
G1 X108.311 Y113.627 E.10375
G1 X106.445 Y113.195 E.05645
G1 X105.737 Y112.995 E.02168
G1 X105.737 Y112.995 F6000
G1 X104.927 Y113.208
;TYPE:External perimeter
G1 F1200
G1 X104.8 Y113.147 E.00415
G1 X105.094 Y112.871 E.01189
G1 X105.761 Y112.502 E.02247
G1 X106.595 Y112.319 E.02517
G1 X121.482 Y111.324 E.43974
G1 X121.828 Y111.358 E.01025
G1 X122.736 Y111.446 E.02689
G1 X123.862 Y111.955 E.03642
G1 X124.762 Y112.797 E.03632
G1 X125.345 Y113.887 E.03643
G1 X125.546 Y115.104 E.03635
G1 X125.345 Y116.321 E.03635
G1 X124.762 Y117.411 E.03643
G1 X123.862 Y118.253 E.03632
G1 X122.736 Y118.762 E.03642
G1 X121.482 Y118.884 E.03713
G1 X106.597 Y117.889 E.43969
G1 X105.768 Y117.708 E.02501
G1 X105.047 Y117.302 E.02439
G1 X104.87 Y117.12 E.00748
G1 X106.355 Y116.647 E.04593
G1 X108.247 Y116.209 E.05724
G1 X111.782 Y115.819 E.10482
G1 X119.437 Y115.563 E.22574
G1 X119.357 Y115.186 E.01136
G1 X119.389 Y114.643 E.01603
G1 X111.783 Y114.389 E.2243
G1 X108.248 Y113.999 E.10482
G1 X106.352 Y113.56 E.05736
G1 X105.38 Y113.286 E.02976
G1 X104.986 Y113.219 E.01178
G1 X104.986 Y113.219 F6000
G1 X106.389 Y112.943
;TYPE:Gap fill
;WIDTH:0.253275
G1 F1200
G1 X106.655 Y112.965 E.00439
;WIDTH:0.323587
G1 X107.186 Y113.008 E.01169
G1 E-1.12 F2400
;WIPE_START
G1 F4800
G1 X106.655 Y112.965 E-.25305
G1 X106.389 Y112.943 E-.12678
;WIPE_END
G1 E-.10017 F2400
G1 X107.186 Y117.201 F6000
G1 E1.6 F2400
;WIDTH:0.32359
G1 F1200
G1 X106.66 Y117.243 E.01158
;WIDTH:0.25374
G1 X106.397 Y117.264 E.00435
G1 E-1.12 F2400
;WIPE_START
G1 F4800
G1 X106.66 Y117.243 E-.12532
G1 X107.186 Y117.201 E-.25065
;WIPE_END
G1 E-.10403 F2400
G1 X123.234 Y112.217 F6000
G1 E1.6 F2400
;TYPE:Solid infill
;WIDTH:0.421803
G1 F1200
G1 X124.226 Y113.209 E.04155
G1 X124.704 Y114.104 E.03005
G1 X124.728 Y114.248 E.00432
G1 X122.596 Y112.115 E.08931
G1 X121.989 Y112.044 E.0181
G1 X124.834 Y114.89 E.11917
G1 X124.87 Y115.104 E.00643
G1 X124.819 Y115.41 E.00919
G1 X121.407 Y111.998 E.1429
G1 X120.905 Y112.032 E.0149
G1 X124.743 Y115.87 E.16074
G1 X124.704 Y116.104 E.00703
G1 X124.613 Y116.275 E.00574
G1 X120.402 Y112.065 E.17634
G1 X119.9 Y112.099 E.0149
G1 X124.426 Y116.624 E.18953
G1 X124.239 Y116.974 E.01175
G1 X119.398 Y112.132 E.20276
G1 X118.896 Y112.166 E.0149
G1 X123.969 Y117.239 E.21246
G1 X123.692 Y117.498 E.01123
G1 X118.393 Y112.199 E.22192
G1 X117.891 Y112.233 E.0149
G1 X119.642 Y113.984 E.07333
G1 X120.097 Y113.999 E.01348
G1 X120.072 Y114.414 E.01231
G1 X123.391 Y117.733 E.139
G1 X123.022 Y117.9 E.01199
G1 X120.041 Y114.919 E.12485
G1 X120.028 Y115.136 E.00644
G1 X120.11 Y115.524 E.01174
G1 X122.653 Y118.067 E.1065
G1 X122.562 Y118.108 E.00296
G1 X122.195 Y118.144 E.01092
G1 X120.254 Y116.203 E.08129
G1 X119.736 Y116.221 E.01535
G1 X121.706 Y118.191 E.0825
G1 X121.472 Y118.214 E.00696
G1 X121.173 Y118.194 E.00887
G1 X119.217 Y116.238 E.08192
G1 X118.699 Y116.256 E.01535
G1 X120.599 Y118.156 E.07957
G1 X120.025 Y118.118 E.01704
G1 X118.18 Y116.273 E.07727
G1 X117.662 Y116.29 E.01535
G1 X119.451 Y118.079 E.07492
G1 X118.877 Y118.041 E.01704
G1 X117.143 Y116.308 E.0726
G1 X116.625 Y116.325 E.01535
G1 X118.302 Y118.003 E.07025
G1 X117.728 Y117.964 E.01704
G1 X116.106 Y116.342 E.06793
G1 X115.588 Y116.359 E.01535
G1 X117.154 Y117.926 E.06561
G1 X116.58 Y117.887 E.01704
G1 X115.069 Y116.377 E.06326
G1 X114.551 Y116.394 E.01535
G1 X116.006 Y117.849 E.06094
G1 X115.431 Y117.811 E.01707
G1 X114.032 Y116.411 E.05861
G1 X113.514 Y116.429 E.01535
G1 X114.857 Y117.772 E.05625
G1 X114.283 Y117.734 E.01704
G1 X112.995 Y116.446 E.05394
G1 X112.477 Y116.463 E.01535
G1 X113.709 Y117.696 E.05162
G1 X113.135 Y117.657 E.01704
G1 X111.958 Y116.481 E.04927
G1 X111.467 Y116.525 E.0146
G1 X112.561 Y117.619 E.04582
G1 X111.986 Y117.581 E.01707
G1 X110.984 Y116.578 E.04199
G1 X110.502 Y116.632 E.01436
G1 X111.412 Y117.542 E.03811
G1 X110.838 Y117.504 E.01704
G1 X110.019 Y116.685 E.0343
G1 X109.537 Y116.738 E.01436
G1 X110.264 Y117.465 E.03045
G1 X109.69 Y117.427 E.01704
G1 X109.054 Y116.791 E.02664
G1 X108.571 Y116.845 E.01439
G1 X109.115 Y117.389 E.02278
G1 X108.541 Y117.35 E.01704
G1 X108.116 Y116.925 E.0178
G1 X107.68 Y117.025 E.01325
G1 X108.149 Y117.494 E.01964
G1 E-1.12 F2400
;WIPE_START
G1 F4800
G1 X107.68 Y117.025 E-.31505
G1 X108.018 Y116.947 E-.16495
;WIPE_END
G1 X117.229 Y112.107 F6000
G1 E1.6 F2400
G1 F1200
G1 X119.088 Y113.965 E.07783
G1 X118.533 Y113.947 E.01644
G1 X116.887 Y112.3 E.06896
G1 X116.384 Y112.334 E.01493
G1 X117.979 Y113.928 E.06678
G1 X117.425 Y113.91 E.01641
G1 X115.882 Y112.367 E.06462
G1 X115.38 Y112.401 E.0149
G1 X116.87 Y113.891 E.0624
G1 X116.316 Y113.873 E.01641
G1 X114.878 Y112.434 E.06025
G1 X114.375 Y112.468 E.01493
G1 X115.762 Y113.854 E.05807
G1 X115.207 Y113.836 E.01644
G1 X113.873 Y112.501 E.05589
G1 X113.371 Y112.535 E.0149
G1 X114.653 Y113.817 E.05369
G1 X114.099 Y113.799 E.01641
G1 X112.869 Y112.569 E.05151
G1 X112.366 Y112.602 E.01493
G1 X113.544 Y113.78 E.04934
G1 X112.99 Y113.762 E.01641
G1 X111.864 Y112.636 E.04716
G1 X111.362 Y112.669 E.0149
G1 X112.436 Y113.743 E.04498
G1 X111.882 Y113.725 E.01641
G1 X110.859 Y112.703 E.04282
G1 X110.357 Y112.736 E.0149
G1 X111.284 Y113.663 E.03882
G1 X110.681 Y113.596 E.01797
G1 X109.855 Y112.77 E.03459
G1 X109.353 Y112.804 E.0149
G1 X110.079 Y113.53 E.03041
G1 X109.477 Y113.463 E.01794
G1 X108.85 Y112.837 E.02624
G1 X108.348 Y112.871 E.0149
G1 X108.874 Y113.397 E.02203
G1 X108.258 Y113.317 E.0184
G1 X107.846 Y112.904 E.01728
G1 X107.483 Y112.928 E.01077
G1 X107.472 Y113.066 E.0041
G1 X107.788 Y113.382 E.01323
; stop printing object tick_twister_v2.stl id:0 copy 0
M106 S255
;LAYER_CHANGE
;Z:0.4
;HEIGHT:0.2
;BEFORE_LAYER_CHANGE
G92 E0
;0.4


G1 E-1.12 F2400
;WIPE_START
G1 F4800
G1 X107.472 Y113.066 E-.21227
G1 X107.483 Y112.928 E-.06576
G1 X107.846 Y112.904 E-.1728
G1 X107.889 Y112.947 E-.02917
;WIPE_END
G1 Z.4 F6000
;AFTER_LAYER_CHANGE
;0.4
; printing object tick_twister_v2.stl id:0 copy 0
G1 Z.4
G1 X119.94 Y114.136
G1 Z.4
G1 E1.6 F2400
;TYPE:Perimeter
;WIDTH:0.44
G1 F2160
G1 X111.803 Y113.864 E.25268
G1 X108.376 Y113.491 E.10699
G1 X106.453 Y113.051 E.06123
G1 X105.494 Y112.743 E.03126
G1 X105.772 Y112.591 E.00983
G1 X105.926 Y112.54 E.00503
G1 X106.618 Y112.405 E.02188
G1 X121.465 Y111.413 E.46182
G1 X122.163 Y111.481 E.02177
G1 X122.713 Y111.534 E.01715
G1 X123.811 Y112.031 E.03741
G1 X124.69 Y112.853 E.03735
G1 X125.259 Y113.916 E.03742
G1 X125.455 Y115.104 E.03737
G1 X125.259 Y116.292 E.03737
G1 X124.69 Y117.355 E.03742
G1 X123.811 Y118.177 E.03735
G1 X122.713 Y118.674 E.03741
G1 X121.465 Y118.795 E.03891
G1 X106.618 Y117.803 E.46182
G1 X105.938 Y117.671 E.0215
G1 X105.786 Y117.622 E.00496
G1 X105.494 Y117.465 E.01029
G1 X106.453 Y117.157 E.03126
G1 X108.365 Y116.719 E.06088
G1 X111.803 Y116.344 E.10734
G1 X120.016 Y116.07 E.25504
G1 X119.848 Y115.273 E.02528
G1 X119.849 Y115.099 E.0054
G1 X119.934 Y114.196 E.02815
G1 X119.934 Y114.196 F6000
G1 X119.516 Y114.509
;TYPE:External perimeter
;WIDTH:0.42
G1 F1800
G1 X111.775 Y114.251 E.22828
G1 X108.311 Y113.873 E.1027
G1 X106.35 Y113.425 E.05929
G1 X104.641 Y112.876 E.0529
G1 X104.822 Y112.7 E.00744
G1 X104.989 Y112.577 E.00611
G1 X105.617 Y112.235 E.02108
G1 X105.826 Y112.165 E.0065
G1 X106.568 Y112.02 E.02228
G1 X121.471 Y111.024 E.44022
G1 X122.2 Y111.095 E.02159
G1 X122.814 Y111.155 E.01818
G1 X124.029 Y111.704 E.0393
G1 X125.001 Y112.614 E.03924
G1 X125.63 Y113.79 E.03931
G1 X125.848 Y115.104 E.03926
G1 X125.63 Y116.419 E.03929
G1 X125.001 Y117.594 E.03928
G1 X124.029 Y118.504 E.03924
G1 X122.814 Y119.053 E.0393
G1 X121.471 Y119.184 E.03977
G1 X106.568 Y118.188 E.44022
G1 X105.841 Y118.047 E.02183
G1 X105.633 Y117.98 E.00644
G1 X104.999 Y117.637 E.02125
G1 X104.824 Y117.509 E.00639
G1 X104.65 Y117.329 E.00738
G1 X106.35 Y116.783 E.05262
G1 X108.301 Y116.337 E.05899
G1 X111.775 Y115.957 E.103
G1 X119.542 Y115.698 E.22904
G1 X119.46 Y115.312 E.01163
G1 X119.462 Y115.079 E.00687
G1 X119.51 Y114.569 E.0151
G1 E-1.12 F2400
;WIPE_START
G1 F4800
G1 X119.516 Y114.509 E-.02864
G1 X118.566 Y114.477 E-.45136
;WIPE_END
G1 X121.46 Y111.719 F6000
G1 E1.6 F2400
;TYPE:Solid infill
;WIDTH:0.439999
G1 F2700
G1 X107.143 Y112.676 E.44534
G1 X107.126 Y112.891 E.00669
G1 X108.427 Y113.189 E.04142
G1 X111.825 Y113.559 E.10608
G1 X120.064 Y113.834 E.25585
G1 X120.255 Y114.051 E.00897
G1 X120.223 Y114.386 E.01044
G1 X122.731 Y111.878 E.11008
G1 X122.622 Y111.833 E.00366
G1 X121.658 Y111.739 E.03006
G1 E-1.12 F2400
;WIPE_START
G1 F4800
G1 X122.622 Y111.833 E-.46007
G1 X122.661 Y111.849 E-.01993
;WIPE_END
G1 X117.744 Y112.863 F6000
G1 E1.6 F2400
;WIDTH:0.638402
G1 F2700
G1 X117.315 Y112.87 E.01997
;WIDTH:0.595448
G1 X116.886 Y112.877 E.01853
;WIDTH:0.552494
G1 X116.456 Y112.884 E.01713
;WIDTH:0.509539
G1 X116.027 Y112.892 E.01565
;WIDTH:0.466585
G1 X115.598 Y112.899 E.01421
;WIDTH:0.423631
G1 X115.168 Y112.906 E.0128
;WIDTH:0.410338
G1 X115.156 Y112.723 E.00527
;WIDTH:0.439999
G1 X115.144 Y112.539 E.00572
;WIDTH:0.489623
G1 X115.013 Y112.573 E.00473
;WIDTH:0.539247
G1 X114.881 Y112.607 E.00529
;WIDTH:0.588871
G1 X114.75 Y112.64 E.00576
G1 X113.785 Y112.681 E.04122
;WIDTH:0.540495
G1 X112.819 Y112.721 E.0376
;WIDTH:0.492119
G1 X111.854 Y112.761 E.03391
;WIDTH:0.443742
G1 X109.579 Y112.913 E.07143
G1 X111.86 Y113.161 E.07188
;WIDTH:0.492119
G1 X112.827 Y113.169 E.03395
;WIDTH:0.540495
G1 X113.793 Y113.177 E.03757
;WIDTH:0.588871
G1 X114.759 Y113.185 E.04122
G1 X114.891 Y113.215 E.00578
;WIDTH:0.539247
G1 X115.024 Y113.244 E.00528
;WIDTH:0.489623
G1 X115.156 Y113.273 E.00472
;WIDTH:0.439999
G1 X120.077 Y113.437 E.15281
G1 X120.184 Y113.451 E.00335
G1 X120.359 Y113.689 E.00917
G1 X121.888 Y112.16 E.06711
G1 X121.438 Y112.119 E.01402
G1 X115.342 Y112.526 E.18962
G1 E-1.12 F2400
;WIPE_START
G1 F4800
G1 X116.35 Y112.459 E-.48
;WIPE_END
G1 X118.134 Y112.698 F6000
G1 E1.6 F2400
;WIDTH:0.406956
G1 F2700
G1 X118.069 Y112.725 E.002
;WIDTH:0.453246
G1 X118.004 Y112.753 E.00227
;WIDTH:0.499535
G1 X117.939 Y112.78 E.00251
;WIDTH:0.545824
G1 X117.874 Y112.808 E.00278
;WIDTH:0.592113
G1 X117.809 Y112.835 E.00302
;WIDTH:0.638402
G1 X117.744 Y112.863 E.00329
G1 X117.81 Y112.888 E.00328
;WIDTH:0.592113
G1 X117.876 Y112.914 E.00304
;WIDTH:0.545824
G1 X117.942 Y112.939 E.00277
;WIDTH:0.499535
G1 X118.007 Y112.964 E.00249
;WIDTH:0.453246
G1 X118.073 Y112.99 E.00228
;WIDTH:0.406956
G1 X118.139 Y113.015 E.00201
;WIDTH:0.409526
G1 X119.115 Y113.023 E.02797
;WIDTH:0.458384
G1 X120.091 Y113.031 E.03169
;WIDTH:0.479547
G1 X120.273 Y113.043 E.00622
G1 X120.333 Y113.125 E.00347
G1 X120.885 Y112.574 E.02662
G1 X120.084 Y112.616 E.02737
;WIDTH:0.458384
G1 X119.208 Y112.653 E.02847
