; generated by PrusaSlicer 2.6.0-alpha4+MacOS-x64 on 2023-04-17 at 20:37:10 UTC

; 

; external perimeters extrusion width = 0.40mm
; perimeters extrusion width = 0.40mm
; infill extrusion width = 0.40mm
; solid infill extrusion width = 0.40mm
; top infill extrusion width = 0.40mm
; first layer extrusion width = 0.40mm

M201 X400 Y400 Z100 E5000 ; sets maximum accelerations, mm/sec^2
M203 X48 Y48 Z10 E60 ; sets maximum feedrates, mm / sec
M204 P400 R1000 T400 ; sets acceleration (P, T) and retract acceleration (R), mm/sec^2
M205 X8.00 Y8.00 Z0.40 E5.00 ; sets the jerk limits, mm/sec
M205 S0 T0 ; sets the minimum extruding and travel feed rate, mm/sec
M107
;TYPE:Custom
; Ender 3 Custom Start G-code
G92 E0 ; Reset Extruder

M140 S50 ; set bed temp
M190 S50 ; wait for bed temp

G28 ; Home all axes
M104 S205 ; set extruder temp 
BED_MESH_CALIBRATE AREA_START=90.8035,100.043 AREA_END=149.017,137.235

G1 Z2.0 F3000 ; Move Z Axis up little to prevent scratching of Heat Bed
M109 S205 ; wait for extruder temp
G1 X0.1 Y20 Z0.3 F5000.0 ; Move to start position

G1 X0.1 Y200.0 Z0.3 F1500.0 E15 ; Draw the first line
G1 X0.4 Y200.0 Z0.3 F5000.0 ; Move to side a little
G1 X0.4 Y20 Z0.3 F1500.0 E30 ; Draw the second line
G92 E0 ; Reset Extruder
G1 Z2.0 F3000 ; Move Z Axis up little to prevent scratching of Heat Bed
G1 X5 Y20 Z0.3 F5000.0 ; Move over to prevent blob squish
G21 ; set units to millimeters
G90 ; use absolute coordinates
M83 ; use relative distances for extrusion
; Filament gcode
M107
;LAYER_CHANGE
;Z:0.2
;HEIGHT:0.2
TIMELAPSE_TAKE_FRAME
;BEFORE_LAYER_CHANGE
G92 E0
;0.2


G1 E-5 F3600
G1 Z.2 F4800
;AFTER_LAYER_CHANGE
;0.2
G1 X94.876 Y103.348
G1 E5 F2400
M204 S400
;TYPE:Skirt/Brim
;WIDTH:0.4
G1 F1440
G1 X95.846 Y102.562 E.03707
G1 X96.892 Y101.881 E.03706
G1 X98.418 Y101.133 E.05046
G1 X100.368 Y100.523 E.06066
G1 X102.042 Y100.268 E.05028
G1 X136.979 Y100.227 E1.03733
G1 X138.22 Y100.313 E.03694
G1 X139.452 Y100.523 E.03711
G1 X141.403 Y101.133 E.06069
G1 X142.929 Y101.881 E.05046
G1 X144.598 Y103.047 E.06045
G1 X145.512 Y103.892 E.03696
G1 X146.337 Y104.835 E.0372
G1 X147.299 Y106.261 E.05107
G1 X148.148 Y108.094 E.05998
G1 X148.613 Y109.763 E.05144
G1 X148.79 Y111.002 E.03716
G1 X148.839 Y112.013 E.03005
G1 X148.839 Y125.266 E.3935
G1 X148.79 Y126.277 E.03005
G1 X148.613 Y127.516 E.03716
G1 X148.148 Y129.185 E.05144
G1 X147.662 Y130.331 E.03696
G1 X147.053 Y131.427 E.03723
G1 X145.833 Y133.043 E.06012
G1 X144.945 Y133.931 E.03729
G1 X143.975 Y134.716 E.03705
G1 X142.929 Y135.397 E.03706
G1 X141.399 Y136.147 E.05059
G1 X139.452 Y136.755 E.06056
G1 X137.779 Y137.01 E.05025
G1 X102.042 Y137.01 E1.06108
G1 X100.369 Y136.755 E.05025
G1 X99.17 Y136.423 E.03694
G1 X98.003 Y135.968 E.03719
G1 X96.892 Y135.397 E.03709
G1 X95.846 Y134.716 E.03706
G1 X94.876 Y133.931 E.03705
G1 X93.988 Y133.043 E.03729
G1 X93.204 Y132.073 E.03703
G1 X92.522 Y131.018 E.0373
G1 X91.673 Y129.185 E.05998
G1 X91.312 Y127.985 E.03721
G1 X91.031 Y126.277 E.05139
G1 X91.031 Y111.002 E.45353
G1 X91.208 Y109.763 E.03716
G1 X91.519 Y108.55 E.03718
G1 X91.961 Y107.374 E.0373
G1 X92.522 Y106.261 E.03701
G1 X93.204 Y105.205 E.03732
G1 X93.988 Y104.236 E.03701
G1 X94.834 Y103.39 E.03552
G1 X95.086 Y103.643 F4800
G1 F1440
G1 X96.065 Y102.844 E.03752
G1 X97.081 Y102.184 E.03597
G1 X98.542 Y101.468 E.04831
G1 X100.458 Y100.869 E.0596
G1 X102.06 Y100.625 E.04811
G1 X136.961 Y100.584 E1.03626
G1 X138.167 Y100.666 E.03589
G1 X139.363 Y100.869 E.03602
G1 X141.279 Y101.468 E.0596
G1 X142.74 Y102.184 E.04831
G1 X144.378 Y103.329 E.05934
G1 X145.264 Y104.15 E.03586
G1 X146.064 Y105.065 E.03609
G1 X146.983 Y106.428 E.04881
G1 X147.816 Y108.226 E.05884
G1 X148.26 Y109.821 E.04916
G1 X148.434 Y111.021 E.036
G1 X148.482 Y112.013 E.02949
G1 X148.482 Y125.266 E.3935
G1 X148.434 Y126.257 E.02946
G1 X148.26 Y127.458 E.03603
G1 X147.816 Y129.052 E.04913
G1 X147.347 Y130.164 E.03583
G1 X146.758 Y131.227 E.03608
G1 X146.064 Y132.214 E.03582
G1 X145.264 Y133.129 E.03609
G1 X143.755 Y134.434 E.05923
G1 X142.74 Y135.095 E.03596
G1 X141.276 Y135.812 E.0484
G1 X139.363 Y136.41 E.05951
G1 X137.761 Y136.654 E.04811
G1 X102.06 Y136.654 E1.06001
G1 X100.458 Y136.41 E.04811
G1 X99.293 Y136.088 E.03589
G1 X98.161 Y135.648 E.03606
G1 X97.081 Y135.095 E.03603
G1 X96.065 Y134.434 E.03599
G1 X95.123 Y133.673 E.03596
G1 X94.261 Y132.813 E.03615
G1 X93.5 Y131.873 E.03591
G1 X92.837 Y130.851 E.03617
G1 X92.005 Y129.052 E.05885
G1 X91.656 Y127.889 E.03605
G1 X91.387 Y126.257 E.04911
G1 X91.387 Y111.021 E.45238
G1 X91.561 Y109.821 E.036
G1 X91.863 Y108.646 E.03602
G1 X92.292 Y107.507 E.03614
G1 X92.837 Y106.427 E.03592
G1 X93.5 Y105.405 E.03617
G1 X94.261 Y104.465 E.03591
G1 X95.043 Y103.685 E.03279
G1 X95.295 Y103.938 F4800
G1 F1440
G1 X96.285 Y103.126 E.03802
G1 X97.27 Y102.487 E.03486
G1 X98.665 Y101.803 E.04613
G1 X100.547 Y101.215 E.05854
G1 X102.078 Y100.981 E.04599
G1 X136.943 Y100.941 E1.03519
G1 X138.113 Y101.019 E.03482
G1 X139.274 Y101.215 E.03496
G1 X141.155 Y101.803 E.05851
G1 X142.551 Y102.487 E.04616
G1 X144.159 Y103.611 E.05825
G1 X145.017 Y104.407 E.03475
G1 X145.79 Y105.295 E.03496
G1 X146.668 Y106.595 E.04658
G1 X147.485 Y108.359 E.05772
G1 X147.908 Y109.879 E.04685
G1 X148.077 Y111.041 E.03486
G1 X148.125 Y112.013 E.0289
G1 X148.125 Y125.266 E.3935
G1 X148.077 Y126.238 E.0289
G1 X147.908 Y127.4 E.03486
G1 X147.485 Y128.92 E.04685
G1 X147.031 Y129.997 E.0347
G1 X146.462 Y131.027 E.03494
G1 X145.79 Y131.984 E.03472
G1 X145.017 Y132.871 E.03493
G1 X143.536 Y134.153 E.05816
G1 X142.551 Y134.792 E.03486
G1 X141.153 Y135.477 E.04622
G1 X139.274 Y136.064 E.05845
G1 X137.743 Y136.297 E.04598
G1 X102.878 Y136.338 E1.03519
G1 X100.916 Y136.139 E.05855
G1 X99.773 Y135.864 E.03491
G1 X98.668 Y135.477 E.03476
G1 X97.604 Y134.977 E.03491
G1 X96.285 Y134.153 E.04618
G1 X95.371 Y133.416 E.03486
G1 X94.534 Y132.583 E.03506
G1 X93.796 Y131.673 E.03479
G1 X93.153 Y130.684 E.03503
G1 X92.336 Y128.92 E.05772
G1 X92 Y127.793 E.03492
G1 X91.744 Y126.238 E.04679
G1 X91.744 Y111.041 E.45122
G1 X91.913 Y109.879 E.03486
G1 X92.207 Y108.742 E.03487
G1 X92.624 Y107.639 E.03501
G1 X93.153 Y106.594 E.03478
G1 X93.796 Y105.605 E.03503
G1 X94.534 Y104.695 E.03479
G1 X95.252 Y103.981 E.03006
G1 X95.504 Y104.234 F4800
G1 F1440
G1 X95.618 Y104.12 E.00479
G1 X96.504 Y103.408 E.03375
G1 X97.459 Y102.79 E.03377
G1 X98.789 Y102.138 E.04398
G1 X100.636 Y101.56 E.05746
G1 X102.096 Y101.338 E.04385
G1 X136.925 Y101.297 E1.03412
G1 X138.059 Y101.372 E.03374
G1 X139.185 Y101.56 E.0339
G1 X141.032 Y102.138 E.05746
G1 X142.361 Y102.79 E.04395
G1 X143.94 Y103.893 E.05719
G1 X144.77 Y104.665 E.03366
G1 X145.517 Y105.524 E.0338
G1 X146.352 Y106.762 E.04434
G1 X147.153 Y108.491 E.05658
G1 X147.556 Y109.937 E.04457
G1 X147.767 Y112.013 E.06196
G1 X147.767 Y125.266 E.3935
G1 X147.556 Y127.342 E.06196
G1 X147.153 Y128.787 E.04454
G1 X146.716 Y129.83 E.03358
G1 X146.166 Y130.827 E.03381
G1 X145.517 Y131.754 E.0336
G1 X144.77 Y132.614 E.03382
G1 X143.317 Y133.871 E.05704
G1 X142.361 Y134.489 E.0338
G1 X141.029 Y135.142 E.04405
G1 X139.185 Y135.718 E.05736
G1 X137.725 Y135.941 E.04385
G1 X102.896 Y135.981 E1.03412
G1 X100.97 Y135.786 E.05748
G1 X99.863 Y135.519 E.03381
G1 X98.792 Y135.142 E.03371
G1 X97.761 Y134.656 E.03384
G1 X96.504 Y133.871 E.044
G1 X95.618 Y133.158 E.03377
G1 X94.808 Y132.353 E.03391
G1 X94.092 Y131.473 E.03368
G1 X93.468 Y130.517 E.0339
G1 X92.668 Y128.787 E.05659
G1 X92.344 Y127.697 E.03376
G1 X92.1 Y126.218 E.04451
G1 X92.1 Y111.06 E.45006
G1 X92.265 Y109.937 E.0337
G1 X92.551 Y108.838 E.03372
G1 X92.955 Y107.772 E.03385
G1 X93.468 Y106.761 E.03366
G1 X94.092 Y105.805 E.0339
G1 X94.808 Y104.925 E.03368
G1 X95.461 Y104.276 E.02734
; printing object NO_TXT_Kostka.stl id:0 copy 0
G1 E-3.5 F3600
;WIPE_START
G1 F3840
G1 X95.618 Y104.12 E-.19712
G1 X96.504 Y103.408 E-1.01232
G1 X96.778 Y103.231 E-.29056
;WIPE_END
G1 X119.758 Y123.316 F4800
G1 E5 F2400
;TYPE:External perimeter
;WIDTH:0.540402
G1 F1440
G1 X119.677 Y123.248 E.00437
G1 X119.654 Y123.091 E.00656
G1 X119.727 Y122.947 E.00668
;WIDTH:0.540624
G1 X119.92 Y122.843 E.00907
G1 X120.356 Y122.808 E.0181
G1 X120.322 Y123.099 E.01212
G1 X120.099 Y123.307 E.01262
G1 X119.818 Y123.314 E.01163
G1 X119.739 Y123.212 F4800
G1 E-3.5 F3600
;WIPE_START
G1 F3840
G1 X119.677 Y123.248 E-.13865
G1 X119.654 Y123.091 E-.14132
G1 X119.727 Y122.947 E-.14379
G1 X119.92 Y122.843 E-.19526
G1 X120.356 Y122.808 E-.38956
G1 X120.322 Y123.099 E-.26093
G1 X120.133 Y123.276 E-.23049
;WIPE_END
G1 X121.707 Y120.895 F4800
G1 E5 F2400
;WIDTH:0.59084
G1 F1440
G1 X121.726 Y121.411 E.02352
;WIDTH:0.556286
G1 X121.724 Y121.471 E.00256
G1 E-3.5 F3600
;WIPE_START
G1 F3840
G1 X121.726 Y121.411 E-.05347
G1 X121.707 Y120.895 E-.45987
;WIPE_END
G1 E-.98666 F3600
G1 X122.364 Y125.379 F4800
G1 E5 F2400
;TYPE:Perimeter
;WIDTH:0.399999
G1 F1440
G1 X122.254 Y125.369 E.00328
G1 X121.939 Y125.224 E.0103
G1 X121.689 Y124.946 E.0111
G1 X121.612 Y124.745 E.00639
G1 X121.186 Y125.065 E.01582
G1 X120.823 Y125.24 E.01197
G1 X120.29 Y125.353 E.01618
G1 X120.813 Y125.465 E.01588
G1 X121.274 Y125.672 E.015
G1 X121.688 Y125.964 E.01504
G1 X122.046 Y126.332 E.01524
G1 X122.381 Y126.846 E.01822
G1 X122.512 Y127.189 E.0109
G1 X122.66 Y127.773 E.01789
G1 X122.639 Y128.423 E.01931
G1 X122.592 Y128.744 E.00963
G1 X122.395 Y129.286 E.01712
G1 X122.089 Y129.778 E.0172
G1 X121.688 Y130.193 E.01713
G1 X121.217 Y130.513 E.01691
G1 X120.675 Y130.733 E.01737
G1 X120.154 Y130.833 E.01575
G1 X119.474 Y130.803 E.02021
G1 X118.872 Y130.639 E.01853
G1 X118.363 Y130.368 E.01712
G1 X117.926 Y130 E.01696
G1 X117.566 Y129.539 E.01737
G1 X117.313 Y129.02 E.01714
G1 X117.174 Y128.461 E.0171
G1 X117.154 Y127.882 E.0172
G1 X117.256 Y127.313 E.01716
G1 X117.473 Y126.779 E.01711
G1 X117.778 Y126.325 E.01624
G1 X118.168 Y125.939 E.01629
G1 X118.587 Y125.66 E.01495
G1 X118.921 Y125.504 E.01095
G1 X119.503 Y125.367 E.01775
;WIDTH:0.367775
G1 X119.596 Y125.353 E.00254
;WIDTH:0.383131
G1 X119.366 Y125.329 E.00654
;WIDTH:0.399999
G1 X118.821 Y125.177 E.0168
G1 X118.38 Y124.939 E.01488
G1 X118.008 Y124.6 E.01494
G1 X117.733 Y124.184 E.01481
G1 X117.56 Y123.722 E.01465
G1 X117.534 Y123.572 E.00452
G1 X116.526 Y125.013 E.05221
G1 X116.277 Y125.253 E.01027
G1 X115.947 Y125.381 E.01051
G1 X115.038 Y125.394 E.02699
G1 X114.689 Y125.323 E.01057
G1 X114.395 Y125.121 E.01059
G1 X114.176 Y124.734 E.0132
G1 X114.145 Y124.025 E.02107
G1 X114.145 Y122.445 E.04691
G1 X113.892 Y122.355 E.00797
G1 X113.694 Y122.128 E.00894
;WIDTH:0.439859
G1 X113.641 Y122.021 E.00394
;WIDTH:0.479718
G1 X113.589 Y121.913 E.00435
;WIDTH:0.519577
G1 X113.536 Y121.806 E.00473
;WIDTH:0.559436
G1 X113.484 Y121.698 E.00515
G1 X113.496 Y121.107 E.02539
;WIDTH:0.54886
G1 X113.488 Y120.753 E.0149
G1 X113.565 Y120.585 E.00777
;WIDTH:0.49924
G1 X113.642 Y120.417 E.00701
;WIDTH:0.44962
G1 X113.719 Y120.249 E.00625
;WIDTH:0.399999
G1 X113.925 Y120.036 E.0088
G1 X114.145 Y119.944 E.00708
G1 X114.168 Y119.547 E.01181
G1 X114.265 Y119.299 E.00791
G1 X114.455 Y119.071 E.00881
;WIDTH:0.404661
G1 X114.96 Y118.855 E.01652
G1 X115.795 Y118.854 E.02512
;WIDTH:0.408243
G1 X115.976 Y118.85 E.0055
G1 X116.393 Y118.958 E.01309
;WIDTH:0.399999
G1 X116.695 Y119.218 E.01183
G1 X116.832 Y119.493 E.00912
G1 X116.888 Y119.871 E.01135
G1 X117.717 Y119.955 E.02474
G1 X117.855 Y119.715 E.00822
G1 X118.203 Y119.349 E.015
G1 X118.629 Y119.07 E.01512
G1 X119.139 Y118.886 E.0161
G1 X119.656 Y118.816 E.01549
;WIDTH:0.393749
G1 X120.266 Y118.815 E.01779
;WIDTH:0.399999
G1 X120.787 Y118.917 E.01576
G1 X121.287 Y119.135 E.0162
G1 X121.643 Y119.405 E.01327
G1 X121.88 Y119.072 E.01214
G1 X122.109 Y118.928 E.00803
;WIDTH:0.400594
G1 X122.463 Y118.854 E.01076
G1 X123.22 Y118.854 E.02251
;WIDTH:0.408238
G1 X123.401 Y118.85 E.0055
G1 X123.818 Y118.958 E.01308
;WIDTH:0.399999
G1 X124.036 Y119.119 E.00805
G1 X124.151 Y119.262 E.00545
G1 X124.294 Y119.747 E.01501
G1 X124.294 Y119.861 E.00338
G1 X125.288 Y119.861 E.02951
G1 X125.626 Y119.928 E.01023
G1 X125.872 Y120.078 E.00855
G1 X126.076 Y120.334 E.00972
;WIDTH:0.448424
G1 X126.153 Y120.589 E.00898
;WIDTH:0.496849
G1 X126.229 Y120.845 E.01008
;WIDTH:0.530066
G1 X126.246 Y120.926 E.00335
;WIDTH:0.563283
G1 X126.263 Y121.007 E.00358
G1 X126.243 Y121.55 E.02351
;WIDTH:0.531939
G1 X126.225 Y121.755 E.00837
G1 X126.045 Y122.016 E.01289
;WIDTH:0.487959
G1 X125.866 Y122.276 E.01168
;WIDTH:0.443979
G1 X125.687 Y122.537 E.01055
;WIDTH:0.399999
G1 X123.951 Y125.014 E.08981
G1 X123.717 Y125.243 E.00972
G1 X123.355 Y125.384 E.01153
G1 X122.424 Y125.385 E.02764
G1 X122.398 Y125.013 F4800
G1 F1440
G1 X122.228 Y124.983 E.00513
G1 X122.059 Y124.852 E.00635
G1 X121.939 Y124.613 E.00794
G1 X121.944 Y123.339 E.03783
G1 X121.849 Y123.747 E.01244
G1 X121.669 Y124.116 E.01219
G1 X121.417 Y124.441 E.01221
G1 X121.014 Y124.752 E.01511
G1 X120.724 Y124.897 E.00963
G1 X120.269 Y125.008 E.01391
G1 X119.624 Y125.017 E.01915
G1 X119.026 Y124.865 E.01832
G1 X118.789 Y124.774 E.00754
G1 X118.458 Y124.548 E.0119
G1 X118.184 Y124.247 E.01209
G1 X117.993 Y123.897 E.01184
G1 X117.874 Y123.463 E.01336
G1 X117.858 Y122.963 E.01485
;WIDTH:0.449447
G1 X117.902 Y122.698 E.00908
;WIDTH:0.498895
G1 X117.946 Y122.433 E.01018
;WIDTH:0.511108
G1 X117.956 Y122.391 E.00168
G1 X117.829 Y122.556 E.00811
;WIDTH:0.474072
G1 X117.702 Y122.721 E.00746
;WIDTH:0.437036
G1 X117.575 Y122.886 E.00682
;WIDTH:0.399999
G1 X116.233 Y124.808 E.0696
G1 X116.034 Y124.981 E.00783
G1 X115.795 Y125.037 E.00729
G1 X115.038 Y125.037 E.02248
G1 X114.786 Y124.974 E.00771
G1 X114.652 Y124.873 E.00498
G1 X114.521 Y124.641 E.00791
G1 X114.502 Y124.025 E.0183
G1 X114.502 Y122.198 E.05425
G1 X114.117 Y122.078 E.01197
G1 X113.966 Y121.881 E.00737
G1 X113.92 Y121.662 E.00664
G1 X113.92 Y120.754 E.02696
G1 X113.977 Y120.512 E.00738
G1 X114.137 Y120.323 E.00735
G1 X114.455 Y120.219 E.00993
G1 X114.502 Y120.219 E.0014
G1 X114.505 Y119.686 E.01583
G1 X114.574 Y119.478 E.00651
G1 X114.688 Y119.341 E.00529
G1 X115.038 Y119.211 E.01109
G1 X115.976 Y119.211 E.02785
G1 X116.226 Y119.274 E.00765
G1 X116.407 Y119.429 E.00708
G1 X116.489 Y119.595 E.0055
G1 X116.512 Y120.222 E.01863
G1 X117.816 Y120.324 E.03884
G1 X117.923 Y120.417 E.00421
G1 X118.123 Y119.95 E.01508
G1 X118.412 Y119.639 E.01261
G1 X118.767 Y119.399 E.01272
G1 X119.19 Y119.24 E.01342
G1 X119.786 Y119.153 E.01788
G1 X120.302 Y119.172 E.01533
G1 X120.801 Y119.3 E.0153
G1 X121.199 Y119.504 E.01328
G1 X121.536 Y119.804 E.0134
G1 X121.795 Y120.225 E.01468
G1 X121.839 Y120.385 E.00493
G1 X121.934 Y120.27 E.00443
G1 X121.927 Y119.754 E.01532
G1 X121.962 Y119.558 E.00591
G1 X122.113 Y119.342 E.00783
G1 X122.251 Y119.255 E.00484
G1 X122.463 Y119.212 E.00642
G1 X123.401 Y119.211 E.02785
G1 X123.652 Y119.273 E.00768
G1 X123.851 Y119.456 E.00803
G1 X123.937 Y119.747 E.00901
G1 X123.937 Y120.219 E.01401
G1 X125.288 Y120.219 E.04011
G1 X125.536 Y120.279 E.00758
G1 X125.761 Y120.502 E.00941
G1 X125.824 Y120.754 E.00771
G1 X125.824 Y121.55 E.02363
G1 X125.756 Y121.811 E.00801
G1 X123.659 Y124.809 E.10863
G1 X123.518 Y124.946 E.00584
G1 X123.228 Y125.037 E.00902
G1 X122.457 Y125.024 E.0229
G1 X122.463 Y124.68 F4800
;TYPE:External perimeter
G1 F1440
G1 X122.328 Y124.618 E.00441
G1 X122.285 Y124.498 E.00378
G1 X122.291 Y123.156 E.03985
;WIDTH:0.449788
G1 X122.267 Y123.002 E.00527
;WIDTH:0.499576
G1 X122.243 Y122.847 E.00596
;WIDTH:0.549364
G1 X122.219 Y122.692 E.0066
G1 X122.244 Y122.521 E.00728
;WIDTH:0.499576
G1 X122.27 Y122.351 E.00653
;WIDTH:0.449788
G1 X122.296 Y122.18 E.00585
;WIDTH:0.399999
G1 X122.297 Y121.791 E.01155
G1 X121.869 Y121.697 E.01301
;WIDTH:0.440645
G1 X121.827 Y121.651 E.00206
;WIDTH:0.481291
G1 X121.784 Y121.604 E.00232
;WIDTH:0.521936
G1 X121.741 Y121.558 E.00251
;WIDTH:0.556286
G1 X121.724 Y121.471 E.00378
G1 X121.681 Y121.542 E.00354
;WIDTH:0.521936
G1 X121.616 Y121.563 E.00272
;WIDTH:0.481291
G1 X121.551 Y121.584 E.00249
;WIDTH:0.440645
G1 X121.486 Y121.605 E.00226
;WIDTH:0.399999
G1 X121.013 Y121.632 E.01407
G1 X120.603 Y121.571 E.01231
G1 X120.386 Y121.063 E.0164
