; generated by PrusaSlicer 2.6.0+win64 on 2023-08-14 at 18:57:52 UTC

; 

; external perimeters extrusion width = 0.42mm
; perimeters extrusion width = 0.44mm
; infill extrusion width = 0.44mm
; solid infill extrusion width = 0.44mm
; top infill extrusion width = 0.40mm
; first layer extrusion width = 0.42mm

;TYPE:Custom
; Ender 3 Custom Start G-code
G92 E0 ; Reset Extruder

M140 S50 ; set bed temp
M190 S50 ; wait for bed temp

G28 ; Home all axes
M104 S205 ; set extruder temp 
BED_MESH_CALIBRATE AREA_START=91.7718,93.2173 AREA_END=135.76,121.557

G1 Z2.0 F3000 ; Move Z Axis up little to prevent scratching of Heat Bed
M109 S205 ; wait for extruder temp
G1 X0.1 Y20 Z0.3 F5000.0 ; Move to start position

G1 X0.1 Y200.0 Z0.3 F1500.0 E15 ; Draw the first line
G1 X0.4 Y200.0 Z0.3 F5000.0 ; Move to side a little
G1 X0.4 Y20 Z0.3 F1500.0 E30 ; Draw the second line
G92 E0 ; Reset Extruder
G1 Z2.0 F3000 ; Move Z Axis up little to prevent scratching of Heat Bed
G1 X5 Y20 Z0.3 F5000.0 ; Move over to prevent blob squish
G21 ; set units to millimeters
G90 ; use absolute coordinates
M83 ; use relative distances for extrusion
; Filament gcode
M107
;LAYER_CHANGE
;Z:0.2
;HEIGHT:0.2
;BEFORE_LAYER_CHANGE
G92 E0
;0.2


G1 E-1.6 F2400
G1 Z.2 F6000
;AFTER_LAYER_CHANGE
;0.2
G1 X94.999 Y95.711
G1 E1.6 F2400
M204 S500
;TYPE:Skirt/Brim
;WIDTH:0.42
G1 F1200
G1 X95.707 Y95.139 E.02683
G1 X96.438 Y94.66 E.02576
G1 X97.727 Y94.031 E.04227
G1 X99.119 Y93.613 E.04284
G1 X100.392 Y93.431 E.0379
G1 X126.313 Y93.406 E.76397
G1 X127.776 Y93.514 E.04324
G1 X129.153 Y93.84 E.04171
G1 X130.423 Y94.355 E.04039
G1 X131.969 Y95.33 E.05387
G1 X133.113 Y96.393 E.04603
G1 X133.992 Y97.526 E.04226
G1 X134.669 Y98.771 E.04177
G1 X135.198 Y100.307 E.04788
G1 X135.362 Y101.134 E.02485
G1 X135.466 Y102.445 E.03876
G1 X135.571 Y112.245 E.28885
G1 X135.496 Y113.418 E.03464
G1 X135.135 Y115.06 E.04955
G1 X134.395 Y116.761 E.05467
G1 X133.801 Y117.673 E.03208
G1 X133.252 Y118.347 E.02562
G1 X132.027 Y119.486 E.0493
G1 X130.654 Y120.357 E.04792
G1 X129.704 Y120.78 E.03065
G1 X128.284 Y121.19 E.04356
G1 X126.97 Y121.355 E.03903
G1 X100.618 Y121.36 E.77667
G1 X99.358 Y121.211 E.03739
G1 X98.507 Y121.007 E.02579
G1 X97.581 Y120.683 E.02891
G1 X96.591 Y120.203 E.03243
G1 X95.756 Y119.674 E.02913
G1 X95.018 Y119.085 E.02783
G1 X93.758 Y117.71 E.05497
G1 X93.044 Y116.586 E.03925
G1 X92.585 Y115.595 E.03219
G1 X92.243 Y114.542 E.03263
G1 X92.006 Y113.184 E.04063
G1 X91.983 Y101.854 E.33393
G1 X92.101 Y100.917 E.02783
G1 X92.405 Y99.688 E.03731
G1 X93.139 Y98.015 E.05385
G1 X94.253 Y96.457 E.05645
G1 X94.956 Y95.754 E.0293
G1 X95.241 Y96.067 F6000
G1 F1200
G1 X95.919 Y95.451 E.027
G1 X96.619 Y94.991 E.02469
G1 X97.86 Y94.384 E.04072
G1 X99.191 Y93.983 E.04097
G1 X100.41 Y93.807 E.0363
G1 X126.313 Y93.783 E.76344
G1 X127.934 Y93.923 E.04795
G1 X129.422 Y94.331 E.04547
G1 X130.802 Y94.986 E.04502
G1 X131.895 Y95.754 E.03937
G1 X132.981 Y96.812 E.04469
G1 X133.942 Y98.168 E.04898
G1 X134.526 Y99.414 E.04056
G1 X134.947 Y100.933 E.04646
G1 X135.089 Y102.449 E.04488
G1 X135.194 Y112.249 E.28885
G1 X135.139 Y113.264 E.02996
G1 X134.992 Y114.13 E.02589
G1 X134.517 Y115.648 E.04688
G1 X133.792 Y117.024 E.04584
G1 X132.856 Y118.219 E.04474
G1 X131.616 Y119.321 E.04889
G1 X130.419 Y120.056 E.0414
G1 X129.559 Y120.432 E.02766
G1 X128.221 Y120.818 E.04104
G1 X126.941 Y120.979 E.03802
G1 X100.645 Y120.984 E.77502
G1 X99.417 Y120.839 E.03644
G1 X98.514 Y120.618 E.0274
G1 X97.732 Y120.338 E.02448
G1 X96.767 Y119.869 E.03162
G1 X95.975 Y119.367 E.02764
G1 X95.249 Y118.787 E.02739
G1 X93.979 Y117.375 E.05597
G1 X93.373 Y116.401 E.03381
G1 X92.94 Y115.469 E.03029
G1 X92.608 Y114.448 E.03164
G1 X92.38 Y113.138 E.03919
G1 X92.36 Y101.88 E.33181
G1 X92.628 Y100.258 E.04845
G1 X93.075 Y98.984 E.03979
G1 X93.39 Y98.339 E.02116
G1 X93.782 Y97.688 E.0224
G1 X94.52 Y96.723 E.03581
G1 X95.197 Y96.107 E.02698
G1 X95.449 Y96.384 F6000
G1 F1200
G1 X96.131 Y95.763 E.02719
G1 X96.812 Y95.315 E.02402
G1 X97.993 Y94.737 E.03875
G1 X99.229 Y94.36 E.03809
G1 X100.429 Y94.184 E.03575
G1 X126.313 Y94.16 E.76288
G1 X127.857 Y94.292 E.04567
G1 X129.299 Y94.687 E.04407
G1 X130.611 Y95.311 E.04282
G1 X131.648 Y96.039 E.03734
G1 X132.69 Y97.052 E.04283
G1 X133.614 Y98.354 E.04706
G1 X134.178 Y99.558 E.03919
G1 X134.578 Y101.012 E.04445
G1 X134.712 Y102.453 E.04265
G1 X134.817 Y112.253 E.28885
G1 X134.765 Y113.21 E.02825
G1 X134.62 Y114.067 E.02562
G1 X134.172 Y115.496 E.04414
G1 X133.441 Y116.873 E.04595
G1 X132.587 Y117.955 E.04063
G1 X131.404 Y119.01 E.04672
G1 X130.242 Y119.723 E.04018
G1 X129.435 Y120.076 E.02596
G1 X128.232 Y120.433 E.03698
G1 X126.912 Y120.603 E.03923
G1 X100.672 Y120.608 E.77337
G1 X99.476 Y120.466 E.0355
G1 X98.62 Y120.256 E.02598
G1 X96.943 Y119.536 E.05379
G1 X96.18 Y119.05 E.02666
G1 X95.454 Y118.463 E.02752
G1 X94.287 Y117.157 E.05162
G1 X93.701 Y116.215 E.0327
G1 X93.296 Y115.343 E.02834
G1 X92.973 Y114.353 E.03069
G1 X92.755 Y113.093 E.03769
G1 X92.736 Y101.906 E.32972
G1 X92.989 Y100.368 E.04594
G1 X93.426 Y99.122 E.03892
G1 X93.725 Y98.513 E.02
G1 X94.802 Y96.974 E.05536
G1 X95.405 Y96.424 E.02405
; printing object Shape-Box id:0 copy 0
G1 E-1.12 F2400
;WIPE_START
G1 F4800
G1 X96.131 Y95.763 E-.46637
G1 X96.155 Y95.747 E-.01363
;WIPE_END
G1 X113.323 Y103.347 F6000
G1 E1.6 F2400
;TYPE:External perimeter
G1 F1200
G1 X113.442 Y103.132 E.00724
G1 X113.57 Y103.048 E.00451
G1 X113.69 Y103.001 E.0038
G1 X113.817 Y102.986 E.00377
G1 X113.967 Y103.008 E.00447
G1 X114.082 Y103.059 E.00371
G1 X114.139 Y103.137 E.00285
G1 X114.254 Y103.517 E.0117
G1 X113.975 Y103.447 E.00848
G1 X113.691 Y103.45 E.00837
G1 X113.527 Y103.482 E.00492
G1 X113.252 Y103.595 E.00876
G1 X113.305 Y103.404 E.00584
G1 X113.537 Y103.226 F6000
G1 E-1.12 F2400
;WIPE_START
G1 F4800
G1 X113.442 Y103.132 E-.14466
G1 X113.57 Y103.048 E-.07272
G1 X113.69 Y103.001 E-.06122
G1 X113.817 Y102.986 E-.06074
G1 X113.967 Y103.008 E-.07201
G1 X114.082 Y103.059 E-.05976
G1 X114.093 Y103.074 E-.00889
;WIPE_END
G1 X120.855 Y104.891 F6000
G1 E1.6 F2400
G1 F1200
G1 X121.121 Y104.959 E.00809
G1 X121.397 Y104.956 E.00814
G1 X121.554 Y104.928 E.0047
G1 X121.853 Y104.81 E.00947
G1 X121.795 Y105.031 E.00673
G1 X121.748 Y105.13 E.00323
G1 X121.623 Y105.299 E.0062
G1 X121.491 Y105.376 E.0045
G1 X121.359 Y105.417 E.00407
G1 X121.135 Y105.387 E.00666
G1 X121.029 Y105.339 E.00343
G1 X120.963 Y105.232 E.00371
G1 X120.873 Y104.948 E.00878
G1 X121.087 Y105.038 F6000
G1 E-1.12 F2400
;WIPE_START
G1 F4800
G1 X121.121 Y104.959 E-.11792
G1 X121.397 Y104.956 E-.13111
G1 X121.554 Y104.928 E-.07575
G1 X121.853 Y104.81 E-.15268
G1 X121.852 Y104.815 E-.00254
;WIPE_END
G1 X123.967 Y109.312 F6000
G1 E1.6 F2400
G1 F1200
G1 X124.086 Y109.097 E.00724
G1 X124.214 Y109.013 E.00451
G1 X124.334 Y108.966 E.0038
G1 X124.461 Y108.951 E.00377
G1 X124.611 Y108.973 E.00447
G1 X124.726 Y109.024 E.00371
G1 X124.782 Y109.102 E.00283
G1 X124.896 Y109.476 E.01152
G1 X124.488 Y109.405 E.01221
G1 X124.177 Y109.444 E.00924
G1 X123.895 Y109.56 E.00899
G1 X123.949 Y109.369 E.00585
G1 X124.18 Y109.189 F6000
G1 E-1.12 F2400
;WIPE_START
G1 F4800
G1 X124.086 Y109.097 E-.14466
G1 X124.214 Y109.013 E-.07272
G1 X124.334 Y108.966 E-.06122
G1 X124.461 Y108.951 E-.06074
G1 X124.611 Y108.973 E-.07201
G1 X124.726 Y109.024 E-.05976
G1 X124.737 Y109.039 E-.00889
;WIPE_END
G1 X113.911 Y109.683 F6000
G1 E1.6 F2400
;TYPE:Perimeter
G1 F1200
G1 X113.806 Y109.708 E.00318
G1 X113.718 Y109.694 E.00263
G1 X113.701 Y109.675 E.00075
G1 X113.692 Y109.537 E.00408
G1 X113.709 Y109.454 E.0025
G1 X113.743 Y109.404 E.00178
G1 X113.784 Y109.405 E.00121
G1 X113.86 Y109.5 E.00359
G1 X113.895 Y109.625 E.00383
G1 E-1.12 F2400
;WIPE_START
G1 F4800
G1 X113.806 Y109.708 E-.05781
G1 X113.718 Y109.694 E-.04233
G1 X113.701 Y109.675 E-.01211
G1 X113.692 Y109.537 E-.06569
G1 X113.709 Y109.454 E-.04024
G1 X113.743 Y109.404 E-.02872
G1 X113.784 Y109.405 E-.01948
G1 X113.86 Y109.5 E-.05779
G1 X113.895 Y109.625 E-.06166
;WIPE_END
G1 E-.09417 F2400
G1 X116.917 Y109.683 F6000
G1 E1.6 F2400
G1 F1200
G1 X116.859 Y109.704 E.00182
G1 X116.77 Y109.702 E.00262
G1 X116.706 Y109.669 E.00212
G1 X116.703 Y109.502 E.00492
G1 X116.749 Y109.405 E.00316
G1 X116.791 Y109.405 E.00124
G1 X116.867 Y109.5 E.00359
G1 X116.901 Y109.625 E.00382
G1 E-1.12 F2400
;WIPE_START
G1 F4800
G1 X116.859 Y109.704 E-.0425
G1 X116.77 Y109.702 E-.04229
G1 X116.706 Y109.669 E-.0342
G1 X116.703 Y109.502 E-.07934
G1 X116.749 Y109.405 E-.05099
G1 X116.791 Y109.405 E-.01995
G1 X116.867 Y109.5 E-.05779
G1 X116.901 Y109.625 E-.06153
;WIPE_END
G1 E-.09141 F2400
G1 X124.46 Y103.52 F6000
G1 E1.6 F2400
G1 F1200
G1 X124.369 Y103.508 E.00271
G1 X124.363 Y103.455 E.00157
G1 X124.381 Y103.441 E.00067
G1 X124.414 Y103.441 E.00097
G1 X124.43 Y103.468 E.00093
G1 X125.597 Y103.97 F6000
G1 F1200
G1 X125.592 Y104.103 E.00392
G1 X125.709 Y104.462 E.01113
G1 X125.23 Y104.439 E.01413
G1 X125.289 Y104.014 E.01265
G1 X125.537 Y103.978 E.00739
G1 E-1.12 F2400
;WIPE_START
G1 F4800
G1 X125.592 Y104.103 E-.06487
G1 X125.709 Y104.462 E-.17935
G1 X125.23 Y104.439 E-.22779
G1 X125.232 Y104.422 E-.00799
;WIPE_END
G1 X127.532 Y103.613 F6000
G1 E1.6 F2400
G1 F1200
G1 X127.561 Y103.718 E.00321
G1 X127.502 Y103.739 E.00185
G1 X127.415 Y103.737 E.00256
G1 X127.35 Y103.704 E.00215
G1 X127.347 Y103.537 E.00492
G1 X127.383 Y103.448 E.00283
G1 X127.434 Y103.44 E.00152
G1 X127.516 Y103.555 E.00416
G1 E-1.12 F2400
;WIPE_START
G1 F4800
G1 X127.561 Y103.718 E-.08032
G1 X127.502 Y103.739 E-.02975
G1 X127.415 Y103.737 E-.04134
G1 X127.35 Y103.704 E-.03463
G1 X127.347 Y103.537 E-.07934
G1 X127.383 Y103.448 E-.0456
G1 X127.434 Y103.44 E-.02452
G1 X127.516 Y103.555 E-.06709
;WIPE_END
G1 E-.07741 F2400
G1 X118.554 Y109.223 F6000
G1 E1.6 F2400
G1 F1200
G1 X118.565 Y109.276 E.0016
G1 X118.434 Y109.593 E.01011
G1 X118.389 Y110.612 E.03006
G1 X118.325 Y111.114 E.01492
G1 X118.052 Y112.61 E.04482
G1 X111.994 Y112.593 E.17855
G1 X112.094 Y110.793 E.05313
G1 X112.343 Y110.821 E.00739
G1 X112.286 Y110.766 E.00233
G1 X112.162 Y110.566 E.00694
G1 X111.787 Y111.195 E.02158
G1 X110.766 Y112.656 E.05253
G1 X109.364 Y112.656 E.04132
G1 X109.364 Y110.35 E.06796
G1 X108.884 Y110.35 E.01415
G1 X108.884 Y108.576 E.05229
G1 X109.364 Y108.576 E.01415
G1 X109.364 Y107.724 E.02511
G1 X111.175 Y107.724 E.05338
G1 X111.175 Y108.584 E.02535
G1 X111.714 Y108.619 E.01592
G1 X112.171 Y108.69 E.01363
G1 X112.256 Y108.469 E.00698
G1 X112.416 Y108.246 E.00809
G1 X112.583 Y108.088 E.00678
G1 X112.907 Y107.847 E.0119
G1 X113.314 Y107.708 E.01268
G1 X113.586 Y107.668 E.0081
G1 X114.083 Y107.684 E.01466
G1 X114.423 Y107.772 E.01035
G1 X114.747 Y107.922 E.01052
G1 X115.014 Y108.148 E.01031
G1 X115.258 Y108.454 E.01153
G1 X115.549 Y108.102 E.01346
G1 X115.752 Y107.938 E.00769
G1 X116.133 Y107.757 E.01243
G1 X116.567 Y107.67 E.01305
G1 X116.928 Y107.667 E.01064
G1 X117.263 Y107.719 E.00999
G1 X117.583 Y107.829 E.00997
G1 X117.882 Y108.002 E.01018
G1 X118.131 Y108.232 E.00999
G1 X118.353 Y108.524 E.01081
G1 X118.495 Y108.957 E.01343
G1 X118.541 Y109.165 E.00628
G1 E-1.12 F2400
;WIPE_START
G1 F4800
G1 X118.565 Y109.276 E-.05394
G1 X118.434 Y109.593 E-.16293
G1 X118.41 Y110.146 E-.26313
;WIPE_END
G1 X115.146 Y109.532 F6000
G1 E1.6 F2400
;TYPE:External perimeter
G1 F1200
G1 X114.28 Y109.606 E.02562
G1 X114.203 Y109.325 E.00859
G1 X114.024 Y109.102 E.00843
G1 X113.834 Y109.024 E.00605
G1 X113.706 Y109.022 E.00377
G1 X113.631 Y109.038 E.00226
G1 X113.518 Y109.095 E.00373
G1 X113.419 Y109.195 E.00415
G1 X113.349 Y109.327 E.0044
G1 X113.314 Y109.507 E.0054
G1 X113.321 Y109.71 E.00599
G1 X113.381 Y109.881 E.00534
G1 X113.471 Y109.984 E.00403
G1 X113.608 Y110.058 E.00459
G1 X113.909 Y110.084 E.0089
G1 X114.174 Y109.99 E.00829
G1 X114.321 Y109.816 E.00671
G1 X115.036 Y109.909 E.02125
G1 X115.007 Y110.58 E.01979
G1 X114.946 Y111.056 E.01414
G1 X114.731 Y112.231 E.03521
G1 X112.392 Y112.218 E.06894
G1 X112.448 Y111.211 E.02973
G1 X113.188 Y111.293 E.02194
G1 X113.944 Y111.287 E.02228
G1 X114.014 Y110.923 E.01092
G1 X113.746 Y110.977 E.00806
G1 X113.388 Y110.958 E.01057
G1 X113.021 Y110.866 E.01115
G1 X112.785 Y110.721 E.00816
G1 X112.581 Y110.526 E.00832
G1 X112.491 Y110.381 E.00503
G1 X112.349 Y109.898 E.01484
G1 X112.326 Y109.614 E.0084
G1 X112.371 Y109.223 E.0116
G1 X112.591 Y108.649 E.01812
G1 X112.701 Y108.495 E.00558
G1 X112.826 Y108.378 E.00505
G1 X113.084 Y108.185 E.0095
G1 X113.403 Y108.077 E.00993
G1 X113.608 Y108.046 E.00611
G1 X114.029 Y108.06 E.01242
G1 X114.296 Y108.128 E.00812
G1 X114.542 Y108.243 E.008
G1 X114.746 Y108.415 E.00786
G1 X114.918 Y108.619 E.00786
G1 X115.016 Y108.865 E.0078
G1 X115.135 Y109.473 E.01826
G1 X115.201 Y109.928 F6000
G1 E-1.12 F2400
;WIPE_START
G1 F4800
G1 X114.28 Y109.606 E-.41101
G1 X114.242 Y109.466 E-.06899
;WIPE_END
G1 X117.287 Y109.606 F6000
G1 E1.6 F2400
G1 F1200
G1 X117.21 Y109.325 E.00859
G1 X117.031 Y109.102 E.00843
G1 X116.846 Y109.025 E.00591
G1 X116.67 Y109.031 E.00519
G1 X116.56 Y109.073 E.00347
G1 X116.457 Y109.157 E.00392
G1 X116.376 Y109.279 E.00432
G1 X116.328 Y109.441 E.00498
G1 X116.32 Y109.649 E.00613
G1 X116.368 Y109.843 E.00589
G1 X116.446 Y109.956 E.00405
G1 X116.572 Y110.042 E.0045
G1 X116.722 Y110.078 E.00455
G1 X116.919 Y110.082 E.00581
G1 X117.175 Y109.993 E.00799
G1 X117.331 Y109.817 E.00693
G1 X118.043 Y109.909 E.02116
G1 X118.013 Y110.58 E.0198
G1 X117.953 Y111.056 E.01414
G1 X117.738 Y112.231 E.03521
G1 X115.399 Y112.218 E.06894
G1 X115.455 Y111.211 E.02973
G1 X116.195 Y111.293 E.02194
G1 X116.951 Y111.287 E.02228
G1 X117.021 Y110.923 E.01092
G1 X116.753 Y110.977 E.00806
G1 X116.395 Y110.958 E.01057
G1 X116.03 Y110.867 E.01109
G1 X115.788 Y110.725 E.00827
G1 X115.582 Y110.521 E.00854
G1 X115.445 Y110.268 E.00848
G1 X115.355 Y109.892 E.01139
G1 X115.333 Y109.618 E.0081
G1 X115.353 Y109.349 E.00795
G1 X115.476 Y108.88 E.01429
G1 X115.595 Y108.625 E.00829
G1 X115.812 Y108.374 E.00978
G1 X115.954 Y108.26 E.00537
G1 X116.253 Y108.117 E.00977
G1 X116.605 Y108.047 E.01058
G1 X116.9 Y108.045 E.00869
G1 X117.172 Y108.087 E.00811
G1 X117.425 Y108.174 E.00789
G1 X117.656 Y108.307 E.00786
G1 X117.85 Y108.487 E.0078
G1 X118.014 Y108.702 E.00797
G1 X118.131 Y109.056 E.01099
G1 X118.172 Y109.241 E.00558
G1 X118.047 Y109.541 E.00958
G1 X117.347 Y109.601 E.02071
G1 X117.01 Y109.694 F6000
G1 E-1.12 F2400
;WIPE_START
G1 F4800
G1 X117.21 Y109.325 E-.14636
G1 X117.031 Y109.102 E-.13583
G1 X116.846 Y109.025 E-.09518
G1 X116.67 Y109.031 E-.08365
G1 X116.633 Y109.045 E-.01898
;WIPE_END
G1 X112.242 Y109.083 F6000
G1 E1.6 F2400
G1 F1200
G1 X112.242 Y109.727 E.01898
G1 X111.95 Y110.161 E.01542
G1 X111.73 Y110.577 E.01387
G1 X111.473 Y110.987 E.01426
G1 X110.57 Y112.279 E.04646
G1 X109.742 Y112.279 E.0244
G1 X109.742 Y109.973 E.06796
G1 X109.261 Y109.973 E.01418
G1 X109.261 Y108.953 E.03006
G1 X109.742 Y108.953 E.01418
G1 X109.742 Y108.101 E.02511
G1 X110.798 Y108.101 E.03112
G1 X110.798 Y108.956 E.0252
G1 X111.27 Y108.963 E.01391
G1 X111.67 Y108.993 E.01182
G1 X112.182 Y109.074 E.01528
G1 X112.641 Y109.1 F6000
G1 E-1.12 F2400
;WIPE_START
G1 F4800
G1 X112.242 Y109.727 E-.31148
G1 X112.044 Y110.021 E-.16852
;WIPE_END
G1 X111.977 Y114.897 F6000
G1 E1.6 F2400
;TYPE:Perimeter
G1 F1200
G1 X112.047 Y114.61 E.00871
G1 X112.186 Y114.298 E.01007
G1 X112.401 Y113.991 E.01105
G1 X112.679 Y113.731 E.01122
G1 X112.971 Y113.549 E.01014
G1 X113.28 Y113.427 E.00979
G1 X113.646 Y113.359 E.01097
G1 X113.957 Y113.359 E.00917
G1 X114.349 Y113.435 E.01177
G1 X114.724 Y113.599 E.01206
G1 X114.967 Y113.768 E.00872
G1 X115.196 Y113.989 E.00938
G1 X115.419 Y114.305 E.0114
G1 X115.584 Y114.711 E.01292
G1 X115.645 Y115.06 E.01044
G1 X115.638 Y115.417 E.01052
G1 X115.554 Y115.792 E.01133
G1 X115.405 Y116.123 E.0107
G1 X115.197 Y116.416 E.01059
G1 X114.912 Y116.682 E.01149
G1 X114.622 Y116.86 E.01003
G1 X114.346 Y116.97 E.00876
G1 X114.005 Y117.042 E.01027
G1 X113.593 Y117.042 E.01214
G1 X113.245 Y116.968 E.01049
G1 X112.879 Y116.808 E.01177
G1 X112.586 Y116.598 E.01062
G1 X112.369 Y116.375 E.00917
G1 X112.156 Y116.051 E.01143
