; generated by PrusaSlicer 2.7.2+win64 on 2024-03-06 at 20:54:04 UTC


;
;

;
;
; 

; external perimeters extrusion width = 0.42mm
; perimeters extrusion width = 0.44mm
; infill extrusion width = 0.44mm
; solid infill extrusion width = 0.44mm
; top infill extrusion width = 0.40mm
; first layer extrusion width = 0.42mm


; printing object Shape-Box id:0 copy 0
; stop printing object Shape-Box id:0 copy 0

;TYPE:Custom
; Ender 3 Custom Start G-code
G92 E0 ; Reset Extruder

M140 S55 ; set bed temp
M104 S160 ; set extruder temp
M109 S160 ; wait for extruder temp
M190 S55 ; wait for bed temp

G28 ; Home all axes
M104 S210 ; set extruder temp 
BED_MESH_CALIBRATE AREA_START=83.7684,88.5669 AREA_END=143.763,126.207

G1 Z2.0 F3000 ; Move Z Axis up little to prevent scratching of Heat Bed
M109 S210 ; wait for extruder temp
G1 X0.1 Y20 Z0.3 F5000.0 ; Move to start position

G1 X0.1 Y200.0 Z0.3 F1500.0 E15 ; Draw the first line
G1 X0.4 Y200.0 Z0.3 F5000.0 ; Move to side a little
G1 X0.4 Y20 Z0.3 F1500.0 E30 ; Draw the second line
G92 E0 ; Reset Extruder
G1 Z2.0 F3000 ; Move Z Axis up little to prevent scratching of Heat Bed
G1 X5 Y20 Z0.3 F5000.0 ; Move over to prevent blob squish
G21 ; set units to millimeters
G90 ; use absolute coordinates
M83 ; use relative distances for extrusion
; Filament gcode
M107
;LAYER_CHANGE
;Z:0.2
;HEIGHT:0.2
G1 E-1.6 F2400
G1 Z.2 F6000
G1 X87.857 Y91.701
G1 Z.2
G1 E1.6 F2400
M204 S500
;TYPE:Skirt/Brim
;WIDTH:0.42
G1 F1200
G1 X88.725 Y90.996 E.03296
G1 X89.656 Y90.382 E.03287
G1 X91.322 Y89.564 E.0547
G1 X93.099 Y89.026 E.05472
G1 X94.721 Y88.79 E.04831
G1 X132.884 Y88.805 E1.12478
G1 X133.843 Y88.938 E.02854
G1 X135.87 Y89.494 E.06195
G1 X137.7 Y90.365 E.05973
G1 X139.14 Y91.376 E.05186
G1 X140.583 Y92.775 E.05924
G1 X141.374 Y93.79 E.03793
G1 X141.835 Y94.519 E.02542
G1 X142.681 Y96.304 E.05822
G1 X143.24 Y98.341 E.06226
G1 X143.425 Y100.341 E.0592
G1 X143.575 Y114.341 E.41265
G1 X143.503 Y115.668 E.03917
G1 X143.296 Y116.888 E.03647
G1 X142.676 Y118.864 E.06104
G1 X141.69 Y120.733 E.06228
G1 X140.467 Y122.296 E.05849
G1 X139.688 Y123.064 E.03224
G1 X138.815 Y123.771 E.03311
G1 X137.173 Y124.778 E.05677
G1 X136.08 Y125.257 E.03517
G1 X134.281 Y125.783 E.05524
G1 X132.523 Y126.003 E.05222
G1 X95.078 Y126.009 E1.10362
G1 X93.39 Y125.81 E.0501
G1 X92.295 Y125.542 E.03323
G1 X91.185 Y125.153 E.03467
G1 X89.854 Y124.506 E.04362
G1 X88.8 Y123.835 E.03683
G1 X87.851 Y123.075 E.03583
G1 X86.76 Y121.96 E.04598
G1 X86.154 Y121.19 E.02888
G1 X85.328 Y119.862 E.04609
G1 X84.772 Y118.665 E.0389
G1 X84.319 Y117.276 E.04306
G1 X84.013 Y115.506 E.05294
G1 X83.957 Y114.505 E.02955
G1 X83.987 Y99.578 E.43994
G1 X84.339 Y97.433 E.06407
G1 X84.956 Y95.673 E.05497
G1 X85.359 Y94.854 E.0269
G1 X86.242 Y93.468 E.04844
G1 X86.875 Y92.684 E.0297
G1 X87.814 Y91.744 E.03916
G1 X87.814 Y91.744 F6000
G1 X88.08 Y92.01
G1 F1200
G1 X88.109 Y91.982 E.00119
G1 X88.937 Y91.308 E.03147
G1 X89.836 Y90.714 E.03176
G1 X91.455 Y89.917 E.05319
G1 X92.992 Y89.437 E.04746
G1 X94.74 Y89.166 E.05213
G1 X131.692 Y89.133 E1.08909
G1 X133.767 Y89.308 E.06137
G1 X135.748 Y89.851 E.06054
G1 X137.509 Y90.69 E.05749
G1 X138.893 Y91.661 E.04983
G1 X140.304 Y93.029 E.05792
G1 X141.07 Y94.013 E.03675
G1 X141.565 Y94.802 E.02745
G1 X142.414 Y96.673 E.06056
G1 X142.882 Y98.473 E.05482
G1 X143.048 Y100.345 E.05539
G1 X143.198 Y114.345 E.41265
G1 X143.13 Y115.614 E.03745
G1 X142.924 Y116.824 E.03618
G1 X142.331 Y118.712 E.05833
G1 X141.369 Y120.534 E.06073
G1 X140.198 Y122.031 E.05602
G1 X139.594 Y122.642 E.02532
G1 X138.603 Y123.459 E.03785
G1 X136.981 Y124.453 E.05607
G1 X135.395 Y125.098 E.05046
G1 X134.218 Y125.411 E.0359
G1 X132.355 Y125.634 E.0553
G1 X95.105 Y125.633 E1.09787
G1 X93.449 Y125.437 E.04915
G1 X92.304 Y125.154 E.03476
G1 X91.337 Y124.807 E.03028
G1 X90.03 Y124.173 E.04281
G1 X89.019 Y123.528 E.03534
G1 X88.102 Y122.794 E.03462
G1 X87.039 Y121.706 E.04483
G1 X86.452 Y120.958 E.02802
G1 X85.657 Y119.676 E.04446
G1 X85.128 Y118.539 E.03696
G1 X84.684 Y117.182 E.04208
G1 X84.387 Y115.46 E.0515
G1 X84.334 Y114.505 E.02819
G1 X84.363 Y99.603 E.43921
G1 X84.7 Y97.541 E.06158
G1 X85.307 Y95.811 E.05404
G1 X85.705 Y95.004 E.02652
G1 X86.553 Y93.681 E.04632
G1 X87.156 Y92.934 E.02829
G1 X88.038 Y92.052 E.03676
G1 X88.038 Y92.052 F6000
G1 X88.304 Y92.318
G1 F1200
G1 X88.361 Y92.262 E.00236
G1 X89.149 Y91.62 E.02996
G1 X90.029 Y91.037 E.03111
G1 X91.588 Y90.27 E.05121
G1 X93.208 Y89.774 E.04993
G1 X94.758 Y89.543 E.04619
G1 X131.692 Y89.51 E1.08856
G1 X133.69 Y89.677 E.05909
G1 X135.628 Y90.208 E.05922
G1 X137.318 Y91.015 E.0552
G1 X138.647 Y91.947 E.04784
G1 X140.013 Y93.269 E.05603
G1 X140.766 Y94.236 E.03612
G1 X141.237 Y94.988 E.02615
G1 X142.054 Y96.785 E.05818
G1 X142.512 Y98.545 E.0536
G1 X142.671 Y100.349 E.05338
G1 X142.821 Y114.349 E.41265
G1 X142.744 Y115.641 E.03815
G1 X142.521 Y116.917 E.03818
G1 X142.276 Y117.78 E.02644
G1 X141.409 Y119.75 E.06344
G1 X140.675 Y120.874 E.03957
G1 X140.018 Y121.672 E.03047
G1 X139.333 Y122.37 E.02882
G1 X138.39 Y123.147 E.03601
G1 X136.804 Y124.12 E.05484
G1 X135.27 Y124.742 E.04879
G1 X134.141 Y125.042 E.03443
G1 X132.345 Y125.257 E.05331
G1 X95.131 Y125.257 E1.09681
G1 X93.508 Y125.065 E.04817
G1 X92.409 Y124.792 E.03338
G1 X91.488 Y124.462 E.02883
G1 X90.206 Y123.839 E.04201
G1 X89.238 Y123.221 E.03385
G1 X88.306 Y122.47 E.03528
G1 X87.318 Y121.453 E.04179
G1 X86.76 Y120.741 E.02666
G1 X85.985 Y119.491 E.04335
G1 X85.483 Y118.413 E.03505
G1 X85.05 Y117.087 E.04111
G1 X84.761 Y115.415 E.05001
G1 X84.739 Y99.629 E.46526
G1 X85.061 Y97.651 E.05907
G1 X85.658 Y95.948 E.05319
G1 X86.04 Y95.178 E.02533
G1 X86.862 Y93.897 E.04486
G1 X87.438 Y93.185 E.02699
G1 X88.262 Y92.361 E.03435
; printing object Shape-Box id:0 copy 0
G1 E-1.12 F2400
;WIPE_START
G1 F4800
G1 X88.304 Y92.318 E-.02855
G1 X88.361 Y92.262 E-.03796
G1 X89.036 Y91.712 E-.41349
;WIPE_END
G1 X116.387 Y110.137 F6000
G1 E1.6 F2400
;TYPE:Perimeter
G1 F1200
G1 X116.251 Y110.206 E.00449
G1 X116.119 Y110.221 E.00392
G1 X116.038 Y110.207 E.00242
G1 X115.996 Y110.161 E.00184
G1 X115.977 Y110.098 E.00194
G1 X115.972 Y109.963 E.00398
G1 X115.994 Y109.853 E.00331
G1 X116.058 Y109.763 E.00325
G1 X116.126 Y109.747 E.00206
G1 X116.187 Y109.778 E.00202
G1 X116.357 Y110.085 E.01034
G1 E-1.12 F2400
;WIPE_START
G1 F4800
G1 X116.387 Y110.137 E-.02852
G1 X116.251 Y110.206 E-.07244
G1 X116.119 Y110.221 E-.0631
G1 X116.038 Y110.207 E-.03905
G1 X115.996 Y110.161 E-.02959
G1 X115.977 Y110.098 E-.03126
G1 X115.972 Y109.963 E-.06417
G1 X115.994 Y109.853 E-.05328
G1 X116.058 Y109.763 E-.05246
G1 X116.126 Y109.747 E-.03318
G1 X116.15 Y109.76 E-.01295
;WIPE_END
G1 X106.095 Y110.283 F6000
G1 E1.6 F2400
G1 F1200
G1 X106.093 Y110.298 E.00045
G1 X106.101 Y110.706 E.01203
G1 X106.13 Y110.941 E.00698
G1 X105.513 Y110.804 E.01863
G1 X106.05 Y110.323 E.02125
G1 X106.05 Y110.323 F6000
G1 X104.97 Y111.311
G1 F1200
G1 X104.94 Y111.51 E.00593
G1 X104.91 Y111.577 E.00216
G1 X104.8 Y111.575 E.00324
G1 X104.829 Y111.499 E.0024
G1 X104.934 Y111.359 E.00516
G1 E-1.12 F2400
;WIPE_START
G1 F4800
G1 X104.97 Y111.311 E-.0285
G1 X104.94 Y111.51 E-.09559
G1 X104.91 Y111.577 E-.03487
G1 X104.8 Y111.575 E-.05226
G1 X104.829 Y111.499 E-.03864
G1 X104.934 Y111.359 E-.08312
;WIPE_END
G1 E-.14702 F2400
G1 X93.489 Y109.963 F6000
G1 E1.6 F2400
G1 F1200
G1 X93.51 Y109.853 E.0033
G1 X93.584 Y109.753 E.00367
G1 X93.664 Y109.751 E.00236
G1 X93.712 Y109.778 E.00162
G1 X93.901 Y110.138 E.01198
G1 X93.767 Y110.206 E.00443
G1 X93.636 Y110.221 E.00389
G1 X93.555 Y110.207 E.00242
G1 X93.512 Y110.161 E.00186
G1 X93.493 Y110.098 E.00194
G1 X93.491 Y110.023 E.00221
G1 E-1.12 F2400
;WIPE_START
G1 F4800
G1 X93.489 Y109.963 E-.02852
G1 X93.51 Y109.853 E-.05319
G1 X93.584 Y109.753 E-.05909
G1 X93.664 Y109.751 E-.03801
G1 X93.712 Y109.778 E-.02616
G1 X93.901 Y110.138 E-.19313
G1 X93.767 Y110.206 E-.07138
G1 X93.745 Y110.209 E-.01052
;WIPE_END
G1 X95.332 Y111.381 F6000
G1 E1.6 F2400
G1 F1200
G1 X95.405 Y111.457 E.00311
G1 X95.326 Y111.451 E.00234
G1 X95.327 Y111.441 E.0003
G1 E-1.12 F2400
;WIPE_START
G1 F4800
G1 X95.332 Y111.381 E-.0286
G1 X95.405 Y111.457 E-.05006
G1 X95.326 Y111.451 E-.03763
G1 X95.327 Y111.441 E-.00477
;WIPE_END
G1 E-.35894 F2400
G1 X96.687 Y109.918 F6000
G1 E1.6 F2400
G1 F1200
G1 X96.713 Y109.831 E.00268
G1 X96.788 Y109.753 E.00319
G1 X96.857 Y109.751 E.00203
G1 X96.905 Y109.778 E.00162
G1 X97.094 Y110.138 E.01198
G1 X96.96 Y110.206 E.00443
G1 X96.829 Y110.221 E.00389
G1 X96.748 Y110.207 E.00242
G1 X96.697 Y110.149 E.00228
G1 X96.681 Y110.073 E.00229
G1 X96.685 Y109.978 E.0028
G1 E-1.12 F2400
;WIPE_START
G1 F4800
G1 X96.687 Y109.918 E-.02852
G1 X96.713 Y109.831 E-.04313
G1 X96.788 Y109.753 E-.0514
G1 X96.857 Y109.751 E-.03279
G1 X96.905 Y109.778 E-.02616
G1 X97.094 Y110.138 E-.19313
G1 X96.96 Y110.206 E-.07138
G1 X96.89 Y110.214 E-.03349
;WIPE_END
G1 X100.052 Y104.764 F6000
G1 E1.6 F2400
G1 F1200
G1 X100.037 Y104.946 E.00538
G1 X100.011 Y104.982 E.00131
G1 X99.919 Y104.974 E.00272
G1 X100.02 Y104.814 E.00558
G1 E-1.12 F2400
;WIPE_START
G1 F4800
G1 X100.052 Y104.764 E-.0282
G1 X100.037 Y104.946 E-.08674
G1 X100.011 Y104.982 E-.02109
G1 X99.919 Y104.974 E-.04386
G1 X100.02 Y104.814 E-.08988
;WIPE_END
G1 E-.21023 F2400
G1 X98.669 Y103.172 F6000
G1 E1.6 F2400
G1 F1200
G1 X99.051 Y103.199 E.01129
G1 X98.72 Y103.489 E.01297
G1 X98.678 Y103.231 E.0077
G1 X98.678 Y103.231 F6000
G1 X97.073 Y103.537
G1 F1200
G1 X96.939 Y103.605 E.00443
G1 X96.808 Y103.62 E.00389
G1 X96.711 Y103.598 E.00293
G1 X96.676 Y103.548 E.0018
G1 X96.666 Y103.317 E.00681
G1 X96.723 Y103.182 E.00432
G1 X96.766 Y103.147 E.00163
G1 X96.828 Y103.146 E.00183
G1 X96.9 Y103.202 E.00269
G1 X97.045 Y103.484 E.00935
G1 E-1.12 F2400
;WIPE_START
G1 F4800
G1 X97.073 Y103.537 E-.02847
G1 X96.939 Y103.605 E-.07138
G1 X96.808 Y103.62 E-.06263
G1 X96.711 Y103.598 E-.04725
G1 X96.676 Y103.548 E-.02899
G1 X96.666 Y103.317 E-.10983
G1 X96.723 Y103.182 E-.06961
G1 X96.766 Y103.147 E-.02634
G1 X96.828 Y103.146 E-.02945
G1 X96.838 Y103.154 E-.00605
;WIPE_END
G1 X129.022 Y110.662 F6000
G1 E1.6 F2400
G1 F1200
G1 X129.098 Y110.678 E.00229
G1 X129.092 Y111.359 E.02007
G1 X129.056 Y111.204 E.00469
G1 X128.929 Y110.877 E.01034
G1 X128.998 Y110.717 E.00514
G1 E-1.12 F2400
;WIPE_START
G1 F4800
G1 X129.022 Y110.662 E-.0285
G1 X129.098 Y110.678 E-.03689
G1 X129.092 Y111.359 E-.32349
G1 X129.056 Y111.204 E-.07558
G1 X129.044 Y111.174 E-.01554
;WIPE_END
G1 X129.07 Y104.758 F6000
G1 E1.6 F2400
G1 F1200
G1 X129.034 Y104.603 E.00469
G1 X128.907 Y104.276 E.01034
G1 X129 Y104.061 E.0069
G1 X129.077 Y104.076 E.00231
G1 X129.071 Y104.698 E.01833
G1 E-1.12 F2400
;WIPE_START
G1 F4800
G1 X129.07 Y104.758 E-.0285
G1 X129.034 Y104.603 E-.07558
G1 X128.907 Y104.276 E-.16663
G1 X129 Y104.061 E-.11127
G1 X129.077 Y104.076 E-.03726
G1 X129.076 Y104.204 E-.06076
;WIPE_END
G1 X117.651 Y112.338 F6000
G1 E1.6 F2400
G1 F1200
G1 X117.488 Y113.294 E.02858
G1 X114.255 Y113.29 E.09529
G1 X114.292 Y111.425 E.05498
G1 X114.652 Y111.454 E.01064
G1 X114.528 Y111.34 E.00496
G1 X114.387 Y111.153 E.0069
G1 X114.213 Y110.821 E.01105
G1 X114.11 Y110.447 E.01143
G1 X114.077 Y110.06 E.01145
G1 X114.106 Y109.679 E.01126
G1 X114.251 Y109.181 E.01529
G1 X114.433 Y108.849 E.01116
G1 X114.69 Y108.532 E.01203
G1 X115.037 Y108.255 E.01309
G1 X115.446 Y108.065 E.01329
G1 X115.899 Y107.976 E.01361
G1 X116.294 Y107.974 E.01164
G1 X116.64 Y108.027 E.01032
G1 X116.842 Y108.087 E.00621
G1 X117.143 Y108.229 E.00981
G1 X117.331 Y108.352 E.00662
G1 X117.583 Y108.606 E.01055
G1 X117.748 Y108.85 E.00868
G1 X117.911 Y108.597 E.00887
G1 X118.127 Y108.367 E.0093
G1 X118.387 Y108.186 E.00934
G1 X118.678 Y108.058 E.00937
G1 X119.017 Y107.984 E.01023
G1 X119.487 Y107.975 E.01385
G1 X119.895 Y108.057 E.01227
G1 X120.271 Y108.234 E.01225
G1 X120.599 Y108.509 E.01262
G1 X120.843 Y108.87 E.01284
G1 X121.012 Y108.608 E.00919
G1 X121.2 Y108.407 E.00811
G1 X121.42 Y108.244 E.00807
G1 X121.654 Y108.121 E.00779
G1 X121.905 Y108.033 E.00784
G1 X122.194 Y107.98 E.00866
G1 X122.631 Y107.976 E.01288
G1 X123.051 Y108.06 E.01262
G1 X123.424 Y108.228 E.01206
G1 X123.628 Y108.366 E.00726
G1 X123.921 Y108.644 E.0119
G1 X124.081 Y108.859 E.0079
G1 X124.283 Y109.276 E.01366
G1 X124.408 Y109.757 E.01465
G1 X124.466 Y110.283 E.0156
G1 X124.465 Y110.878 E.01754
G1 X124.403 Y111.455 E.0171
G1 X124.269 Y111.981 E.016
G1 X124.049 Y112.45 E.01527
G1 X123.754 Y112.822 E.01399
G1 X123.41 Y113.091 E.01287
G1 X123.016 Y113.27 E.01275
G1 X122.595 Y113.355 E.01266
G1 X122.209 Y113.359 E.01138
G1 X121.88 Y113.308 E.00981
G1 X121.567 Y113.198 E.00978
G1 X121.276 Y113.025 E.00998
G1 X121.025 Y112.787 E.01019
G1 X120.83 Y112.482 E.01067
G1 X120.66 Y112.744 E.00921
G1 X120.441 Y112.97 E.00928
G1 X120.182 Y113.149 E.00928
G1 X119.896 Y113.273 E.00919
G1 X119.595 Y113.343 E.00911
G1 X119.276 Y113.366 E.00943
G1 X118.829 Y113.317 E.01325
G1 X118.405 Y113.159 E.01334
G1 X118.04 Y112.898 E.01323
G1 X117.757 Y112.553 E.01315
G1 X117.677 Y112.391 E.00533
G1 E-1.12 F2400
;WIPE_START
G1 F4800
G1 X117.651 Y112.338 E-.02804
G1 X117.491 Y113.276 E-.45196
;WIPE_END
G1 X117.619 Y109.945 F6000
G1 E1.6 F2400
;TYPE:External perimeter
G1 F1200
G1 X116.752 Y110.018 E.02564
G1 X116.48 Y109.53 E.01647
G1 X116.35 Y109.427 E.00489
G1 X116.197 Y109.371 E.0048
G1 X116.055 Y109.367 E.00419
G1 X115.966 Y109.386 E.00268
G1 X115.833 Y109.454 E.0044
G1 X115.716 Y109.571 E.00488
G1 X115.634 Y109.726 E.00517
G1 X115.594 Y109.933 E.00621
G1 X115.602 Y110.16 E.00669
G1 X115.652 Y110.328 E.00517
G1 X115.74 Y110.453 E.00451
G1 X115.811 Y110.513 E.00274
G1 X116 Y110.588 E.00599
G1 X116.122 Y110.6 E.00361
G1 X116.36 Y110.574 E.00706
G1 X116.64 Y110.432 E.00925
G1 X116.752 Y110.302 E.00506
G1 X117.538 Y110.405 E.02336
G1 X117.423 Y111.017 E.01835
G1 X117.353 Y111.84 E.02434
G1 X117.169 Y112.916 E.03217
G1 X114.64 Y112.914 E.07454
G1 X114.662 Y111.833 E.03187
G1 X115.743 Y111.92 E.03196
G1 X116.34 Y111.906 E.0176
G1 X116.389 Y111.741 E.00507
G1 X116.444 Y111.469 E.00818
G1 X116.003 Y111.552 E.01323
G1 X115.583 Y111.522 E.01241
G1 X115.298 Y111.445 E.0087
G1 X115.035 Y111.293 E.00895
G1 X114.808 Y111.085 E.00907
G1 X114.707 Y110.95 E.00497
G1 X114.566 Y110.681 E.00895
G1 X114.482 Y110.38 E.00921
G1 X114.456 Y110.059 E.00949
G1 X114.479 Y109.747 E.00922
G1 X114.601 Y109.326 E.01292
G1 X114.747 Y109.06 E.00894
G1 X114.957 Y108.802 E.0098
G1 X115.237 Y108.578 E.01057
G1 X115.563 Y108.427 E.01059
G1 X115.937 Y108.353 E.01124
G1 X116.266 Y108.351 E.0097
G1 X116.557 Y108.396 E.00868
G1 X116.707 Y108.441 E.00462
G1 X116.958 Y108.558 E.00816
G1 X117.091 Y108.646 E.0047
G1 X117.291 Y108.847 E.00836
G1 X117.447 Y109.077 E.00819
G1 X117.506 Y109.228 E.00478
G1 X117.61 Y109.885 E.0196
G1 E-1.12 F2400
;WIPE_START
G1 F4800
G1 X117.619 Y109.945 E-.02882
G1 X116.752 Y110.018 E-.41328
G1 X116.713 Y109.948 E-.0379
;WIPE_END
G1 X120.518 Y109.062 F6000
G1 E1.6 F2400
G1 F1200
G1 X120.601 Y109.268 E.00655
G1 X120.755 Y110.125 E.02566
G1 X120.78 Y110.661 E.01581
G1 X120.776 Y111.172 E.01506
G1 X120.599 Y112.077 E.02718
G1 X120.495 Y112.307 E.00744
G1 X120.364 Y112.508 E.00707
G1 X120.197 Y112.681 E.00709
G1 X119.998 Y112.817 E.0071
G1 X119.777 Y112.914 E.00711
G1 X119.538 Y112.969 E.00723
G1 X119.283 Y112.987 E.00753
G1 X118.917 Y112.948 E.01085
G1 X118.584 Y112.823 E.01048
G1 X118.299 Y112.62 E.01031
G1 X118.076 Y112.347 E.01039
G1 X117.916 Y112.022 E.01068
G1 X117.817 Y111.649 E.01137
G1 X117.793 Y111.426 E.00661
G1 X117.795 Y110.49 E.02759
G1 X117.813 Y110.163 E.00965
G1 X117.851 Y109.868 E.00877
G1 X117.979 Y109.259 E.01834
G1 X118.08 Y109.031 E.00735
G1 X118.209 Y108.83 E.00704
G1 X118.375 Y108.654 E.00713
G1 X118.573 Y108.516 E.00711
G1 X118.795 Y108.418 E.00715
G1 X119.062 Y108.36 E.00805
G1 X119.453 Y108.352 E.01153
G1 X119.776 Y108.418 E.00972
G1 X120.067 Y108.554 E.00947
G1 X120.316 Y108.763 E.00958
G1 X120.484 Y109.012 E.00885
G1 E-1.12 F2400
;WIPE_START
G1 F4800
G1 X120.518 Y109.062 E-.02872
G1 X120.601 Y109.268 E-.10549
G1 X120.729 Y109.985 E-.34579
;WIPE_END
G1 X121.037 Y111.502 F6000
