; generated by PrusaSlicer 2.7.4+win64 on 2024-04-19 at 21:16:13 UTC

; 

; external perimeters extrusion width = 0.42mm
; perimeters extrusion width = 0.44mm
; infill extrusion width = 0.44mm
; solid infill extrusion width = 0.44mm
; top infill extrusion width = 0.40mm
; first layer extrusion width = 0.42mm


; printing object Shape-Box id:0 copy 0
; stop printing object Shape-Box id:0 copy 0

;TYPE:Custom
; Ender 3 Custom Start G-code
G92 E0 ; Reset Extruder

M140 S55 ; set bed temp
M104 S160 ; set extruder temp
M109 S160 ; wait for extruder temp
M190 S55 ; wait for bed temp

G28 ; Home all axes
M104 S210 ; set extruder temp 
BED_MESH_CALIBRATE AREA_START=93.5058,101.329 AREA_END=137.494,129.669

G1 Z2.0 F3000 ; Move Z Axis up little to prevent scratching of Heat Bed
M109 S210 ; wait for extruder temp
G1 X0.1 Y20 Z0.3 F5000.0 ; Move to start position

G1 X0.1 Y200.0 Z0.3 F1500.0 E15 ; Draw the first line
G1 X0.4 Y200.0 Z0.3 F5000.0 ; Move to side a little
G1 X0.4 Y20 Z0.3 F1500.0 E30 ; Draw the second line
G92 E0 ; Reset Extruder
G1 Z2.0 F3000 ; Move Z Axis up little to prevent scratching of Heat Bed
G1 X5 Y20 Z0.3 F5000.0 ; Move over to prevent blob squish
G21 ; set units to millimeters
G90 ; use absolute coordinates
M83 ; use relative distances for extrusion
; Filament gcode
M107
;LAYER_CHANGE
;Z:0.2
;HEIGHT:0.2
G1 E-1.6 F2400
G1 Z.2 F6000
G1 X96.733 Y103.823
G1 Z.2
G1 E1.6 F2400
M204 S500
;TYPE:Skirt/Brim
;WIDTH:0.42
G1 F1200
G1 X97.441 Y103.251 E.02854
G1 X98.172 Y102.772 E.0274
G1 X99.461 Y102.143 E.04497
G1 X100.853 Y101.725 E.04557
G1 X102.126 Y101.543 E.04032
G1 X128.047 Y101.518 E.81274
G1 X129.51 Y101.626 E.046
G1 X130.887 Y101.952 E.04437
G1 X132.157 Y102.467 E.04297
G1 X133.703 Y103.442 E.05731
G1 X134.847 Y104.505 E.04896
G1 X135.726 Y105.638 E.04496
G1 X136.403 Y106.883 E.04443
G1 X136.932 Y108.419 E.05094
G1 X137.096 Y109.246 E.02643
G1 X137.2 Y110.557 E.04123
G1 X137.305 Y120.357 E.30729
G1 X137.23 Y121.53 E.03685
G1 X136.869 Y123.172 E.05271
G1 X136.129 Y124.873 E.05816
G1 X135.535 Y125.785 E.03413
G1 X134.986 Y126.459 E.02726
G1 X133.761 Y127.598 E.05245
G1 X132.388 Y128.469 E.05098
G1 X131.438 Y128.892 E.03261
G1 X130.018 Y129.302 E.04634
G1 X128.704 Y129.467 E.04152
G1 X102.352 Y129.472 E.82625
G1 X101.092 Y129.323 E.03978
G1 X100.241 Y129.119 E.02744
G1 X99.315 Y128.795 E.03076
G1 X98.325 Y128.315 E.0345
G1 X97.49 Y127.786 E.03099
G1 X96.752 Y127.197 E.02961
G1 X95.492 Y125.822 E.05848
G1 X94.778 Y124.698 E.04175
G1 X94.319 Y123.707 E.03424
G1 X93.977 Y122.654 E.03471
G1 X93.74 Y121.296 E.04322
G1 X93.717 Y109.966 E.35524
G1 X93.835 Y109.029 E.02961
G1 X94.139 Y107.8 E.0397
G1 X94.873 Y106.127 E.05728
G1 X95.986 Y104.569 E.06003
G1 X96.69 Y103.866 E.03119
G1 X96.69 Y103.866 F6000
G1 X96.975 Y104.179
G1 F1200
G1 X97.653 Y103.563 E.02872
G1 X98.353 Y103.103 E.02626
G1 X99.594 Y102.496 E.04332
G1 X100.925 Y102.095 E.04359
G1 X102.144 Y101.919 E.03862
G1 X128.047 Y101.895 E.81217
G1 X129.668 Y102.035 E.05101
G1 X131.156 Y102.443 E.04838
G1 X132.536 Y103.098 E.0479
G1 X133.629 Y103.866 E.04188
G1 X134.715 Y104.924 E.04754
G1 X135.676 Y106.28 E.05211
G1 X136.26 Y107.526 E.04315
G1 X136.681 Y109.045 E.04942
G1 X136.823 Y110.561 E.04774
G1 X136.928 Y120.361 E.30729
G1 X136.873 Y121.376 E.03187
G1 X136.726 Y122.242 E.02754
G1 X136.252 Y123.76 E.04986
G1 X135.526 Y125.136 E.04878
G1 X134.59 Y126.331 E.04759
G1 X133.35 Y127.433 E.05201
G1 X132.153 Y128.167 E.04403
G1 X131.293 Y128.544 E.02944
G1 X129.955 Y128.93 E.04366
G1 X128.675 Y129.091 E.04045
G1 X102.379 Y129.096 E.82449
G1 X101.151 Y128.951 E.03877
G1 X100.248 Y128.73 E.02915
G1 X99.467 Y128.45 E.02601
G1 X98.501 Y127.981 E.03367
G1 X97.709 Y127.479 E.0294
G1 X96.983 Y126.899 E.02914
G1 X95.713 Y125.486 E.05957
G1 X95.107 Y124.513 E.03594
G1 X94.674 Y123.581 E.03222
G1 X94.342 Y122.559 E.03369
G1 X94.114 Y121.25 E.04166
G1 X94.094 Y109.992 E.35299
G1 X94.362 Y108.37 E.05155
G1 X94.809 Y107.096 E.04233
G1 X95.124 Y106.451 E.02251
G1 X95.516 Y105.8 E.02383
G1 X96.254 Y104.835 E.03809
G1 X96.931 Y104.219 E.0287
G1 X96.931 Y104.219 F6000
G1 X97.183 Y104.496
G1 F1200
G1 X97.865 Y103.875 E.02892
G1 X98.546 Y103.427 E.02556
G1 X99.727 Y102.849 E.04123
G1 X100.963 Y102.472 E.04052
G1 X102.163 Y102.296 E.03803
G1 X128.047 Y102.272 E.81157
G1 X129.591 Y102.404 E.04859
G1 X131.033 Y102.799 E.04688
G1 X132.345 Y103.423 E.04555
G1 X133.382 Y104.151 E.03973
G1 X134.425 Y105.164 E.04559
G1 X135.349 Y106.466 E.05006
G1 X135.912 Y107.67 E.04167
G1 X136.312 Y109.124 E.04728
G1 X136.446 Y110.565 E.04538
G1 X136.551 Y120.365 E.30729
G1 X136.499 Y121.322 E.03005
G1 X136.354 Y122.179 E.02725
G1 X135.906 Y123.608 E.04696
G1 X135.175 Y124.985 E.04888
G1 X134.321 Y126.067 E.04322
G1 X133.138 Y127.122 E.0497
G1 X131.976 Y127.834 E.04273
G1 X131.169 Y128.188 E.02763
G1 X129.966 Y128.545 E.03935
G1 X128.646 Y128.715 E.04173
G1 X102.406 Y128.72 E.82274
G1 X101.21 Y128.578 E.03776
G1 X100.354 Y128.368 E.02764
G1 X98.677 Y127.648 E.05722
G1 X97.914 Y127.162 E.02836
G1 X97.188 Y126.575 E.02927
G1 X96.021 Y125.269 E.05492
G1 X95.435 Y124.327 E.03478
G1 X95.03 Y123.455 E.03015
G1 X94.707 Y122.465 E.03265
G1 X94.489 Y121.205 E.04009
G1 X94.47 Y110.017 E.35079
G1 X94.723 Y108.48 E.04884
G1 X95.16 Y107.233 E.04143
G1 X95.459 Y106.624 E.02127
G1 X96.536 Y105.086 E.05887
G1 X97.139 Y104.536 E.02559
G1 E-1.12 F2400
;WIPE_START
G1 F4800
G1 X97.183 Y104.496 E-.02825
G1 X97.865 Y103.875 E-.43813
G1 X97.889 Y103.859 E-.01362
;WIPE_END
; printing object Shape-Box id:0 copy 0
G1 X104.297 Y116.24 F6000
G1 E1.6 F2400
;TYPE:External perimeter
G1 F1200
G1 X104.563 Y116.308 E.00861
G1 X104.839 Y116.306 E.00865
G1 X104.996 Y116.277 E.00501
G1 X105.295 Y116.159 E.01008
G1 X105.238 Y116.38 E.00716
G1 X105.19 Y116.479 E.00345
G1 X105.065 Y116.648 E.00659
G1 X104.934 Y116.725 E.00476
G1 X104.755 Y116.77 E.00579
G1 X104.578 Y116.736 E.00565
G1 X104.472 Y116.688 E.00365
G1 X104.405 Y116.581 E.00396
G1 X104.315 Y116.298 E.00931
G1 E-1.12 F2400
;WIPE_START
G1 F4800
G1 X104.297 Y116.24 E-.02885
G1 X104.563 Y116.308 E-.13041
G1 X104.839 Y116.306 E-.1311
G1 X104.996 Y116.277 E-.07584
G1 X105.219 Y116.189 E-.1138
;WIPE_END
G1 X101.398 Y116.581 F6000
G1 E1.6 F2400
G1 F1200
G1 X101.29 Y116.24 E.01122
G1 X101.557 Y116.308 E.00864
G1 X101.832 Y116.306 E.00862
G1 X101.989 Y116.277 E.00501
G1 X102.288 Y116.159 E.01008
G1 X102.231 Y116.38 E.00716
G1 X102.184 Y116.479 E.00344
G1 X102.058 Y116.648 E.00661
G1 X101.927 Y116.725 E.00476
G1 X101.748 Y116.77 E.00579
G1 X101.571 Y116.736 E.00565
G1 X101.465 Y116.688 E.00365
G1 X101.43 Y116.632 E.00207
G1 E-1.12 F2400
;WIPE_START
G1 F4800
G1 X101.398 Y116.581 E-.0286
G1 X101.29 Y116.24 E-.1699
G1 X101.557 Y116.308 E-.13087
G1 X101.832 Y116.306 E-.13063
G1 X101.874 Y116.298 E-.02
;WIPE_END
G1 X129.532 Y116.38 F6000
G1 E1.6 F2400
G1 F1200
G1 X129.485 Y116.479 E.00344
G1 X129.359 Y116.648 E.00661
G1 X129.228 Y116.725 E.00476
G1 X129.049 Y116.77 E.00579
G1 X128.872 Y116.736 E.00565
G1 X128.766 Y116.688 E.00365
G1 X128.699 Y116.581 E.00396
G1 X128.591 Y116.24 E.01122
G1 X128.858 Y116.308 E.00864
G1 X129.133 Y116.306 E.00862
G1 X129.29 Y116.277 E.00501
G1 X129.589 Y116.159 E.01008
G1 X129.547 Y116.322 E.00528
G1 E-1.12 F2400
;WIPE_START
G1 F4800
G1 X129.532 Y116.38 E-.02846
G1 X129.485 Y116.479 E-.05206
G1 X129.359 Y116.648 E-.10013
G1 X129.228 Y116.725 E-.07218
G1 X129.049 Y116.77 E-.08767
G1 X128.872 Y116.736 E-.08561
G1 X128.769 Y116.689 E-.05389
;WIPE_END
G1 X114.405 Y114.879 F6000
G1 E1.6 F2400
;TYPE:Perimeter
G1 F1200
G1 X114.282 Y114.984 E.00507
G1 X114.071 Y115.221 E.00995
G1 X113.865 Y115.531 E.01167
G1 X113.777 Y115.74 E.00711
G1 X113.693 Y116.077 E.01089
G1 X113.69 Y116.296 E.00687
G1 X113.141 Y116.261 E.01725
G1 X113.041 Y116.269 E.00315
G1 X113.206 Y115.986 E.01027
G1 X113.361 Y115.655 E.01146
G1 X113.488 Y115.311 E.0115
G1 X113.656 Y114.66 E.02108
G1 X113.662 Y114.927 E.00837
G1 X114.345 Y114.882 E.02146
G1 E-1.12 F2400
;WIPE_START
G1 F4800
G1 X114.405 Y114.879 E-.02854
G1 X114.282 Y114.984 E-.07682
G1 X114.071 Y115.221 E-.15073
G1 X113.865 Y115.531 E-.1768
G1 X113.826 Y115.622 E-.04711
;WIPE_END
G1 X107.968 Y114.962 F6000
G1 E1.6 F2400
G1 F1200
G1 X107.997 Y115.067 E.00342
G1 X107.938 Y115.088 E.00196
G1 X107.849 Y115.086 E.00279
G1 X107.785 Y115.053 E.00226
G1 X107.783 Y114.886 E.00524
G1 X107.819 Y114.797 E.00301
G1 X107.859 Y114.784 E.00132
G1 X107.947 Y114.884 E.00418
G1 X107.952 Y114.904 E.00065
G1 X107.952 Y114.904 F6000
G1 X109.122 Y115.294
;TYPE:External perimeter
G1 F1200
G1 X109.093 Y115.964 E.02103
G1 X109.032 Y116.44 E.01505
G1 X108.817 Y117.615 E.03745
G1 X106.479 Y117.603 E.07331
G1 X106.534 Y116.596 E.03162
G1 X107.274 Y116.677 E.02334
G1 X108.031 Y116.672 E.02374
G1 X108.1 Y116.307 E.01165
G1 X107.832 Y116.362 E.00858
G1 X107.472 Y116.342 E.0113
G1 X107.107 Y116.244 E.01185
G1 X106.869 Y116.096 E.00879
G1 X106.672 Y115.883 E.0091
G1 X106.503 Y115.532 E.01221
G1 X106.417 Y115.145 E.01243
G1 X106.431 Y114.742 E.01264
G1 X106.534 Y114.258 E.01552
G1 X106.6 Y114.114 E.00497
G1 X106.773 Y113.873 E.0093
G1 X106.898 Y113.741 E.0057
G1 X107.177 Y113.563 E.01038
G1 X107.494 Y113.457 E.01048
G1 X107.829 Y113.424 E.01055
G1 X108.247 Y113.469 E.01318
G1 X108.505 Y113.558 E.00856
G1 X108.736 Y113.692 E.00837
G1 X108.93 Y113.871 E.00828
G1 X109.095 Y114.089 E.00857
G1 X109.255 Y114.617 E.0173
G1 X109.126 Y114.926 E.0105
G1 X108.366 Y114.99 E.02391
G1 X108.29 Y114.709 E.00913
G1 X108.11 Y114.486 E.00899
G1 X107.92 Y114.408 E.00644
G1 X107.793 Y114.406 E.00398
G1 X107.644 Y114.453 E.0049
G1 X107.536 Y114.542 E.00439
G1 X107.455 Y114.663 E.00457
G1 X107.408 Y114.825 E.00529
G1 X107.4 Y115.033 E.00653
G1 X107.447 Y115.228 E.00629
G1 X107.526 Y115.34 E.0043
G1 X107.652 Y115.427 E.0048
G1 X107.801 Y115.462 E.0048
G1 X107.998 Y115.466 E.00618
G1 X108.254 Y115.377 E.0085
G1 X108.411 Y115.201 E.00739
G1 X109.062 Y115.286 E.02058
G1 E-1.12 F2400
;WIPE_START
G1 F4800
G1 X109.122 Y115.294 E-.02875
G1 X109.093 Y115.964 E-.31855
G1 X109.058 Y116.241 E-.1327
;WIPE_END
G1 X103.525 Y116.285 F6000
G1 E1.6 F2400
G1 F1200
G1 X104.25 Y116.229 E.0228
G1 X104.207 Y116.217 E.0014
G1 X103.894 Y116.017 E.01165
G1 X103.632 Y115.725 E.0123
G1 X103.483 Y115.359 E.01239
G1 X103.434 Y114.957 E.0127
G1 X103.445 Y114.762 E.00612
G1 X103.539 Y114.228 E.017
G1 X103.73 Y113.894 E.01206
G1 X103.867 Y113.746 E.00632
G1 X104.023 Y113.627 E.00615
G1 X104.194 Y113.538 E.00604
G1 X104.376 Y113.473 E.00606
G1 X104.603 Y113.434 E.00722
G1 X104.762 Y113.424 E.005
G1 X105.083 Y113.455 E.01011
G1 X105.383 Y113.554 E.00991
G1 X105.657 Y113.721 E.01006
G1 X105.871 Y113.957 E.00999
G1 X105.973 Y114.106 E.00566
G1 X106.047 Y114.287 E.00613
G1 X106.182 Y115.007 E.02297
G1 X106.204 Y115.453 E.014
G1 X106.218 Y116.184 E.02292
G1 X106.135 Y116.624 E.01404
G1 X105.967 Y116.996 E.0128
G1 X105.746 Y117.276 E.01118
G1 X105.493 Y117.474 E.01007
G1 X105.209 Y117.604 E.00979
G1 X105.041 Y117.647 E.00544
G1 X104.72 Y117.678 E.01011
G1 X104.469 Y117.659 E.00789
G1 X104.233 Y117.601 E.00762
G1 X104.017 Y117.5 E.00748
G1 X103.824 Y117.356 E.00755
G1 X103.665 Y117.167 E.00774
G1 X103.518 Y116.851 E.01093
G1 X103.479 Y116.589 E.00831
G1 X103.516 Y116.345 E.00774
G1 E-1.12 F2400
;WIPE_START
G1 F4800
G1 X103.525 Y116.285 E-.02882
G1 X104.25 Y116.229 E-.3454
G1 X104.207 Y116.217 E-.02121
G1 X104.057 Y116.121 E-.08457
;WIPE_END
G1 X100.433 Y116.578 F6000
G1 E1.6 F2400
G1 F1200
G1 X100.557 Y116.282 E.01006
G1 X101.244 Y116.229 E.0216
G1 X101.2 Y116.217 E.00143
G1 X100.893 Y116.021 E.01142
G1 X100.526 Y115.658 E.01618
G1 X100.37 Y115.259 E.01343
G1 X100.332 Y114.952 E.0097
G1 X100.371 Y114.564 E.01223
G1 X100.43 Y114.362 E.0066
G1 X100.601 Y114.023 E.0119
G1 X100.724 Y113.865 E.00628
G1 X100.867 Y113.727 E.00623
G1 X101.181 Y113.537 E.01151
G1 X101.371 Y113.472 E.0063
G1 X101.597 Y113.433 E.00719
G1 X101.755 Y113.424 E.00496
G1 X102.076 Y113.455 E.01011
G1 X102.377 Y113.553 E.00993
G1 X102.65 Y113.721 E.01005
G1 X102.866 Y113.955 E.00998
G1 X102.967 Y114.106 E.0057
G1 X103.043 Y114.285 E.0061
G1 X103.175 Y115.007 E.02301
G1 X103.197 Y115.455 E.01406
G1 X103.198 Y115.959 E.0158
G1 X103.162 Y116.196 E.00752
G1 X103.03 Y116.791 E.01911
G1 X102.845 Y117.136 E.01227
G1 X102.62 Y117.378 E.01036
G1 X102.346 Y117.547 E.01009
G1 X102.041 Y117.647 E.01006
G1 X101.71 Y117.679 E.01043
G1 X101.347 Y117.637 E.01146
G1 X101.115 Y117.558 E.00768
G1 X100.912 Y117.435 E.00744
G1 X100.734 Y117.276 E.00748
G1 X100.59 Y117.075 E.00775
G1 X100.476 Y116.756 E.01062
G1 X100.447 Y116.636 E.00387
G1 E-1.12 F2400
;WIPE_START
G1 F4800
G1 X100.433 Y116.578 E-.02834
G1 X100.557 Y116.282 E-.15244
G1 X101.185 Y116.233 E-.29922
;WIPE_END
G1 X122.161 Y115.733 F6000
G1 E1.6 F2400
G1 F1200
G1 X122.108 Y115.695 E.00204
G1 X121.956 Y115.682 E.00478
G1 X121.687 Y115.228 E.01655
G1 X121.625 Y115.023 E.00672
G1 X121.61 Y114.813 E.0066
G1 X121.631 Y114.536 E.00871
G1 X121.71 Y114.272 E.00864
G1 X121.842 Y114.032 E.00859
G1 X122.024 Y113.82 E.00876
G1 X122.248 Y113.645 E.00891
G1 X122.505 Y113.52 E.00896
G1 X122.786 Y113.447 E.0091
G1 X123.054 Y113.425 E.00843
G1 X123.389 Y113.447 E.01053
G1 X123.672 Y113.522 E.00918
G1 X123.931 Y113.652 E.00909
G1 X124.151 Y113.84 E.00907
G1 X124.319 Y114.068 E.00888
G1 X124.429 Y114.327 E.00882
G1 X124.472 Y114.83 E.01583
G1 X124.42 Y115.202 E.01178
G1 X124.267 Y115.536 E.01152
G1 X124.024 Y115.749 E.01013
G1 X124.263 Y115.972 E.01025
G1 X124.359 Y116.278 E.01006
G1 X124.386 Y116.551 E.0086
G1 X124.362 Y116.793 E.00762
G1 X124.316 Y116.928 E.00447
G1 X124.139 Y117.233 E.01106
G1 X123.85 Y117.483 E.01198
G1 X123.495 Y117.632 E.01207
G1 X123.095 Y117.679 E.01263
G1 X122.693 Y117.631 E.01269
G1 X122.335 Y117.48 E.01218
G1 X122.043 Y117.231 E.01203
G1 X121.848 Y116.923 E.01143
G1 X121.779 Y116.683 E.00783
G1 X121.754 Y116.428 E.00803
G1 X121.787 Y116.251 E.00565
G1 X121.883 Y115.988 E.00878
G1 X121.986 Y115.789 E.00703
G1 X122.104 Y115.752 E.00388
G1 E-1.12 F2400
;WIPE_START
G1 F4800
G1 X122.161 Y115.733 E-.02854
G1 X122.108 Y115.695 E-.03098
G1 X121.956 Y115.682 E-.07246
G1 X121.687 Y115.228 E-.25066
G1 X121.628 Y115.032 E-.09736
;WIPE_END
G1 X125.078 Y117.216 F6000
G1 E1.6 F2400
G1 F1200
G1 X124.909 Y116.936 E.01025
G1 X124.793 Y116.615 E.0107
G1 X124.72 Y116.154 E.01463
G1 X124.698 Y115.8 E.01112
G1 X124.766 Y114.958 E.02649
G1 X124.867 Y114.358 E.01908
G1 X124.936 Y114.153 E.00678
G1 X125.108 Y113.871 E.01036
G1 X125.347 Y113.641 E.0104
G1 X125.648 Y113.491 E.01054
G1 X126.01 Y113.426 E.01153
G1 X126.406 Y113.452 E.01244
G1 X126.692 Y113.546 E.00944
G1 X126.939 Y113.702 E.00916
G1 X127.059 Y113.817 E.00521
G1 X127.241 Y114.086 E.01018
G1 X127.318 Y114.274 E.00637
G1 X127.36 Y114.467 E.00619
G1 X127.45 Y115.063 E.0189
G1 X127.482 Y115.854 E.02482
G1 X127.458 Y116.173 E.01003
G1 X127.354 Y116.735 E.01792
G1 X127.272 Y116.957 E.00742
G1 X127.101 Y117.233 E.01018
G1 X126.941 Y117.398 E.00721
G1 X126.664 Y117.568 E.01019
G1 X126.442 Y117.642 E.00734
G1 X126.101 Y117.679 E.01075
G1 X125.769 Y117.642 E.01047
G1 X125.596 Y117.591 E.00566
G1 X125.315 Y117.44 E.01
G1 X125.122 Y117.258 E.00832
G1 E-1.12 F2400
;WIPE_START
G1 F4800
G1 X125.078 Y117.216 E-.02889
G1 X124.909 Y116.936 E-.15535
G1 X124.793 Y116.615 E-.16213
G1 X124.749 Y116.337 E-.13363
;WIPE_END
G1 X127.798 Y116.287 F6000
G1 E1.6 F2400
G1 F1200
G1 X128.545 Y116.229 E.02349
G1 X128.501 Y116.217 E.00143
G1 X128.189 Y116.018 E.0116
G1 X127.924 Y115.726 E.01236
G1 X127.777 Y115.358 E.01242
G1 X127.728 Y114.953 E.01279
G1 X127.778 Y114.423 E.01669
G1 X127.834 Y114.217 E.00669
G1 X128.023 Y113.891 E.01182
G1 X128.167 Y113.737 E.00661
G1 X128.48 Y113.54 E.0116
G1 X128.671 Y113.472 E.00636
G1 X128.897 Y113.434 E.00719
G1 X129.056 Y113.424 E.005
G1 X129.376 Y113.454 E.01008
G1 X129.677 Y113.55 E.00991
G1 X129.947 Y113.711 E.00986
G1 X130.183 Y113.935 E.0102
G1 X130.374 Y114.231 E.01105
G1 X130.503 Y114.588 E.0119
G1 X130.575 Y114.997 E.01302
G1 X130.599 Y115.46 E.01454
G1 X130.573 Y115.974 E.01614
G1 X130.494 Y116.428 E.01445
G1 X130.357 Y116.818 E.01296
