; generated by PrusaSlicer 2.7.4+win64 on 2024-04-21 at 22:41:58 UTC

; 

; external perimeters extrusion width = 0.42mm
; perimeters extrusion width = 0.44mm
; infill extrusion width = 0.44mm
; solid infill extrusion width = 0.44mm
; top infill extrusion width = 0.40mm
; first layer extrusion width = 0.42mm


; printing object Shape-Box id:0 copy 0
; stop printing object Shape-Box id:0 copy 0

;TYPE:Custom
; Ender 3 Custom Start G-code
G92 E0 ; Reset Extruder

M140 S55 ; set bed temp
M104 S160 ; set extruder temp
M109 S160 ; wait for extruder temp
M190 S55 ; wait for bed temp

G28 ; Home all axes
M104 S210 ; set extruder temp 
BED_MESH_CALIBRATE AREA_START=83.7684,88.5669 AREA_END=143.763,126.207

G1 Z2.0 F3000 ; Move Z Axis up little to prevent scratching of Heat Bed
M109 S210 ; wait for extruder temp
G1 X0.1 Y20 Z0.3 F5000.0 ; Move to start position

G1 X0.1 Y200.0 Z0.3 F1500.0 E15 ; Draw the first line
G1 X0.4 Y200.0 Z0.3 F5000.0 ; Move to side a little
G1 X0.4 Y20 Z0.3 F1500.0 E30 ; Draw the second line
G92 E0 ; Reset Extruder
G1 Z2.0 F3000 ; Move Z Axis up little to prevent scratching of Heat Bed
G1 X5 Y20 Z0.3 F5000.0 ; Move over to prevent blob squish
G21 ; set units to millimeters
G90 ; use absolute coordinates
M83 ; use relative distances for extrusion
; Filament gcode
M107
;LAYER_CHANGE
;Z:0.2
;HEIGHT:0.2
G1 E-1.6 F2400
G1 Z.2 F6000
G1 X87.857 Y91.701
G1 Z.2
G1 E1.6 F2400
M204 S500
;TYPE:Skirt/Brim
;WIDTH:0.42
G1 F1200
G1 X88.725 Y90.996 E.03506
G1 X89.656 Y90.382 E.03497
G1 X91.322 Y89.564 E.05819
G1 X93.099 Y89.026 E.05821
G1 X94.721 Y88.79 E.05139
G1 X132.884 Y88.805 E1.19657
G1 X133.843 Y88.938 E.03036
G1 X135.87 Y89.494 E.0659
G1 X137.7 Y90.365 E.06355
G1 X139.14 Y91.376 E.05517
G1 X140.583 Y92.775 E.06302
G1 X141.374 Y93.79 E.04035
G1 X141.835 Y94.519 E.02704
G1 X142.681 Y96.304 E.06194
G1 X143.24 Y98.341 E.06623
G1 X143.425 Y100.341 E.06298
G1 X143.575 Y114.341 E.43899
G1 X143.503 Y115.668 E.04167
G1 X143.296 Y116.888 E.0388
G1 X142.676 Y118.864 E.06493
G1 X141.69 Y120.733 E.06626
G1 X140.467 Y122.296 E.06223
G1 X139.688 Y123.064 E.0343
G1 X138.815 Y123.771 E.03522
G1 X137.173 Y124.778 E.06039
G1 X136.08 Y125.257 E.03742
G1 X134.281 Y125.783 E.05877
G1 X132.523 Y126.003 E.05555
G1 X95.078 Y126.009 E1.17406
G1 X93.39 Y125.81 E.05329
G1 X92.295 Y125.542 E.03535
G1 X91.185 Y125.153 E.03688
G1 X89.854 Y124.506 E.0464
G1 X88.8 Y123.835 E.03918
G1 X87.851 Y123.075 E.03812
G1 X86.76 Y121.96 E.04891
G1 X86.154 Y121.19 E.03072
G1 X85.328 Y119.862 E.04904
G1 X84.772 Y118.665 E.04138
G1 X84.319 Y117.276 E.04581
G1 X84.013 Y115.506 E.05632
G1 X83.957 Y114.505 E.03143
G1 X83.987 Y99.578 E.46803
G1 X84.339 Y97.433 E.06815
G1 X84.956 Y95.673 E.05848
G1 X85.359 Y94.854 E.02862
G1 X86.242 Y93.468 E.05153
G1 X86.875 Y92.684 E.03159
G1 X87.814 Y91.744 E.04166
G1 X87.814 Y91.744 F6000
G1 X88.08 Y92.01
G1 F1200
G1 X88.109 Y91.982 E.00126
G1 X88.937 Y91.308 E.03348
G1 X89.836 Y90.714 E.03378
G1 X91.455 Y89.917 E.05658
G1 X92.992 Y89.437 E.05049
G1 X94.74 Y89.166 E.05546
G1 X131.692 Y89.133 E1.1586
G1 X133.767 Y89.308 E.06529
G1 X135.748 Y89.851 E.0644
G1 X137.509 Y90.69 E.06116
G1 X138.893 Y91.661 E.05301
G1 X140.304 Y93.029 E.06162
G1 X141.07 Y94.013 E.0391
G1 X141.565 Y94.802 E.0292
G1 X142.414 Y96.673 E.06442
G1 X142.882 Y98.473 E.05831
G1 X143.048 Y100.345 E.05893
G1 X143.198 Y114.345 E.43899
G1 X143.13 Y115.614 E.03985
G1 X142.924 Y116.824 E.03848
G1 X142.331 Y118.712 E.06205
G1 X141.369 Y120.534 E.0646
G1 X140.198 Y122.031 E.05959
G1 X139.594 Y122.642 E.02694
G1 X138.603 Y123.459 E.04027
G1 X136.981 Y124.453 E.05965
G1 X135.395 Y125.098 E.05368
G1 X134.218 Y125.411 E.03819
G1 X132.355 Y125.634 E.05883
G1 X95.105 Y125.633 E1.16795
G1 X93.449 Y125.437 E.05229
G1 X92.304 Y125.154 E.03698
G1 X91.337 Y124.807 E.03221
G1 X90.03 Y124.173 E.04555
G1 X89.019 Y123.528 E.0376
G1 X88.102 Y122.794 E.03683
G1 X87.039 Y121.706 E.04769
G1 X86.452 Y120.958 E.02981
G1 X85.657 Y119.676 E.0473
G1 X85.128 Y118.539 E.03932
G1 X84.684 Y117.182 E.04477
G1 X84.387 Y115.46 E.05479
G1 X84.334 Y114.505 E.02999
G1 X84.363 Y99.603 E.46724
G1 X84.7 Y97.541 E.06551
G1 X85.307 Y95.811 E.05748
G1 X85.705 Y95.004 E.02821
G1 X86.553 Y93.681 E.04927
G1 X87.156 Y92.934 E.0301
G1 X88.038 Y92.052 E.03911
G1 X88.038 Y92.052 F6000
G1 X88.304 Y92.318
G1 F1200
G1 X88.361 Y92.262 E.00251
G1 X89.149 Y91.62 E.03187
G1 X90.029 Y91.037 E.0331
G1 X91.588 Y90.27 E.05448
G1 X93.208 Y89.774 E.05312
G1 X94.758 Y89.543 E.04914
G1 X131.692 Y89.51 E1.15804
G1 X133.69 Y89.677 E.06286
G1 X135.628 Y90.208 E.063
G1 X137.318 Y91.015 E.05872
G1 X138.647 Y91.947 E.0509
G1 X140.013 Y93.269 E.0596
G1 X140.766 Y94.236 E.03843
G1 X141.237 Y94.988 E.02782
G1 X142.054 Y96.785 E.06189
G1 X142.512 Y98.545 E.05702
G1 X142.671 Y100.349 E.05678
G1 X142.821 Y114.349 E.43899
G1 X142.744 Y115.641 E.04058
G1 X142.521 Y116.917 E.04061
G1 X142.276 Y117.78 E.02813
G1 X141.409 Y119.75 E.06749
G1 X140.675 Y120.874 E.04209
G1 X140.018 Y121.672 E.03241
G1 X139.333 Y122.37 E.03066
G1 X138.39 Y123.147 E.03831
G1 X136.804 Y124.12 E.05834
G1 X135.27 Y124.742 E.0519
G1 X134.141 Y125.042 E.03663
G1 X132.345 Y125.257 E.05671
G1 X95.131 Y125.257 E1.16682
G1 X93.508 Y125.065 E.05124
G1 X92.409 Y124.792 E.03551
G1 X91.488 Y124.462 E.03068
G1 X90.206 Y123.839 E.04469
G1 X89.238 Y123.221 E.03601
G1 X88.306 Y122.47 E.03753
G1 X87.318 Y121.453 E.04446
G1 X86.76 Y120.741 E.02836
G1 X85.985 Y119.491 E.04611
G1 X85.483 Y118.413 E.03729
G1 X85.05 Y117.087 E.04374
G1 X84.761 Y115.415 E.0532
G1 X84.739 Y99.629 E.49496
G1 X85.061 Y97.651 E.06284
G1 X85.658 Y95.948 E.05658
G1 X86.04 Y95.178 E.02695
G1 X86.862 Y93.897 E.04772
G1 X87.438 Y93.185 E.02871
G1 X88.262 Y92.361 E.03654
G1 E-1.12 F2400
;WIPE_START
G1 F4800
G1 X88.304 Y92.318 E-.02855
G1 X88.361 Y92.262 E-.03796
G1 X89.036 Y91.712 E-.41349
;WIPE_END
; printing object Shape-Box id:0 copy 0
G1 X109.927 Y109.811 F6000
G1 E1.6 F2400
;TYPE:Perimeter
G1 F1200
G1 X110.292 Y109.818 E.01145
G1 X110.153 Y109.932 E.00564
G1 X109.966 Y110.132 E.00858
G1 X109.934 Y109.871 E.00824
G1 E-1.12 F2400
;WIPE_START
G1 F4800
G1 X109.927 Y109.811 E-.02869
G1 X110.292 Y109.818 E-.17341
G1 X110.153 Y109.932 E-.08539
G1 X109.966 Y110.132 E-.13006
G1 X109.95 Y110.001 E-.06245
;WIPE_END
G1 X111.316 Y111.36 F6000
G1 E1.6 F2400
G1 F1200
G1 X111.301 Y111.547 E.00588
G1 X111.274 Y111.583 E.00141
G1 X111.186 Y111.574 E.00277
G1 X111.285 Y111.411 E.00598
G1 E-1.12 F2400
;WIPE_START
G1 F4800
G1 X111.316 Y111.36 E-.02835
G1 X111.301 Y111.547 E-.08911
G1 X111.274 Y111.583 E-.02138
G1 X111.186 Y111.574 E-.04202
G1 X111.285 Y111.411 E-.09059
;WIPE_END
G1 E-.20855 F2400
G1 X117.673 Y110.923 F6000
G1 E1.6 F2400
G1 F1200
G1 X117.655 Y110.953 E.0011
G1 X117.653 Y110.903 E.00157
G1 E-1.12 F2400
;WIPE_START
G1 F4800
G1 X117.673 Y110.923 E-.01344
G1 X117.655 Y110.953 E-.01662
G1 X117.653 Y110.903 E-.02377
;WIPE_END
G1 E-.42617 F2400
G1 X120.909 Y110.871 F6000
G1 E1.6 F2400
G1 F1200
G1 X120.884 Y110.914 E.00156
G1 X120.869 Y110.884 E.00105
G1 X120.872 Y110.879 E.00018
G1 E-1.12 F2400
;WIPE_START
G1 F4800
G1 X120.909 Y110.871 E-.01798
G1 X120.884 Y110.914 E-.02363
G1 X120.869 Y110.884 E-.01593
G1 X120.872 Y110.879 E-.00277
;WIPE_END
G1 E-.41969 F2400
G1 X122.969 Y104.938 F6000
G1 E1.6 F2400
G1 F1200
G1 X123.685 Y104.112 E.03427
G1 X124.321 Y103.227 E.03417
G1 X124.496 Y103.552 E.01157
G1 X124.614 Y103.684 E.00555
G1 X124.53 Y103.7 E.00268
G1 X124.11 Y104.289 E.02268
G1 X124.023 Y104.522 E.0078
G1 X123.97 Y104.931 E.01293
G1 X123.334 Y104.92 E.01994
G1 X123.029 Y104.935 E.00957
G1 E-1.12 F2400
;WIPE_START
G1 F4800
G1 X122.969 Y104.938 E-.02854
G1 X123.592 Y104.22 E-.45146
;WIPE_END
G1 X120.862 Y104.655 F6000
G1 E1.6 F2400
G1 F1200
G1 X120.875 Y104.086 E.01785
G1 X120.827 Y103.17 E.02876
G1 X121.258 Y103.237 E.01368
G1 X121.741 Y103.26 E.01516
G1 X122.026 Y103.243 E.00895
G1 X121.543 Y103.788 E.02283
G1 X120.899 Y104.608 E.03269
G1 E-1.12 F2400
;WIPE_START
G1 F4800
G1 X120.862 Y104.655 E-.02841
G1 X120.875 Y104.086 E-.27035
G1 X120.855 Y103.705 E-.18124
;WIPE_END
G1 X116.806 Y103.57 F6000
G1 E1.6 F2400
G1 F1200
G1 X116.728 Y103.274 E.0096
G1 X116.806 Y103.274 E.00245
G1 X116.806 Y103.51 E.0074
G1 E-1.12 F2400
;WIPE_START
G1 F4800
G1 X116.806 Y103.57 E-.0285
G1 X116.728 Y103.274 E-.1454
G1 X116.806 Y103.274 E-.03705
G1 X116.806 Y103.51 E-.1121
;WIPE_END
G1 E-.15695 F2400
G1 X103.398 Y103.703 F6000
G1 E1.6 F2400
G1 F1200
G1 X103.394 Y103.644 E.00185
G1 X103.457 Y103.691 E.00246
G1 X103.457 Y103.691 F6000
G1 X103.165 Y104.024
G1 F1200
G1 X103.017 Y104.241 E.00824
G1 X102.865 Y104.022 E.00836
G1 X103.105 Y104.024 E.00753
G1 X103.105 Y104.024 F6000
G1 X101.503 Y103.318
G1 F1200
G1 X101.177 Y103.216 E.01071
G1 X101.347 Y103.248 E.00542
G1 X101.448 Y103.293 E.00347
G1 E-1.12 F2400
;WIPE_START
G1 F4800
G1 X101.503 Y103.318 E-.0287
G1 X101.177 Y103.216 E-.16225
G1 X101.347 Y103.248 E-.08217
G1 X101.448 Y103.293 E-.05252
;WIPE_END
G1 E-.15436 F2400
G1 X100.287 Y110.138 F6000
G1 E1.6 F2400
G1 F1200
G1 X100.153 Y110.206 E.00471
G1 X100.022 Y110.221 E.00413
G1 X99.941 Y110.207 E.00258
G1 X99.89 Y110.149 E.00242
G1 X99.874 Y110.073 E.00244
G1 X99.88 Y109.918 E.00486
G1 X99.906 Y109.831 E.00285
G1 X99.981 Y109.753 E.00339
G1 X100.05 Y109.751 E.00216
G1 X100.098 Y109.778 E.00173
G1 X100.259 Y110.085 E.01087
G1 E-1.12 F2400
;WIPE_START
G1 F4800
G1 X100.287 Y110.138 E-.02847
G1 X100.153 Y110.206 E-.07138
G1 X100.022 Y110.221 E-.06263
G1 X99.941 Y110.207 E-.03905
G1 X99.89 Y110.149 E-.03669
G1 X99.874 Y110.073 E-.03689
G1 X99.88 Y109.918 E-.07368
G1 X99.906 Y109.831 E-.04313
G1 X99.981 Y109.753 E-.0514
G1 X100.05 Y109.751 E-.03279
G1 X100.057 Y109.755 E-.00389
;WIPE_END
G1 X93.489 Y109.963 F6000
G1 E1.6 F2400
G1 F1200
G1 X93.51 Y109.853 E.00351
G1 X93.574 Y109.763 E.00346
G1 X93.643 Y109.747 E.00222
G1 X93.703 Y109.778 E.00212
G1 X93.903 Y110.137 E.01289
G1 X93.767 Y110.206 E.00478
G1 X93.636 Y110.221 E.00413
G1 X93.555 Y110.207 E.00258
G1 X93.512 Y110.161 E.00197
G1 X93.493 Y110.098 E.00206
G1 X93.491 Y110.023 E.00235
G1 E-1.12 F2400
;WIPE_START
G1 F4800
G1 X93.489 Y109.963 E-.02852
G1 X93.51 Y109.853 E-.05319
G1 X93.574 Y109.763 E-.05246
G1 X93.643 Y109.747 E-.03364
G1 X93.703 Y109.778 E-.03208
G1 X93.903 Y110.137 E-.1952
G1 X93.767 Y110.206 E-.07244
G1 X93.741 Y110.209 E-.01247
;WIPE_END
G1 X129.098 Y110.678 F6000
G1 E1.6 F2400
G1 F1200
G1 X129.092 Y111.359 E.02135
G1 X129.056 Y111.204 E.00499
G1 X128.929 Y110.877 E.011
G1 X129.022 Y110.662 E.00734
G1 X129.039 Y110.665 E.00054
G1 E-1.12 F2400
;WIPE_START
G1 F4800
G1 X129.098 Y110.678 E-.0287
G1 X129.092 Y111.359 E-.32349
G1 X129.056 Y111.204 E-.07558
G1 X129.016 Y111.102 E-.05223
;WIPE_END
G1 X120.877 Y112.47 F6000
G1 E1.6 F2400
G1 F1200
G1 X120.709 Y112.754 E.01035
G1 X120.316 Y113.092 E.01625
G1 X119.97 Y113.258 E.01203
G1 X119.467 Y113.361 E.0161
G1 X118.925 Y113.34 E.01701
G1 X118.417 Y113.183 E.01667
G1 X117.981 Y112.88 E.01665
G1 X117.669 Y112.485 E.01578
G1 X117.536 Y112.175 E.01058
G1 X117.005 Y112.474 E.01911
G1 X116.755 Y112.665 E.00986
G1 X116.578 Y112.847 E.00796
G1 X116.246 Y113.363 E.01924
G1 X114.869 Y113.363 E.04317
G1 X114.869 Y108.036 E.16702
G1 X116.729 Y108.036 E.05832
G1 X116.721 Y110.063 E.06356
G1 X116.674 Y110.655 E.01862
G1 X117.377 Y110.344 E.0241
G1 X117.318 Y110.145 E.00651
G1 X117.296 Y109.849 E.00931
G1 X117.325 Y109.478 E.01167
G1 X117.434 Y109.116 E.01185
G1 X117.615 Y108.788 E.01175
G1 X117.862 Y108.501 E.01187
G1 X118.165 Y108.263 E.01208
G1 X118.513 Y108.094 E.01213
G1 X118.878 Y108 E.01182
G1 X119.11 Y107.974 E.00732
G1 X119.478 Y107.975 E.01154
G1 X119.863 Y108.039 E.01224
G1 X120.214 Y108.174 E.01179
G1 X120.434 Y108.302 E.00798
G1 X120.823 Y108.686 E.01714
G1 X120.874 Y108.776 E.00324
G1 X120.928 Y108.682 E.0034
G1 X121.316 Y108.301 E.01705
G1 X121.535 Y108.174 E.00794
G1 X121.888 Y108.039 E.01185
G1 X122.288 Y107.974 E.01271
G1 X122.669 Y107.975 E.01195
G1 X123.051 Y108.037 E.01213
G1 X123.414 Y108.17 E.01212
G1 X123.743 Y108.374 E.01214
G1 X124.021 Y108.642 E.01211
G1 X124.236 Y108.954 E.01188
G1 X124.38 Y109.303 E.01184
G1 X124.45 Y109.683 E.01212
G1 X124.435 Y110.151 E.01468
G1 X124.344 Y110.466 E.01028
G1 X124.09 Y110.919 E.01628
G1 X124.2 Y111.204 E.00958
G1 X124.296 Y111.619 E.01336
G1 X124.264 Y111.992 E.01174
G1 X124.166 Y112.337 E.01125
G1 X123.897 Y112.763 E.0158
G1 X123.508 Y113.094 E.01601
G1 X123.162 Y113.258 E.01201
G1 X122.671 Y113.359 E.01572
G1 X122.298 Y113.358 E.0117
G1 X121.947 Y113.301 E.01115
G1 X121.625 Y113.184 E.01074
G1 X121.441 Y113.082 E.0066
G1 X121.17 Y112.87 E.01079
G1 X120.948 Y112.601 E.01094
G1 X120.906 Y112.523 E.00278
G1 E-1.12 F2400
;WIPE_START
G1 F4800
G1 X120.877 Y112.47 E-.0287
G1 X120.709 Y112.754 E-.15674
G1 X120.316 Y113.092 E-.24622
G1 X120.224 Y113.136 E-.04834
;WIPE_END
G1 X117.271 Y110.803 F6000
G1 E1.6 F2400
;TYPE:External perimeter
G1 F1200
G1 X117.316 Y111.866 E.03336
G1 X116.797 Y112.158 E.01867
G1 X116.504 Y112.382 E.01156
G1 X116.281 Y112.611 E.01002
G1 X116.04 Y112.986 E.01398
G1 X115.246 Y112.986 E.0249
G1 X115.246 Y108.413 E.14338
G1 X116.35 Y108.413 E.03462
G1 X116.344 Y110.05 E.05133
G1 X116.315 Y110.506 E.01433
G1 X116.249 Y110.939 E.01373
G1 X116.252 Y111.387 E.01405
G1 X116.495 Y111.233 E.00902
G1 X116.608 Y111.096 E.00557
G1 X117.216 Y110.827 E.02085
G1 X117.216 Y110.827 F6000
G1 X118.263 Y110.886
G1 F1200
G1 X118.283 Y110.877 E.00069
G1 X118.159 Y110.775 E.00503
G1 X117.965 Y110.671 E.0069
G1 X117.756 Y110.293 E.01354
G1 X117.691 Y110.076 E.0071
G1 X117.674 Y109.849 E.00714
G1 X117.698 Y109.548 E.00947
G1 X117.783 Y109.263 E.00932
G1 X117.926 Y109.004 E.00928
G1 X118.123 Y108.775 E.00947
G1 X118.366 Y108.585 E.00967
G1 X118.644 Y108.45 E.00969
G1 X118.946 Y108.372 E.00978
G1 X119.13 Y108.351 E.00581
G1 X119.446 Y108.352 E.00991
G1 X119.764 Y108.405 E.01011
G1 X120.051 Y108.515 E.00964
G1 X120.203 Y108.603 E.00551
G1 X120.521 Y108.917 E.01401
G1 X120.608 Y109.071 E.00555
G1 X120.729 Y109.447 E.01238
G1 X120.78 Y109.718 E.00865
G1 X120.773 Y110.07 E.01104
G1 X120.728 Y110.279 E.0067
G1 X120.568 Y110.644 E.0125
G1 X120.278 Y110.885 E.01182
G1 X120.408 Y111.012 E.0057
G1 X120.56 Y111.124 E.00592
G1 X120.635 Y111.327 E.00679
G1 X120.688 Y111.646 E.01014
G1 X120.682 Y111.911 E.00831
G1 X120.616 Y112.172 E.00844
G1 X120.416 Y112.509 E.01229
G1 X120.108 Y112.773 E.01272
G1 X119.849 Y112.898 E.00902
G1 X119.436 Y112.982 E.01321
G1 X118.989 Y112.965 E.01403
G1 X118.584 Y112.84 E.01329
G1 X118.242 Y112.603 E.01305
G1 X117.996 Y112.291 E.01246
G1 X117.891 Y112.046 E.00836
G1 X117.859 Y111.906 E.0045
G1 X117.836 Y111.644 E.00825
G1 X117.857 Y111.452 E.00606
G1 X117.974 Y111.154 E.01004
G1 X118.088 Y110.963 E.00697
G1 X118.208 Y110.91 E.00411
G1 E-1.12 F2400
;WIPE_START
G1 F4800
G1 X118.263 Y110.886 E-.0285
G1 X118.283 Y110.877 E-.01042
G1 X118.159 Y110.775 E-.07627
G1 X117.965 Y110.671 E-.10456
G1 X117.756 Y110.293 E-.20517
G1 X117.723 Y110.182 E-.05508
;WIPE_END
G1 X121.451 Y110.89 F6000
G1 E1.6 F2400
G1 F1200
G1 X121.476 Y110.877 E.00088
G1 X121.181 Y110.61 E.01248
G1 X121.02 Y110.25 E.01236
G1 X120.978 Y110.054 E.00628
G1 X120.963 Y109.841 E.0067
G1 X121.019 Y109.445 E.01254
G1 X121.142 Y109.068 E.01243
G1 X121.229 Y108.915 E.00552
G1 X121.547 Y108.603 E.01397
G1 X121.698 Y108.515 E.00548
G1 X121.986 Y108.405 E.00967
G1 X122.318 Y108.351 E.01055
G1 X122.638 Y108.352 E.01003
G1 X122.955 Y108.403 E.01007
G1 X123.248 Y108.51 E.00978
G1 X123.51 Y108.674 E.00969
G1 X123.732 Y108.888 E.00967
G1 X123.902 Y109.135 E.0094
G1 X124.016 Y109.411 E.00936
G1 X124.072 Y109.711 E.00957
G1 X124.059 Y110.092 E.01195
G1 X123.993 Y110.32 E.00744
G1 X123.783 Y110.696 E.0135
G1 X123.467 Y110.88 E.01147
G1 X123.596 Y111.007 E.00568
G1 X123.759 Y111.11 E.00605
G1 X123.839 Y111.315 E.0069
G1 X123.915 Y111.645 E.01062
G1 X123.891 Y111.924 E.00878
G1 X123.818 Y112.182 E.00841
G1 X123.609 Y112.513 E.01227
G1 X123.301 Y112.775 E.01268
G1 X123.042 Y112.898 E.00899
G1 X122.633 Y112.981 E.01309
G1 X122.329 Y112.981 E.00953
G1 X122.043 Y112.935 E.00908
G1 X121.783 Y112.84 E.00868
