; generated by PrusaSlicer 2.7.4+win64 on 2024-04-22 at 10:13:32 UTC

; 

; external perimeters extrusion width = 0.42mm
; perimeters extrusion width = 0.44mm
; infill extrusion width = 0.44mm
; solid infill extrusion width = 0.44mm
; top infill extrusion width = 0.40mm
; first layer extrusion width = 0.42mm


; printing object Shape-Box id:0 copy 0
; stop printing object Shape-Box id:0 copy 0

;TYPE:Custom
; Ender 3 Custom Start G-code
G92 E0 ; Reset Extruder

M140 S50 ; set bed temp
M104 S200 ; set extruder temp
M109 S200 ; wait for extruder temp
M190 S50 ; wait for bed temp

G28 ; Home all axes
M104 S210 ; set extruder temp 
BED_MESH_CALIBRATE AREA_START=83.7684,88.5669 AREA_END=143.763,126.207

G1 Z2.0 F3000 ; Move Z Axis up little to prevent scratching of Heat Bed
M109 S210 ; wait for extruder temp
G1 X0.1 Y20 Z0.3 F5000.0 ; Move to start position

G1 X0.1 Y200.0 Z0.3 F1500.0 E15 ; Draw the first line
G1 X0.4 Y200.0 Z0.3 F5000.0 ; Move to side a little
G1 X0.4 Y20 Z0.3 F1500.0 E30 ; Draw the second line
G92 E0 ; Reset Extruder
G1 Z2.0 F3000 ; Move Z Axis up little to prevent scratching of Heat Bed
G1 X5 Y20 Z0.3 F5000.0 ; Move over to prevent blob squish
G21 ; set units to millimeters
G90 ; use absolute coordinates
M83 ; use relative distances for extrusion
; Filament gcode
M107
;LAYER_CHANGE
;Z:0.2
;HEIGHT:0.2
G1 E-1.6 F2400
G1 Z.2 F6000
G1 X87.857 Y91.701
G1 Z.2
G1 E1.6 F2400
M204 S500
;TYPE:Skirt/Brim
;WIDTH:0.42
G1 F1200
G1 X88.725 Y90.996 E.03366
G1 X89.656 Y90.382 E.03357
G1 X91.322 Y89.564 E.05587
G1 X93.099 Y89.026 E.05589
G1 X94.721 Y88.79 E.04934
G1 X132.884 Y88.805 E1.14871
G1 X133.843 Y88.938 E.02914
G1 X135.87 Y89.494 E.06327
G1 X137.7 Y90.365 E.061
G1 X139.14 Y91.376 E.05296
G1 X140.583 Y92.775 E.0605
G1 X141.374 Y93.79 E.03873
G1 X141.835 Y94.519 E.02596
G1 X142.681 Y96.304 E.05946
G1 X143.24 Y98.341 E.06358
G1 X143.425 Y100.341 E.06046
G1 X143.575 Y114.341 E.42143
G1 X143.503 Y115.668 E.04
G1 X143.296 Y116.888 E.03725
G1 X142.676 Y118.864 E.06234
G1 X141.69 Y120.733 E.06361
G1 X140.467 Y122.296 E.05974
G1 X139.688 Y123.064 E.03293
G1 X138.815 Y123.771 E.03381
G1 X137.173 Y124.778 E.05798
G1 X136.08 Y125.257 E.03592
G1 X134.281 Y125.783 E.05642
G1 X132.523 Y126.003 E.05333
G1 X95.078 Y126.009 E1.1271
G1 X93.39 Y125.81 E.05116
G1 X92.295 Y125.542 E.03393
G1 X91.185 Y125.153 E.0354
G1 X89.854 Y124.506 E.04455
G1 X88.8 Y123.835 E.03761
G1 X87.851 Y123.075 E.0366
G1 X86.76 Y121.96 E.04696
G1 X86.154 Y121.19 E.02949
G1 X85.328 Y119.862 E.04707
G1 X84.772 Y118.665 E.03973
G1 X84.319 Y117.276 E.04398
G1 X84.013 Y115.506 E.05407
G1 X83.957 Y114.505 E.03018
G1 X83.987 Y99.578 E.44931
G1 X84.339 Y97.433 E.06543
G1 X84.956 Y95.673 E.05614
G1 X85.359 Y94.854 E.02747
G1 X86.242 Y93.468 E.04947
G1 X86.875 Y92.684 E.03033
G1 X87.814 Y91.744 E.03999
G1 X87.814 Y91.744 F6000
G1 X88.08 Y92.01
G1 F1200
G1 X88.109 Y91.982 E.00121
G1 X88.937 Y91.308 E.03214
G1 X89.836 Y90.714 E.03243
G1 X91.455 Y89.917 E.05432
G1 X92.992 Y89.437 E.04847
G1 X94.74 Y89.166 E.05324
G1 X131.692 Y89.133 E1.11226
G1 X133.767 Y89.308 E.06268
G1 X135.748 Y89.851 E.06183
G1 X137.509 Y90.69 E.05871
G1 X138.893 Y91.661 E.05089
G1 X140.304 Y93.029 E.05916
G1 X141.07 Y94.013 E.03753
G1 X141.565 Y94.802 E.02804
G1 X142.414 Y96.673 E.06184
G1 X142.882 Y98.473 E.05598
G1 X143.048 Y100.345 E.05657
G1 X143.198 Y114.345 E.42143
G1 X143.13 Y115.614 E.03825
G1 X142.924 Y116.824 E.03695
G1 X142.331 Y118.712 E.05957
G1 X141.369 Y120.534 E.06202
G1 X140.198 Y122.031 E.05721
G1 X139.594 Y122.642 E.02586
G1 X138.603 Y123.459 E.03866
G1 X136.981 Y124.453 E.05726
G1 X135.395 Y125.098 E.05154
G1 X134.218 Y125.411 E.03666
G1 X132.355 Y125.634 E.05648
G1 X95.105 Y125.633 E1.12123
G1 X93.449 Y125.437 E.05019
G1 X92.304 Y125.154 E.0355
G1 X91.337 Y124.807 E.03092
G1 X90.03 Y124.173 E.04373
G1 X89.019 Y123.528 E.0361
G1 X88.102 Y122.794 E.03536
G1 X87.039 Y121.706 E.04578
G1 X86.452 Y120.958 E.02862
G1 X85.657 Y119.676 E.04541
G1 X85.128 Y118.539 E.03775
G1 X84.684 Y117.182 E.04298
G1 X84.387 Y115.46 E.0526
G1 X84.334 Y114.505 E.02879
G1 X84.363 Y99.603 E.44855
G1 X84.7 Y97.541 E.06289
G1 X85.307 Y95.811 E.05519
G1 X85.705 Y95.004 E.02708
G1 X86.553 Y93.681 E.0473
G1 X87.156 Y92.934 E.0289
G1 X88.038 Y92.052 E.03754
G1 X88.038 Y92.052 F6000
G1 X88.304 Y92.318
G1 F1200
G1 X88.361 Y92.262 E.00241
G1 X89.149 Y91.62 E.03059
G1 X90.029 Y91.037 E.03177
G1 X91.588 Y90.27 E.0523
G1 X93.208 Y89.774 E.051
G1 X94.758 Y89.543 E.04717
G1 X131.692 Y89.51 E1.11172
G1 X133.69 Y89.677 E.06035
G1 X135.628 Y90.208 E.06048
G1 X137.318 Y91.015 E.05637
G1 X138.647 Y91.947 E.04886
G1 X140.013 Y93.269 E.05722
G1 X140.766 Y94.236 E.03689
G1 X141.237 Y94.988 E.02671
G1 X142.054 Y96.785 E.05942
G1 X142.512 Y98.545 E.05474
G1 X142.671 Y100.349 E.05451
G1 X142.821 Y114.349 E.42143
G1 X142.744 Y115.641 E.03896
G1 X142.521 Y116.917 E.03899
G1 X142.276 Y117.78 E.027
G1 X141.409 Y119.75 E.06479
G1 X140.675 Y120.874 E.04041
G1 X140.018 Y121.672 E.03111
G1 X139.333 Y122.37 E.02944
G1 X138.39 Y123.147 E.03678
G1 X136.804 Y124.12 E.05601
G1 X135.27 Y124.742 E.04982
G1 X134.141 Y125.042 E.03516
G1 X132.345 Y125.257 E.05445
G1 X95.131 Y125.257 E1.12015
G1 X93.508 Y125.065 E.04919
G1 X92.409 Y124.792 E.03409
G1 X91.488 Y124.462 E.02945
G1 X90.206 Y123.839 E.0429
G1 X89.238 Y123.221 E.03457
G1 X88.306 Y122.47 E.03603
G1 X87.318 Y121.453 E.04268
G1 X86.76 Y120.741 E.02723
G1 X85.985 Y119.491 E.04427
G1 X85.483 Y118.413 E.03579
G1 X85.05 Y117.087 E.04199
G1 X84.761 Y115.415 E.05107
G1 X84.739 Y99.629 E.47516
G1 X85.061 Y97.651 E.06032
G1 X85.658 Y95.949 E.05429
G1 X86.04 Y95.178 E.0259
G1 X86.862 Y93.897 E.04581
G1 X87.438 Y93.185 E.02757
G1 X88.262 Y92.361 E.03508
G1 E-1.12 F2400
;WIPE_START
G1 F4800
G1 X88.304 Y92.318 E-.02855
G1 X88.361 Y92.262 E-.03796
G1 X89.036 Y91.712 E-.41349
;WIPE_END
; printing object Shape-Box id:0 copy 0
G1 X109.927 Y109.811 F6000
G1 E1.6 F2400
;TYPE:Perimeter
G1 F1200
G1 X110.292 Y109.818 E.01099
G1 X110.153 Y109.932 E.00541
G1 X109.966 Y110.132 E.00824
G1 X109.934 Y109.871 E.00791
G1 E-1.12 F2400
;WIPE_START
G1 F4800
G1 X109.927 Y109.811 E-.02869
G1 X110.292 Y109.818 E-.17341
G1 X110.153 Y109.932 E-.08539
G1 X109.966 Y110.132 E-.13006
G1 X109.95 Y110.001 E-.06245
;WIPE_END
G1 X111.316 Y111.36 F6000
G1 E1.6 F2400
G1 F1200
G1 X111.301 Y111.547 E.00565
G1 X111.274 Y111.583 E.00135
G1 X111.186 Y111.574 E.00266
G1 X111.285 Y111.411 E.00574
G1 E-1.12 F2400
;WIPE_START
G1 F4800
G1 X111.316 Y111.36 E-.02835
G1 X111.301 Y111.547 E-.08911
G1 X111.274 Y111.583 E-.02138
G1 X111.186 Y111.574 E-.04202
G1 X111.285 Y111.411 E-.09059
;WIPE_END
G1 E-.20855 F2400
G1 X117.673 Y110.923 F6000
G1 E1.6 F2400
G1 F1200
G1 X117.655 Y110.953 E.00105
G1 X117.653 Y110.903 E.00151
G1 E-1.12 F2400
;WIPE_START
G1 F4800
G1 X117.673 Y110.923 E-.01344
G1 X117.655 Y110.953 E-.01662
G1 X117.653 Y110.903 E-.02377
;WIPE_END
G1 E-.42617 F2400
G1 X120.909 Y110.871 F6000
G1 E1.6 F2400
G1 F1200
G1 X120.884 Y110.914 E.0015
G1 X120.869 Y110.884 E.00101
G1 X120.872 Y110.879 E.00018
G1 E-1.12 F2400
;WIPE_START
G1 F4800
G1 X120.909 Y110.871 E-.01798
G1 X120.884 Y110.914 E-.02363
G1 X120.869 Y110.884 E-.01593
G1 X120.872 Y110.879 E-.00277
;WIPE_END
G1 E-.41969 F2400
G1 X122.969 Y104.938 F6000
G1 E1.6 F2400
G1 F1200
G1 X123.685 Y104.112 E.0329
G1 X124.321 Y103.227 E.0328
G1 X124.496 Y103.552 E.01111
G1 X124.614 Y103.684 E.00533
G1 X124.53 Y103.7 E.00257
G1 X124.11 Y104.289 E.02177
G1 X124.023 Y104.522 E.00749
G1 X123.97 Y104.931 E.01241
G1 X123.334 Y104.92 E.01915
G1 X123.029 Y104.935 E.00919
G1 E-1.12 F2400
;WIPE_START
G1 F4800
G1 X122.969 Y104.938 E-.02854
G1 X123.592 Y104.22 E-.45146
;WIPE_END
G1 X120.862 Y104.655 F6000
G1 E1.6 F2400
G1 F1200
G1 X120.875 Y104.086 E.01713
G1 X120.827 Y103.17 E.02761
G1 X121.258 Y103.237 E.01313
G1 X121.741 Y103.26 E.01455
G1 X122.026 Y103.243 E.00859
G1 X121.543 Y103.788 E.02192
G1 X120.899 Y104.608 E.03138
G1 E-1.12 F2400
;WIPE_START
G1 F4800
G1 X120.862 Y104.655 E-.02841
G1 X120.875 Y104.086 E-.27035
G1 X120.855 Y103.705 E-.18124
;WIPE_END
G1 X116.806 Y103.57 F6000
G1 E1.6 F2400
G1 F1200
G1 X116.728 Y103.274 E.00921
G1 X116.806 Y103.274 E.00235
G1 X116.806 Y103.51 E.0071
G1 E-1.12 F2400
;WIPE_START
G1 F4800
G1 X116.806 Y103.57 E-.0285
G1 X116.728 Y103.274 E-.1454
G1 X116.806 Y103.274 E-.03705
G1 X116.806 Y103.51 E-.1121
;WIPE_END
G1 E-.15695 F2400
G1 X103.398 Y103.703 F6000
G1 E1.6 F2400
G1 F1200
G1 X103.394 Y103.644 E.00178
G1 X103.457 Y103.691 E.00237
G1 X103.457 Y103.691 F6000
G1 X103.165 Y104.024
G1 F1200
G1 X103.017 Y104.241 E.00791
G1 X102.865 Y104.022 E.00802
G1 X103.105 Y104.024 E.00722
G1 X103.105 Y104.024 F6000
G1 X101.503 Y103.318
G1 F1200
G1 X101.177 Y103.216 E.01028
G1 X101.347 Y103.248 E.00521
G1 X101.448 Y103.293 E.00333
G1 E-1.12 F2400
;WIPE_START
G1 F4800
G1 X101.503 Y103.318 E-.0287
G1 X101.177 Y103.216 E-.16225
G1 X101.347 Y103.248 E-.08217
G1 X101.448 Y103.293 E-.05252
;WIPE_END
G1 E-.15436 F2400
G1 X100.287 Y110.138 F6000
G1 E1.6 F2400
G1 F1200
G1 X100.153 Y110.206 E.00452
G1 X100.022 Y110.221 E.00397
G1 X99.941 Y110.207 E.00247
G1 X99.89 Y110.149 E.00232
G1 X99.874 Y110.073 E.00234
G1 X99.88 Y109.918 E.00467
G1 X99.906 Y109.831 E.00273
G1 X99.981 Y109.753 E.00326
G1 X100.05 Y109.751 E.00208
G1 X100.098 Y109.778 E.00166
G1 X100.259 Y110.085 E.01043
G1 E-1.12 F2400
;WIPE_START
G1 F4800
G1 X100.287 Y110.138 E-.02847
G1 X100.153 Y110.206 E-.07138
G1 X100.022 Y110.221 E-.06263
G1 X99.941 Y110.207 E-.03905
G1 X99.89 Y110.149 E-.03669
G1 X99.874 Y110.073 E-.03689
G1 X99.88 Y109.918 E-.07368
G1 X99.906 Y109.831 E-.04313
G1 X99.981 Y109.753 E-.0514
G1 X100.05 Y109.751 E-.03279
G1 X100.057 Y109.755 E-.00389
;WIPE_END
G1 X93.489 Y109.963 F6000
G1 E1.6 F2400
G1 F1200
G1 X93.51 Y109.853 E.00337
G1 X93.574 Y109.763 E.00332
G1 X93.643 Y109.747 E.00213
G1 X93.703 Y109.778 E.00203
G1 X93.903 Y110.137 E.01237
G1 X93.767 Y110.206 E.00459
G1 X93.636 Y110.221 E.00397
G1 X93.555 Y110.207 E.00247
G1 X93.512 Y110.161 E.0019
G1 X93.493 Y110.098 E.00198
G1 X93.491 Y110.023 E.00226
G1 E-1.12 F2400
;WIPE_START
G1 F4800
G1 X93.489 Y109.963 E-.02852
G1 X93.51 Y109.853 E-.05319
G1 X93.574 Y109.763 E-.05246
G1 X93.643 Y109.747 E-.03364
G1 X93.703 Y109.778 E-.03208
G1 X93.903 Y110.137 E-.1952
G1 X93.767 Y110.206 E-.07244
G1 X93.741 Y110.209 E-.01247
;WIPE_END
G1 X129.098 Y110.678 F6000
G1 E1.6 F2400
G1 F1200
G1 X129.092 Y111.359 E.0205
G1 X129.056 Y111.204 E.00479
G1 X128.929 Y110.877 E.01056
G1 X129.022 Y110.662 E.00705
G1 X129.039 Y110.665 E.00052
G1 E-1.12 F2400
;WIPE_START
G1 F4800
G1 X129.098 Y110.678 E-.0287
G1 X129.092 Y111.359 E-.32349
G1 X129.056 Y111.204 E-.07558
G1 X129.016 Y111.102 E-.05223
;WIPE_END
G1 X120.877 Y112.47 F6000
G1 E1.6 F2400
G1 F1200
G1 X120.709 Y112.754 E.00993
G1 X120.316 Y113.092 E.0156
G1 X119.97 Y113.258 E.01155
G1 X119.467 Y113.361 E.01545
G1 X118.925 Y113.34 E.01633
G1 X118.417 Y113.183 E.016
G1 X117.981 Y112.88 E.01598
G1 X117.669 Y112.485 E.01515
G1 X117.536 Y112.175 E.01015
G1 X117.005 Y112.474 E.01834
G1 X116.755 Y112.665 E.00947
G1 X116.578 Y112.847 E.00764
G1 X116.246 Y113.363 E.01847
G1 X114.869 Y113.363 E.04145
G1 X114.869 Y108.036 E.16034
G1 X116.729 Y108.036 E.05599
G1 X116.721 Y110.063 E.06101
G1 X116.674 Y110.655 E.01788
G1 X117.377 Y110.344 E.02314
G1 X117.318 Y110.145 E.00625
G1 X117.296 Y109.849 E.00893
G1 X117.325 Y109.478 E.0112
G1 X117.434 Y109.116 E.01138
G1 X117.615 Y108.788 E.01128
G1 X117.862 Y108.501 E.0114
G1 X118.165 Y108.263 E.0116
G1 X118.513 Y108.094 E.01164
G1 X118.878 Y108 E.01135
G1 X119.11 Y107.974 E.00703
G1 X119.478 Y107.975 E.01108
G1 X119.863 Y108.039 E.01175
G1 X120.214 Y108.174 E.01132
G1 X120.434 Y108.302 E.00766
G1 X120.823 Y108.686 E.01645
G1 X120.874 Y108.776 E.00311
G1 X120.928 Y108.682 E.00326
G1 X121.316 Y108.301 E.01637
G1 X121.535 Y108.174 E.00762
G1 X121.888 Y108.039 E.01138
G1 X122.288 Y107.974 E.0122
G1 X122.669 Y107.975 E.01147
G1 X123.051 Y108.037 E.01165
G1 X123.414 Y108.17 E.01164
G1 X123.743 Y108.374 E.01165
G1 X124.021 Y108.642 E.01162
G1 X124.236 Y108.954 E.01141
G1 X124.38 Y109.303 E.01136
G1 X124.45 Y109.683 E.01163
G1 X124.435 Y110.151 E.01409
G1 X124.344 Y110.466 E.00987
G1 X124.09 Y110.919 E.01563
G1 X124.2 Y111.204 E.0092
G1 X124.296 Y111.619 E.01282
G1 X124.264 Y111.992 E.01127
G1 X124.166 Y112.337 E.0108
G1 X123.897 Y112.763 E.01517
G1 X123.508 Y113.094 E.01537
G1 X123.162 Y113.258 E.01153
G1 X122.671 Y113.359 E.01509
G1 X122.298 Y113.358 E.01123
G1 X121.947 Y113.301 E.0107
G1 X121.625 Y113.184 E.01031
G1 X121.441 Y113.082 E.00633
G1 X121.17 Y112.87 E.01036
G1 X120.948 Y112.601 E.0105
G1 X120.906 Y112.523 E.00267
G1 E-1.12 F2400
;WIPE_START
G1 F4800
G1 X120.877 Y112.47 E-.0287
G1 X120.709 Y112.754 E-.15674
G1 X120.316 Y113.092 E-.24622
G1 X120.224 Y113.136 E-.04834
;WIPE_END
G1 X117.271 Y110.803 F6000
G1 E1.6 F2400
;TYPE:External perimeter
G1 F1200
G1 X117.316 Y111.866 E.03203
G1 X116.797 Y112.158 E.01792
G1 X116.504 Y112.382 E.0111
G1 X116.281 Y112.611 E.00962
G1 X116.04 Y112.986 E.01342
G1 X115.246 Y112.986 E.0239
G1 X115.246 Y108.413 E.13765
G1 X116.35 Y108.413 E.03323
G1 X116.344 Y110.05 E.04927
G1 X116.315 Y110.506 E.01375
G1 X116.249 Y110.939 E.01318
G1 X116.252 Y111.387 E.01349
G1 X116.495 Y111.233 E.00866
G1 X116.608 Y111.096 E.00535
G1 X117.216 Y110.827 E.02001
G1 X117.216 Y110.827 F6000
G1 X118.263 Y110.886
G1 F1200
G1 X118.283 Y110.877 E.00066
G1 X118.159 Y110.775 E.00483
G1 X117.965 Y110.671 E.00663
G1 X117.756 Y110.293 E.013
G1 X117.691 Y110.076 E.00682
G1 X117.674 Y109.849 E.00685
G1 X117.698 Y109.548 E.00909
G1 X117.783 Y109.263 E.00895
G1 X117.926 Y109.004 E.00891
G1 X118.123 Y108.775 E.00909
G1 X118.366 Y108.585 E.00928
G1 X118.644 Y108.45 E.0093
G1 X118.946 Y108.372 E.00939
G1 X119.13 Y108.351 E.00557
G1 X119.446 Y108.352 E.00951
G1 X119.764 Y108.405 E.0097
G1 X120.051 Y108.515 E.00925
G1 X120.203 Y108.603 E.00529
G1 X120.521 Y108.917 E.01345
G1 X120.608 Y109.071 E.00532
G1 X120.729 Y109.447 E.01189
G1 X120.78 Y109.718 E.0083
G1 X120.773 Y110.07 E.0106
G1 X120.728 Y110.279 E.00644
G1 X120.568 Y110.644 E.012
G1 X120.278 Y110.885 E.01135
G1 X120.408 Y111.012 E.00547
G1 X120.56 Y111.124 E.00568
G1 X120.635 Y111.327 E.00651
G1 X120.688 Y111.646 E.00973
G1 X120.682 Y111.911 E.00798
G1 X120.616 Y112.172 E.0081
G1 X120.416 Y112.509 E.0118
G1 X120.108 Y112.773 E.01221
G1 X119.849 Y112.898 E.00866
G1 X119.436 Y112.982 E.01269
G1 X118.989 Y112.965 E.01346
G1 X118.584 Y112.84 E.01276
G1 X118.242 Y112.603 E.01252
G1 X117.996 Y112.291 E.01196
G1 X117.891 Y112.046 E.00802
G1 X117.859 Y111.906 E.00432
G1 X117.836 Y111.644 E.00792
G1 X117.857 Y111.452 E.00581
G1 X117.974 Y111.154 E.00964
G1 X118.088 Y110.963 E.0067
G1 X118.208 Y110.91 E.00395
G1 E-1.12 F2400
;WIPE_START
G1 F4800
G1 X118.263 Y110.886 E-.0285
G1 X118.283 Y110.877 E-.01042
G1 X118.159 Y110.775 E-.07627
G1 X117.965 Y110.671 E-.10456
G1 X117.756 Y110.293 E-.20517
G1 X117.723 Y110.182 E-.05508
;WIPE_END
G1 X121.451 Y110.89 F6000
G1 E1.6 F2400
G1 F1200
G1 X121.476 Y110.877 E.00085
G1 X121.181 Y110.61 E.01198
G1 X121.02 Y110.25 E.01187
G1 X120.978 Y110.054 E.00603
G1 X120.963 Y109.841 E.00643
G1 X121.019 Y109.445 E.01204
G1 X121.142 Y109.068 E.01194
G1 X121.229 Y108.915 E.0053
G1 X121.547 Y108.603 E.01341
G1 X121.698 Y108.515 E.00526
G1 X121.986 Y108.405 E.00928
G1 X122.318 Y108.351 E.01012
G1 X122.638 Y108.352 E.00963
G1 X122.955 Y108.403 E.00966
G1 X123.248 Y108.51 E.00939
G1 X123.51 Y108.674 E.0093
G1 X123.732 Y108.888 E.00928
G1 X123.902 Y109.135 E.00903
G1 X124.016 Y109.411 E.00899
G1 X124.072 Y109.711 E.00919
G1 X124.059 Y110.092 E.01147
G1 X123.993 Y110.32 E.00714
G1 X123.783 Y110.696 E.01296
G1 X123.467 Y110.88 E.01101
G1 X123.596 Y111.007 E.00545
G1 X123.759 Y111.11 E.0058
G1 X123.839 Y111.315 E.00662
G1 X123.915 Y111.645 E.01019
G1 X123.891 Y111.924 E.00843
G1 X123.818 Y112.182 E.00807
G1 X123.609 Y112.513 E.01178
G1 X123.301 Y112.775 E.01217
G1 X123.042 Y112.898 E.00863
G1 X122.633 Y112.981 E.01256
G1 X122.329 Y112.981 E.00915
G1 X122.043 Y112.935 E.00872
G1 X121.783 Y112.84 E.00833
