; generated by PrusaSlicer 2.7.3+win64 on 2024-04-04 at 12:41:24 UTC

; 

; external perimeters extrusion width = 0.42mm
; perimeters extrusion width = 0.44mm
; infill extrusion width = 0.44mm
; solid infill extrusion width = 0.44mm
; top infill extrusion width = 0.40mm
; first layer extrusion width = 0.42mm


; printing object xyzCalibration_cube.stl id:0 copy 0
; stop printing object xyzCalibration_cube.stl id:0 copy 0

;TYPE:Custom
; Ender 3 Custom Start G-code
G92 E0 ; Reset Extruder

M140 S55 ; set bed temp
M104 S200 ; set extruder temp
M109 S200 ; wait for extruder temp
M190 S55 ; wait for bed temp

G28 ; Home all axes
M104 S215 ; set extruder temp 
BED_MESH_CALIBRATE AREA_START=102.18,102.18 AREA_END=128.82,128.82

G1 Z2.0 F3000 ; Move Z Axis up little to prevent scratching of Heat Bed
M109 S215 ; wait for extruder temp
G1 X0.1 Y20 Z0.3 F5000.0 ; Move to start position

G1 X0.1 Y200.0 Z0.3 F1500.0 E15 ; Draw the first line
G1 X0.4 Y200.0 Z0.3 F5000.0 ; Move to side a little
G1 X0.4 Y20 Z0.3 F1500.0 E30 ; Draw the second line
G92 E0 ; Reset Extruder
G1 Z2.0 F3000 ; Move Z Axis up little to prevent scratching of Heat Bed
G1 X5 Y20 Z0.3 F5000.0 ; Move over to prevent blob squish
G21 ; set units to millimeters
G90 ; use absolute coordinates
M83 ; use relative distances for extrusion
; Filament gcode
M107
;LAYER_CHANGE
;Z:0.2
;HEIGHT:0.2
G1 E-1.6 F2400
G1 Z.2 F6000
G1 X103.844 Y102.842
G1 Z.2
G1 E1.6 F2400
M204 S500
;TYPE:Skirt/Brim
;WIDTH:0.42
G1 F1200
G1 X105.5 Y102.369 E.05292
G1 X125.5 Y102.369 E.61454
G1 X127.02 Y102.762 E.04824
G1 X128.158 Y103.844 E.04825
G1 X128.631 Y105.5 E.05292
G1 X128.631 Y125.5 E.61454
G1 X128.238 Y127.02 E.04824
G1 X127.156 Y128.158 E.04825
G1 X125.5 Y128.631 E.05292
G1 X105.5 Y128.631 E.61454
G1 X103.98 Y128.238 E.04824
G1 X102.842 Y127.156 E.04825
G1 X102.369 Y125.5 E.05292
G1 X102.369 Y105.5 E.61454
G1 X102.762 Y103.98 E.04824
G1 X103.803 Y102.886 E.0464
G1 X103.803 Y102.886 F6000
G1 X104.085 Y103.183
G1 F1200
G1 X104.205 Y103.069 E.00509
G1 X105.5 Y102.746 E.04101
G1 X125.5 Y102.746 E.61454
G1 X126.917 Y103.139 E.04518
G1 X127.931 Y104.205 E.04521
G1 X128.254 Y105.5 E.04101
G1 X128.254 Y125.5 E.61454
G1 X127.861 Y126.917 E.04518
G1 X126.795 Y127.931 E.04521
G1 X125.5 Y128.254 E.04101
G1 X105.5 Y128.254 E.61454
G1 X104.083 Y127.861 E.04518
G1 X103.069 Y126.795 E.04521
G1 X102.746 Y125.5 E.04101
G1 X102.746 Y105.5 E.61454
G1 X103.139 Y104.083 E.04518
G1 X104.042 Y103.224 E.0383
G1 X104.042 Y103.224 F6000
G1 X104.301 Y103.534
G1 F1200
G1 X104.56 Y103.317 E.01038
G1 X105.5 Y103.123 E.02949
G1 X125.5 Y103.123 E.61454
G1 X126.807 Y103.514 E.04192
G1 X127.683 Y104.56 E.04192
G1 X127.877 Y105.5 E.02949
G1 X127.877 Y125.5 E.61454
G1 X127.485 Y126.807 E.04193
G1 X126.44 Y127.683 E.0419
G1 X125.5 Y127.877 E.02949
G1 X105.5 Y127.877 E.61454
G1 X104.193 Y127.485 E.04193
G1 X103.317 Y126.44 E.0419
G1 X103.123 Y125.5 E.02949
G1 X103.123 Y105.5 E.61454
G1 X103.515 Y104.193 E.04193
G1 X104.255 Y103.572 E.02968
G1 E-1.12 F2400
;WIPE_START
G1 F4800
G1 X104.301 Y103.534 E-.02834
G1 X104.56 Y103.317 E-.1605
G1 X105.16 Y103.193 E-.29116
;WIPE_END
; printing object xyzCalibration_cube.stl id:0 copy 0
G1 X106.187 Y106.187 F6000
G1 E1.6 F2400
;TYPE:Perimeter
G1 F1200
G1 X124.813 Y106.187 E.57233
G1 X124.813 Y124.813 E.57233
G1 X106.187 Y124.813 E.57233
G1 X106.187 Y106.247 E.57048
G1 X105.81 Y105.81 F6000
;TYPE:External perimeter
G1 F1200
G1 X125.19 Y105.81 E.59549
G1 X125.19 Y125.19 E.59549
G1 X105.81 Y125.19 E.59549
G1 X105.81 Y105.87 E.59365
G1 E-1.12 F2400
;WIPE_START
G1 F4800
G1 X105.81 Y105.81 E-.0285
G1 X106.761 Y105.81 E-.4515
;WIPE_END
G1 X124.692 Y107.071 F6000
G1 E1.6 F2400
;TYPE:Solid infill
;WIDTH:0.420499
G1 F1200
G1 X124.099 Y106.477 E.02582
G1 X123.565 Y106.477 E.01643
G1 X124.523 Y107.435 E.04168
G1 X124.523 Y107.969 E.01643
G1 X123.031 Y106.477 E.06492
G1 X122.497 Y106.477 E.01643
G1 X124.523 Y108.503 E.08816
G1 X124.523 Y109.037 E.01643
G1 X121.963 Y106.477 E.11139
G1 X121.429 Y106.477 E.01643
G1 X124.523 Y109.571 E.13463
G1 X124.523 Y110.105 E.01643
G1 X120.895 Y106.477 E.15786
G1 X120.361 Y106.477 E.01643
G1 X124.523 Y110.639 E.1811
G1 X124.523 Y111.173 E.01643
G1 X119.827 Y106.477 E.20433
G1 X119.293 Y106.477 E.01643
G1 X124.523 Y111.707 E.22757
G1 X124.523 Y112.241 E.01643
G1 X118.759 Y106.477 E.25081
G1 X118.225 Y106.477 E.01643
G1 X124.523 Y112.775 E.27404
G1 X124.523 Y113.309 E.01643
G1 X117.691 Y106.477 E.29728
G1 X117.157 Y106.477 E.01643
G1 X124.523 Y113.843 E.32051
G1 X124.523 Y114.377 E.01643
G1 X116.623 Y106.477 E.34375
G1 X116.089 Y106.477 E.01643
G1 X124.523 Y114.911 E.36698
G1 X124.523 Y115.445 E.01643
G1 X115.555 Y106.477 E.39022
G1 X115.021 Y106.477 E.01643
G1 X124.523 Y115.979 E.41345
G1 X124.523 Y116.513 E.01643
G1 X114.487 Y106.477 E.43669
G1 X113.953 Y106.477 E.01643
G1 X124.523 Y117.047 E.45993
G1 X124.523 Y117.581 E.01643
G1 X113.419 Y106.477 E.48316
G1 X112.885 Y106.477 E.01643
G1 X124.523 Y118.115 E.5064
G1 X124.523 Y118.649 E.01643
G1 X112.351 Y106.477 E.52963
G1 X111.817 Y106.477 E.01643
G1 X124.523 Y119.183 E.55287
G1 X124.523 Y119.717 E.01643
G1 X111.283 Y106.477 E.5761
G1 X110.749 Y106.477 E.01643
G1 X124.523 Y120.251 E.59934
G1 X124.523 Y120.785 E.01643
G1 X110.215 Y106.477 E.62258
G1 X109.681 Y106.477 E.01643
G1 X124.523 Y121.319 E.64581
G1 X124.523 Y121.853 E.01643
G1 X109.147 Y106.477 E.66905
G1 X108.613 Y106.477 E.01643
G1 X124.523 Y122.387 E.69228
G1 X124.523 Y122.921 E.01643
G1 X108.079 Y106.477 E.71552
G1 X107.545 Y106.477 E.01643
G1 X124.523 Y123.455 E.73875
G1 X124.523 Y123.989 E.01643
G1 X107.011 Y106.477 E.76199
G1 X106.477 Y106.477 E.01643
G1 X124.523 Y124.523 E.78522
G1 X123.989 Y124.523 E.01643
G1 X106.477 Y107.011 E.76199
G1 X106.477 Y107.545 E.01643
G1 X123.455 Y124.523 E.73875
G1 X122.921 Y124.523 E.01643
G1 X106.477 Y108.079 E.71552
G1 X106.477 Y108.613 E.01643
G1 X122.387 Y124.523 E.69228
G1 X121.853 Y124.523 E.01643
G1 X106.477 Y109.147 E.66905
G1 X106.477 Y109.681 E.01643
G1 X121.319 Y124.523 E.64581
G1 X120.785 Y124.523 E.01643
G1 X106.477 Y110.215 E.62258
G1 X106.477 Y110.749 E.01643
G1 X120.251 Y124.523 E.59934
G1 X119.717 Y124.523 E.01643
G1 X106.477 Y111.283 E.5761
G1 X106.477 Y111.817 E.01643
G1 X119.183 Y124.523 E.55287
G1 X118.649 Y124.523 E.01643
G1 X106.477 Y112.351 E.52963
G1 X106.477 Y112.885 E.01643
G1 X118.115 Y124.523 E.5064
G1 X117.581 Y124.523 E.01643
G1 X106.477 Y113.419 E.48316
G1 X106.477 Y113.953 E.01643
G1 X117.047 Y124.523 E.45993
G1 X116.513 Y124.523 E.01643
G1 X106.477 Y114.487 E.43669
G1 X106.477 Y115.021 E.01643
G1 X115.979 Y124.523 E.41345
G1 X115.445 Y124.523 E.01643
G1 X106.477 Y115.555 E.39022
G1 X106.477 Y116.089 E.01643
G1 X114.911 Y124.523 E.36698
G1 X114.377 Y124.523 E.01643
G1 X106.477 Y116.623 E.34375
G1 X106.477 Y117.157 E.01643
G1 X113.843 Y124.523 E.32051
G1 X113.309 Y124.523 E.01643
G1 X106.477 Y117.691 E.29728
G1 X106.477 Y118.225 E.01643
G1 X112.775 Y124.523 E.27404
G1 X112.241 Y124.523 E.01643
G1 X106.477 Y118.759 E.25081
G1 X106.477 Y119.293 E.01643
G1 X111.707 Y124.523 E.22757
G1 X111.173 Y124.523 E.01643
G1 X106.477 Y119.827 E.20433
G1 X106.477 Y120.361 E.01643
G1 X110.639 Y124.523 E.1811
G1 X110.105 Y124.523 E.01643
G1 X106.477 Y120.895 E.15786
G1 X106.477 Y121.429 E.01643
G1 X109.571 Y124.523 E.13463
G1 X109.037 Y124.523 E.01643
G1 X106.477 Y121.963 E.11139
G1 X106.477 Y122.497 E.01643
G1 X108.503 Y124.523 E.08816
G1 X107.969 Y124.523 E.01643
G1 X106.477 Y123.031 E.06492
G1 X106.477 Y123.565 E.01643
G1 X107.435 Y124.523 E.04168
G1 X106.901 Y124.523 E.01643
G1 X106.308 Y123.929 E.02582
M106 S255
;LAYER_CHANGE
;Z:0.4
;HEIGHT:0.2
;BEFORE_LAYER_CHANGE
G92 E0
;0.4


G1 E-1.12 F2400
;WIPE_START
G1 F4800
G1 X106.901 Y124.523 E-.39868
G1 X107.072 Y124.523 E-.08132
;WIPE_END
G1 Z.4 F6000
;AFTER_LAYER_CHANGE
;0.4
G1 Z.4
G1 X106.097 Y124.903
G1 E1.6 F2400
;TYPE:Perimeter
;WIDTH:0.44
G1 F2160
G1 X106.097 Y106.097 E.6085
G1 X124.903 Y106.097 E.6085
G1 X124.903 Y124.903 E.6085
G1 X106.157 Y124.903 E.60656
G1 X105.71 Y125.29 F6000
;TYPE:External perimeter
;WIDTH:0.42
G1 F1800
G1 X105.71 Y105.71 E.60164
G1 X125.29 Y105.71 E.60164
G1 X125.29 Y125.29 E.60164
G1 X105.77 Y125.29 E.5998
G1 E-1.12 F2400
;WIPE_START
G1 F4800
G1 X105.71 Y125.29 E-.0285
G1 X105.71 Y124.339 E-.4515
;WIPE_END
G1 X106.511 Y106.435 F6000
G1 E1.6 F2400
;TYPE:Solid infill
;WIDTH:0.53634
G1 F2700
G1 X106.467 Y106.391 E.0025
G1 X106.407 Y106.407 E.0025
G1 X106.391 Y106.467 E.0025
G1 X106.435 Y106.511 E.0025
G1 X106.495 Y106.495 E.0025
;WIDTH:0.439999
G1 X106.403 Y107.129 E.02073
G1 X107.129 Y106.403 E.03322
G1 X107.69 Y106.403 E.01815
G1 X106.403 Y107.69 E.05889
G1 X106.403 Y108.252 E.01818
G1 X108.252 Y106.403 E.08461
G1 X108.814 Y106.403 E.01818
G1 X106.403 Y108.814 E.11033
G1 X106.403 Y109.375 E.01815
G1 X109.375 Y106.403 E.136
G1 X109.937 Y106.403 E.01818
G1 X106.403 Y109.937 E.16171
G1 X106.403 Y110.498 E.01815
G1 X110.498 Y106.403 E.18739
G1 X111.06 Y106.403 E.01818
G1 X106.403 Y111.06 E.2131
G1 X106.403 Y111.621 E.01815
G1 X111.621 Y106.403 E.23877
G1 X112.183 Y106.403 E.01818
G1 X106.403 Y112.183 E.26449
G1 X106.403 Y112.744 E.01815
G1 X112.744 Y106.403 E.29016
G1 X113.306 Y106.403 E.01818
G1 X106.403 Y113.306 E.31588
G1 X106.403 Y113.868 E.01818
G1 X113.868 Y106.403 E.3416
G1 X114.429 Y106.403 E.01815
G1 X106.403 Y114.429 E.36727
G1 X106.403 Y114.991 E.01818
G1 X114.991 Y106.403 E.39298
G1 X115.552 Y106.403 E.01815
G1 X106.403 Y115.552 E.41865
G1 X106.403 Y116.114 E.01818
G1 X116.114 Y106.403 E.44437
G1 X116.675 Y106.403 E.01815
G1 X106.403 Y116.675 E.47004
G1 X106.403 Y117.237 E.01818
G1 X117.237 Y106.403 E.49576
G1 X117.798 Y106.403 E.01815
G1 X106.403 Y117.798 E.52143
G1 X106.403 Y118.36 E.01818
G1 X118.36 Y106.403 E.54715
G1 X118.922 Y106.403 E.01818
G1 X106.403 Y118.921 E.57284
G1 X106.403 Y119.483 E.01818
G1 X119.483 Y106.403 E.59854
G1 X120.045 Y106.403 E.01818
G1 X106.403 Y120.045 E.62425
G1 X106.403 Y120.606 E.01815
G1 X120.606 Y106.403 E.64992
G1 X121.168 Y106.403 E.01818
G1 X106.403 Y121.168 E.67564
G1 X106.403 Y121.729 E.01815
G1 X121.729 Y106.403 E.70131
G1 X122.291 Y106.403 E.01818
G1 X106.403 Y122.291 E.72703
G1 X106.403 Y122.852 E.01815
G1 X122.852 Y106.403 E.7527
G1 X123.414 Y106.403 E.01818
G1 X106.403 Y123.414 E.77842
G1 X106.403 Y123.975 E.01815
G1 X123.976 Y106.403 E.80411
G1 X124.537 Y106.403 E.01815
G1 X106.403 Y124.537 E.8298
G1 X106.333 Y124.637 E.00395
;WIDTH:0.41146
G1 X106.263 Y124.737 E.00367
;WIDTH:0.38292
G1 X106.404 Y124.745 E.00391
;WIDTH:0.439999
G1 X106.904 Y124.597 E.01687
G1 X124.597 Y106.904 E.80962
G1 X124.597 Y107.466 E.01818
G1 X107.466 Y124.597 E.78391
G1 X108.027 Y124.597 E.01815
G1 X124.597 Y108.027 E.75824
G1 X124.597 Y108.589 E.01818
G1 X108.589 Y124.597 E.73252
G1 X109.15 Y124.597 E.01815
G1 X124.597 Y109.15 E.70685
G1 X124.597 Y109.712 E.01818
G1 X109.712 Y124.597 E.68113
G1 X110.274 Y124.597 E.01818
G1 X124.597 Y110.274 E.65541
G1 X124.597 Y110.835 E.01815
G1 X110.835 Y124.597 E.62974
G1 X111.397 Y124.597 E.01818
G1 X124.597 Y111.397 E.60403
G1 X124.597 Y111.958 E.01815
G1 X111.958 Y124.597 E.57836
G1 X112.52 Y124.597 E.01818
G1 X124.597 Y112.52 E.55264
G1 X124.597 Y113.081 E.01815
G1 X113.081 Y124.597 E.52697
G1 X113.643 Y124.597 E.01818
G1 X124.597 Y113.643 E.50125
G1 X124.597 Y114.204 E.01815
G1 X114.204 Y124.597 E.47558
G1 X114.766 Y124.597 E.01818
G1 X124.597 Y114.766 E.44986
G1 X124.597 Y115.328 E.01818
G1 X115.328 Y124.597 E.42415
G1 X115.889 Y124.597 E.01815
G1 X124.597 Y115.889 E.39847
G1 X124.597 Y116.451 E.01818
G1 X116.451 Y124.597 E.37276
G1 X117.012 Y124.597 E.01815
G1 X124.597 Y117.012 E.34709
G1 X124.597 Y117.574 E.01818
G1 X117.574 Y124.597 E.32137
G1 X118.135 Y124.597 E.01815
G1 X124.597 Y118.135 E.2957
G1 X124.597 Y118.697 E.01818
G1 X118.697 Y124.597 E.26998
G1 X119.258 Y124.597 E.01815
G1 X124.597 Y119.258 E.24431
G1 X124.597 Y119.82 E.01818
G1 X119.82 Y124.597 E.21859
G1 X120.382 Y124.597 E.01818
G1 X124.597 Y120.382 E.19288
G1 X124.597 Y120.943 E.01815
G1 X120.943 Y124.597 E.16721
G1 X121.505 Y124.597 E.01818
G1 X124.597 Y121.505 E.14149
G1 X124.597 Y122.066 E.01815
G1 X122.066 Y124.597 E.11582
G1 X122.628 Y124.597 E.01818
G1 X124.597 Y122.628 E.0901
G1 X124.597 Y123.189 E.01815
G1 X123.189 Y124.597 E.06443
G1 X123.751 Y124.597 E.01818
G1 X124.597 Y123.751 E.03871
G1 X124.597 Y124.312 E.01815
G1 X124.312 Y124.597 E.01304
;LAYER_CHANGE
;Z:0.6
;HEIGHT:0.2
;BEFORE_LAYER_CHANGE
G92 E0
;0.6


G1 E-1.12 F2400
;WIPE_START
G1 F4800
G1 X124.597 Y124.312 E-.19145
G1 X124.597 Y123.751 E-.26647
G1 X124.564 Y123.784 E-.02208
;WIPE_END
G1 Z.6 F6000
;AFTER_LAYER_CHANGE
;0.6
G1 Z.6
G1 X124.903 Y124.903
G1 E1.6 F2400
;TYPE:Perimeter
;WIDTH:0.44
G1 F2160
G1 X106.097 Y124.903 E.6085
G1 X106.097 Y106.097 E.6085
G1 X124.903 Y106.097 E.6085
G1 X124.903 Y124.843 E.60656
G1 X125.29 Y125.29 F6000
;TYPE:External perimeter
;WIDTH:0.42
G1 F1800
G1 X105.71 Y125.29 E.60164
G1 X105.71 Y105.71 E.60164
G1 X125.29 Y105.71 E.60164
G1 X125.29 Y125.23 E.5998
G1 E-1.12 F2400
;WIPE_START
G1 F4800
G1 X125.29 Y125.29 E-.0285
G1 X124.339 Y125.29 E-.4515
;WIPE_END
G1 X106.435 Y124.489 F6000
G1 E1.6 F2400
;TYPE:Solid infill
;WIDTH:0.53634
G1 F2700
G1 X106.391 Y124.533 E.0025
G1 X106.407 Y124.593 E.0025
G1 X106.467 Y124.609 E.0025
G1 X106.511 Y124.565 E.0025
G1 X106.495 Y124.505 E.0025
;WIDTH:0.439999
G1 X106.403 Y123.871 E.02073
G1 X107.129 Y124.597 E.03322
G1 X107.69 Y124.597 E.01815
G1 X106.403 Y123.31 E.05889
G1 X106.403 Y122.748 E.01818
G1 X108.252 Y124.597 E.08461
G1 X108.814 Y124.597 E.01818
G1 X106.403 Y122.186 E.11033
G1 X106.403 Y121.625 E.01815
G1 X109.375 Y124.597 E.136
G1 X109.937 Y124.597 E.01818
G1 X106.403 Y121.063 E.16171
G1 X106.403 Y120.502 E.01815
G1 X110.498 Y124.597 E.18739
G1 X111.06 Y124.597 E.01818
G1 X106.403 Y119.94 E.2131
G1 X106.403 Y119.379 E.01815
G1 X111.621 Y124.597 E.23877
G1 X112.183 Y124.597 E.01818
G1 X106.403 Y118.817 E.26449
G1 X106.403 Y118.256 E.01815
G1 X112.744 Y124.597 E.29016
G1 X113.306 Y124.597 E.01818
G1 X106.403 Y117.694 E.31588
G1 X106.403 Y117.132 E.01818
G1 X113.868 Y124.597 E.3416
G1 X114.429 Y124.597 E.01815
G1 X106.403 Y116.571 E.36727
G1 X106.403 Y116.009 E.01818
G1 X114.991 Y124.597 E.39298
G1 X115.552 Y124.597 E.01815
G1 X106.403 Y115.448 E.41865
G1 X106.403 Y114.886 E.01818
G1 X116.114 Y124.597 E.44437
G1 X116.675 Y124.597 E.01815
G1 X106.403 Y114.325 E.47004
G1 X106.403 Y113.763 E.01818
G1 X117.237 Y124.597 E.49576
G1 X117.798 Y124.597 E.01815
G1 X106.403 Y113.202 E.52143
G1 X106.403 Y112.64 E.01818
G1 X118.36 Y124.597 E.54715
G1 X118.922 Y124.597 E.01818
G1 X106.403 Y112.078 E.57286
G1 X106.403 Y111.517 E.01815
G1 X119.483 Y124.597 E.59854
G1 X120.045 Y124.597 E.01818
G1 X106.403 Y110.955 E.62425
G1 X106.403 Y110.394 E.01815
G1 X120.606 Y124.597 E.64992
G1 X121.168 Y124.597 E.01818
G1 X106.403 Y109.832 E.67564
G1 X106.403 Y109.271 E.01815
G1 X121.729 Y124.597 E.70131
G1 X122.291 Y124.597 E.01818
G1 X106.403 Y108.709 E.72703
G1 X106.403 Y108.148 E.01815
G1 X122.852 Y124.597 E.7527
G1 X123.414 Y124.597 E.01818
G1 X106.403 Y107.586 E.77842
G1 X106.403 Y107.024 E.01818
G1 X123.975 Y124.597 E.80411
G1 X124.745 Y124.596 E.02491
;WIDTH:0.38292
G1 X124.737 Y124.737 E.00391
;WIDTH:0.41146
G1 X124.637 Y124.667 E.00367
;WIDTH:0.439999
G1 X124.537 Y124.597 E.00395
G1 X106.403 Y106.463 E.8298
G1 X106.904 Y106.403 E.01633
G1 X124.597 Y124.096 E.80962
G1 X124.597 Y123.534 E.01818
G1 X107.466 Y106.403 E.78391
G1 X108.027 Y106.403 E.01815
G1 X124.597 Y122.973 E.75824
G1 X124.597 Y122.411 E.01818
G1 X108.589 Y106.403 E.73252
G1 X109.15 Y106.403 E.01815
G1 X124.597 Y121.85 E.70685
G1 X124.597 Y121.288 E.01818
G1 X109.712 Y106.403 E.68113
G1 X110.274 Y106.403 E.01818
G1 X124.597 Y120.726 E.65541
G1 X124.597 Y120.165 E.01815
G1 X110.835 Y106.403 E.62974
G1 X111.397 Y106.403 E.01818
G1 X124.597 Y119.603 E.60403
G1 X124.597 Y119.042 E.01815
G1 X111.958 Y106.403 E.57836
G1 X112.52 Y106.403 E.01818
G1 X124.597 Y118.48 E.55264
G1 X124.597 Y117.919 E.01815
G1 X113.081 Y106.403 E.52697
G1 X113.643 Y106.403 E.01818
