; generated by PrusaSlicer 2.7.0+win64 on 2023-12-12 at 12:01:58 UTC

; 

; external perimeters extrusion width = 0.42mm
; perimeters extrusion width = 0.44mm
; infill extrusion width = 0.44mm
; solid infill extrusion width = 0.44mm
; top infill extrusion width = 0.40mm
; first layer extrusion width = 0.42mm


; printing object xyzCalibration_cube.stl id:0 copy 0
; stop printing object xyzCalibration_cube.stl id:0 copy 0

;TYPE:Custom
; Ender 3 Custom Start G-code
G92 E0 ; Reset Extruder

M140 S50 ; set bed temp
M190 S50 ; wait for bed temp

G28 ; Home all axes
M104 S205 ; set extruder temp 
BED_MESH_CALIBRATE AREA_START=102.12,102.12 AREA_END=128.88,128.88

G1 Z2.0 F3000 ; Move Z Axis up little to prevent scratching of Heat Bed
M109 S205 ; wait for extruder temp
G1 X0.1 Y20 Z0.3 F5000.0 ; Move to start position

G1 X0.1 Y200.0 Z0.3 F1500.0 E15 ; Draw the first line
G1 X0.4 Y200.0 Z0.3 F5000.0 ; Move to side a little
G1 X0.4 Y20 Z0.3 F1500.0 E30 ; Draw the second line
G92 E0 ; Reset Extruder
G1 Z2.0 F3000 ; Move Z Axis up little to prevent scratching of Heat Bed
G1 X5 Y20 Z0.3 F5000.0 ; Move over to prevent blob squish
G21 ; set units to millimeters
G90 ; use absolute coordinates
M83 ; use relative distances for extrusion
; Filament gcode
M107
;LAYER_CHANGE
;Z:0.12
;HEIGHT:0.12
;BEFORE_LAYER_CHANGE
G92 E0
;0.12


G1 E-1.6 F2400
G1 Z.12 F6000
;AFTER_LAYER_CHANGE
;0.12
G1 X103.795 Y102.813
G1 Z.12
G1 E1.6 F2400
M204 S500
;TYPE:Skirt/Brim
;WIDTH:0.42
G1 F1200
G1 X105.5 Y102.317 E.03283
G1 X125.5 Y102.317 E.36978
G1 X127.033 Y102.711 E.02926
G1 X128.187 Y103.795 E.02927
G1 X128.683 Y105.5 E.03283
G1 X128.683 Y125.5 E.36978
G1 X128.289 Y127.033 E.02926
G1 X127.205 Y128.187 E.02927
G1 X125.5 Y128.683 E.03283
G1 X105.5 Y128.683 E.36978
G1 X103.967 Y128.289 E.02926
G1 X102.813 Y127.205 E.02927
G1 X102.317 Y125.5 E.03283
G1 X102.317 Y105.5 E.36978
G1 X102.711 Y103.967 E.02926
G1 X103.754 Y102.856 E.02817
G1 X104.05 Y103.165 F6000
G1 F1200
G1 X104.172 Y103.048 E.00313
G1 X105.5 Y102.712 E.02533
G1 X125.5 Y102.712 E.36978
G1 X126.927 Y103.104 E.02736
G1 X127.952 Y104.172 E.02737
G1 X128.288 Y105.5 E.02533
G1 X128.288 Y125.5 E.36978
G1 X127.896 Y126.927 E.02736
G1 X126.828 Y127.952 E.02737
G1 X125.5 Y128.288 E.02533
G1 X105.5 Y128.288 E.36978
G1 X104.073 Y127.896 E.02736
G1 X103.048 Y126.828 E.02737
G1 X102.712 Y125.5 E.02533
G1 X102.712 Y105.5 E.36978
G1 X103.104 Y104.073 E.02736
G1 X104.007 Y103.207 E.02313
G1 X104.279 Y103.529 F6000
G1 F1200
G1 X104.544 Y103.305 E.00642
G1 X105.5 Y103.106 E.01805
G1 X125.5 Y103.106 E.36978
G1 X126.812 Y103.497 E.02531
G1 X127.695 Y104.544 E.02532
G1 X127.894 Y105.5 E.01805
G1 X127.894 Y125.5 E.36978
G1 X127.503 Y126.812 E.02531
G1 X126.456 Y127.695 E.02532
G1 X125.5 Y127.894 E.01805
G1 X105.5 Y127.894 E.36978
G1 X104.188 Y127.503 E.02531
G1 X103.305 Y126.456 E.02532
G1 X103.106 Y125.5 E.01805
G1 X103.106 Y105.5 E.36978
G1 X103.497 Y104.188 E.02531
G1 X104.233 Y103.568 E.01779
; printing object xyzCalibration_cube.stl id:0 copy 0
G1 E-1.12 F2400
;WIPE_START
G1 F4800
G1 X104.279 Y103.529 E-.02865
G1 X104.544 Y103.305 E-.16482
G1 X105.135 Y103.182 E-.28653
;WIPE_END
G1 X106.204 Y106.204 F6000
G1 E1.6 F2400
;TYPE:Perimeter
G1 F1200
G1 X124.796 Y106.204 E.34375
G1 X124.796 Y124.796 E.34375
G1 X106.204 Y124.796 E.34375
G1 X106.204 Y106.264 E.34264
G1 X105.81 Y105.81 F6000
;TYPE:External perimeter
G1 F1200
G1 X125.19 Y105.81 E.35832
G1 X125.19 Y125.19 E.35832
G1 X105.81 Y125.19 E.35832
G1 X105.81 Y105.87 E.35721
G1 E-1.12 F2400
;WIPE_START
G1 F4800
G1 X105.81 Y105.81 E-.0285
G1 X106.761 Y105.81 E-.4515
;WIPE_END
G1 X123.861 Y106.33 F6000
G1 E1.6 F2400
;TYPE:Solid infill
;WIDTH:0.425617
G1 F1200
G1 X124.492 Y106.962 E.01675
G1 X124.492 Y107.527 E.0106
G1 X123.473 Y106.508 E.02702
G1 X122.907 Y106.508 E.01061
G1 X124.492 Y108.093 E.04203
G1 X124.492 Y108.658 E.0106
G1 X122.342 Y106.508 E.05702
G1 X121.776 Y106.508 E.01061
G1 X124.492 Y109.224 E.07203
G1 X124.492 Y109.789 E.0106
G1 X121.211 Y106.508 E.08701
G1 X120.645 Y106.508 E.01061
G1 X124.492 Y110.355 E.10202
G1 X124.492 Y110.92 E.0106
G1 X120.08 Y106.508 E.11701
G1 X119.514 Y106.508 E.01061
G1 X124.492 Y111.486 E.13202
G1 X124.492 Y112.051 E.0106
G1 X118.949 Y106.508 E.147
G1 X118.383 Y106.508 E.01061
G1 X124.492 Y112.617 E.16201
G1 X124.492 Y113.182 E.0106
G1 X117.818 Y106.508 E.17699
G1 X117.252 Y106.508 E.01061
G1 X124.492 Y113.748 E.192
G1 X124.492 Y114.313 E.0106
G1 X116.687 Y106.508 E.20699
G1 X116.121 Y106.508 E.01061
G1 X124.492 Y114.879 E.222
G1 X124.492 Y115.444 E.0106
G1 X115.556 Y106.508 E.23698
G1 X114.99 Y106.508 E.01061
G1 X124.492 Y116.01 E.25199
G1 X124.492 Y116.575 E.0106
G1 X114.425 Y106.508 E.26698
G1 X113.859 Y106.508 E.01061
G1 X124.492 Y117.141 E.28199
G1 X124.492 Y117.706 E.0106
G1 X113.294 Y106.508 E.29697
G1 X112.728 Y106.508 E.01061
G1 X124.492 Y118.272 E.31198
G1 X124.492 Y118.837 E.0106
G1 X112.163 Y106.508 E.32696
G1 X111.597 Y106.508 E.01061
G1 X124.492 Y119.403 E.34197
G1 X124.492 Y119.968 E.0106
G1 X111.032 Y106.508 E.35696
G1 X110.466 Y106.508 E.01061
G1 X124.492 Y120.534 E.37197
G1 X124.492 Y121.099 E.0106
G1 X109.901 Y106.508 E.38695
G1 X109.335 Y106.508 E.01061
G1 X124.492 Y121.665 E.40196
G1 X124.492 Y122.23 E.0106
G1 X108.77 Y106.508 E.41695
G1 X108.204 Y106.508 E.01061
G1 X124.492 Y122.796 E.43196
G1 X124.492 Y123.361 E.0106
G1 X107.639 Y106.508 E.44694
G1 X107.073 Y106.508 E.01061
G1 X124.492 Y123.927 E.46195
G1 X124.492 Y124.492 E.0106
G1 X106.508 Y106.508 E.47693
G1 X106.508 Y107.073 E.0106
G1 X123.927 Y124.492 E.46195
G1 X123.361 Y124.492 E.01061
G1 X106.508 Y107.639 E.44694
G1 X106.508 Y108.204 E.0106
G1 X122.796 Y124.492 E.43196
G1 X122.23 Y124.492 E.01061
G1 X106.508 Y108.77 E.41695
G1 X106.508 Y109.335 E.0106
G1 X121.665 Y124.492 E.40196
G1 X121.099 Y124.492 E.01061
G1 X106.508 Y109.901 E.38695
G1 X106.508 Y110.466 E.0106
G1 X120.534 Y124.492 E.37197
G1 X119.968 Y124.492 E.01061
G1 X106.508 Y111.032 E.35696
G1 X106.508 Y111.597 E.0106
G1 X119.403 Y124.492 E.34197
G1 X118.837 Y124.492 E.01061
G1 X106.508 Y112.163 E.32696
G1 X106.508 Y112.728 E.0106
G1 X118.272 Y124.492 E.31198
G1 X117.706 Y124.492 E.01061
G1 X106.508 Y113.294 E.29697
G1 X106.508 Y113.859 E.0106
G1 X117.141 Y124.492 E.28199
G1 X116.575 Y124.492 E.01061
G1 X106.508 Y114.425 E.26698
G1 X106.508 Y114.99 E.0106
G1 X116.01 Y124.492 E.25199
G1 X115.444 Y124.492 E.01061
G1 X106.508 Y115.556 E.23698
G1 X106.508 Y116.121 E.0106
G1 X114.879 Y124.492 E.222
G1 X114.313 Y124.492 E.01061
G1 X106.508 Y116.687 E.20699
G1 X106.508 Y117.252 E.0106
G1 X113.748 Y124.492 E.192
G1 X113.182 Y124.492 E.01061
G1 X106.508 Y117.818 E.17699
G1 X106.508 Y118.383 E.0106
G1 X112.617 Y124.492 E.16201
G1 X112.051 Y124.492 E.01061
G1 X106.508 Y118.949 E.147
G1 X106.508 Y119.514 E.0106
G1 X111.486 Y124.492 E.13202
G1 X110.92 Y124.492 E.01061
G1 X106.508 Y120.08 E.11701
G1 X106.508 Y120.645 E.0106
G1 X110.355 Y124.492 E.10202
G1 X109.789 Y124.492 E.01061
G1 X106.508 Y121.211 E.08701
G1 X106.508 Y121.776 E.0106
G1 X109.224 Y124.492 E.07203
G1 X108.658 Y124.492 E.01061
G1 X106.508 Y122.342 E.05702
G1 X106.508 Y122.907 E.0106
G1 X108.093 Y124.492 E.04203
G1 X107.527 Y124.492 E.01061
G1 X106.508 Y123.473 E.02702
G1 X106.508 Y124.038 E.0106
G1 X107.139 Y124.67 E.01675
; stop printing object xyzCalibration_cube.stl id:0 copy 0
M106 S255
;LAYER_CHANGE
;Z:0.24
;HEIGHT:0.12
;BEFORE_LAYER_CHANGE
G92 E0
;0.24


G1 E-1.12 F2400
;WIPE_START
G1 F4800
G1 X106.508 Y124.038 E-.42421
G1 X106.508 Y123.92 E-.05579
;WIPE_END
G1 Z.24 F6000
;AFTER_LAYER_CHANGE
;0.24
; printing object xyzCalibration_cube.stl id:0 copy 0
G1 X106.114 Y124.886
G1 E1.6 F2400
;TYPE:Perimeter
;WIDTH:0.44
G1 F2160
G1 X106.114 Y106.114 E.36468
G1 X124.886 Y106.114 E.36468
G1 X124.886 Y124.886 E.36468
G1 X106.174 Y124.886 E.36352
G1 X105.71 Y125.29 F6000
;TYPE:External perimeter
;WIDTH:0.42
G1 F1800
G1 X105.71 Y105.71 E.36201
G1 X125.29 Y105.71 E.36201
G1 X125.29 Y125.29 E.36201
G1 X105.77 Y125.29 E.3609
G1 E-1.12 F2400
;WIPE_START
G1 F4800
G1 X105.71 Y125.29 E-.0285
G1 X105.71 Y124.339 E-.4515
;WIPE_END
G1 X106.546 Y106.467 F6000
G1 E1.6 F2400
;TYPE:Solid infill
;WIDTH:0.540506
G1 F2700
G1 X106.5 Y106.421 E.00157
G1 X106.438 Y106.438 E.00155
G1 X106.421 Y106.5 E.00155
G1 X106.467 Y106.546 E.00157
G1 X106.529 Y106.529 E.00155
;WIDTH:0.439999
G1 X106.433 Y107.191 E.013
G1 X107.191 Y106.433 E.02083
G1 X107.285 Y106.36 E.00231
;WIDTH:0.402876
G1 X107.38 Y106.286 E.00213
;WIDTH:0.365752
G1 X107.339 Y106.297 E.00068
G1 X107.32 Y106.226 E.00117
G1 X107.391 Y106.245 E.00117
;WIDTH:0.439999
G1 X107.776 Y106.433 E.00832
G1 X106.433 Y107.776 E.0369
G1 X106.433 Y108.362 E.01138
G1 X108.362 Y106.433 E.053
G1 X108.948 Y106.433 E.01138
G1 X106.433 Y108.948 E.0691
G1 X106.433 Y109.534 E.01138
G1 X109.534 Y106.433 E.0852
G1 X110.12 Y106.433 E.01138
G1 X106.433 Y110.12 E.1013
G1 X106.433 Y110.706 E.01138
G1 X110.706 Y106.433 E.1174
G1 X111.291 Y106.433 E.01136
G1 X106.433 Y111.291 E.13347
G1 X106.433 Y111.877 E.01138
G1 X111.877 Y106.433 E.14957
G1 X112.463 Y106.433 E.01138
G1 X106.433 Y112.463 E.16567
G1 X106.433 Y113.049 E.01138
G1 X113.049 Y106.433 E.18177
G1 X113.635 Y106.433 E.01138
G1 X106.433 Y113.635 E.19787
G1 X106.433 Y114.221 E.01138
G1 X114.221 Y106.433 E.21397
G1 X114.806 Y106.433 E.01136
G1 X106.433 Y114.806 E.23004
G1 X106.433 Y115.392 E.01138
G1 X115.392 Y106.433 E.24614
G1 X115.978 Y106.433 E.01138
G1 X106.433 Y115.978 E.26224
G1 X106.433 Y116.564 E.01138
G1 X116.564 Y106.433 E.27834
G1 X117.15 Y106.433 E.01138
G1 X106.433 Y117.15 E.29444
G1 X106.433 Y117.736 E.01138
G1 X117.736 Y106.433 E.31054
G1 X118.321 Y106.433 E.01136
G1 X106.433 Y118.321 E.32661
G1 X106.433 Y118.907 E.01138
G1 X118.907 Y106.433 E.34271
G1 X119.493 Y106.433 E.01138
G1 X106.433 Y119.493 E.35881
G1 X106.433 Y120.079 E.01138
G1 X120.079 Y106.433 E.37491
G1 X120.665 Y106.433 E.01138
G1 X106.433 Y120.665 E.39101
G1 X106.433 Y121.251 E.01138
G1 X121.251 Y106.433 E.40711
G1 X121.836 Y106.433 E.01136
G1 X106.433 Y121.836 E.42318
G1 X106.433 Y122.422 E.01138
G1 X122.422 Y106.433 E.43928
G1 X123.008 Y106.433 E.01138
G1 X106.433 Y123.008 E.45538
G1 X106.433 Y123.594 E.01138
G1 X123.594 Y106.433 E.47148
G1 X124.18 Y106.433 E.01138
G1 X106.433 Y124.18 E.48758
G1 X106.377 Y124.653 E.00925
;WIDTH:0.365752
G1 X106.306 Y124.634 E.00117
G1 X106.325 Y124.705 E.00117
G1 X106.366 Y124.694 E.00068
;WIDTH:0.402876
G1 X106.499 Y124.63 E.00261
;WIDTH:0.439999
G1 X106.632 Y124.567 E.00286
G1 X124.567 Y106.632 E.49274
G1 X124.63 Y106.499 E.00286
;WIDTH:0.402876
G1 X124.694 Y106.366 E.00261
;WIDTH:0.365752
G1 X124.653 Y106.377 E.00068
G1 X124.634 Y106.306 E.00117
G1 X124.705 Y106.325 E.00117
G1 X124.567 Y107.218 F6000
;WIDTH:0.439999
G1 F2700
G1 X107.218 Y124.567 E.47664
G1 X107.804 Y124.567 E.01138
G1 X124.567 Y107.804 E.46054
G1 X124.567 Y108.39 E.01138
G1 X108.39 Y124.567 E.44444
G1 X108.975 Y124.567 E.01136
G1 X124.567 Y108.975 E.42837
G1 X124.567 Y109.561 E.01138
G1 X109.561 Y124.567 E.41227
G1 X110.147 Y124.567 E.01138
G1 X124.567 Y110.147 E.39617
G1 X124.567 Y110.733 E.01138
G1 X110.733 Y124.567 E.38007
G1 X111.319 Y124.567 E.01138
G1 X124.567 Y111.319 E.36397
G1 X124.567 Y111.905 E.01138
G1 X111.905 Y124.567 E.34787
G1 X112.49 Y124.567 E.01136
G1 X124.567 Y112.49 E.3318
G1 X124.567 Y113.076 E.01138
G1 X113.076 Y124.567 E.3157
G1 X113.662 Y124.567 E.01138
G1 X124.567 Y113.662 E.2996
G1 X124.567 Y114.248 E.01138
G1 X114.248 Y124.567 E.2835
G1 X114.834 Y124.567 E.01138
G1 X124.567 Y114.834 E.2674
G1 X124.567 Y115.42 E.01138
G1 X115.42 Y124.567 E.2513
G1 X116.005 Y124.567 E.01136
G1 X124.567 Y116.005 E.23523
G1 X124.567 Y116.591 E.01138
G1 X116.591 Y124.567 E.21913
G1 X117.177 Y124.567 E.01138
G1 X124.567 Y117.177 E.20303
G1 X124.567 Y117.763 E.01138
G1 X117.763 Y124.567 E.18693
G1 X118.349 Y124.567 E.01138
G1 X124.567 Y118.349 E.17083
G1 X124.567 Y118.935 E.01138
G1 X118.935 Y124.567 E.15473
G1 X119.52 Y124.567 E.01136
G1 X124.567 Y119.52 E.13866
G1 X124.567 Y120.106 E.01138
G1 X120.106 Y124.567 E.12256
G1 X120.692 Y124.567 E.01138
G1 X124.567 Y120.692 E.10646
G1 X124.567 Y121.278 E.01138
G1 X121.278 Y124.567 E.09036
G1 X121.864 Y124.567 E.01138
G1 X124.567 Y121.864 E.07426
G1 X124.567 Y122.45 E.01138
G1 X122.45 Y124.567 E.05816
G1 X123.035 Y124.567 E.01136
G1 X124.567 Y123.035 E.04209
G1 X124.567 Y123.621 E.01138
G1 X123.621 Y124.567 E.02599
G1 X124.207 Y124.567 E.01138
G1 X124.567 Y124.207 E.00989
G1 X124.67 Y124.143 E.00236
;WIDTH:0.402876
G1 X124.774 Y124.078 E.00217
;WIDTH:0.365752
G1 X124.733 Y124.089 E.00068
G1 X124.714 Y124.018 E.00117
G1 X124.785 Y124.037 E.00117
; stop printing object xyzCalibration_cube.stl id:0 copy 0
;LAYER_CHANGE
;Z:0.36
;HEIGHT:0.12
;BEFORE_LAYER_CHANGE
G92 E0
;0.36


G1 E-1.12 F2400
;WIPE_START
G1 F4800
G1 X124.714 Y124.018 E-.03491
G1 X124.733 Y124.089 E-.03491
G1 X124.774 Y124.078 E-.02016
;WIPE_END
G1 E-.39002 F2400
G1 Z.36 F6000
;AFTER_LAYER_CHANGE
;0.36
; printing object xyzCalibration_cube.stl id:0 copy 0
G1 X124.886 Y124.886
G1 E1.6 F2400
;TYPE:Perimeter
;WIDTH:0.44
G1 F2160
G1 X106.114 Y124.886 E.36468
G1 X106.114 Y106.114 E.36468
G1 X124.886 Y106.114 E.36468
G1 X124.886 Y124.826 E.36352
G1 X125.29 Y125.29 F6000
;TYPE:External perimeter
;WIDTH:0.42
G1 F1800
G1 X105.71 Y125.29 E.36201
G1 X105.71 Y105.71 E.36201
G1 X125.29 Y105.71 E.36201
G1 X125.29 Y125.23 E.3609
G1 E-1.12 F2400
;WIPE_START
G1 F4800
G1 X125.29 Y125.29 E-.0285
G1 X124.339 Y125.29 E-.4515
;WIPE_END
G1 X106.467 Y124.454 F6000
G1 E1.6 F2400
;TYPE:Solid infill
;WIDTH:0.540506
G1 F2700
G1 X106.421 Y124.5 E.00157
G1 X106.438 Y124.562 E.00155
G1 X106.5 Y124.579 E.00155
G1 X106.546 Y124.533 E.00157
G1 X106.529 Y124.471 E.00155
;WIDTH:0.439999
G1 X106.433 Y123.809 E.013
G1 X107.191 Y124.567 E.02083
G1 X107.776 Y124.567 E.01136
G1 X106.433 Y123.224 E.0369
G1 X106.433 Y122.638 E.01138
G1 X108.362 Y124.567 E.053
G1 X108.948 Y124.567 E.01138
G1 X106.433 Y122.052 E.0691
G1 X106.433 Y121.466 E.01138
G1 X109.534 Y124.567 E.0852
G1 X110.12 Y124.567 E.01138
G1 X106.433 Y120.88 E.1013
G1 X106.433 Y120.294 E.01138
G1 X110.706 Y124.567 E.1174
G1 X111.291 Y124.567 E.01136
G1 X106.433 Y119.709 E.13347
G1 X106.433 Y119.123 E.01138
G1 X111.877 Y124.567 E.14957
G1 X112.463 Y124.567 E.01138
G1 X106.433 Y118.537 E.16567
G1 X106.433 Y117.951 E.01138
G1 X113.049 Y124.567 E.18177
G1 X113.635 Y124.567 E.01138
G1 X106.433 Y117.365 E.19787
G1 X106.433 Y116.779 E.01138
G1 X114.221 Y124.567 E.21397
G1 X114.806 Y124.567 E.01136
G1 X106.433 Y116.194 E.23004
G1 X106.433 Y115.608 E.01138
G1 X115.392 Y124.567 E.24614
G1 X115.978 Y124.567 E.01138
G1 X106.433 Y115.022 E.26224
G1 X106.433 Y114.436 E.01138
G1 X116.564 Y124.567 E.27834
G1 X117.15 Y124.567 E.01138
G1 X106.433 Y113.85 E.29444
G1 X106.433 Y113.264 E.01138
G1 X117.736 Y124.567 E.31054
G1 X118.321 Y124.567 E.01136
G1 X106.433 Y112.679 E.32661
G1 X106.433 Y112.093 E.01138
G1 X118.907 Y124.567 E.34271
G1 X119.493 Y124.567 E.01138
G1 X106.433 Y111.507 E.35881
G1 X106.433 Y110.921 E.01138
G1 X120.079 Y124.567 E.37491
G1 X120.665 Y124.567 E.01138
G1 X106.433 Y110.335 E.39101
G1 X106.433 Y109.749 E.01138
G1 X121.251 Y124.567 E.40711
G1 X121.836 Y124.567 E.01136
G1 X106.433 Y109.164 E.42318
G1 X106.433 Y108.578 E.01138
G1 X122.422 Y124.567 E.43928
G1 X123.008 Y124.567 E.01138
G1 X106.433 Y107.992 E.45538
G1 X106.433 Y107.406 E.01138
G1 X123.594 Y124.567 E.47148
G1 X124.18 Y124.567 E.01138
G1 X106.433 Y106.82 E.48758
G1 X106.325 Y106.295 E.01041
;WIDTH:0.365752
G1 X106.306 Y106.366 E.00117
G1 X106.377 Y106.347 E.00117
G1 X106.366 Y106.306 E.00068
;WIDTH:0.402876
G1 X106.499 Y106.37 E.00261
;WIDTH:0.439999
G1 X106.632 Y106.433 E.00286
G1 X124.567 Y124.368 E.49274
G1 X124.63 Y124.501 E.00286
;WIDTH:0.402876
G1 X124.694 Y124.634 E.00261
;WIDTH:0.365752
G1 X124.705 Y124.675 E.00068
G1 X124.634 Y124.694 E.00117
G1 X124.653 Y124.623 E.00117
G1 X124.567 Y123.782 F6000
;WIDTH:0.439999
G1 F2700
G1 X107.218 Y106.433 E.47664
G1 X107.804 Y106.433 E.01138
G1 X124.567 Y123.196 E.46054
G1 X124.567 Y122.61 E.01138
G1 X108.39 Y106.433 E.44444
