; generated by PrusaSlicer 2.7.4+win64 on 2024-04-23 at 17:01:04 UTC

; 

; external perimeters extrusion width = 0.42mm
; perimeters extrusion width = 0.44mm
; infill extrusion width = 0.44mm
; solid infill extrusion width = 0.44mm
; top infill extrusion width = 0.40mm
; first layer extrusion width = 0.42mm


; printing object Shape-Box id:0 copy 0
; stop printing object Shape-Box id:0 copy 0

;TYPE:Custom
; Ender 3 Custom Start G-code
G92 E0 ; Reset Extruder

M140 S55 ; set bed temp
M104 S160 ; set extruder temp
M109 S160 ; wait for extruder temp
M190 S55 ; wait for bed temp

G28 ; Home all axes
M104 S210 ; set extruder temp 
BED_MESH_CALIBRATE AREA_START=106.825,105.567 AREA_END=166.82,143.207

G1 Z2.0 F3000 ; Move Z Axis up little to prevent scratching of Heat Bed
M109 S210 ; wait for extruder temp
G1 X0.1 Y20 Z0.3 F5000.0 ; Move to start position

G1 X0.1 Y200.0 Z0.3 F1500.0 E15 ; Draw the first line
G1 X0.4 Y200.0 Z0.3 F5000.0 ; Move to side a little
G1 X0.4 Y20 Z0.3 F1500.0 E30 ; Draw the second line
G92 E0 ; Reset Extruder
G1 Z2.0 F3000 ; Move Z Axis up little to prevent scratching of Heat Bed
G1 X5 Y20 Z0.3 F5000.0 ; Move over to prevent blob squish
G21 ; set units to millimeters
G90 ; use absolute coordinates
M83 ; use relative distances for extrusion
; Filament gcode
M107
;LAYER_CHANGE
;Z:0.2
;HEIGHT:0.2
G1 E-1.6 F2400
G1 Z.2 F6000
G1 X109.931 Y109.684
G1 Z.2
G1 E1.6 F2400
M204 S500
;TYPE:Skirt/Brim
;WIDTH:0.42
G1 F1200
G1 X110.913 Y108.701 E.04357
G1 X111.782 Y107.996 E.03509
G1 X112.712 Y107.382 E.03494
G1 X114.378 Y106.564 E.05819
G1 X116.155 Y106.026 E.05821
G1 X117.777 Y105.79 E.05139
G1 X155.94 Y105.805 E1.19657
G1 X156.899 Y105.938 E.03036
G1 X158.926 Y106.494 E.0659
G1 X160.756 Y107.365 E.06355
G1 X162.196 Y108.376 E.05517
G1 X163.639 Y109.775 E.06302
G1 X164.43 Y110.79 E.04035
G1 X164.892 Y111.519 E.02706
G1 X165.737 Y113.304 E.06192
G1 X166.296 Y115.341 E.06623
G1 X166.481 Y117.341 E.06298
G1 X166.631 Y131.341 E.43899
G1 X166.559 Y132.668 E.04167
G1 X166.352 Y133.888 E.0388
G1 X165.732 Y135.864 E.06493
G1 X164.746 Y137.733 E.06626
G1 X163.523 Y139.296 E.06223
G1 X162.745 Y140.064 E.03428
G1 X161.871 Y140.771 E.03525
G1 X160.229 Y141.778 E.06039
G1 X159.136 Y142.257 E.03742
G1 X157.337 Y142.783 E.05877
G1 X155.579 Y143.003 E.05555
G1 X118.134 Y143.009 E1.17406
G1 X116.447 Y142.81 E.05326
G1 X115.351 Y142.542 E.03538
G1 X114.242 Y142.153 E.03685
G1 X112.911 Y141.506 E.0464
G1 X111.856 Y140.835 E.0392
G1 X110.908 Y140.075 E.0381
G1 X109.816 Y138.96 E.04893
G1 X109.21 Y138.19 E.03072
G1 X108.385 Y136.862 E.04902
G1 X107.828 Y135.665 E.0414
G1 X107.376 Y134.276 E.0458
G1 X107.069 Y132.506 E.05633
G1 X107.013 Y131.505 E.03143
G1 X107.043 Y116.578 E.46803
G1 X107.395 Y114.433 E.06815
G1 X108.012 Y112.673 E.05848
G1 X108.415 Y111.854 E.02862
G1 X109.298 Y110.468 E.05153
G1 X109.893 Y109.73 E.02972
G1 X109.893 Y109.73 F6000
G1 X110.186 Y109.967
G1 F1200
G1 X110.213 Y109.934 E.00134
G1 X111.165 Y108.982 E.04221
G1 X111.994 Y108.308 E.0335
G1 X112.893 Y107.714 E.03378
G1 X114.511 Y106.917 E.05655
G1 X116.049 Y106.437 E.05052
G1 X117.796 Y106.166 E.05543
G1 X154.748 Y106.133 E1.1586
G1 X156.823 Y106.308 E.06529
G1 X158.804 Y106.851 E.0644
G1 X160.565 Y107.69 E.06116
G1 X161.949 Y108.661 E.05301
G1 X163.361 Y110.029 E.06164
G1 X164.126 Y111.013 E.03908
G1 X164.621 Y111.802 E.0292
G1 X165.47 Y113.673 E.06442
G1 X165.939 Y115.473 E.05832
G1 X166.104 Y117.345 E.05892
G1 X166.254 Y131.345 E.43899
G1 X166.186 Y132.614 E.03985
G1 X165.981 Y133.824 E.03848
G1 X165.387 Y135.712 E.06206
G1 X164.425 Y137.534 E.0646
G1 X163.254 Y139.031 E.05959
G1 X162.651 Y139.642 E.02692
G1 X161.659 Y140.459 E.04029
G1 X160.037 Y141.453 E.05965
G1 X158.451 Y142.098 E.05368
G1 X157.274 Y142.411 E.03819
G1 X155.411 Y142.634 E.05883
G1 X118.161 Y142.633 E1.16795
G1 X116.506 Y142.437 E.05225
G1 X115.36 Y142.154 E.03701
G1 X114.393 Y141.807 E.03221
G1 X113.086 Y141.173 E.04555
G1 X112.075 Y140.528 E.0376
G1 X111.158 Y139.794 E.03683
G1 X110.095 Y138.706 E.04769
G1 X109.508 Y137.958 E.02981
G1 X108.713 Y136.676 E.0473
G1 X108.184 Y135.539 E.03932
G1 X107.741 Y134.182 E.04476
G1 X107.443 Y132.46 E.05479
G1 X107.39 Y131.505 E.02999
G1 X107.419 Y116.603 E.46724
G1 X107.756 Y114.541 E.06551
G1 X108.363 Y112.811 E.05748
G1 X108.761 Y112.004 E.02821
G1 X109.609 Y110.681 E.04927
G1 X110.148 Y110.014 E.02689
G1 X110.148 Y110.014 F6000
G1 X110.441 Y110.25
G1 F1200
G1 X110.494 Y110.185 E.00263
G1 X111.417 Y109.262 E.04093
G1 X112.205 Y108.62 E.03187
G1 X113.086 Y108.037 E.03312
G1 X114.644 Y107.27 E.05445
G1 X116.264 Y106.774 E.05312
G1 X117.815 Y106.543 E.04917
G1 X154.748 Y106.51 E1.15801
G1 X156.746 Y106.677 E.06286
G1 X158.684 Y107.208 E.063
G1 X160.374 Y108.015 E.05872
G1 X161.703 Y108.947 E.0509
G1 X163.07 Y110.269 E.05963
G1 X163.822 Y111.236 E.03841
G1 X164.293 Y111.988 E.02782
G1 X165.11 Y113.785 E.06189
G1 X165.568 Y115.545 E.05702
G1 X165.727 Y117.349 E.05678
G1 X165.877 Y131.349 E.43899
G1 X165.801 Y132.641 E.04058
G1 X165.577 Y133.917 E.04062
G1 X165.332 Y134.78 E.02813
G1 X164.465 Y136.75 E.06749
G1 X163.731 Y137.874 E.04209
G1 X163.074 Y138.672 E.03241
G1 X162.389 Y139.37 E.03066
G1 X161.447 Y140.147 E.03829
G1 X159.861 Y141.12 E.05834
G1 X158.327 Y141.742 E.0519
G1 X157.198 Y142.042 E.03663
G1 X155.401 Y142.257 E.05675
G1 X118.188 Y142.257 E1.16679
G1 X116.565 Y142.065 E.05124
G1 X115.466 Y141.792 E.03551
G1 X114.544 Y141.462 E.0307
G1 X113.262 Y140.839 E.04469
G1 X112.294 Y140.221 E.03601
G1 X111.363 Y139.47 E.0375
G1 X110.374 Y138.453 E.04448
G1 X109.817 Y137.741 E.02834
G1 X109.041 Y136.491 E.04613
G1 X108.539 Y135.413 E.03729
G1 X108.106 Y134.087 E.04374
G1 X107.817 Y132.415 E.0532
G1 X107.795 Y116.629 E.49496
G1 X108.117 Y114.651 E.06284
G1 X108.714 Y112.949 E.05655
G1 X109.096 Y112.178 E.02698
G1 X109.918 Y110.897 E.04772
G1 X110.404 Y110.297 E.02421
G1 E-1.12 F2400
;WIPE_START
G1 F4800
G1 X110.441 Y110.25 E-.02841
G1 X110.494 Y110.185 E-.03984
G1 X111.107 Y109.572 E-.41175
;WIPE_END
; printing object Shape-Box id:0 copy 0
G1 X132.928 Y121.354 F6000
G1 E1.6 F2400
;TYPE:Perimeter
G1 F1200
G1 X132.885 Y121.49 E.00447
G1 X132.844 Y121.55 E.00228
G1 X132.76 Y121.601 E.00308
G1 X132.65 Y121.601 E.00345
G1 X132.583 Y121.56 E.00246
G1 X132.589 Y121.455 E.0033
G1 X132.648 Y121.419 E.00217
G1 X132.838 Y121.361 E.00623
G1 X132.868 Y121.359 E.00094
G1 X132.868 Y121.359 F6000
G1 X134.405 Y120.869
G1 F1200
G1 X134.041 Y120.777 E.01177
G1 X133.672 Y120.735 E.01164
G1 X133.72 Y120.521 E.00688
G1 X133.798 Y119.841 E.02146
G1 X134.11 Y119.794 E.00989
G1 X134.418 Y119.715 E.00997
G1 X134.382 Y120.09 E.01181
G1 X134.377 Y120.39 E.00941
G1 X134.402 Y120.809 E.01316
G1 X134.402 Y120.809 F6000
G1 X133.04 Y119.448
G1 F1200
G1 X132.748 Y119.51 E.00936
G1 X132.599 Y119.516 E.00468
G1 X132.507 Y119.495 E.00296
G1 X132.395 Y119.403 E.00454
G1 X132.36 Y119.328 E.0026
G1 X132.352 Y119.204 E.0039
G1 X132.379 Y119.088 E.00373
G1 X132.428 Y119.006 E.003
G1 X132.506 Y118.934 E.00333
G1 X132.584 Y118.897 E.00271
G1 X132.752 Y118.884 E.00528
G1 X132.809 Y118.902 E.00187
G1 X132.89 Y118.983 E.00359
G1 X132.931 Y119.069 E.00299
G1 X133.023 Y119.39 E.01047
G1 E-1.12 F2400
;WIPE_START
G1 F4800
G1 X133.04 Y119.448 E-.02871
G1 X132.748 Y119.51 E-.14179
G1 X132.599 Y119.516 E-.07083
G1 X132.507 Y119.495 E-.04482
G1 X132.395 Y119.403 E-.06885
G1 X132.36 Y119.328 E-.03931
G1 X132.352 Y119.204 E-.05902
G1 X132.365 Y119.149 E-.02667
;WIPE_END
G1 X138.938 Y119.049 F6000
G1 E1.6 F2400
G1 F1200
G1 X139.988 Y119.026 E.03293
G1 X139.947 Y119.056 E.00159
G1 X139.518 Y119.436 E.01797
G1 X139.205 Y119.759 E.0141
G1 X138.872 Y120.223 E.01791
G1 X138.795 Y119.993 E.0076
G1 X138.501 Y119.585 E.01577
G1 X139.017 Y119.625 E.01623
G1 X138.946 Y119.108 E.01636
G1 E-1.12 F2400
;WIPE_START
G1 F4800
G1 X138.938 Y119.049 E-.02828
G1 X139.889 Y119.028 E-.45172
;WIPE_END
G1 X140.517 Y121.411 F6000
G1 E1.6 F2400
G1 F1200
G1 X140.541 Y121.31 E.00325
G1 X140.667 Y121.089 E.00798
G1 X140.796 Y120.934 E.00632
G1 X141.121 Y120.613 E.01432
G1 X141.037 Y121.454 E.0265
G1 X141.011 Y121.51 E.00194
G1 X140.925 Y121.579 E.00346
G1 X140.769 Y121.602 E.00494
G1 X140.684 Y121.596 E.00267
G1 X140.61 Y121.571 E.00245
G1 X140.541 Y121.511 E.00287
G1 X140.531 Y121.47 E.00132
G1 E-1.12 F2400
;WIPE_START
G1 F4800
G1 X140.517 Y121.411 E-.0288
G1 X140.541 Y121.31 E-.04931
G1 X140.667 Y121.089 E-.12084
G1 X140.796 Y120.934 E-.09579
G1 X141.074 Y120.66 E-.18526
;WIPE_END
G1 X146.629 Y127.801 F6000
G1 E1.6 F2400
G1 F1200
G1 X146.634 Y127.662 E.00436
G1 X146.681 Y127.501 E.00526
G1 X146.753 Y127.392 E.0041
G1 X146.838 Y127.323 E.00343
G1 X146.934 Y127.287 E.00321
G1 X147.051 Y127.285 E.00367
G1 X147.14 Y127.322 E.00302
G1 X147.227 Y127.44 E.0046
G1 X147.422 Y128.025 E.01933
G1 X147.267 Y128.174 E.00674
G1 X147.088 Y128.254 E.00615
G1 X146.955 Y128.257 E.00417
G1 X146.772 Y128.205 E.00596
G1 X146.665 Y128.071 E.00538
G1 X146.625 Y127.9 E.00551
G1 X146.627 Y127.861 E.00122
G1 E-1.12 F2400
;WIPE_START
G1 F4800
G1 X146.629 Y127.801 E-.02852
G1 X146.634 Y127.662 E-.06607
G1 X146.681 Y127.501 E-.07967
G1 X146.753 Y127.392 E-.06205
G1 X146.838 Y127.323 E-.052
G1 X146.934 Y127.287 E-.0487
G1 X147.051 Y127.285 E-.05558
G1 X147.14 Y127.322 E-.04578
G1 X147.192 Y127.392 E-.04163
;WIPE_END
G1 X142.415 Y125.484 F6000
G1 E1.6 F2400
G1 F1200
G1 X142.325 Y126.734 E.03929
G1 X142.217 Y127.345 E.01945
G1 X141.98 Y128.222 E.02848
G1 X141.817 Y128.674 E.01507
G1 X141.626 Y129.116 E.0151
G1 X141.395 Y129.555 E.01555
G1 X141.165 Y129.898 E.01295
G1 X141.871 Y129.844 E.0222
G1 X143.067 Y129.833 E.0375
G1 X143.068 Y131.803 E.06177
G1 X138.45 Y131.803 E.14479
G1 X138.45 Y130.386 E.04443
G1 X138.943 Y129.798 E.02406
G1 X139.379 Y129.138 E.0248
G1 X139.691 Y128.556 E.0207
G1 X139.868 Y128.164 E.01349
G1 X140.02 Y127.769 E.01327
G1 X140.226 Y127.071 E.02282
G1 X140.332 Y126.449 E.01978
G1 X140.421 Y125.484 E.03039
G1 X142.355 Y125.484 E.06064
G1 X142.355 Y125.484 F6000
G1 X140.765 Y125.861
;TYPE:External perimeter
G1 F1200
G1 X142.01 Y125.861 E.03904
G1 X141.95 Y126.688 E.026
G1 X141.848 Y127.263 E.01831
G1 X141.62 Y128.109 E.02747
G1 X141.466 Y128.535 E.0142
G1 X141.286 Y128.953 E.01427
G1 X141.07 Y129.361 E.01447
G1 X140.816 Y129.742 E.01436
G1 X140.549 Y130.058 E.01297
G1 X140.372 Y130.311 E.00968
G1 X140.894 Y130.315 E.01637
G1 X141.379 Y130.249 E.01535
G1 X141.883 Y130.221 E.01583
G1 X142.69 Y130.214 E.0253
G1 X142.691 Y131.426 E.038
G1 X138.827 Y131.426 E.12115
G1 X138.827 Y130.523 E.02831
G1 X139.246 Y130.023 E.02045
G1 X139.703 Y129.332 E.02598
G1 X140.03 Y128.722 E.0217
G1 X140.216 Y128.309 E.0142
G1 X140.377 Y127.89 E.01407
G1 X140.593 Y127.156 E.02399
G1 X140.706 Y126.498 E.02093
G1 X140.76 Y125.92 E.0182
G1 E-1.12 F2400
;WIPE_START
G1 F4800
G1 X140.765 Y125.861 E-.02813
G1 X141.716 Y125.861 E-.45187
;WIPE_END
G1 X144.828 Y129.836 F6000
G1 E1.6 F2400
;TYPE:Perimeter
G1 F1200
G1 X145.638 Y129.839 E.0254
G1 X145.251 Y129.533 E.01547
G1 X145.08 Y129.342 E.00804
G1 X144.849 Y128.988 E.01325
G1 X144.744 Y128.753 E.00807
G1 X144.628 Y128.33 E.01375
G1 X144.59 Y127.872 E.01441
G1 X144.623 Y127.433 E.0138
G1 X144.722 Y127.027 E.0131
G1 X144.809 Y126.803 E.00753
G1 X145.01 Y126.436 E.01312
G1 X145.315 Y126.061 E.01516
G1 X145.723 Y125.735 E.01637
G1 X146.202 Y125.513 E.01655
G1 X146.727 Y125.41 E.01677
G1 X146.999 Y125.397 E.00854
G1 X147.425 Y125.428 E.01339
G1 X147.838 Y125.529 E.01333
G1 X148.223 Y125.703 E.01325
G1 X148.568 Y125.952 E.01334
G1 X148.854 Y126.265 E.01329
G1 X149.09 Y126.696 E.01541
G1 X149.172 Y126.508 E.00643
G1 X149.516 Y126.062 E.01766
G1 X149.947 Y125.721 E.01723
G1 X150.443 Y125.499 E.01704
G1 X150.994 Y125.4 E.01755
G1 X151.542 Y125.422 E.0172
G1 X151.921 Y125.513 E.01222
G1 X152.269 Y125.669 E.01196
G1 X152.582 Y125.893 E.01207
G1 X152.847 Y126.182 E.01229
G1 X153.045 Y126.523 E.01236
G1 X153.069 Y126.597 E.00244
G1 X153.179 Y126.365 E.00805
G1 X153.381 Y126.104 E.01035
G1 X153.602 Y125.89 E.00965
G1 X153.853 Y125.712 E.00965
G1 X154.124 Y125.573 E.00955
G1 X154.415 Y125.473 E.00965
G1 X154.75 Y125.411 E.01068
G1 X155.271 Y125.407 E.01634
G1 X155.765 Y125.507 E.0158
G1 X156.206 Y125.705 E.01516
G1 X156.44 Y125.863 E.00885
G1 X156.789 Y126.194 E.01508
G1 X156.973 Y126.442 E.00968
G1 X157.215 Y126.939 E.01733
G1 X157.366 Y127.52 E.01882
G1 X157.436 Y128.165 E.02034
G1 X157.435 Y128.903 E.02314
G1 X157.359 Y129.615 E.02245
G1 X157.201 Y130.238 E.02015
G1 X157.077 Y130.542 E.01029
G1 X156.931 Y130.814 E.00968
G1 X156.757 Y131.059 E.00942
G1 X156.57 Y131.265 E.00872
G1 X156.182 Y131.568 E.01544
G1 X155.721 Y131.779 E.0159
G1 X155.224 Y131.879 E.0159
G1 X154.765 Y131.884 E.01439
G1 X154.381 Y131.825 E.01218
G1 X154.032 Y131.705 E.01157
G1 X153.835 Y131.604 E.00694
G1 X153.535 Y131.387 E.01161
G1 X153.269 Y131.1 E.01227
G1 X153.056 Y130.717 E.01374
G1 X153.001 Y130.838 E.00417
G1 X152.718 Y131.211 E.01468
G1 X152.369 Y131.509 E.01439
G1 X151.974 Y131.724 E.0141
G1 X151.543 Y131.851 E.01409
G1 X151.095 Y131.891 E.0141
G1 X150.754 Y131.867 E.01072
G1 X150.427 Y131.797 E.01049
G1 X150.105 Y131.675 E.0108
G1 X149.678 Y131.417 E.01564
G1 X149.307 Y131.058 E.01619
G1 X149.028 Y130.627 E.0161
G1 X148.868 Y130.231 E.01339
G1 X148.578 Y131.8 E.05003
G1 X144.828 Y131.8 E.11758
G1 X144.828 Y129.896 E.0597
G1 X145.205 Y130.214 F6000
;TYPE:External perimeter
G1 F1200
G1 X147.021 Y130.221 E.05694
G1 X147.324 Y130.237 E.00951
G1 X147.402 Y130.02 E.00723
G1 X147.49 Y129.57 E.01438
G1 X147.39 Y129.614 E.00343
G1 X147.17 Y129.668 E.0071
G1 X147.032 Y129.763 E.00525
G1 X146.476 Y129.768 E.01743
G1 X146.117 Y129.665 E.01171
G1 X145.795 Y129.495 E.01142
G1 X145.513 Y129.26 E.01151
G1 X145.38 Y129.112 E.00624
G1 X145.181 Y128.807 E.01142
G1 X145.1 Y128.626 E.00622
G1 X145.001 Y128.264 E.01177
G1 X144.968 Y127.87 E.0124
G1 X144.997 Y127.492 E.01189
G1 X145.083 Y127.14 E.01136
G1 X145.152 Y126.962 E.00599
G1 X145.325 Y126.647 E.01127
G1 X145.582 Y126.331 E.01277
G1 X145.923 Y126.058 E.0137
G1 X146.319 Y125.874 E.01369
G1 X146.772 Y125.785 E.01448
G1 X146.994 Y125.775 E.00697
G1 X147.366 Y125.802 E.01169
G1 X147.714 Y125.887 E.01123
G1 X148.033 Y126.031 E.01097
G1 X148.316 Y126.235 E.01094
G1 X148.549 Y126.49 E.01083
G1 X148.722 Y126.785 E.01072
G1 X148.838 Y127.119 E.01109
G1 X148.87 Y127.694 E.01806
G1 X148.309 Y127.8 E.0179
G1 X147.753 Y127.824 E.01745
G1 X147.566 Y127.263 E.01854
G1 X147.409 Y127.052 E.00825
G1 X147.225 Y126.942 E.00672
G1 X147.116 Y126.912 E.00354
G1 X146.847 Y126.916 E.00844
G1 X146.647 Y126.992 E.00671
G1 X146.471 Y127.136 E.00713
G1 X146.336 Y127.34 E.00767
G1 X146.259 Y127.601 E.00853
G1 X146.247 Y127.923 E.0101
G1 X146.275 Y128.101 E.00565
G1 X146.327 Y128.245 E.0048
G1 X146.458 Y128.433 E.00718
G1 X146.561 Y128.52 E.00423
G1 X146.679 Y128.581 E.00416
G1 X146.915 Y128.635 E.00759
G1 X147.199 Y128.617 E.00892
G1 X147.481 Y128.491 E.00968
G1 X147.808 Y128.177 E.01421
G1 X148.248 Y128.215 E.01385
G1 X148.775 Y128.344 E.01701
G1 X148.629 Y129.447 E.03489
G1 X148.264 Y131.423 E.063
G1 X145.205 Y131.423 E.09591
G1 X145.205 Y130.274 E.03603
G1 E-1.12 F2400
;WIPE_START
G1 F4800
G1 X145.205 Y130.214 E-.0285
G1 X146.155 Y130.217 E-.4515
;WIPE_END
G1 X152.869 Y127.597 F6000
G1 E1.6 F2400
G1 F1200
G1 X152.282 Y127.567 E.01843
G1 X151.824 Y127.61 E.01442
G1 X151.739 Y127.283 E.01059
G1 X151.582 Y127.07 E.0083
G1 X151.524 Y127.014 E.00253
G1 X151.361 Y126.932 E.00572
G1 X151.149 Y126.902 E.00671
G1 X150.955 Y126.925 E.00613
G1 X150.722 Y127.039 E.00813
G1 X150.578 Y127.158 E.00586
G1 X150.369 Y127.42 E.01051
G1 X150.23 Y127.97 E.01779
G1 X150.573 Y127.777 E.01234
G1 X150.956 Y127.644 E.01271
G1 X151.193 Y127.635 E.00744
G1 X151.681 Y127.731 E.01559
G1 X151.845 Y127.791 E.00548
G1 X152.411 Y128.115 E.02045
G1 X152.66 Y128.395 E.01175
G1 X152.768 Y128.565 E.00631
G1 X152.9 Y128.916 E.01176
G1 X152.939 Y129.119 E.00648
G1 X152.958 Y129.522 E.01265
G1 X152.836 Y130.288 E.02432
G1 X152.675 Y130.644 E.01225
G1 X152.442 Y130.95 E.01206
G1 X152.154 Y131.197 E.0119
G1 X151.829 Y131.373 E.01159
G1 X151.472 Y131.479 E.01168
