; generated by PrusaSlicer 2.7.2+win64 on 2024-03-08 at 21:36:30 UTC

; 

; external perimeters extrusion width = 0.42mm
; perimeters extrusion width = 0.44mm
; infill extrusion width = 0.44mm
; solid infill extrusion width = 0.44mm
; top infill extrusion width = 0.40mm
; first layer extrusion width = 0.42mm


; printing object Shape-Box id:0 copy 0
; stop printing object Shape-Box id:0 copy 0

;TYPE:Custom
; Ender 3 Custom Start G-code
G92 E0 ; Reset Extruder

M140 S55 ; set bed temp
M104 S160 ; set extruder temp
M109 S160 ; wait for extruder temp
M190 S55 ; wait for bed temp

G28 ; Home all axes
M104 S210 ; set extruder temp 
BED_MESH_CALIBRATE AREA_START=91.8167,94.3025 AREA_END=135.805,122.642

G1 Z2.0 F3000 ; Move Z Axis up little to prevent scratching of Heat Bed
M109 S210 ; wait for extruder temp
G1 X0.1 Y20 Z0.3 F5000.0 ; Move to start position

G1 X0.1 Y200.0 Z0.3 F1500.0 E15 ; Draw the first line
G1 X0.4 Y200.0 Z0.3 F5000.0 ; Move to side a little
G1 X0.4 Y20 Z0.3 F1500.0 E30 ; Draw the second line
G92 E0 ; Reset Extruder
G1 Z2.0 F3000 ; Move Z Axis up little to prevent scratching of Heat Bed
G1 X5 Y20 Z0.3 F5000.0 ; Move over to prevent blob squish
G21 ; set units to millimeters
G90 ; use absolute coordinates
M83 ; use relative distances for extrusion
; Filament gcode
M107
;LAYER_CHANGE
;Z:0.2
;HEIGHT:0.2
G1 E-1.6 F2400
G1 Z.2 F6000
G1 X95.044 Y96.796
G1 Z.2
G1 E1.6 F2400
M204 S500
;TYPE:Skirt/Brim
;WIDTH:0.42
G1 F1200
G1 X95.752 Y96.224 E.02683
G1 X96.483 Y95.745 E.02576
G1 X97.772 Y95.116 E.04227
G1 X99.164 Y94.698 E.04284
G1 X100.436 Y94.516 E.03787
G1 X126.358 Y94.491 E.764
G1 X127.821 Y94.599 E.04324
G1 X129.198 Y94.925 E.04171
G1 X130.468 Y95.44 E.04039
G1 X132.014 Y96.415 E.05387
G1 X133.158 Y97.478 E.04603
G1 X134.037 Y98.611 E.04226
G1 X134.714 Y99.856 E.04177
G1 X135.243 Y101.392 E.04788
G1 X135.407 Y102.219 E.02485
G1 X135.511 Y103.53 E.03876
G1 X135.616 Y113.33 E.28885
G1 X135.541 Y114.503 E.03464
G1 X135.18 Y116.145 E.04955
G1 X134.44 Y117.846 E.05467
G1 X133.846 Y118.758 E.03208
G1 X133.297 Y119.432 E.02562
G1 X132.072 Y120.571 E.0493
G1 X130.699 Y121.442 E.04792
G1 X129.749 Y121.865 E.03065
G1 X128.329 Y122.275 E.04356
G1 X127.015 Y122.44 E.03903
G1 X100.663 Y122.445 E.77667
G1 X99.403 Y122.296 E.03739
G1 X98.552 Y122.092 E.02579
G1 X97.626 Y121.768 E.02891
G1 X96.636 Y121.288 E.03243
G1 X95.801 Y120.759 E.02913
G1 X95.063 Y120.171 E.02781
G1 X93.803 Y118.795 E.05499
G1 X93.089 Y117.672 E.03922
G1 X92.63 Y116.68 E.03222
G1 X92.288 Y115.627 E.03263
G1 X92.051 Y114.269 E.04063
G1 X92.028 Y102.939 E.33393
G1 X92.146 Y102.002 E.02783
G1 X92.45 Y100.773 E.03731
G1 X93.184 Y99.1 E.05385
G1 X94.297 Y97.542 E.05643
G1 X95.001 Y96.839 E.02932
G1 X95.001 Y96.839 F6000
G1 X95.286 Y97.152
G1 F1200
G1 X95.964 Y96.536 E.027
G1 X96.664 Y96.076 E.02469
G1 X97.905 Y95.469 E.04072
G1 X99.236 Y95.068 E.04097
G1 X100.455 Y94.893 E.0363
G1 X126.358 Y94.868 E.76344
G1 X127.979 Y95.008 E.04795
G1 X129.467 Y95.416 E.04547
G1 X130.847 Y96.071 E.04502
G1 X131.94 Y96.839 E.03937
G1 X133.026 Y97.897 E.04469
G1 X133.987 Y99.253 E.04898
G1 X134.571 Y100.499 E.04056
G1 X134.992 Y102.018 E.04646
G1 X135.134 Y103.534 E.04488
G1 X135.239 Y113.334 E.28885
G1 X135.184 Y114.349 E.02996
G1 X135.037 Y115.215 E.02589
G1 X134.562 Y116.733 E.04688
G1 X133.837 Y118.109 E.04584
G1 X132.901 Y119.304 E.04474
G1 X131.661 Y120.407 E.04891
G1 X130.464 Y121.141 E.04138
G1 X129.604 Y121.517 E.02766
G1 X128.266 Y121.904 E.04105
G1 X126.986 Y122.064 E.03802
G1 X100.69 Y122.069 E.77502
G1 X99.462 Y121.924 E.03644
G1 X98.559 Y121.703 E.0274
G1 X97.777 Y121.423 E.02448
G1 X96.812 Y120.954 E.03162
G1 X96.02 Y120.452 E.02764
G1 X95.294 Y119.872 E.02739
G1 X94.024 Y118.46 E.05597
G1 X93.418 Y117.486 E.03381
G1 X92.985 Y116.554 E.03029
G1 X92.653 Y115.533 E.03164
G1 X92.425 Y114.224 E.03916
G1 X92.405 Y102.965 E.33184
G1 X92.673 Y101.343 E.04845
G1 X93.12 Y100.069 E.03979
G1 X93.435 Y99.424 E.02116
G1 X93.827 Y98.773 E.0224
G1 X94.565 Y97.808 E.03581
G1 X95.242 Y97.193 E.02696
G1 X95.242 Y97.193 F6000
G1 X95.494 Y97.469
G1 F1200
G1 X96.175 Y96.848 E.02716
G1 X96.857 Y96.4 E.02405
G1 X98.038 Y95.822 E.03875
G1 X99.274 Y95.445 E.03809
G1 X100.474 Y95.269 E.03575
G1 X126.358 Y95.245 E.76288
G1 X127.902 Y95.377 E.04567
G1 X129.344 Y95.772 E.04407
G1 X130.656 Y96.396 E.04282
G1 X131.693 Y97.124 E.03734
G1 X132.735 Y98.137 E.04283
G1 X133.659 Y99.439 E.04706
G1 X134.223 Y100.643 E.03919
G1 X134.623 Y102.097 E.04445
G1 X134.757 Y103.538 E.04265
G1 X134.862 Y113.338 E.28885
G1 X134.81 Y114.295 E.02825
G1 X134.665 Y115.152 E.02562
G1 X134.217 Y116.581 E.04414
G1 X133.486 Y117.958 E.04595
G1 X132.632 Y119.04 E.04063
G1 X131.449 Y120.095 E.04672
G1 X130.287 Y120.808 E.04018
G1 X129.48 Y121.161 E.02596
G1 X128.277 Y121.518 E.03698
G1 X126.957 Y121.688 E.03923
G1 X100.717 Y121.693 E.77337
G1 X99.521 Y121.552 E.03549
G1 X98.665 Y121.341 E.02598
G1 X96.988 Y120.621 E.05379
G1 X96.225 Y120.136 E.02665
G1 X95.499 Y119.548 E.02754
G1 X94.332 Y118.242 E.05162
G1 X93.746 Y117.3 E.0327
G1 X93.341 Y116.429 E.02831
G1 X93.018 Y115.438 E.03072
G1 X92.8 Y114.178 E.03769
G1 X92.781 Y102.99 E.32974
G1 X93.034 Y101.453 E.04591
G1 X93.471 Y100.207 E.03892
G1 X93.77 Y99.598 E.02
G1 X94.847 Y98.059 E.05536
G1 X95.45 Y97.51 E.02403
; printing object Shape-Box id:0 copy 0
G1 E-1.12 F2400
;WIPE_START
G1 F4800
G1 X95.494 Y97.469 E-.02857
G1 X96.175 Y96.848 E-.43777
G1 X96.199 Y96.832 E-.01366
;WIPE_END
G1 X127.396 Y107.659 F6000
G1 E1.6 F2400
;TYPE:Perimeter
G1 F1200
G1 X127.477 Y107.727 E.00312
G1 X127.507 Y107.815 E.00274
G1 X127.518 Y107.976 E.00476
G1 X127.49 Y108.057 E.00253
G1 X127.419 Y108.1 E.00245
G1 X127.368 Y108.096 E.00151
G1 X127.336 Y108.07 E.00122
G1 X127.301 Y107.943 E.00388
G1 X127.329 Y107.719 E.00665
G1 X127.349 Y107.69 E.00104
G1 X127.349 Y107.69 F6000
G1 X127.446 Y107.282
;TYPE:External perimeter
G1 F1200
G1 X127.64 Y107.356 E.00612
G1 X127.79 Y107.512 E.00638
G1 X127.88 Y107.741 E.00725
G1 X127.897 Y107.995 E.0075
G1 X127.842 Y108.206 E.00643
G1 X127.715 Y108.366 E.00602
G1 X127.55 Y108.458 E.00557
G1 X127.35 Y108.477 E.00592
G1 X127.174 Y108.423 E.00543
G1 X127.031 Y108.296 E.00564
G1 X126.944 Y108.102 E.00627
G1 X126.924 Y107.819 E.00836
G1 X126.982 Y107.565 E.00768
G1 X127.105 Y107.392 E.00626
G1 X127.257 Y107.298 E.00527
G1 X127.387 Y107.287 E.00385
G1 E-1.12 F2400
;WIPE_START
G1 F4800
G1 X127.446 Y107.282 E-.02813
G1 X127.64 Y107.356 E-.09863
G1 X127.79 Y107.512 E-.1028
G1 X127.88 Y107.741 E-.11687
G1 X127.897 Y107.995 E-.12092
G1 X127.89 Y108.021 E-.01265
;WIPE_END
G1 X124.483 Y108.057 F6000
G1 E1.6 F2400
;TYPE:Perimeter
G1 F1200
G1 X124.412 Y108.1 E.00245
G1 X124.361 Y108.096 E.00151
G1 X124.329 Y108.07 E.00122
G1 X124.295 Y107.943 E.00387
G1 X124.322 Y107.719 E.00665
G1 X124.357 Y107.669 E.0018
G1 X124.389 Y107.659 E.00099
G1 X124.47 Y107.726 E.0031
G1 X124.5 Y107.815 E.00277
G1 X124.511 Y107.976 E.00476
G1 X124.503 Y108.001 E.00077
G1 X124.503 Y108.001 F6000
G1 X124.252 Y108.449
;TYPE:External perimeter
G1 F1200
G1 X124.167 Y108.423 E.00262
G1 X124.025 Y108.296 E.00561
G1 X123.937 Y108.102 E.00628
G1 X123.918 Y107.819 E.00836
G1 X123.975 Y107.565 E.00767
G1 X124.098 Y107.392 E.00626
G1 X124.25 Y107.298 E.00527
G1 X124.44 Y107.282 E.00562
G1 X124.626 Y107.352 E.00586
G1 X124.78 Y107.505 E.0064
G1 X124.873 Y107.741 E.00748
G1 X124.89 Y107.995 E.0075
G1 X124.835 Y108.206 E.00643
G1 X124.708 Y108.366 E.00602
G1 X124.544 Y108.458 E.00554
G1 X124.343 Y108.477 E.00595
G1 X124.309 Y108.467 E.00104
G1 E-1.12 F2400
;WIPE_START
G1 F4800
G1 X124.252 Y108.449 E-.02839
G1 X124.167 Y108.423 E-.04222
G1 X124.025 Y108.296 E-.09049
G1 X123.937 Y108.102 E-.10119
G1 X123.918 Y107.819 E-.13473
G1 X123.956 Y107.649 E-.08298
;WIPE_END
G1 X110.711 Y107.896 F6000
G1 E1.6 F2400
;TYPE:Perimeter
G1 F1200
G1 X110.669 Y107.882 E.0013
G1 X110.634 Y107.78 E.00318
G1 X110.663 Y107.688 E.00284
G1 X110.704 Y107.664 E.0014
G1 X110.806 Y107.661 E.00301
G1 X110.852 Y107.679 E.00146
G1 X110.903 Y107.804 E.00398
G1 X110.873 Y107.888 E.00263
G1 X110.779 Y107.919 E.00292
G1 X110.768 Y107.915 E.00034
G1 X110.768 Y107.915 F6000
G1 X110.568 Y108.26
;TYPE:External perimeter
G1 F1200
G1 X110.403 Y108.152 E.00581
G1 X110.293 Y107.989 E.0058
G1 X110.255 Y107.78 E.00626
G1 X110.291 Y107.575 E.00613
G1 X110.397 Y107.418 E.00558
G1 X110.556 Y107.314 E.0056
G1 X110.647 Y107.289 E.00278
G1 X110.903 Y107.294 E.00755
G1 X111.038 Y107.347 E.00427
G1 X111.176 Y107.464 E.00533
G1 X111.266 Y107.667 E.00654
G1 X111.282 Y107.798 E.00389
G1 X111.246 Y107.997 E.00596
G1 X111.142 Y108.156 E.0056
G1 X110.983 Y108.261 E.00562
G1 X110.779 Y108.298 E.00611
G1 X110.627 Y108.271 E.00455
G1 X110.627 Y108.271 F6000
G1 X110.853 Y109.084
G1 F1200
G1 X110.929 Y109.103 E.00231
G1 X111.082 Y109.23 E.00586
G1 X111.132 Y109.357 E.00402
G1 X111.132 Y109.502 E.00427
G1 X111.083 Y109.615 E.00363
G1 X110.984 Y109.711 E.00406
G1 X110.853 Y109.761 E.00413
G1 X110.694 Y109.761 E.00469
G1 X110.565 Y109.709 E.0041
G1 X110.464 Y109.61 E.00417
G1 X110.413 Y109.487 E.00392
G1 X110.413 Y109.344 E.00421
G1 X110.461 Y109.227 E.00373
G1 X110.556 Y109.134 E.00392
G1 X110.686 Y109.085 E.00409
G1 X110.793 Y109.084 E.00315
G1 E-1.12 F2400
;WIPE_START
G1 F4800
G1 X110.853 Y109.084 E-.0285
G1 X110.929 Y109.103 E-.03721
G1 X111.082 Y109.23 E-.09445
G1 X111.132 Y109.357 E-.06483
G1 X111.132 Y109.502 E-.06887
G1 X111.083 Y109.615 E-.0585
G1 X110.984 Y109.711 E-.0655
G1 X110.862 Y109.758 E-.06214
;WIPE_END
G1 X106.222 Y109.084 F6000
G1 E1.6 F2400
G1 F1200
G1 X106.299 Y109.103 E.00234
G1 X106.452 Y109.23 E.00586
G1 X106.502 Y109.357 E.00402
G1 X106.502 Y109.502 E.00427
G1 X106.453 Y109.615 E.00363
G1 X106.354 Y109.711 E.00406
G1 X106.223 Y109.761 E.00413
G1 X106.064 Y109.761 E.00469
G1 X105.934 Y109.709 E.00413
G1 X105.834 Y109.61 E.00415
G1 X105.782 Y109.487 E.00394
G1 X105.782 Y109.344 E.00421
G1 X105.831 Y109.227 E.00374
G1 X105.926 Y109.134 E.00392
G1 X106.056 Y109.085 E.00409
G1 X106.162 Y109.084 E.00312
G1 X106.162 Y109.084 F6000
G1 X106.209 Y107.899
;TYPE:Perimeter
G1 F1200
G1 X106.149 Y107.919 E.00186
G1 X106.039 Y107.882 E.00342
G1 X106.003 Y107.78 E.00319
G1 X106.033 Y107.688 E.00285
G1 X106.074 Y107.664 E.0014
G1 X106.176 Y107.661 E.00301
G1 X106.222 Y107.679 E.00146
G1 X106.273 Y107.804 E.00398
G1 X106.251 Y107.865 E.00191
G1 X106.251 Y107.865 F6000
G1 X106.353 Y108.261
;TYPE:External perimeter
G1 F1200
G1 X106.149 Y108.298 E.00611
G1 X105.938 Y108.26 E.00632
G1 X105.773 Y108.152 E.00581
G1 X105.662 Y107.989 E.00581
G1 X105.625 Y107.78 E.00626
G1 X105.661 Y107.575 E.00613
G1 X105.766 Y107.418 E.00557
G1 X105.926 Y107.314 E.00562
G1 X106.017 Y107.289 E.00278
G1 X106.273 Y107.294 E.00755
G1 X106.408 Y107.347 E.00427
G1 X106.546 Y107.464 E.00533
G1 X106.636 Y107.667 E.00654
G1 X106.652 Y107.798 E.00389
G1 X106.616 Y107.997 E.00596
G1 X106.512 Y108.156 E.0056
G1 X106.403 Y108.228 E.00385
G1 E-1.12 F2400
;WIPE_START
G1 F4800
G1 X106.353 Y108.261 E-.02846
G1 X106.149 Y108.298 E-.09848
G1 X105.938 Y108.26 E-.10184
G1 X105.773 Y108.152 E-.09367
G1 X105.662 Y107.989 E-.09367
G1 X105.638 Y107.857 E-.06388
;WIPE_END
G1 X123.91 Y109.214 F6000
G1 E1.6 F2400
G1 F1200
G1 X124.176 Y109.281 E.00808
G1 X124.452 Y109.279 E.00813
G1 X124.609 Y109.25 E.00471
G1 X124.908 Y109.132 E.00947
G1 X124.851 Y109.353 E.00673
G1 X124.803 Y109.453 E.00327
G1 X124.678 Y109.622 E.0062
G1 X124.547 Y109.699 E.00448
G1 X124.368 Y109.743 E.00543
G1 X124.191 Y109.71 E.00531
G1 X124.085 Y109.661 E.00344
G1 X124.018 Y109.554 E.00372
G1 X123.928 Y109.271 E.00875
G1 E-1.12 F2400
;WIPE_START
G1 F4800
G1 X123.91 Y109.214 E-.02839
G1 X124.176 Y109.281 E-.1303
G1 X124.452 Y109.279 E-.1311
G1 X124.609 Y109.25 E-.07584
G1 X124.833 Y109.162 E-.11437
;WIPE_END
G1 X127.882 Y109.286 F6000
G1 E1.6 F2400
G1 F1200
G1 X127.808 Y109.455 E.00544
G1 X127.685 Y109.622 E.00611
G1 X127.554 Y109.699 E.00448
G1 X127.432 Y109.736 E.00376
G1 X127.286 Y109.733 E.0043
G1 X127.097 Y109.661 E.00596
G1 X127.052 Y109.608 E.00205
G1 X126.916 Y109.209 E.01242
G1 X127.064 Y109.265 E.00466
G1 X127.46 Y109.28 E.01168
G1 X127.753 Y109.209 E.00889
G1 X127.914 Y109.125 E.00535
G1 X127.894 Y109.227 E.00306
G1 E-1.12 F2400
;WIPE_START
G1 F4800
G1 X127.882 Y109.286 E-.0286
G1 X127.808 Y109.455 E-.08763
G1 X127.685 Y109.622 E-.09852
G1 X127.554 Y109.699 E-.07218
G1 X127.432 Y109.736 E-.06056
G1 X127.286 Y109.733 E-.06936
G1 X127.162 Y109.686 E-.06315
;WIPE_END
G1 X113.959 Y108.041 F6000
G1 E1.6 F2400
;TYPE:Perimeter
G1 F1200
G1 X113.9 Y108.062 E.00185
G1 X113.813 Y108.06 E.00256
G1 X113.748 Y108.027 E.00215
G1 X113.745 Y107.859 E.00495
G1 X113.781 Y107.771 E.0028
G1 X113.822 Y107.757 E.00128
G1 X113.909 Y107.857 E.00391
G1 X113.943 Y107.983 E.00385
G1 X113.943 Y107.983 F6000
G1 X115.53 Y107.774
G1 F1200
G1 X115.82 Y107.787 E.00856
G1 X115.607 Y107.965 E.00818
G1 X115.527 Y108.065 E.00377
G1 X115.529 Y107.834 E.00681
G1 E-1.12 F2400
;WIPE_START
G1 F4800
G1 X115.53 Y107.774 E-.0285
G1 X115.82 Y107.787 E-.13789
G1 X115.607 Y107.965 E-.13185
G1 X115.527 Y108.065 E-.06083
G1 X115.529 Y107.834 E-.10973
;WIPE_END
G1 E-.0112 F2400
G1 X120.626 Y110.651 F6000
G1 E1.6 F2400
;TYPE:External perimeter
G1 F1200
G1 X120.626 Y106.458 E.12358
G1 X121.684 Y106.458 E.03118
G1 X121.677 Y107.703 E.03669
G1 X121.648 Y108.181 E.01411
G1 X121.582 Y108.639 E.01364
G1 X121.587 Y109.137 E.01468
G1 X121.767 Y109.023 E.00628
G1 X121.867 Y108.891 E.00488
G1 X122.508 Y108.612 E.0206
G1 X122.557 Y109.625 E.02989
G1 X122.074 Y109.897 E.01634
G1 X121.812 Y110.097 E.00971
G1 X121.614 Y110.301 E.00838
G1 X121.39 Y110.651 E.01225
G1 X120.686 Y110.651 E.02075
G1 E-1.12 F2400
;WIPE_START
G1 F4800
G1 X120.626 Y110.651 E-.0285
G1 X120.626 Y109.701 E-.4515
;WIPE_END
G1 X123.053 Y109.551 F6000
G1 E1.6 F2400
G1 F1200
G1 X123.177 Y109.255 E.00946
G1 X123.863 Y109.202 E.02028
G1 X123.82 Y109.191 E.00131
G1 X123.513 Y108.994 E.01075
G1 X123.146 Y108.631 E.01521
G1 X122.99 Y108.232 E.01263
G1 X122.952 Y107.925 E.00912
G1 X122.99 Y107.537 E.01149
G1 X123.05 Y107.335 E.00621
G1 X123.221 Y106.996 E.01119
G1 X123.343 Y106.839 E.00586
G1 X123.487 Y106.701 E.00588
G1 X123.801 Y106.51 E.01083
G1 X123.99 Y106.445 E.00589
G1 X124.207 Y106.407 E.00649
G1 X124.535 Y106.404 E.00967
G1 X124.849 Y106.469 E.00945
G1 X125.137 Y106.602 E.00935
G1 X125.386 Y106.805 E.00947
G1 X125.584 Y107.075 E.00987
G1 X125.662 Y107.256 E.00581
G1 X125.766 Y107.783 E.01583
G1 X125.812 Y108.198 E.01231
G1 X125.817 Y108.936 E.02175
G1 X125.652 Y109.755 E.02462
G1 X125.564 Y109.952 E.00636
G1 X125.359 Y110.239 E.0104
G1 X125.107 Y110.444 E.00957
G1 X124.822 Y110.577 E.00927
G1 X124.654 Y110.62 E.00511
G1 X124.329 Y110.652 E.00963
G1 X123.967 Y110.61 E.01074
G1 X123.735 Y110.531 E.00722
G1 X123.531 Y110.408 E.00702
G1 X123.353 Y110.249 E.00703
G1 X123.21 Y110.048 E.00727
G1 X123.095 Y109.73 E.00997
G1 X123.067 Y109.609 E.00366
G1 E-1.12 F2400
;WIPE_START
G1 F4800
G1 X123.053 Y109.551 E-.02834
G1 X123.177 Y109.255 E-.15244
G1 X123.806 Y109.206 E-.29922
;WIPE_END
G1 X126.145 Y109.258 F6000
G1 E1.6 F2400
G1 F1200
G1 X126.89 Y109.2 E.02202
G1 X126.716 Y109.135 E.00547
G1 X126.425 Y108.904 E.01095
G1 X126.25 Y108.694 E.00806
G1 X126.105 Y108.337 E.01136
G1 X126.059 Y108.064 E.00816
G1 X126.064 Y107.739 E.00958
G1 X126.157 Y107.209 E.01586
G1 X126.251 Y107.013 E.00641
G1 X126.48 Y106.723 E.01089
G1 X126.649 Y106.596 E.00623
G1 X126.988 Y106.448 E.0109
G1 X127.214 Y106.407 E.00677
G1 X127.542 Y106.404 E.00967
G1 X127.849 Y106.466 E.00923
G1 X128.007 Y106.527 E.00499
G1 X128.272 Y106.685 E.00909
G1 X128.504 Y106.904 E.0094
G1 X128.614 Y107.053 E.00546
G1 X128.771 Y107.376 E.01058
G1 X128.871 Y107.759 E.01167
G1 X128.918 Y108.194 E.0129
G1 X128.918 Y108.699 E.01488
G1 X128.866 Y109.182 E.01432
G1 X128.758 Y109.607 E.01292
G1 X128.587 Y109.971 E.01185
G1 X128.365 Y110.25 E.01051
G1 X128.113 Y110.448 E.00945
G1 X127.823 Y110.58 E.00939
G1 X127.506 Y110.644 E.00953
G1 X127.212 Y110.647 E.00867
G1 X126.969 Y110.609 E.00725
G1 X126.742 Y110.529 E.00709
G1 X126.537 Y110.406 E.00705
