; generated by PrusaSlicer 2.7.1+win64 on 2024-01-29 at 17:40:27 UTC


;
;

;
;
; 

; external perimeters extrusion width = 0.42mm
; perimeters extrusion width = 0.44mm
; infill extrusion width = 0.44mm
; solid infill extrusion width = 0.44mm
; top infill extrusion width = 0.40mm
; first layer extrusion width = 0.42mm


; printing object Shape-Box id:0 copy 0
; stop printing object Shape-Box id:0 copy 0

;TYPE:Custom
; Ender 3 Custom Start G-code
G92 E0 ; Reset Extruder

M140 S55 ; set bed temp
M104 S160 ; set extruder temp
M109 S160 ; wait for extruder temp
M190 S55 ; wait for bed temp

G28 ; Home all axes
M104 S210 ; set extruder temp 
BED_MESH_CALIBRATE AREA_START=83.7684,88.5669 AREA_END=143.763,126.207

G1 Z2.0 F3000 ; Move Z Axis up little to prevent scratching of Heat Bed
M109 S210 ; wait for extruder temp
G1 X0.1 Y20 Z0.3 F5000.0 ; Move to start position

G1 X0.1 Y200.0 Z0.3 F1500.0 E15 ; Draw the first line
G1 X0.4 Y200.0 Z0.3 F5000.0 ; Move to side a little
G1 X0.4 Y20 Z0.3 F1500.0 E30 ; Draw the second line
G92 E0 ; Reset Extruder
G1 Z2.0 F3000 ; Move Z Axis up little to prevent scratching of Heat Bed
G1 X5 Y20 Z0.3 F5000.0 ; Move over to prevent blob squish
G21 ; set units to millimeters
G90 ; use absolute coordinates
M83 ; use relative distances for extrusion
; Filament gcode
M107
;LAYER_CHANGE
;Z:0.2
;HEIGHT:0.2
;BEFORE_LAYER_CHANGE
G92 E0
;0.2


G1 E-1.6 F2400
G1 Z.2 F6000
;AFTER_LAYER_CHANGE
;0.2
G1 X87.857 Y91.701
G1 Z.2
G1 E1.6 F2400
M204 S500
;TYPE:Skirt/Brim
;WIDTH:0.42
G1 F1200
G1 X88.725 Y90.996 E.03296
G1 X89.656 Y90.382 E.03287
G1 X91.322 Y89.564 E.0547
G1 X93.099 Y89.026 E.05472
G1 X94.721 Y88.79 E.04831
G1 X132.884 Y88.805 E1.12478
G1 X133.843 Y88.938 E.02854
G1 X135.87 Y89.494 E.06195
G1 X137.7 Y90.365 E.05973
G1 X139.14 Y91.376 E.05186
G1 X140.583 Y92.775 E.05924
G1 X141.374 Y93.79 E.03793
G1 X141.835 Y94.519 E.02542
G1 X142.681 Y96.304 E.05822
G1 X143.24 Y98.341 E.06226
G1 X143.425 Y100.341 E.0592
G1 X143.575 Y114.341 E.41265
G1 X143.503 Y115.668 E.03917
G1 X143.296 Y116.888 E.03647
G1 X142.676 Y118.864 E.06104
G1 X141.69 Y120.733 E.06228
G1 X140.467 Y122.296 E.05849
G1 X139.688 Y123.064 E.03224
G1 X138.815 Y123.771 E.03311
G1 X137.173 Y124.778 E.05677
G1 X136.08 Y125.257 E.03517
G1 X134.281 Y125.783 E.05524
G1 X132.523 Y126.003 E.05222
G1 X95.078 Y126.009 E1.10362
G1 X93.39 Y125.81 E.0501
G1 X92.295 Y125.542 E.03323
G1 X91.185 Y125.153 E.03467
G1 X89.854 Y124.506 E.04362
G1 X88.8 Y123.835 E.03683
G1 X87.851 Y123.075 E.03583
G1 X86.76 Y121.96 E.04598
G1 X86.154 Y121.19 E.02888
G1 X85.328 Y119.862 E.04609
G1 X84.772 Y118.665 E.0389
G1 X84.319 Y117.276 E.04306
G1 X84.013 Y115.506 E.05294
G1 X83.957 Y114.505 E.02955
G1 X83.987 Y99.578 E.43994
G1 X84.339 Y97.433 E.06407
G1 X84.956 Y95.673 E.05497
G1 X85.359 Y94.854 E.0269
G1 X86.242 Y93.468 E.04844
G1 X86.875 Y92.684 E.0297
G1 X87.814 Y91.744 E.03916
G1 X88.08 Y92.01 F6000
G1 F1200
G1 X88.109 Y91.982 E.00119
G1 X88.937 Y91.308 E.03147
G1 X89.836 Y90.714 E.03176
G1 X91.455 Y89.917 E.05319
G1 X92.992 Y89.437 E.04746
G1 X94.74 Y89.166 E.05213
G1 X131.692 Y89.133 E1.08909
G1 X133.767 Y89.308 E.06137
G1 X135.748 Y89.851 E.06054
G1 X137.509 Y90.69 E.05749
G1 X138.893 Y91.661 E.04983
G1 X140.304 Y93.029 E.05792
G1 X141.07 Y94.013 E.03675
G1 X141.565 Y94.802 E.02745
G1 X142.414 Y96.673 E.06056
G1 X142.882 Y98.473 E.05482
G1 X143.048 Y100.345 E.05539
G1 X143.198 Y114.345 E.41265
G1 X143.13 Y115.614 E.03745
G1 X142.924 Y116.824 E.03618
G1 X142.331 Y118.712 E.05833
G1 X141.369 Y120.534 E.06073
G1 X140.198 Y122.031 E.05602
G1 X139.594 Y122.642 E.02532
G1 X138.603 Y123.459 E.03785
G1 X136.981 Y124.453 E.05607
G1 X135.395 Y125.098 E.05046
G1 X134.218 Y125.411 E.0359
G1 X132.355 Y125.634 E.0553
G1 X95.105 Y125.633 E1.09787
G1 X93.449 Y125.437 E.04915
G1 X92.304 Y125.154 E.03476
G1 X91.337 Y124.807 E.03028
G1 X90.03 Y124.173 E.04281
G1 X89.019 Y123.528 E.03534
G1 X88.102 Y122.794 E.03462
G1 X87.039 Y121.706 E.04483
G1 X86.452 Y120.958 E.02802
G1 X85.657 Y119.676 E.04446
G1 X85.128 Y118.539 E.03696
G1 X84.684 Y117.182 E.04208
G1 X84.387 Y115.46 E.0515
G1 X84.334 Y114.505 E.02819
G1 X84.363 Y99.603 E.43921
G1 X84.7 Y97.541 E.06158
G1 X85.307 Y95.811 E.05404
G1 X85.705 Y95.004 E.02652
G1 X86.553 Y93.681 E.04632
G1 X87.156 Y92.934 E.02829
G1 X88.038 Y92.052 E.03676
G1 X88.304 Y92.318 F6000
G1 F1200
G1 X88.361 Y92.262 E.00236
G1 X89.149 Y91.62 E.02996
G1 X90.029 Y91.037 E.03111
G1 X91.588 Y90.27 E.05121
G1 X93.208 Y89.774 E.04993
G1 X94.758 Y89.543 E.04619
G1 X131.692 Y89.51 E1.08856
G1 X133.69 Y89.677 E.05909
G1 X135.628 Y90.208 E.05922
G1 X137.318 Y91.015 E.0552
G1 X138.647 Y91.947 E.04784
G1 X140.013 Y93.269 E.05603
G1 X140.766 Y94.236 E.03612
G1 X141.237 Y94.988 E.02615
G1 X142.054 Y96.785 E.05818
G1 X142.512 Y98.545 E.0536
G1 X142.671 Y100.349 E.05338
G1 X142.821 Y114.349 E.41265
G1 X142.744 Y115.641 E.03815
G1 X142.521 Y116.917 E.03818
G1 X142.276 Y117.78 E.02644
G1 X141.409 Y119.75 E.06344
G1 X140.675 Y120.874 E.03957
G1 X140.018 Y121.672 E.03047
G1 X139.333 Y122.37 E.02882
G1 X138.39 Y123.147 E.03601
G1 X136.804 Y124.12 E.05484
G1 X135.27 Y124.742 E.04879
G1 X134.141 Y125.042 E.03443
G1 X132.345 Y125.257 E.05331
G1 X95.131 Y125.257 E1.09681
G1 X93.508 Y125.065 E.04817
G1 X92.409 Y124.792 E.03338
G1 X91.488 Y124.462 E.02883
G1 X90.206 Y123.839 E.04201
G1 X89.238 Y123.221 E.03385
G1 X88.306 Y122.47 E.03528
G1 X87.318 Y121.453 E.04179
G1 X86.76 Y120.741 E.02666
G1 X85.985 Y119.491 E.04335
G1 X85.483 Y118.413 E.03505
G1 X85.05 Y117.087 E.04111
G1 X84.761 Y115.415 E.05001
G1 X84.739 Y99.629 E.46526
G1 X85.061 Y97.651 E.05907
G1 X85.658 Y95.948 E.05319
G1 X86.04 Y95.178 E.02533
G1 X86.862 Y93.897 E.04486
G1 X87.438 Y93.185 E.02699
G1 X88.262 Y92.361 E.03435
; printing object Shape-Box id:0 copy 0
G1 E-1.12 F2400
;WIPE_START
G1 F4800
G1 X88.304 Y92.318 E-.02855
G1 X88.361 Y92.262 E-.03796
G1 X89.036 Y91.712 E-.41349
;WIPE_END
G1 X128.492 Y108.662 F6000
G1 E1.6 F2400
;TYPE:Perimeter
G1 F1200
G1 X128.527 Y108.627 E.00146
G1 X128.613 Y108.594 E.00271
G1 X128.83 Y108.599 E.0064
G1 X128.92 Y108.644 E.00297
G1 X128.999 Y108.762 E.00419
G1 X129.003 Y108.934 E.00507
G1 X128.976 Y108.99 E.00183
G1 X128.895 Y109.068 E.00331
G1 X128.794 Y109.106 E.00318
G1 X128.64 Y109.106 E.00454
G1 X128.544 Y109.069 E.00303
G1 X128.458 Y108.984 E.00356
G1 X128.423 Y108.899 E.00271
G1 X128.422 Y108.776 E.00363
G1 X128.452 Y108.705 E.00227
G1 X128.224 Y108.387 F6000
;TYPE:External perimeter
G1 F1200
G1 X128.322 Y108.308 E.00371
G1 X128.432 Y108.252 E.00364
G1 X128.555 Y108.219 E.00375
G1 X128.785 Y108.209 E.00679
G1 X128.929 Y108.233 E.0043
G1 X129.05 Y108.279 E.00382
G1 X129.156 Y108.348 E.00373
G1 X129.248 Y108.438 E.00379
G1 X129.317 Y108.541 E.00365
G1 X129.363 Y108.659 E.00373
G1 X129.387 Y108.79 E.00393
G1 X129.377 Y108.999 E.00617
G1 X129.344 Y109.105 E.00327
G1 X129.203 Y109.305 E.00721
G1 X129.1 Y109.387 E.00388
G1 X128.988 Y109.444 E.0037
G1 X128.86 Y109.479 E.00391
G1 X128.715 Y109.491 E.00429
G1 X128.571 Y109.479 E.00426
G1 X128.446 Y109.443 E.00383
G1 X128.335 Y109.384 E.0037
G1 X128.231 Y109.3 E.00394
G1 X128.146 Y109.198 E.00391
G1 X128.086 Y109.09 E.00364
G1 X128.051 Y108.97 E.00368
G1 X128.038 Y108.834 E.00403
G1 X128.085 Y108.589 E.00735
G1 X128.19 Y108.437 E.00544
G1 E-1.12 F2400
;WIPE_START
G1 F4800
G1 X128.224 Y108.387 E-.02872
G1 X128.322 Y108.308 E-.05979
G1 X128.432 Y108.252 E-.05863
G1 X128.555 Y108.219 E-.06049
G1 X128.785 Y108.209 E-.10935
G1 X128.929 Y108.233 E-.06934
G1 X129.05 Y108.279 E-.06149
G1 X129.107 Y108.316 E-.03219
;WIPE_END
G1 X129.128 Y106.022 F6000
G1 E1.6 F2400
;TYPE:Perimeter
G1 F1200
G1 X129.208 Y106.216 E.00618
G1 X129.227 Y106.368 E.00451
G1 X129.217 Y106.477 E.00323
G1 X129.15 Y106.648 E.00541
G1 X129.017 Y106.782 E.00556
G1 X128.845 Y106.85 E.00545
G1 X128.6 Y106.85 E.00722
G1 X128.417 Y106.779 E.00579
G1 X128.272 Y106.635 E.00602
G1 X128.201 Y106.459 E.00559
G1 X128.201 Y106.215 E.00719
G1 X128.268 Y106.045 E.00539
G1 X128.402 Y105.913 E.00554
G1 X128.578 Y105.845 E.00556
G1 X128.776 Y105.838 E.00584
G1 X128.989 Y105.907 E.0066
G1 X129.081 Y105.984 E.00354
G1 X129.435 Y105.802 F6000
;TYPE:External perimeter
G1 F1200
G1 X129.493 Y105.897 E.00328
G1 X129.578 Y106.127 E.00723
G1 X129.606 Y106.362 E.00698
G1 X129.59 Y106.545 E.00541
G1 X129.543 Y106.709 E.00503
G1 X129.467 Y106.856 E.00488
G1 X129.359 Y106.989 E.00505
G1 X129.226 Y107.098 E.00507
G1 X129.079 Y107.176 E.0049
G1 X128.913 Y107.223 E.00508
G1 X128.725 Y107.239 E.00556
G1 X128.532 Y107.222 E.00571
G1 X128.361 Y107.174 E.00523
G1 X128.21 Y107.096 E.00501
G1 X128.072 Y106.984 E.00524
G1 X127.958 Y106.848 E.00523
G1 X127.878 Y106.698 E.00501
G1 X127.829 Y106.529 E.00519
G1 X127.812 Y106.336 E.00571
G1 X127.828 Y106.147 E.00559
G1 X127.875 Y105.981 E.00508
G1 X127.952 Y105.835 E.00486
G1 X128.061 Y105.703 E.00505
G1 X128.195 Y105.595 E.00507
G1 X128.343 Y105.519 E.0049
G1 X128.512 Y105.472 E.00517
G1 X128.82 Y105.463 E.00908
G1 X128.944 Y105.485 E.00371
G1 X129.175 Y105.575 E.00731
G1 X129.367 Y105.721 E.00711
G1 X129.397 Y105.756 E.00136
G1 X129.1 Y106.436 F6000
;TYPE:Solid infill
;WIDTH:0.459456
G1 F1200
G1 X128.822 Y106.158 E.0128
G1 X128.735 Y106.13 E.00298
G1 X128.637 Y106.133 E.00319
G1 X128.562 Y106.162 E.00262
G1 X128.515 Y106.209 E.00216
G1 X128.491 Y106.27 E.00213
G1 X128.5 Y106.425 E.00505
G1 X128.804 Y106.729 E.014
G1 E-1.12 F2400
;WIPE_START
G1 F4800
G1 X128.5 Y106.425 E-.20421
G1 X128.491 Y106.27 E-.07375
G1 X128.515 Y106.209 E-.03114
G1 X128.562 Y106.162 E-.03157
G1 X128.637 Y106.133 E-.0382
G1 X128.735 Y106.13 E-.04657
G1 X128.822 Y106.158 E-.04341
G1 X128.839 Y106.175 E-.01115
;WIPE_END
G1 X113.571 Y106.869 F6000
G1 E1.6 F2400
;TYPE:Perimeter
;WIDTH:0.42
G1 F1200
G1 X113.444 Y107.029 E.00602
G1 X113.287 Y107.118 E.00532
G1 X113.085 Y107.136 E.00598
G1 X112.994 Y107.118 E.00273
G1 X112.852 Y107.037 E.00482
G1 X112.736 Y106.88 E.00575
G1 X112.674 Y106.608 E.00822
G1 X112.674 Y106.414 E.00572
G1 X112.699 Y106.244 E.00506
G1 X112.74 Y106.116 E.00396
G1 X112.867 Y105.938 E.00644
G1 X113.002 Y105.853 E.0047
G1 X113.181 Y105.841 E.00529
G1 X113.346 Y105.908 E.00525
G1 X113.501 Y106.059 E.00638
G1 X113.615 Y106.355 E.00935
G1 X113.631 Y106.636 E.0083
G1 X113.586 Y106.81 E.0053
G1 X113.911 Y107.037 F6000
;TYPE:External perimeter
G1 F1200
G1 X113.816 Y107.187 E.00523
G1 X113.69 Y107.317 E.00534
G1 X113.55 Y107.416 E.00505
G1 X113.398 Y107.48 E.00486
G1 X113.23 Y107.513 E.00505
G1 X113.048 Y107.513 E.00536
G1 X112.882 Y107.48 E.00499
G1 X112.734 Y107.417 E.00474
G1 X112.6 Y107.32 E.00488
G1 X112.482 Y107.191 E.00515
G1 X112.391 Y107.037 E.00527
G1 X112.329 Y106.854 E.00569
G1 X112.297 Y106.636 E.00649
G1 X112.297 Y106.387 E.00734
G1 X112.33 Y106.157 E.00685
G1 X112.394 Y105.963 E.00602
G1 X112.487 Y105.798 E.00558
G1 X112.608 Y105.661 E.00539
G1 X112.741 Y105.559 E.00494
G1 X112.881 Y105.494 E.00455
G1 X113.03 Y105.461 E.0045
G1 X113.224 Y105.464 E.00572
G1 X113.331 Y105.487 E.00323
G1 X113.552 Y105.587 E.00715
G1 X113.746 Y105.756 E.00758
G1 X113.82 Y105.856 E.00367
G1 X113.885 Y105.976 E.00402
G1 X113.983 Y106.265 E.00899
G1 X114.004 Y106.399 E.004
G1 X114.008 Y106.664 E.00781
G1 X113.975 Y106.864 E.00597
G1 X113.932 Y106.981 E.00367
G1 X113.504 Y106.526 F6000
;TYPE:Solid infill
;WIDTH:0.495415
G1 F1200
G1 X113.114 Y106.136 E.01951
G1 X113.07 Y106.153 E.00167
G1 X113.003 Y106.248 E.00411
G1 X112.964 Y106.435 E.00676
G1 X112.979 Y106.642 E.00734
G1 X113.306 Y106.968 E.01633
G1 E-1.12 F2400
;WIPE_START
G1 F4800
G1 X112.979 Y106.642 E-.21933
G1 X112.964 Y106.435 E-.09858
G1 X113.003 Y106.248 E-.09074
G1 X113.07 Y106.153 E-.05522
G1 X113.102 Y106.141 E-.01613
;WIPE_END
G1 X109.07 Y106.782 F6000
G1 E1.6 F2400
;TYPE:Perimeter
;WIDTH:0.42
G1 F1200
G1 X108.899 Y106.85 E.00542
G1 X108.654 Y106.85 E.00722
G1 X108.471 Y106.779 E.00579
G1 X108.325 Y106.635 E.00604
G1 X108.255 Y106.459 E.00558
G1 X108.254 Y106.215 E.00719
G1 X108.321 Y106.045 E.00539
G1 X108.455 Y105.913 E.00554
G1 X108.632 Y105.845 E.00559
G1 X108.829 Y105.838 E.00581
G1 X109.043 Y105.907 E.00663
G1 X109.183 Y106.025 E.0054
G1 X109.262 Y106.216 E.00609
G1 X109.28 Y106.368 E.00451
G1 X109.271 Y106.477 E.00322
G1 X109.204 Y106.648 E.00541
G1 X109.113 Y106.74 E.00381
G1 X108.263 Y107.096 F6000
;TYPE:External perimeter
G1 F1200
G1 X108.126 Y106.984 E.00522
G1 X108.011 Y106.848 E.00525
G1 X107.931 Y106.698 E.00501
G1 X107.882 Y106.529 E.00519
G1 X107.866 Y106.336 E.00571
G1 X107.882 Y106.147 E.00559
G1 X107.929 Y105.981 E.00508
G1 X108.006 Y105.835 E.00486
G1 X108.115 Y105.703 E.00505
G1 X108.248 Y105.595 E.00505
G1 X108.397 Y105.519 E.00493
G1 X108.565 Y105.472 E.00514
G1 X108.874 Y105.463 E.00911
G1 X108.998 Y105.485 E.00371
G1 X109.229 Y105.575 E.00731
G1 X109.415 Y105.715 E.00686
G1 X109.489 Y105.803 E.00339
G1 X109.547 Y105.897 E.00326
G1 X109.631 Y106.127 E.00722
G1 X109.659 Y106.362 E.00698
G1 X109.644 Y106.545 E.00541
G1 X109.597 Y106.709 E.00503
G1 X109.521 Y106.856 E.00488
G1 X109.413 Y106.989 E.00505
G1 X109.28 Y107.098 E.00507
G1 X109.132 Y107.176 E.00493
G1 X108.967 Y107.223 E.00506
G1 X108.779 Y107.239 E.00556
G1 X108.586 Y107.222 E.00571
G1 X108.415 Y107.174 E.00523
G1 X108.317 Y107.123 E.00326
G1 X109.153 Y106.436 F6000
;TYPE:Solid infill
;WIDTH:0.459186
G1 F1200
G1 X108.875 Y106.158 E.01279
G1 X108.788 Y106.13 E.00297
G1 X108.691 Y106.133 E.00316
G1 X108.616 Y106.162 E.00262
G1 X108.569 Y106.209 E.00216
G1 X108.545 Y106.27 E.00213
G1 X108.554 Y106.426 E.00508
G1 X108.858 Y106.729 E.01396
G1 X108.546 Y108.662 F6000
;TYPE:Perimeter
;WIDTH:0.42
G1 F1200
G1 X108.581 Y108.627 E.00146
G1 X108.667 Y108.594 E.00271
G1 X108.884 Y108.599 E.0064
G1 X108.973 Y108.644 E.00294
G1 X109.052 Y108.762 E.00419
G1 X109.056 Y108.934 E.00507
G1 X109.03 Y108.99 E.00182
G1 X108.949 Y109.068 E.00331
G1 X108.848 Y109.106 E.00318
G1 X108.694 Y109.106 E.00454
G1 X108.598 Y109.069 E.00303
G1 X108.512 Y108.984 E.00356
G1 X108.477 Y108.899 E.00271
G1 X108.476 Y108.776 E.00363
G1 X108.505 Y108.705 E.00226
G1 X108.277 Y108.387 F6000
;TYPE:External perimeter
G1 F1200
G1 X108.376 Y108.308 E.00373
G1 X108.486 Y108.252 E.00364
G1 X108.609 Y108.219 E.00375
G1 X108.838 Y108.209 E.00676
G1 X108.983 Y108.233 E.00433
G1 X109.104 Y108.279 E.00382
G1 X109.21 Y108.348 E.00373
G1 X109.302 Y108.438 E.00379
G1 X109.371 Y108.541 E.00365
G1 X109.417 Y108.659 E.00373
G1 X109.44 Y108.79 E.00392
G1 X109.431 Y108.999 E.00617
G1 X109.398 Y109.105 E.00327
G1 X109.256 Y109.305 E.00723
G1 X109.154 Y109.387 E.00386
G1 X109.042 Y109.444 E.0037
G1 X108.914 Y109.479 E.00391
G1 X108.769 Y109.491 E.00429
G1 X108.625 Y109.479 E.00426
G1 X108.5 Y109.443 E.00383
G1 X108.388 Y109.384 E.00373
G1 X108.285 Y109.3 E.00392
G1 X108.199 Y109.198 E.00393
G1 X108.14 Y109.09 E.00363
G1 X108.104 Y108.97 E.00369
G1 X108.092 Y108.834 E.00402
G1 X108.138 Y108.589 E.00735
G1 X108.243 Y108.437 E.00544
G1 E-1.12 F2400
;WIPE_START
G1 F4800
G1 X108.277 Y108.387 E-.02872
G1 X108.376 Y108.308 E-.06016
G1 X108.486 Y108.252 E-.05863
G1 X108.609 Y108.219 E-.06049
G1 X108.838 Y108.209 E-.10888
G1 X108.983 Y108.233 E-.06981
G1 X109.104 Y108.279 E-.06149
G1 X109.16 Y108.315 E-.03182
;WIPE_END
G1 X97.665 Y109.007 F6000
G1 E1.6 F2400
;TYPE:Perimeter
G1 F1200
G1 X97.568 Y108.983 E.00295
G1 X97.451 Y108.86 E.005
G1 X97.392 Y108.741 E.00391
G1 X97.321 Y108.458 E.0086
G1 X97.259 Y107.77 E.02036
G1 X97.259 Y107.182 E.01733
G1 X97.324 Y106.476 E.0209
G1 X97.392 Y106.207 E.00818
G1 X97.459 Y106.072 E.00444
G1 X97.575 Y105.957 E.00481
G1 X97.7 Y105.943 E.00371
G1 X97.737 Y105.958 E.00118
G1 X97.852 Y106.069 E.00471
G1 X97.917 Y106.201 E.00434
G1 X97.986 Y106.479 E.00844
G1 X98.035 Y106.903 E.01258
G1 X98.049 Y107.778 E.02579
G1 X98.035 Y108.028 E.00738
G1 X97.945 Y108.626 E.01782
G1 X97.86 Y108.859 E.00731
G1 X97.8 Y108.949 E.00319
G1 X97.72 Y108.983 E.00256
G1 X97.663 Y109.387 F6000
;TYPE:External perimeter
G1 F1200
G1 X97.515 Y109.369 E.00439
G1 X97.333 Y109.283 E.00593
G1 X97.139 Y109.079 E.0083
G1 X97.036 Y108.873 E.00679
G1 X96.95 Y108.531 E.01039
G1 X96.919 Y108.318 E.00634
